/* XPM */
static char *_[] = {
/* columns rows colors chars-per-pixel */
"65 65 181 2 ",
"   c black",
".  c black",
"X  c gray65",
"o  c #989898",
"O  c gray66",
"+  c gray47",
"@  c gray44",
"#  c #606060",
"$  c #505050",
"%  c gray30",
"&  c #A9A9A9",
"*  c #515151",
"=  c gray65",
"-  c #282828",
";  c #5555AA",
":  c gray66",
">  c #64747E",
",  c #5E717B",
"<  c #484848",
"1  c #808080",
"2  c gray66",
"3  c #2C2C2C",
"4  c #9A9A9A",
"5  c #986038",
"6  c #272727",
"7  c #555555",
"8  c #5E7979",
"9  c #62747C",
"0  c #61727C",
"q  c #6A6A80",
"w  c #E88957",
"e  c #EF9058",
"r  c #EF9058",
"t  c gray69",
"y  c #E98857",
"u  c #EF9058",
"i  c #674820",
"p  c #62757C",
"a  c gray69",
"s  c #E88858",
"d  c #558080",
"f  c #E78859",
"g  c #68717B",
"h  c #F8A070",
"j  c #905831",
"k  c #F9B080",
"l  c #935B33",
"z  c #F3955D",
"x  c #CA7948",
"c  c #60757C",
"v  c #5A7878",
"b  c #905830",
"n  c #808080",
"m  c #E78757",
"M  c #915831",
"N  c #647A7A",
"B  c #667380",
"V  c blue",
"C  c #E88858",
"Z  c #684820",
"A  c #895830",
"S  c #62737D",
"D  c #71391C",
"F  c #63747D",
"G  c black",
"H  c #583F21",
"J  c #6C4A22",
"K  c gray22",
"L  c black",
"P  c #382810",
"I  c #6A4822",
"U  c #637180",
"Y  c black",
"T  c #A05F38",
"R  c #C87948",
"E  c #A06038",
"W  c #55AAAA",
"Q  c #A96940",
"!  c #4F3817",
"~  c white",
"^  c #E98958",
"/  c #503818",
"(  c #A46D49",
")  c #58411F",
"_  c #AA6842",
"`  c #503819",
"'  c #4F3818",
"]  c #667777",
"[  c #63757D",
"{  c #608080",
"}  c #63747C",
"|  c #556A80",
" . c #62747C",
".. c #667780",
"X. c #63747D",
"o. c #63747D",
"O. c #593F21",
"+. c cyan",
"@. c #B77848",
"#. c #58401F",
"$. c #B87747",
"%. c #584120",
"&. c #B97848",
"*. c #55471C",
"=. c #B97848",
"-. c #594020",
";. c #64747E",
":. c #594120",
">. c #000089",
",. c #687480",
"<. c #697878",
"1. c #584020",
"2. c #000088",
"3. c black",
"4. c black",
"5. c #373737",
"6. c #63747D",
"7. c gray21",
"8. c #62747C",
"9. c gray21",
"0. c gray22",
"q. c black",
"w. c #61727B",
"e. c gray22",
"r. c gray22",
"t. c black",
"y. c gray40",
"u. c #668080",
"i. c #607580",
"p. c #62747D",
"a. c None",
"s. c #63747D",
"d. c #63737C",
"f. c #687880",
"g. c #6D6D92",
"h. c #408080",
"j. c #989898",
"k. c gray44",
"l. c #606060",
"z. c #484848",
"x. c gray22",
"c. c gray47",
"v. c #505050",
"b. c gray66",
"n. c #D0D0D0",
"m. c #888888",
"M. c black",
"N. c #503818",
"B. c #B07040",
"V. c #805028",
"C. c #885830",
"Z. c #282828",
"A. c #C87848",
"S. c #986038",
"D. c #F09058",
"F. c #D08050",
"G. c #63747D",
"H. c #E88858",
"J. c #F8C0A0",
"K. c #F8B890",
"L. c #F8A070",
"P. c #A86840",
"I. c #684820",
"U. c #584020",
"Y. c #403018",
"T. c #905830",
"R. c #F8B080",
"E. c #704828",
"W. c #F89860",
"Q. c #B87848",
"!. c #D88850",
"~. c #382810",
"^. c #A06038",
"/. c #483818",
"(. c #000048",
"). c #000060",
"_. c #0000A0",
"`. c #000040",
"'. c #000078",
"]. c #000088",
"[. c white",
/* pixels */
"                                                                                                                                  ",
"                                                                                                                                  ",
"                                                                                                                                  ",
"                                                                                                                                  ",
"                                                                                                                                  ",
"                                                                                                                                  ",
"                                                                                                                                  ",
"                                                                                                                                  ",
"                                                                                                                                  ",
"                                                                                                                                  ",
"                                                                                                                                  ",
"                                                                                                                                  ",
"                                                                                                                                  ",
"                                                                                                                                  ",
"                                                                                                                                  ",
"                                                                                                                                  ",
"                                                                                                                                  ",
"                                                                                                                                  ",
"                                                                                                                                  ",
"                                                              . X o O + @ # $ %                                                   ",
"                                                            . & j.j.k.l.z.z.z.x.*                                                 ",
"                                                            = j.c.k.l.v.z.z.z.z.- ;                                               ",
"                                                          . : b.n.b.b.m.m.c.b.m.l.>                                               ",
"                                                          , b.l.x.x.x.x.M.x.x.z.x.< 1                                             ",
"                                                          2 l.x.N.N.N.M.x.B.V.C.Z.Z.3                                             ",
"                                                          4 z.z.V.A.A.M.S.D.D.F.5 6 1                                             ",
"                                                        7 8 9 G.H.H.M.V.S.D.A.J.0                                                 ",
"                                                q w e r D.H.x.H.K.L.L.P.P.P.P.P.t 1                                               ",
"                                          . y u H.B.H.H.H.H.H.x.x.Z.Z.C.P.I.I.i p a                                               ",
"                                        1 s B.B.H.F.C.P.P.P.U.Y.x.T.H.P.P.C.G.d                                                   ",
"                                        f R.L.L.P.P.E.E.E.E.P.H.Y.M.T.M.M.M.T.g                                                   ",
"                                        h R.B.P.E.E.E.U.U.E.P.H.A.Y.M.M.V.M.S.j                                                   ",
"                                        k W.W.E.I.I.U.E.E.C.P.Q.A.A.M.M.V.V.V.T.l                                                 ",
"                                        z x c v 0 !.Q.B.C.P.B.B.A.T.Y.M.U.U.I.V.b n                                               ",
"                                                  m !.B.P.B.B.B.B.T.Y.M.M.U.U.U.V.M                                               ",
"                                                  N H.!.!.H.B.B.B.T.Y.M.M.U.U.U.I.I.B                                             ",
"                                                  V C H.!.B.B.C.B.T.Y.M.M.U.I.U.U.I.Z                                             ",
"                                                    A A.A.A.A.A.C.U.U.M.M.S U.U.T.A.~.D                                           ",
"                                                    F x.x.x.x.x.M.M.c.v.G   H ~.B.^.A.J                                           ",
"                                                    K I.T.T.T.T.T.~.z.x.L   . P ^.W.A.I                                           ",
"                                                  U T.H.H.H.H.H.Q.^.~.~.Y     . T R E W                                           ",
"                                                  Q H.W.W.W.D.H.Q.^.E.~.!                                                         ",
"                                                ~ ^ H.H.H.H.H.H.Q.^.E.~./                                                         ",
"                                                ( H.B.P.C.C.C.C.C.V.E.~.)                                                         ",
"                                                _ B.Q.Q.Q.Q.Q.Q.S.U.~.~.`                                                         ",
"                                                , Q.W.W.W.H.F.F.Q.E.N.~.'                                                         ",
"                                                ] H.W.W.D.H.H.F.Q.E./.~.[                                                         ",
"                                                { H.W.W.D.H.H.F.B.E./.I.}                                                         ",
"                                                | Q.W.D.D.H.H.Q.^./.U.I. .                                                        ",
"                                                ..Q.D.D.D.D.H.B.^./.I.U.X.                                                        ",
"                                                o.Q.Q.H.Q.A.F.^.C./.V.U.O.                                                        ",
"                                              +.@.W.W.D.H.B.^.C.C.U.V.U.#.                                                        ",
"                                              $.W.W.H.H.H.B.^.C./.C.V.U.%.                                                        ",
"                                              &.P.P.P.P.B.^.C.C.U.U.I.U.*.                                                        ",
"                                              =.(.(.(.U.E.^.C.U.C.I.U.-..                                                         ",
"                                              ;.)._.`.`.M.U.U.U.U.U.U.:.                                                          ",
"                                              >._._.`.`.M.U.M.M.M.U.U.,.                                                          ",
"                                            <._._.'.`.M.M.M.M.M.M.M.1.                                                            ",
"                                            2._._.).`.M.M.M.M.M.M.M.3.                                                            ",
"                                          { _._.].].).).).M.M.M.M.4..                                                             ",
"                                          5.x.x.x.).).M.M.).M.M.M.6.                                                              ",
"                                          7.x.x.x.x.x.x.M.M.M.M.M.8.                                                              ",
"                                            9.0.x.x.x.x.x.M.M.M.M.M.q.                                                            ",
"                                              . w.e.r.x.x.M.M.M.M.M.M.t..                                                         ",
"          . . . . V +.~ ~ 1 1 1 1 7 W n y.d { u.] i.p.a.G.M.M.M.M.M.M.M.s.d.f.] g.h.1 +..                                         "
};
