/* XPM */
static char *_[] = {
/* columns rows colors chars-per-pixel */
"65 65 178 2 ",
"   c black",
".  c black",
"X  c gray46",
"o  c #797979",
"O  c #777777",
"+  c gray31",
"@  c #505050",
"#  c #63747D",
"$  c gray47",
"%  c #777777",
"&  c #626262",
"*  c cyan",
"=  c #989898",
"-  c #606060",
";  c #F9AA5B",
":  c #F8A859",
">  c #F8A858",
",  c #F8A858",
"<  c #F79840",
"1  c #C85F00",
"2  c gray59",
"3  c #202020",
"4  c #55AAAA",
"5  c #F8A859",
"6  c #C86000",
"7  c gray60",
"8  c #202020",
"9  c #202020",
"0  c #667777",
"q  c #B07040",
"w  c #64747C",
"e  c #808080",
"r  c #9A9A9A",
"t  c #1E1E1E",
"y  c #AF7142",
"u  c #202020",
"i  c #B87847",
"p  c #B77748",
"a  c #777777",
"s  c #64747D",
"d  c #608080",
"f  c #202020",
"g  c #B87948",
"h  c #657280",
"j  c gray13",
"k  c #6D8080",
"l  c gray12",
"z  c #D08150",
"x  c #557171",
"c  c #202020",
"v  c #202020",
"b  c #B87847",
"n  c #B1B1B1",
"m  c black",
"M  c #222222",
"N  c #697887",
"B  c #AA663C",
"V  c #767676",
"C  c #202020",
"Z  c #202020",
"A  c #202020",
"S  c gray11",
"D  c #AC6C40",
"F  c #63757D",
"G  c #67757C",
"H  c #805028",
"J  c #A86940",
"K  c #65757A",
"L  c #667780",
"P  c #687480",
"I  c #8B5D2E",
"U  c #BB774A",
"Y  c #64737C",
"T  c #90582F",
"R  c #BA7545",
"E  c #473818",
"W  c #805028",
"Q  c #674720",
"!  c #B97246",
"~  c #493817",
"^  c #694B1E",
"/  c #B06F41",
"(  c #607580",
")  c #473718",
"_  c #D08050",
"`  c #D08050",
"'  c #627180",
"]  c #63757E",
"[  c None",
"{  c #DF8060",
"}  c #5D7474",
"|  c #F8A070",
" . c #D28250",
".. c #62737D",
"X. c #503818",
"o. c #668080",
"O. c #F19058",
"+. c #503918",
"@. c #6D6D6D",
"#. c #F08F58",
"$. c #4D331A",
"%. c #607080",
"&. c #F09158",
"*. c #4F3817",
"=. c #5F757C",
"-. c #0000A9",
";. c #503918",
":. c #647680",
">. c gray22",
",. c #61727B",
"<. c #393939",
"1. c gray22",
"2. c #503818",
"3. c #63747D",
"4. c #555555",
"5. c #393939",
"6. c black",
"7. c #61727B",
"8. c #66757C",
"9. c black",
"0. c #393939",
"q. c black",
"w. c #627689",
"e. c gray22",
"r. c black",
"t. c #63737B",
"y. c #353535",
"u. c gray22",
"i. c #373737",
"p. c white",
"a. c blue",
"s. c gray22",
"d. c gray22",
"f. c #373737",
"g. c black",
"h. c gray22",
"j. c #393939",
"k. c #666699",
"l. c #989898",
"z. c gray47",
"x. c #606060",
"c. c gray22",
"v. c #D0D0D0",
"b. c #888888",
"n. c #484848",
"m. c black",
"M. c #202020",
"N. c #F8F800",
"B. c #F8A858",
"V. c #F89840",
"C. c #704828",
"Z. c #986038",
"A. c #B07040",
"S. c #D08050",
"D. c gray44",
"F. c gray69",
"G. c #F09058",
"H. c #B87848",
"J. c #905830",
"K. c #584020",
"L. c #A86840",
"P. c #805028",
"I. c #684820",
"U. c #483818",
"Y. c #C87848",
"T. c #A06038",
"R. c #E88858",
"E. c #F8A070",
"W. c #D88850",
"Q. c #F89860",
"!. c #0000A8",
"~. c #0000B0",
"^. c #885830",
"/. c #000070",
"(. c #000048",
"). c #503818",
"_. c #000040",
"`. c white",
/* pixels */
"                                                                                                                                  ",
"                                                                                                                                  ",
"                                                                                                                                  ",
"                                                                                                                                  ",
"                                                                                                                                  ",
"                                                                                                                                  ",
"                                                                                                                                  ",
"                                                                                                                                  ",
"                                                                                                                                  ",
"                                                                                                                                  ",
"                                                                                                                                  ",
"                                                                                                                                  ",
"                                                                                                                                  ",
"                                                                                                                                  ",
"                                                                                                                                  ",
"                                                                                                                                  ",
"                                                                                                                                  ",
"                                                                                                                                  ",
"                                                                                                                                  ",
"                                                                                                                                  ",
"                                                                                                                                  ",
"                                                                                                                                  ",
"                                                                                                                                  ",
"                                                                                                                                  ",
"                                                                                                                                  ",
"                                  . X o O + @ # $ % &                                                                             ",
"                                * = l.z.x.x.x.z.x.c.c.-           . ; : > , < 1 .                                                 ",
"                                2 v.l.z.x.b.l.n.m.m.M.3         4 5 N.N.N.B.B.V.6                                                 ",
"                                7 l.z.x.b.v.n.m.m.m.8 9       0 q C.n.n.n.C.Z.A.S.w e                                             ",
"                                r l.D.x.F.m.m.m.m.M.t   . y u n.n.n.Z.G.G.G.G.G.G.G.G.i p *                                       ",
"                                a M.D.z.z.m.m.m.M.s   d f M.n.Z.G.G.G.G.G.G.G.G.H.H.G.G.G.g 4                                     ",
"                                h D.M.M.M.m.m.m.j . k l H.n.Z.G.G.G.G.G.G.G.H.H.J.C.K.L.S.G.z e                                   ",
"                                x M.F.n.m.m.m.c . . v H.n.c.c.c.c.c.c.c.c.J.H.L.J.K.P.L.L.S.G.b                                   ",
"                                  n n.m.m.m M     N H.c.c.J.H.H.H.H.H.J.P.c.c.K.C.K.C.P.J.L.S.S.B                                 ",
"                                  V C Z A S       D c.H.H.G.I.A.G.G.G.G.H.H.M.M.K.U.F G H J.L.L.J                                 ",
"                                                  K H.G.G.I.U.I.I.I.I.I.I.G.C.M.M.U.L   P P.J.L.L.I                               ",
"                                                  U H.I.I.A.H.H.A.Y.S.S.A.I.T.C.m.U.e     Y J.J.J.T                               ",
"                                                  R I.A.R.R.R.A.A.Y.R.R.S.H.I.T.K.E       e W P.I.Q                               ",
"                                                  ! c.R.R.R.Y.P.T.Y.R.R.G.S.H.I.K.~         ^ I.A./                               ",
"                                                  ( A.G.R.R.H.C.C.T.R.R.R.R.H.C.U.)         e _ E.`                               ",
"                                                  ( W.Q.Q.G.H.C.C.C.H.H.L.H.L.C.K.'           ] [ {                               ",
"                                                  h Q.Q.Q.H.J.C.C.G.Q.Q.G.L.L.C.K.}           |  .                                ",
"                                                  ..Q.H.H.J.J.C.!.~.!.G.A.G.^.C.X..                                               ",
"                                                o.O.Q.Q.H.J.c.c.c.!./.(.T.^.C.K.+.                                                ",
"                                              @.#.G.Q.Q.H.c.c.c.c.c.(.m.m.C.).).$.                                                ",
"                                            %.&.H.H.H.T.C.c.c.c.c.c._.m.m.).).*.                                                  ",
"                                          =.-.~.!./.C.C.C.C.c.c.c.c.c.m.m.;.:.                                                    ",
"                                        >.c.c.!./.(._.m.).).c.c.c.c.c.m.m.,.                                                      ",
"                                      <.1.c.c./.(._.m.m.).2.3.1.c.c.c.c.m.4.                                                      ",
"                                      5.c.c.c.(.m.m.m.6.7.    8.c.c.c.c.9.                                                        ",
"                                      0.c.c.c.m.m.m.q.w.        e.c.c.c.r.                                                        ",
"                                      L c.c.c.c.m.m.t.            y.u.i.p.                                                        ",
"                                      a.s.c.c.c.m.m.4                                                                             ",
"                                        d.c.c.c.c.6.                                                                              ",
"                                          f.c.c.c.g.                                                                              ",
"                                            >.h.j.k.                                                                              ",
"                                                                                                                                  ",
"                                                                                                                                  ",
"                                                                                                                                  ",
"                                                                                                                                  ",
"                                                                                                                                  ",
"                                                                                                                                  ",
"                                                                                                                                  ",
"                                                                                                                                  ",
"                                                                                                                                  "
};
