/* XPM */
static char *_[] = {
/* columns rows colors chars-per-pixel */
"65 65 163 2 ",
"   c black",
".  c #222222",
"X  c black",
"o  c gray70",
"O  c #989898",
"+  c gray53",
"@  c #888888",
"#  c #606060",
"$  c #505050",
"%  c #515151",
"&  c #55AAAA",
"*  c #61757A",
"=  c gray17",
"-  c #808080",
";  c #AFAFAF",
":  c gray22",
">  c #64707C",
",  c #202020",
"<  c #607379",
"1  c gray69",
"2  c #65737E",
"3  c #989898",
"4  c #373737",
"5  c #62747C",
"6  c black",
"7  c gray60",
"8  c black",
"9  c #5E717B",
"0  c #556A80",
"q  c gray13",
"w  c #61727B",
"e  c gray46",
"r  c black",
"t  c black",
"y  c white",
"u  c #975D3A",
"i  c #9B5F37",
"p  c #986038",
"a  c #9A6037",
"s  c #985E37",
"d  c #584120",
"f  c #647680",
"g  c #808080",
"h  c #555555",
"j  c #373737",
"k  c black",
"l  c black",
"z  c black",
"x  c #608080",
"c  c #C87747",
"v  c #F89860",
"b  c #F89860",
"n  c #C8784B",
"m  c #C97849",
"M  c #F99860",
"N  c #F79760",
"B  c #CC774A",
"V  c #C77748",
"C  c #F7985F",
"Z  c #C87948",
"A  c #986139",
"S  c #C97847",
"D  c #875631",
"F  c #5B6D80",
"G  c #63737D",
"H  c #865E36",
"J  c #668080",
"K  c #637680",
"L  c #C87848",
"P  c #885830",
"I  c #000062",
"U  c #000079",
"Y  c #0000B0",
"T  c #88592F",
"R  c gray25",
"E  c gray22",
"W  c None",
"Q  c #6D6D92",
"!  c gray24",
"~  c #3F3018",
"^  c #382810",
"/  c #382910",
"(  c #9F6038",
")  c #81502A",
"_  c #63757C",
"`  c #63747D",
"'  c #62747C",
"]  c #704929",
"[  c gray20",
"{  c #63757D",
"}  c #627680",
"|  c #627689",
" . c #71718E",
".. c #905830",
"X. c #704828",
"o. c gray22",
"O. c #68717B",
"+. c #714C26",
"@. c gray22",
"#. c #63747C",
"$. c #62737E",
"%. c #61747D",
"&. c #73492B",
"*. c gray23",
"=. c black",
"-. c #63737C",
";. c #6B7986",
":. c #393939",
">. c black",
",. c #D88850",
"<. c #B07040",
"1. c #6A6A80",
"2. c #704829",
"3. c #373737",
"4. c gray22",
"5. c black",
"6. c #CA7848",
"7. c #87582F",
"8. c #667380",
"9. c #805229",
"0. c #B17040",
"q. c #9F6037",
"w. c #FFAA55",
"e. c #C87848",
"r. c #805129",
"t. c #D0D0D0",
"y. c gray69",
"u. c gray47",
"i. c #606060",
"p. c #505050",
"a. c #484848",
"s. c #202020",
"d. c #888888",
"f. c gray44",
"g. c black",
"h. c gray22",
"j. c #989898",
"k. c gray66",
"l. c #F89860",
"z. c #C87848",
"x. c #986038",
"c. c #584020",
"v. c #704828",
"b. c #B87848",
"n. c #282828",
"m. c #A86840",
"M. c #000058",
"N. c #0000B0",
"B. c #0000A8",
"V. c #000078",
"C. c #B07040",
"Z. c #000098",
"A. c #885830",
"S. c #A06038",
"D. c #382810",
"F. c #805028",
"G. c #483818",
"H. c #D08050",
"J. c #905830",
"K. c #403018",
"L. c #684820",
"P. c #F09058",
"I. c white",
/* pixels */
"                                                                                                                                  ",
"                                                                                                                                  ",
"                                                                                                                                  ",
"                                                                                                                                  ",
"                                                                                                                                  ",
"                                                                                                                                  ",
"                                                                                                                                  ",
"                                                                                                                                  ",
"                                                                                                                                  ",
"                                                                                                                                  ",
"                                                                                                                                  ",
"                                                                                                                                  ",
"                                                                                                                                  ",
"                                                                                                                                  ",
"                                                                                                                                  ",
"                                                                                                                                  ",
"                                                                                                                                  ",
"                                                                                                                                  ",
"                                                                                                                                  ",
"                                                                                                                                  ",
"                                                                                                                                  ",
"                                                                                                                                  ",
"                                                                                                                                  ",
"                                                                                                                                  ",
"                                                                                                                                  ",
"                                                                                                                                  ",
"                                                                                                                                  ",
"                                                                                                                                  ",
"                                                                                                                                  ",
"                                                                                                                                  ",
"                                                                                                                                  ",
"                                                                                                                                  ",
"                                                                                                                                  ",
"                                                                                                                                  ",
"                                                      .                                                                           ",
"                                  X o O + @ # $ % &   * =                                                                         ",
"                                - ; t.y.u.i.p.a.a.: > , <                                                                         ",
"                                1 s.d.u.i.p.a.f.d.d.f.p.2                                                                         ",
"                                3 d.s.i.p.a.d.f.a.g.g.h.4                                                                         ",
"                                5 j.s.f.d.d.g.g.g.g.g.6                                                                           ",
"                                7 y.k.s.g.g.g.g.g.8 9                                                                             ",
"                              0 y.h.g.g.g.g.g.q w                                                                                 ",
"                              e h.g.g.g.r t 0                 y u i p a s d f g                                                   ",
"                              h j k l z X                 x c v l.l.l.l.l.z.x.l.b n -                                             ",
"                                                        m M l.l.l.l.l.l.l.l.z.c.l.l.N B                                           ",
"                                                    - V l.l.v.v.b.b.b.b.l.l.l.x.n.b.l.l.C X                                       ",
"                                                  - Z m.M.N.B.V.M.l.l.l.b.l.l.C.g.z.b.b.x.A                                       ",
"                                                X S l.h.h.h.p.Z.M.M.l.l.l.v.l.C.g.z.b.m.A.m.D                                     ",
"                                              F G l.l.h.h.h.h.h.g.g.S.l.l.v.S.v.g.S.S.v.D.A.x.H                                   ",
"                                        J K L l.l.C.C.h.h.h.h.h.g.g.v.S.S.v.S.v.s.F.v.D.G.v.x.P -                                 ",
"                                  I U Y N.V.l.l.l.H.v.v.h.h.h.h.g.g.v.v.v.c.c.n.D.D.D.D.c.v.A.x.T                                 ",
"                                R E h.h.M.M.M.H.H.H.m.m.h.h.h.h.h.g.c.c.c.c.G.D.D.D.D.c.F.v.J.x.W Q                               ",
"                                ! h.h.h.h.g.g.g.H.J.A.v.v.h.h.h.h.g.K.K.K.~ ^ / ( ) _ ` ' J.J.A.A.]                               ",
"                                [ h.h.h.h.g.g.g.J.v.v.G.G.h.h.h.h.g.{ } | X                ...J.A.X.-                             ",
"                                h h.h.h.h.g.g.g.K.K.K.K.v.G.h.h.o.x                         O.J.J.v.+.                            ",
"                                  @.h.h.h.h.g.#.g g $.l.H.S.v.%.                            g J.J.F.&.                            ",
"                                  *.h.h.h.h.=.        $.S.L.-.                              g L.L.D.;.                            ",
"                                    :.h.h.h.>.        y ,.A.<.                              1.z.x.2.X                             ",
"                                    - 3.4.5.y           6.S.7.                              8.P.z.9.                              ",
"                                        X                 0.q.                              w.e.r.                                ",
"                                                                                                                                  ",
"                                                                                                                                  ",
"                                                                                                                                  ",
"                                                                                                                                  ",
"                                                                                                                                  "
};
