/* XPM */
static char *_[] = {
/* columns rows colors chars-per-pixel */
"65 65 144 2 ",
"   c black",
".  c #55AAAA",
"X  c #408080",
"o  c gray60",
"O  c #989898",
"+  c gray47",
"@  c #505050",
"#  c gray28",
"$  c gray59",
"%  c None",
"&  c #4B4B4B",
"*  c #979797",
"=  c #484848",
"-  c #808080",
";  c #637180",
":  c #F6A659",
">  c #F8F800",
",  c #F7F700",
"<  c #F8F800",
"1  c #F7F700",
"2  c #F9A857",
"3  c cyan",
"4  c #687480",
"5  c #62767C",
"6  c #808080",
"7  c #5D7474",
"8  c #637180",
"9  c #F99F71",
"0  c #F8A070",
"q  c #F87800",
"w  c #63747A",
"e  c black",
"r  c #979797",
"t  c #C87948",
"y  c #63757C",
"u  c #608080",
"i  c #929292",
"p  c #F89860",
"a  c #C77948",
"s  c #66707A",
"d  c #555555",
"f  c blue",
"g  c gray69",
"h  c #C87949",
"j  c #D0814F",
"k  c #5E717B",
"l  c #607580",
"z  c #A06038",
"x  c #E88858",
"c  c #F89960",
"v  c #CA7A4A",
"b  c #FFB185",
"n  c #A86740",
"m  c #F8A070",
"M  c #A26138",
"N  c #63747D",
"B  c #63747D",
"V  c #64737C",
"C  c #64737C",
"Z  c #503916",
"A  c #4F3817",
"S  c #4F3919",
"D  c #69471F",
"F  c #704828",
"G  c #885830",
"H  c #87582F",
"J  c #684820",
"K  c #A86840",
"L  c #A86840",
"P  c #A86740",
"I  c #E88657",
"U  c gray22",
"Y  c #382810",
"T  c #63747D",
"R  c #000078",
"E  c #393939",
"W  c #202020",
"Q  c #392910",
"!  c #362610",
"~  c #6D8080",
"^  c #000059",
"/  c black",
"(  c #373737",
")  c #393939",
"_  c gray13",
"`  c #202020",
"'  c #222222",
"]  c #647A7A",
"[  c #68717B",
"{  c gray22",
"}  c black",
"|  c white",
" . c #5555AA",
".. c gray40",
"X. c #558080",
"o. c #557171",
"O. c #6A6A80",
"+. c #697887",
"@. c #62727D",
"#. c #63757E",
"$. c #63737D",
"%. c #63727D",
"&. c gray44",
"*. c #606060",
"=. c #505050",
"-. c gray47",
";. c #484848",
":. c gray22",
">. c #282828",
",. c #989898",
"<. c #F8A070",
"1. c #F87800",
"2. c gray69",
"3. c #F89860",
"4. c #A86840",
"5. c gray66",
"6. c #888888",
"7. c #B07040",
"8. c #885830",
"9. c #A06038",
"0. c #0000B0",
"q. c #E88858",
"w. c #C87848",
"e. c #805028",
"r. c #D88850",
"t. c #000040",
"y. c #000058",
"u. c #B87848",
"i. c #986038",
"p. c #000078",
"a. c #503818",
"s. c #704828",
"d. c #D08050",
"f. c #F09058",
"g. c #63747D",
"h. c #202020",
"j. c #0000B8",
"k. c #403018",
"l. c #684820",
"z. c #584020",
"x. c #382810",
"c. c #000098",
"v. c #000070",
"b. c white",
/* pixels */
"                                                                                                                                  ",
"                                                                                                                                  ",
"                                                                                                                                  ",
"                                                                                                                                  ",
"                                                                                                                                  ",
"                                                                                                                                  ",
"                                                                                                                                  ",
"                                                                                                                                  ",
"                                                                                                                                  ",
"                                                                                                                                  ",
"                                                                                                                                  ",
"                                                                                                                                  ",
"                                                                                                                                  ",
"                                                                                                                                  ",
"                                                                                                                                  ",
"                                                                                                                                  ",
"                                                                                                                                  ",
"                                                                                                                                  ",
"                                                                                                                                  ",
"                                                                                                                                  ",
"                                                                                                                                  ",
"                                                                                                                                  ",
"                                                                                                                                  ",
"                                                                                                                                  ",
"                                                                                                                                  ",
"                                                                                                                                  ",
"                                                                                                                                  ",
"                                                                                                                                  ",
"                                                                                                                                  ",
"                                                                                                                                  ",
"                                                                                                                                  ",
"                                                                                                                                  ",
"                                                                                                                                  ",
"                                                                                                                                  ",
"                                                                                                                                  ",
"                                                                                                                                  ",
"                                                                                                                                  ",
"                                                                                                                                  ",
"                                                                                                                                  ",
"                                                                                                                                  ",
"                                                                                                                                  ",
"                                                                                                                                  ",
"                                                                                                                                  ",
"                                                                                                                                  ",
"                                                                                                                                  ",
"                                                                                                                                  ",
"                                                                                                                                  ",
"                                                                                                                                  ",
"                                                                                                                                  ",
"                                                                                                                                  ",
"                                    . X                                                                                           ",
"                              o O + &.*.@ #                                                                                       ",
"                            $ % &.*.*.*.=.=.&                                                                                     ",
"                          * -.&.*.=.;.;.:.>.=             - ; : > , < 1 2 3                                                       ",
"                        4 ,.-.&.=.=.;.;.:.>.>.5 6 7 8 9 0 <.<.<.<.<.<.<.1.q w e                                                   ",
"                        r 2.-.&.=.=.;.-.&.;.:.3.<.<.4.4.4.4.4.4.4.4.4.4.4.<.<.t y u                                               ",
"                      i 2.2.5.6.-.&.-.3.3.<.<.<.7.7.<.<.<.<.<.<.<.<.<.<.8.8.8.<.<.3.p a s d                                       ",
"                      f g 6.9.<.3.3.9.=.0.0.0.0.3.3.3.7.q.q.7.w.7.3.q.3.<.<.e.8.r.3.3.3.3.3.h j k -                               ",
"                        l z <.w.8.8.=.:.:.t.t.y.y.7.u.7.i.7.u.0.0.p.p.=.=.7.e.a.s.d.d.d.d.f.3.3.3.x c v -                         ",
"                          b n 4.g.:.:.:.:.:.:.h.y.y.w.8.i.8.0.j.p.p.p.p.8.s.a.k.k.a.s.8.8.7.7.7.7.l.<.<.m M                       ",
"                              N :.:.:.:.:.:.:.h.y.y.i.8.z.x.c.v.:.:.:.t.t.p.a.B V C Z A S D F G H J K L P I                       ",
"                              U :.:.:.:.:.:.h.h.h.z.z.x.Y T v.:.:.:.:.:.:.t.t.R -                                                 ",
"                              E :.:.:.:.h.h.h.W Q ! ~ -     ^ :.:.:.:.:.:.:.:.t./                                                 ",
"                              - ( ) _ ` ' ] 6                 [ { :.:.:.:.:.:.:.}                                                 ",
"                e e e e e e f 3 3 | - - - - d  .6 ..X.o.O.+.[ @.#.g.:.:.:.:.:.:.$.%.4 7 X. .- f e                                 "
};
