/* XPM */
static char *tile010[] = {
/* columns rows colors chars-per-pixel */
"65 65 179 2 ",
"   c black",
".  c black",
"X  c #6A8080",
"o  c gray29",
"O  c #515151",
"+  c #606060",
"@  c gray28",
"#  c #282828",
"$  c #282828",
"%  c #505050",
"&  c #808080",
"*  c #272727",
"=  c gray22",
"-  c black",
";  c gray14",
":  c #667780",
">  c #A86840",
",  c gray44",
"<  c #657280",
"1  c #272727",
"2  c #62747D",
"3  c #607080",
"4  c #606060",
"5  c #5D7474",
"6  c #282828",
"7  c #898989",
"8  c #606060",
"9  c cyan",
"0  c #64747C",
"q  c gray44",
"w  c #64747C",
"e  c #555555",
"r  c #282828",
"t  c #63757D",
"y  c #68717B",
"u  c #282828",
"i  c #63757D",
"p  c #62727D",
"a  c #6D6D6D",
"s  c gray44",
"d  c gray47",
"f  c #777777",
"g  c #627676",
"h  c #282828",
"j  c gray47",
"k  c gray43",
"l  c gray47",
"z  c #747474",
"x  c #606060",
"c  c gray47",
"v  c #65737D",
"b  c #5F757C",
"n  c #797979",
"m  c #62727C",
"M  c #666699",
"N  c #717171",
"B  c #6F4827",
"V  c gray44",
"C  c #C1C1C1",
"Z  c #704828",
"A  c gray44",
"S  c #505050",
"D  c #62747D",
"F  c #63747D",
"G  c None",
"H  c #63737C",
"J  c #C0C0C0",
"K  c #282828",
"L  c gray22",
"P  c #66707A",
"I  c #717171",
"U  c #62767C",
"Y  c #373737",
"T  c #282828",
"R  c #6F4728",
"E  c #62757C",
"W  c #666680",
"Q  c gray44",
"!  c #282828",
"~  c #64757C",
"^  c #808080",
"/  c #373737",
"(  c gray12",
")  c #202020",
"_  c #594020",
"`  c #5C3D1F",
"'  c gray40",
"]  c #A5A5A5",
"[  c #393939",
"{  c gray25",
"}  c gray13",
"|  c #202020",
" . c #61737C",
".. c #60757C",
"X. c #564221",
"o. c #583F21",
"O. c #583F21",
"+. c #58401F",
"@. c #58401F",
"#. c #584021",
"$. c #57401F",
"%. c #607080",
"&. c gray25",
"*. c #202020",
"=. c #515151",
"-. c #617979",
";. c gray25",
":. c #282828",
">. c gray31",
",. c #202020",
"<. c #505050",
"1. c gray25",
"2. c #505050",
"3. c #505050",
"4. c #557171",
"5. c #55AAAA",
"6. c #505050",
"7. c #647680",
"8. c white",
"9. c #408080",
"0. c #63747D",
"q. c #606060",
"w. c #505050",
"e. c #647480",
"r. c #67757C",
"t. c #607580",
"y. c #5E7979",
"u. c #6D8080",
"i. c #668080",
"p. c #5B6D80",
"a. c #5A441E",
"s. c #59401E",
"d. c #594021",
"f. c #58411F",
"g. c #58411F",
"h. c #584020",
"j. c #584020",
"k. c #584020",
"l. c #584020",
"z. c #584020",
"x. c #58401F",
"c. c #594020",
"v. c #574121",
"b. c #608080",
"n. c #60717D",
"m. c #594020",
"M. c #584020",
"N. c #584020",
"B. c #584020",
"V. c #564022",
"C. c #607379",
"Z. c #63747D",
"A. c #63737E",
"S. c blue",
"D. c #484848",
"F. c #606060",
"G. c #505050",
"H. c #888888",
"J. c black",
"K. c #704828",
"L. c gray22",
"P. c gray47",
"I. c #282828",
"U. c gray44",
"Y. c #202020",
"T. c #989898",
"R. c gray69",
"E. c gray66",
"W. c #885830",
"Q. c #805028",
"!. c #63747D",
"~. c #684820",
"^. c #584020",
"/. c gray25",
"(. c #503818",
"). c #483818",
"_. c #382810",
"`. c #282008",
"'. c white",
/* pixels */
"                                                                                                                                  ",
"                                                                                                                                  ",
"                                                                                                                                  ",
"                                                                                                                                  ",
"                                                                                                                                  ",
"                                                                                                                                  ",
"                                                                                                                                  ",
"                                                                                                                                  ",
"                                                                                                                                  ",
"                                                                                                                                  ",
"                                                                                                                                  ",
"                                                                                                                                  ",
"                                                                                                                                  ",
"                                                                                                                                  ",
"                                                                                                                                  ",
"                                                                                                                                  ",
"                                                                                                                                  ",
"                                                                                                                                  ",
"                                                                                                                                  ",
"                                                                                                                                  ",
"                                                                                                                                  ",
"                                                                                                                                  ",
"                                                                                                                                  ",
"                                                                                                                                  ",
"                                                                                                                                  ",
"                                                                                                                                  ",
"                                                                                                                                  ",
"                                                                                                                                  ",
"                                                                                                                                  ",
"                                                                                                                                  ",
"                                                                                                                                  ",
"                                                                                                                                  ",
"                    . X o O + @ # $ % &                                                                                           ",
"                . * = D.F.G.F.H.H.F.J.-                                                                                           ",
"                ; K.L.D.F.F.H.P.P.G.L.I.:                                                                                         ",
"                . > L.D.F.H.P.U.F.G.D.I., <                                                                                       ",
"                  1 I.D.F.P.U.F.G.I.Y.Y.F.U.2 .                                                                                   ",
"                  3 I.D.G.F.U.G.I.T.Y.T.F.H.P.4 5                                                                                 ",
"                  . 6 L.D.F.G.I.J.Y.Y.L.G.F.T.R.7 8 9                                                                             ",
"                    0 I.D.G.D.I.D.G.T.L.G.U.P.H.R.H.q w                                                                           ",
"                    e r L.D.D.L.L.L.L.D.U.P.P.P.P.T.T.U.t y                                                                       ",
"                      u L.D.D.D.L.I.G.F.U.U.U.U.P.P.H.T.P.U.i p &                                                                 ",
"                      a I.L.D.G.G.F.F.U.U.U.U.U.P.P.P.H.T.H.P.U.s d f g                                                           ",
"                        h L.L.G.F.U.P.U.U.U.U.U.U.U.P.P.H.T.H.P.U.U.U.U.j k .                                                     ",
"                        3 I.L.G.F.P.H.T.U.U.U.U.U.U.U.U.U.U.U.P.H.H.P.P.U.U.l z                                                   ",
"                        w I.Y.U.P.H.T.E.T.P.U.F.F.U.U.U.U.F.F.F.U.P.T.H.P.F.F.F.x                                                 ",
"                    & c T.E.R.T.H.T.T.E.E.P.U.F.F.F.F.F.F.F.F.F.U.U.P.H.T.H.G.D.G.v                                               ",
"                  b n T.E.T.H.H.H.T.E.E.T.P.F.D.G.G.G.G.G.G.G.F.U.U.U.P.H.T.H.L.D.W.m                                             ",
"              M N U.U.P.U.F.G.G.G.G.G.G.G.G.D.L.D.D.G.G.G.G.G.F.U.U.U.U.P.H.T.P.L.G.W.B &                                         ",
"            V C G.G.U.F.G.D.G.L.I.Y.J.J.J.Y.I.L.D.D.D.D.D.G.G.G.F.U.U.U.U.P.H.T.F.Q.Q.W.Z g                                       ",
"        . A T.L.Y.L.D.G.D.S D F !.L.I.Y.J.J.Y.I.L.L.L.L.L.D.D.G.G.F.U.U.U.U.P.H.U.~.K.Q.W.G H &                                   ",
"        J G.L.Y.Y.K L P &       9 I U Y T Y.J.J.Y.I.I.L.L.L.D.D.G.G.F.U.U.U.P.H.U.^.^.~.K.Q.W.R E W .                             ",
"        Q G.Y.! ~ ^                       / ( ) J.J.J.Y.Y.I.L.L.D.D.G.F.F.U.U.P.H.F.!./.^.~.~.K.K.Q.Q._ `                         ",
"        ' ] [ .                                 { } | J.J.J.Y.Y.I.L.D.G.G.F.U.U.P.T.F. ...X.o.O.+.@.#.$.^                         ",
"                                                      %.&.*.J.J.Y.I.L.D.D.G.F.U.U.H.T.=.                                          ",
"                                                          . -.;.:.J.Y.I.L.L.D.G.U.P.H.>.                                          ",
"                                                                M ,.J.J.Y.I.!.D.G.P.H.<.                                          ",
"                                                              5 1.Y.J.Y.I.!.!.!.D.U.P.2..                                         ",
"                                                            ..3.L.Y.Y.I.!.!.!.!.D.F.P.G.4.                                        ",
"                                                        5.6.G.L.I.I.I.!.!.!.!.!.D.G.U.G.7.                                        ",
"                                              8.9.5 b 0.q./.I.I.I.!.!.!.!.!.!.!.L.D.F.F.w.e.r.: t.y.u.i.a 5.9                     ",
"                    & p.a.s.d.f.g.h.j.k.(.(.(.(.(.(.(.T.I.I.I.(.(.(.(.(.(.(.(.(.I.D.G.F.F.(.(.(.(.(.(.(.^.^.^.l.z.x.c.v.4.        ",
"            b.n.m.M.^.^.(.(.(.(.).).).)._._._._._._._._._._._._._._._._._._._._._.I.D.G.F._._._._._._._._._.).).(.(.^.^.^.N.      ",
"        . B.^.^.(.(.(.(.).)._._._._._._._._.`.`.`.`.`.`.`.`.`.`.`.`.`.`.`.`.`.`.`.`.F.G.T.`.`.`._._.).).).).(.(.^.^.^.^.l.V.      ",
"    . 8.& ^ C.Z.^.^.(.(.(.(.).).).).).)._._._._._._._._._._._._._._._._._._._._._._._._.).).).).(.(.(.(.^.^.^.^.^.^.!.A.u.9.& S.  "
};
