/* XPM */
static char *tile011[] = {
/* columns rows colors chars-per-pixel */
"65 65 161 2 ",
"   c black",
".  c cyan",
"X  c gray17",
"o  c black",
"O  c #647680",
"+  c #282828",
"@  c black",
"#  c #555555",
"$  c #272727",
"%  c black",
"&  c white",
"*  c #646F7A",
"=  c gray16",
"-  c #62747D",
";  c #282828",
":  c #484848",
">  c gray20",
",  c #704828",
"<  c #63737C",
"1  c #5E7979",
"2  c #62747C",
"3  c #608080",
"4  c #64747E",
"5  c black",
"6  c #505050",
"7  c #62737D",
"8  c #5A7878",
"9  c gray28",
"0  c #63747E",
"q  c #4C4C4C",
"w  c #5F5F5F",
"e  c #606060",
"r  c #808080",
"t  c #484848",
"y  c None",
"u  c #5F5F5F",
"i  c gray38",
"p  c #808080",
"a  c #484848",
"s  c gray38",
"d  c #64737E",
"f  c #607080",
"g  c #627689",
"h  c #606060",
"j  c #64737D",
"k  c #647480",
"l  c gray40",
"z  c #484848",
"x  c gray44",
"c  c gray43",
"v  c #65737D",
"b  c #8F572F",
"n  c #986037",
"m  c #704828",
"M  c #815029",
"N  c #965A2D",
"B  c #797979",
"V  c #804F28",
"C  c #885830",
"Z  c #408080",
"A  c #777777",
"S  c #797979",
"D  c #704828",
"F  c #5E431B",
"G  c gray47",
"H  c gray47",
"J  c #667780",
"K  c #513817",
"L  c #584020",
"P  c #594020",
"I  c #5B3E22",
"U  c gray47",
"Y  c #6D8080",
"T  c #5A3E22",
"R  c #50371A",
"E  c #594020",
"W  c #808000",
"Q  c gray47",
"!  c #484848",
"~  c #6A6A80",
"^  c #637180",
"/  c #617380",
"(  c #64757E",
")  c gray22",
"_  c #393939",
"`  c gray60",
"'  c #484848",
"]  c #64747C",
"[  c gray22",
"{  c gray22",
"}  c #393939",
"|  c #64737D",
" . c #515151",
".. c gray38",
"X. c gray21",
"o. c gray22",
"O. c gray22",
"+. c #606060",
"@. c #668080",
"#. c #62747D",
"$. c #484848",
"%. c #63737B",
"&. c #484848",
"*. c #979797",
"=. c #62757D",
"-. c #606060",
";. c #5D7474",
":. c #607580",
">. c #65757A",
",. c #505050",
"<. c #515151",
"1. c #63737C",
"2. c #717171",
"3. c #71718E",
"4. c #697878",
"5. c #68717B",
"6. c #513819",
"7. c #513A16",
"8. c #4F3718",
"9. c #503818",
"0. c #503917",
"q. c #4F3818",
"w. c #503817",
"e. c #503818",
"r. c #584020",
"t. c #584020",
"y. c #584020",
"u. c #58411F",
"i. c #593F21",
"p. c #6D6D92",
"a. c #584120",
"s. c #58411F",
"d. c #574020",
"f. c #503818",
"g. c #554422",
"h. c #584021",
"j. c #594020",
"k. c #66757C",
"l. c #63747D",
"z. c #63737E",
"x. c blue",
"c. c black",
"v. c #282828",
"b. c gray22",
"n. c #484848",
"m. c #505050",
"M. c #606060",
"N. c gray44",
"B. c gray47",
"V. c #989898",
"C. c #888888",
"Z. c gray66",
"A. c #202020",
"S. c #684820",
"D. c #584020",
"F. c #503818",
"G. c #63747D",
"H. c #382810",
"J. c #483818",
"K. c #282008",
"L. c white",
/* pixels */
"                                                                                                                                  ",
"                                                                                                                                  ",
"                                                                                                                                  ",
"                                                                                                                                  ",
"                                                                                                                                  ",
"                                                                                                                                  ",
"                                                                                                                                  ",
"                                                                                                                                  ",
"                                                                                                                                  ",
"                                                                                                                                  ",
"                                                                                                                                  ",
"                                                                                                                                  ",
"                                                                                                                                  ",
"                                                                                                                                  ",
"                                                                                                                                  ",
"                                                                                                                                  ",
"                                                                                                                                  ",
"                                                                                                                                  ",
"                                                                                                                                  ",
"                                                                                                                                  ",
"                                                                                                                                  ",
"                                                                                                                                  ",
"                                                                                                                                  ",
"                                                                                                                                  ",
"                                                                                                                                  ",
"                                                                                                                                  ",
"                                                                                                                                  ",
"                                                                                                                                  ",
"                                                                                                                                  ",
"                                                                                                                                  ",
"                                                                                                                                  ",
"                                                                                                                                  ",
"                                                                                                                                  ",
"                                . X o                                                                                             ",
"                              O + c.c.@                                                                                           ",
"                          # $ v.v.c.c.% &                                                                                         ",
"                        * = b.v.v.v.v.c.-                                                                                         ",
"                      ; v.n.m.b.v.v.b.v.: #                                                                                       ",
"                    > , n.M.m.b.b.b.M.M.N.<                                                                                       ",
"                    1 v.M.N.M.m.m.M.B.m.M.N.2                                                                                     ",
"                    3 M.M.N.N.B.V.C.C.B.M.M.N.4 5                                                                                 ",
"                      6 M.N.B.V.B.B.C.C.B.M.M.M.7 8                                                                               ",
"                      9 m.N.C.B.B.m.M.B.C.C.M.N.N.N.0 8                                                                           ",
"                      q m.M.Z.B.m.b.m.M.B.C.C.N.B.M.M.M.w e #                                                                     ",
"                      r t M.n.n.n.b.b.m.B.B.C.C.B.B.B.B.B.M.y u i p                                                               ",
"                        a m.m.n.b.b.b.n.M.B.B.B.N.N.m.B.B.B.B.M.M.M.s d f 5                                                       ",
"                        g n.M.m.b.b.v.b.n.m.M.N.N.N.m.N.B.C.C.C.C.B.N.M.M.h j k l                                                 ",
"                          z m.M.n.b.b.v.A.n.m.m.M.M.m.M.B.B.C.C.C.V.V.C.B.N.N.N.N.x c p                                           ",
"                          v n.m.m.b.b.b.v.A.b.m.m.m.m.M.N.N.B.B.C.C.C.V.V.C.C.B.B.B.N.m.b n r                                     ",
"                          k b.n.m.n.b.b.b.v.v.A.b.n.m.m.M.M.N.N.B.B.C.C.C.C.C.C.V.V.C.N.M.S.m M N                                 ",
"                        3 B b.b.n.m.b.b.b.b.b.b.b.b.m.m.m.m.m.M.N.B.B.B.C.C.C.C.C.C.V.V.B.M.D.D.S.V C Z                           ",
"                  3 A S B.M.m.b.b.n.v.v.b.b.n.n.n.n.n.n.n.n.n.m.m.M.N.B.B.B.B.B.B.B.C.C.V.B.M.D.D.D.S., D F                       ",
"                G H M.M.m.n.n.b.b.b.v.v.v.v.b.b.b.n.n.n.n.n.n.n.n.n.m.M.M.N.B.B.B.B.B.B.C.C.B.M.- J K L F.D.P I .                 ",
"            5 U B.M.m.n.n.b.b.b.b.b.b.b.v.v.v.v.v.b.b.b.b.n.n.n.n.n.n.n.m.m.M.M.M.M.N.B.B.C.B.y         r Y T R E W               ",
"            Q B.M.m.n.! k ~ l Z 3 ^ / ( ) _ b.v.v.v.v.v.v.b.b.b.b.b.b.b.b.b.b.n.m.m.m.N.B.C.B.M.#                                 ",
"            ` B.M.' ]                     5 Y [ { } b.v.v.v.v.v.v.v.v.v.v.v.v.v.b.G.G.m.B.C.C.M.|                                 ",
"            .  ...r                               5 Y X.o.O.b.b.b.b.v.A.A.A.A.A.A.v.G.m.N.B.C.N.+.@.                              ",
"                                                          r J #.$.n.n.b.v.A.A.A.A.v.b.G.m.N.B.B.B.+.%.                            ",
"                                                                r v &.n.n.b.v.A.A.v.b.G.G.n.M.N.B.N.M.*.                          ",
"                                                                  r =.n.n.n.b.v.v.b.G.G.G.G.b.n.m.m.M.-.                          ",
"                                                    5 Z ;.:.>.( ,.<.m.m.n.n.b.b.G.G.G.G.G.G.G.b.b.n.m.V.1.2..                     ",
"                          5 Z 3.4.5.6.7.8.9.0.q.w.e.F.F.F.F.m.m.m.n.b.b.b.b.b.F.F.F.F.F.F.F.F.F.b.b.V.F.D.D.D.r.t.y.u.i.g         ",
"            p.5.a.s.u.d.f.F.F.F.F.F.F.F.F.F.F.F.F.H.H.H.H.H.m.n.b.b.v.v.v.H.H.H.H.H.H.H.H.H.H.H.H.H.H.H.H.H.J.J.F.F.D.D.D.u.      ",
"        g.h.D.D.F.F.F.F.J.J.H.H.H.H.H.H.H.H.K.K.K.K.K.K.K.K.V.b.v.v.K.K.K.K.K.K.K.K.K.K.K.K.K.K.H.H.J.J.J.J.F.F.D.D.D.D.D.j.      ",
"    5 & r p k.l.D.D.F.F.F.F.J.J.J.J.J.J.H.H.H.H.H.H.H.H.H.H.H.H.H.H.H.H.H.H.H.H.H.H.H.H.J.J.J.J.F.F.F.F.D.D.D.D.D.D.G.z.4.Z r x.  "
};
