/* XPM */
static char *tile012[] = {
/* columns rows colors chars-per-pixel */
"65 65 90 1 ",
"  c black",
". c black",
"X c #606080",
"o c #5A7878",
"O c #66707A",
"+ c #607080",
"@ c #606060",
"# c #5D5D5D",
"$ c gray38",
"% c #5D5D5D",
"& c #606060",
"* c #5D5D5D",
"= c #646464",
"- c #5D5D5D",
"; c #607080",
": c #666680",
"> c #808080",
", c blue",
"< c #505050",
"1 c #915830",
"2 c None",
"3 c #606060",
"4 c #606060",
"5 c gray38",
"6 c #608080",
"7 c #808080",
"8 c #393939",
"9 c #393939",
"0 c #5F5F5F",
"q c #606060",
"w c #666699",
"e c #646F7A",
"r c gray22",
"t c #905830",
"y c #915730",
"u c #282828",
"i c #885830",
"p c #825126",
"a c gray16",
"s c #805128",
"d c cyan",
"f c gray16",
"g c #282828",
"h c #805027",
"j c #6D6D6D",
"k c #885830",
"l c #65757A",
"z c gray44",
"x c #64747D",
"c c #64747E",
"v c #584020",
"b c #714829",
"n c #593F21",
"m c #667780",
"M c #57411F",
"N c #594020",
"B c #574120",
"V c #494924",
"C c #584020",
"Z c #574221",
"A c white",
"S c #64747C",
"D c #63747D",
"F c #63737E",
"G c #667777",
"H c #408080",
"J c gray25",
"K c #606060",
"L c gray44",
"P c gray47",
"I c #888888",
"U c gray22",
"Y c #989898",
"T c #505050",
"R c #282828",
"E c #805028",
"W c #484848",
"Q c #704828",
"! c #202020",
"~ c #684820",
"^ c #63747D",
"/ c black",
"( c gray66",
") c #403018",
"_ c #483818",
"` c #584020",
"' c #282008",
"] c #382810",
"[ c #503818",
"{ c white",
/* pixels */
"                                                                 ",
"                                                                 ",
"                                                                 ",
"                                                                 ",
"                                                                 ",
"                                                                 ",
"                                                                 ",
"                                                                 ",
"                                                                 ",
"                                                                 ",
"                                                                 ",
"                                                                 ",
"                                                                 ",
"                                                                 ",
"                                                                 ",
"                                                                 ",
"                                                                 ",
"                                                                 ",
"                                                                 ",
"                                                                 ",
"                                                                 ",
"                                                                 ",
"                                                                 ",
"                                                                 ",
"                                                                 ",
"                                                                 ",
"                                                                 ",
"                                                                 ",
"                                                                 ",
"                                                                 ",
"                                                                 ",
"                                                                 ",
"                                                                 ",
"                                                                 ",
"                                                                 ",
"                                                                 ",
"                                                                 ",
"                                                                 ",
"                                                                 ",
"                                                                 ",
"                                                                 ",
"                                                                 ",
"                                                                 ",
"                                                                 ",
"                                                                 ",
"                                                                 ",
"                                                                 ",
"                                                                 ",
"                                                                 ",
"                                                                 ",
"                                                                 ",
"                                                                 ",
"                   .XoO+@#$%&%%$#@*=-;:>,                        ",
"                ><12JKLLPIIIIIPKPPPPPPKKK345$6                   ",
"              789UJKLPPPPPPPPPPPIIIIIIYYYIPPPK0qw                ",
"             erLLJLLLLLLLLLLLLLLPPIIIIIIIYYIIPKTty>              ",
"            uRRTTJLLLTTTTTTTTTKKLLPPPPPPPPIYYIPKTEip             ",
"           aRRRRRJKKLLLLKRRRRUUWTTKKKKKKLLPPIIPLTQQEsd           ",
"           fgRRRTTTTTTKKYR!!!!UUWWWTTTTWWTKLPPLLT~~QQhj          ",
"             eLTTTWUURRLR!!!!!RRRRRR!!RUUWTKLLLLKT^~QQkl         ",
"            6zKKKTUR!///!!!!!!RRRR!!///PIIPLKKKTWW^^^~QExe       ",
"          :cvKKTTTWWU///////////////!!R(PKTWUUUUJJ))_``~QEbn:    ",
"      XmMN``)(T''''''''''''UUUUWT(TTTTJTTUJJJJ]]]]]]]]]])~Q~~B   ",
"    VC``[[))''''''''''''''''''''LTTTJJJJJ''''''']]____[[````vZ   ",
"  .A7>SD``[[[[______]]]]]]]]]]]]]]]]]]]]]]]]____[[[[``````^FGH7, "
};
