/* XPM */
static char *_[] = {
/* columns rows colors chars-per-pixel */
"64 64 52 1 ",
"  c black",
". c #E8D1D1",
"X c gray97",
"o c #5B5B5B",
"O c #E8D7C6",
"+ c #F9F9F9",
"@ c gray35",
"# c #F8F8F8",
"$ c gray34",
"% c #F8F8F8",
"& c gray35",
"* c black",
"= c gray97",
"- c gray35",
"; c white",
": c None",
"> c #585858",
", c #808080",
"< c gray34",
"1 c #555555",
"2 c gray35",
"3 c #55AAAA",
"4 c #F9F9F9",
"5 c #585858",
"6 c #F8F8F8",
"7 c #585858",
"8 c gray97",
"9 c gray97",
"0 c #F9F9F9",
"q c #5555AA",
"w c #F8F8F8",
"e c #558080",
"r c #585858",
"t c gray97",
"y c gray34",
"u c #667777",
"i c gray92",
"p c gray72",
"a c gray47",
"s c #585858",
"d c #585858",
"f c #181818",
"g c gray9",
"h c #585858",
"j c gray47",
"k c gray72",
"l c #F8F8F8",
"z c #E8D8C8",
"x c #585858",
"c c gray22",
"v c #181818",
"b c white",
/* pixels */
"                                                                ",
"                                                                ",
"                                                                ",
"                                                                ",
"                                                                ",
"                                                                ",
"                                                                ",
"                                                                ",
"                                                                ",
"                                                                ",
"                                                                ",
"                                                                ",
"                                                                ",
"                                                                ",
"                                                                ",
"                                                                ",
"                                                                ",
"                                                                ",
"                                                                ",
"                                                                ",
"                                                                ",
"                                                                ",
"                                                                ",
"                                                                ",
"                                                                ",
"                                                                ",
"                                                                ",
"                                                                ",
"                                                                ",
"                                                                ",
"                                                                ",
"                                                                ",
"                                                                ",
"                                                                ",
"                                                                ",
"                                                                ",
"                                                                ",
"                                                                ",
"                                                                ",
"                                                                ",
"                                                                ",
"                                                                ",
"                                                                ",
"                                                                ",
"                                                                ",
"                                                                ",
"                              .Xo                               ",
"                              Oj+@                              ",
"                              #kjl$                             ",
"                              %kkjl&*                           ",
"                              =kkjjl-;                          ",
"                              :kkjjjl>,                         ",
"                              lkkkjjjl<1                        ",
"                              +kkzkjjjz23                       ",
"                              4kkkzkjjjz53                      ",
"                              6kkkzzkjjjz73                     ",
"                              8kkkzlzkjxjk73                    ",
"                              9kkzlllzkjxjk53                   ",
"                              0kkkzllkjjjxjk2q                  ",
"                              wkkkjxlzjjxxxjk2q                 ",
"                              elkkkcvlcxxccxjkr1                ",
"                               tkkjjcvkccvvcxjky1               ",
"                               u+kjjjcvjcvvvcxjjy1              ",
"                                ipasdfgvvvvvvcxjjh1             "
};
