/* XPM */
static char *_[] = {
/* columns rows colors chars-per-pixel */
"64 64 89 1 ",
"  c black",
". c #555555",
"X c #E9D8C9",
"o c #55AAAA",
"O c #777777",
"+ c #808080",
"@ c #B7B7B7",
"# c gray40",
"$ c gray72",
"% c #558080",
"& c gray72",
"* c #6D6D6D",
"= c None",
"- c gray72",
"; c #608080",
": c #F8F8F8",
"> c gray72",
", c #71718E",
"< c #F8F8F8",
"1 c gray72",
"2 c #5D7474",
"3 c #F8F8F8",
"4 c gray72",
"5 c #627676",
"6 c #F8F8F8",
"7 c gray72",
"8 c #6D8080",
"9 c #F6F6F6",
"0 c gray72",
"q c #607080",
"w c gray97",
"e c #B9B9B9",
"r c #697878",
"t c #808080",
"y c #B9B9B9",
"u c #697887",
"i c #B7B7B7",
"p c #B7B7B7",
"a c #637180",
"s c #B6B6B6",
"d c gray72",
"f c #627689",
"g c blue",
"h c #B9B9B9",
"j c #717171",
"k c gray72",
"l c #585858",
"z c black",
"x c #B9B9B9",
"c c #C07048",
"v c #C07047",
"b c #606080",
"n c #63737E",
"m c #C17048",
"M c #C17149",
"N c #68717B",
"B c #BF7049",
"V c #797979",
"C c #C07048",
"Z c #797979",
"A c #C07048",
"S c gray22",
"D c #C17147",
"F c #62747C",
"G c #5E717B",
"H c #7E5031",
"J c #C07148",
"K c #408080",
"L c #E8D1D1",
"P c #E9B997",
"I c #805030",
"U c #C06F48",
"Y c #E8B898",
"T c #E8A070",
"R c #E8A070",
"E c #805030",
"W c #C17048",
"Q c #E8D8C8",
"! c #F8F8F8",
"~ c gray47",
"^ c gray72",
"/ c #585858",
"( c gray22",
") c #181818",
"_ c #C07048",
"` c #E8A070",
"' c #E8B898",
"] c #805030",
"[ c white",
/* pixels */
"                                                                ",
"                                                                ",
"                                                                ",
"                                                                ",
"                                                                ",
"                                                                ",
"                                                                ",
"                                                                ",
"                                                                ",
"                                                                ",
"                                                                ",
"                                                                ",
"                                                                ",
"                                                                ",
"                                                                ",
"                                                                ",
"                                                                ",
"                                                                ",
"                                                                ",
"                                                                ",
"                                                                ",
"                                                                ",
"                                                                ",
"                                                                ",
"                                                                ",
"                                                                ",
"                                                                ",
"                                                                ",
"                                                                ",
"                                                                ",
"                                                                ",
"                                                                ",
"                                                                ",
"                                                                ",
"                                                                ",
"                          .                                     ",
"                          Xo                                    ",
"                          QO+                                   ",
"                          !~@#                                  ",
"                          !^~$%                                 ",
"                          !^^~&*                                ",
"                          =^^^~-;                               ",
"                          :^^^^~>,                              ",
"                          <^^^^~~12                             ",
"                          3^^^^~~~45                            ",
"                          6^^^^^~~~78                           ",
"                          9^^^^!^~~~0q                          ",
"                          w^^^^^!^~~~er                         ",
"                          ty^^^~/!~/~~eu                        ",
"                           i^^~/()!(//~pa                       ",
"                           #e~//(()^((/~eu                      ",
"                            s~/(()()~()/~eq                     ",
"                             d~())))))))/~0f                    ",
"                             gh/))))))))~!!4j                   ",
"                              .k))))))~!!/((lqz                 ",
"                               2x)))~^^/(((((__cvb              ",
"                                n^~^^/((((_`Q!!!QmM             ",
"                                N~~((())`Q!!Q'''Q!QBt           ",
"                                V/()))_Q!Q''``Q'Q`'!Ct          ",
"                                tZ/(_Q!Q''```_`QQ``'!Az         ",
"                                 #S]`Q''``__]]``__``'!D         ",
"                                  F]_Q''`__]))___'``'Q'G        ",
"                                  H_]_Q'`_])))]_`''``'QJK       ",
"                                  LPBIUYTRmE)))]_`''`'Q'W       "
};
