/* XPM */
static char *_[] = {
/* columns rows colors chars-per-pixel */
"64 64 95 2 ",
"   c black",
".  c cyan",
"X  c #808080",
"o  c gray72",
"O  c gray72",
"+  c #777777",
"@  c black",
"#  c gray72",
"$  c #797979",
"%  c #F8F8F8",
"&  c #777777",
"*  c #555555",
"=  c #F8F8F8",
"-  c #797979",
";  c #808080",
":  c #558080",
">  c #585858",
",  c #63737D",
"<  c gray35",
"1  c #556A80",
"2  c gray48",
"3  c #F8F8F8",
"4  c gray35",
"5  c #607080",
"6  c #7B7B7B",
"7  c #64747E",
"8  c gray47",
"9  c None",
"0  c #7E5031",
"q  c #797979",
"w  c #E9A170",
"e  c gray47",
"r  c #E9A070",
"t  c gray47",
"y  c #E8D8C9",
"u  c #63747A",
"i  c #E8D8C8",
"p  c #373737",
"a  c #64737D",
"s  c #617979",
"d  c #61727C",
"f  c gray22",
"g  c #637180",
"h  c #353535",
"j  c #667777",
"k  c #62727C",
"l  c #F8F8F8",
"z  c #585858",
"x  c #F8F8F8",
"c  c gray34",
"v  c gray22",
"b  c gray97",
"n  c #606060",
"m  c #777777",
"M  c #805130",
"N  c #C07048",
"B  c gray97",
"V  c #62747C",
"C  c gray97",
"Z  c #627680",
"A  c gray97",
"S  c gray47",
"D  c #687880",
"F  c #797979",
"G  c #F8F8F8",
"H  c #627689",
"J  c #797979",
"K  c gray72",
"L  c gray47",
"P  c #B7B7B7",
"I  c white",
"U  c gray72",
"Y  c #608080",
"T  c #B7B7B7",
"R  c #585858",
"E  c #797979",
"W  c gray72",
"Q  c #B7B7B7",
"!  c gray47",
"~  c #585858",
"^  c #585858",
"/  c gray35",
"(  c gray73",
")  c #F8F8F8",
"_  c #E8D8C8",
"`  c #585858",
"'  c gray47",
"]  c gray72",
"[  c gray22",
"{  c #805030",
"}  c #C07048",
"|  c #E8B898",
" . c #E8A070",
".. c #181818",
"X. c white",
/* pixels */
"                                                                                                                                ",
"                                                                                                                                ",
"                                                                                                                                ",
"                                                                                                                                ",
"                                                                                                                                ",
"                                                                                                                                ",
"                                                                                                                                ",
"                                                                                                                                ",
"                                                                                                                                ",
"                                                                                                                                ",
"                                                                                                                                ",
"                                                                                                                                ",
"                                                                                                                                ",
"                                                                                                                                ",
"                                                                                                                                ",
"                                                                                                                                ",
"                                                                                                                                ",
"                                                                                                                                ",
"                                                                                                                                ",
"                                                                                                                                ",
"                                                                                                                                ",
"                                                                                                                                ",
"                                                                                                                                ",
"                                                                                                                                ",
"                                                                                                                                ",
"                                                                                                                                ",
"                                                                                                                                ",
"                                                                                                                                ",
"                                                                                                                                ",
"                                                                                                                                ",
"                                                                                                                                ",
"                                                                                                                                ",
"                                                                                                                                ",
"                                                                                                                                ",
"                                                              . X                                                               ",
"                                                            X o O + @                                                           ",
"                                                            # ) _ ` $ X                                                         ",
"                                                            % ) _ ' ` & *                                                       ",
"                                                            = _ _ ] ' ` - ;                                                     ",
"                                                          : ) ] _ _ ] ' [ > :                                                   ",
"                                                        @ , ) ] ] _ ] ] ' [ < 1                                                 ",
"                                                      2 3 ) ) ) ] _ ] ] ] ' [ 4 5                                               ",
"                                                    6 ` ` ` ` ` ` ' ' ] ] ] ] ` ` 7 *                                           ",
"                                                    8 ` [ [ [ [ [ [ ` ` ` ` { } } } 9 0 @                                       ",
"                                                    q ` [ [ [ [ | _ _ _ _ ) ) ) ) | |  .w                                       ",
"                                                    e ` [ [ [ ` }  . .| | _ _ _ _ ) ) ) | r                                     ",
"                                                    X t ' ' ` } { { }  .| | _ _ _ _ _ _ ) y 1                                   ",
"                                                        u ` } { ....{ }  .| | | _ _ _ _ _ ) i X                                 ",
"                                                          p { ......{ }  . .| | | | | | _ _ ) a                                 ",
"                                                          s [ ......[ { }  . . .| _ | | | | _ ) d                               ",
"                                                            f ....[ [ [ { } }  . .| _ | | | | _ ) g                             ",
"                                                            h [ [ [ ..[ [ [ { } }  . .| | | | | _ = j                           ",
"                                                              k [ ....[ [ [ [ { { }  . .| | | | | _ l :                         ",
"                                                              @ z ..` ....` ..[ { { }  . .| | | | | _ x *                       ",
"                                                                @ c v ..` { ..[ { { { } } } ] ) ) ) ) ) b .                     ",
"                                                                    n m M N } { { { { { ' ] ] ] ] ] ] ] ] B                     ",
"                                                                              * V { ' ' ' ] ] ] ] ] ] ] ] ] C                   ",
"                                                                                Z ' ` ` ' ] ] ] ] ] ] ] ] ] ] A                 ",
"                                                                                S [ ` ` ' ' ] ] ] ] ] ] ] ] ] ) D               ",
"                                                                                F [ [ ` ' ' ] ] ] ] ] ] ] ] ] ] G H             ",
"                                                                                J ..[ ` ` ' ' ] ] ] ' ' ` ` ` ` ` K ;           ",
"                                                                                L ..[ ` ` ' ' ' ' ' ` ` ' ' ' ' ' ' P @         ",
"                                                                              I ' ....[ ` ` ' ` ` ` ' ] ] ' ' ] ] ' ' U         ",
"                                                                              Y ' ......[ [ ` ' ) ) T R E W Q ! ~ ^ / (         "
};
