/* XPM */
static char *_[] = {
/* columns rows colors chars-per-pixel */
"63 64 112 2 ",
"   c black",
".  c #667380",
"X  c #F8F8F8",
"o  c #797979",
"O  c black",
"+  c gray47",
"@  c #777777",
"#  c #808080",
"$  c gray72",
"%  c #797979",
"&  c #408080",
"*  c gray72",
"=  c gray35",
"-  c #585858",
";  c #666699",
":  c #808080",
">  c #585858",
",  c #5D7480",
"<  c #627180",
"1  c #63747E",
"2  c #647680",
"3  c #5555AA",
"4  c #555555",
"5  c #E7D8C8",
"6  c gray97",
"7  c #F8F8F8",
"8  c #B7B7B7",
"9  c #B7B7B7",
"0  c #777777",
"q  c #767676",
"w  c gray21",
"e  c #6D6D92",
"r  c gray47",
"t  c #373737",
"y  c gray47",
"u  c gray22",
"i  c gray47",
"p  c #627676",
"a  c gray47",
"s  c #62737E",
"d  c gray47",
"f  c #C07048",
"g  c gray47",
"h  c #607080",
"j  c gray20",
"k  c #181818",
"l  c #C07048",
"z  c #63747D",
"x  c #71718E",
"c  c #5F757C",
"v  c #585858",
"b  c #62747E",
"n  c #5A5A5A",
"m  c #585858",
"M  c #6B7986",
"N  c #63747D",
"B  c #63757D",
"V  c #585858",
"C  c #62747C",
"Z  c #565656",
"A  c #F8F8F8",
"S  c #557171",
"D  c #585858",
"F  c #F9F9F9",
"G  c gray9",
"H  c #F8F8F8",
"J  c #64747C",
"K  c #647A7A",
"L  c #717171",
"P  c gray72",
"I  c #B7B7B7",
"U  c #797979",
"Y  c #B7B7B7",
"T  c #797979",
"R  c gray72",
"E  c #608080",
"W  c #F8F8F8",
"Q  c #F9F9F9",
"!  c #131313",
"~  c gray72",
"^  c #627689",
"/  c #607580",
"(  c gray72",
")  c gray40",
"_  c gray72",
"`  c gray72",
"'  c cyan",
"]  c #B9B9B9",
"[  c None",
"{  c gray47",
"}  c gray47",
"|  c gray72",
" . c gray72",
".. c gray72",
"X. c #B9B9B9",
"o. c gray72",
"O. c gray72",
"+. c #F8F8F8",
"@. c #B9B9B9",
"#. c gray47",
"$. c #F8F8F8",
"%. c #E8D8C8",
"&. c gray72",
"*. c #585858",
"=. c gray22",
"-. c #181818",
";. c #C07048",
":. c #E8B898",
">. c #E8A070",
",. c #805030",
"<. c #63747D",
"1. c white",
/* pixels */
"                                                                                                                              ",
"                                                                                                                              ",
"                                                                                                                              ",
"                                                                                                                              ",
"                                                                                                                              ",
"                                                                                                                              ",
"                                                                                                                              ",
"                                                                                                                              ",
"                                                                                                                              ",
"                                                                                                                              ",
"                                                                                                                              ",
"                                                                                                                              ",
"                                                                                                                              ",
"                                                                                                                              ",
"                                                                                                                              ",
"                                                                                                                              ",
"                                                                                                                              ",
"                                                                                                                              ",
"                                                                                                                              ",
"                                                                                                                              ",
"                                                                                                                              ",
"                                                                                                                              ",
"                                                                                                                              ",
"                                                                                                                              ",
"                                                                                                                              ",
"                                                                                                                              ",
"                                                . X o O                                                                       ",
"                                                + #.$.@ #                                                                     ",
"                                                $ %.#.$.% &                                                                   ",
"                                                * %.&.#.$.= &                                                                 ",
"                                              O &.%.%.&.#.$.- ;                                                               ",
"                                              : &.&.%.&.&.#.$.> ,                                                             ",
"                                              < &.&.&.&.&.&.#.&.*.1 2 3                                                       ",
"                                            4 5 $.$.$.$.$.$.$.$.$.$.$.$.6 7 8 9 0 q w e                                       ",
"                                            r *.*.*.*.*.*.*.*.*.*.*.=.=.=.=.=.=.=.=.*.t                                       ",
"                                            y *.*.*.=.=.=.=.=.=.-.-.-.=.;.:.:.;.;.=.=.u                                       ",
"                                            i *.=.=.=.=.=.-.-.-.-.-.;.%.%.%.:.>.:.%.=.=.p                                     ",
"                                            a =.=.=.;.:.>.>.-.-.-.;.%.$.%.%.:.>.>.:.;.;.s                                     ",
"                                            d =.=.;.:.$.%.%.%.%.%.%.$.$.%.:.:.>.>.;.;.:.f                                     ",
"                                            g *.=.;.;.:.:.%.%.%.$.$.$.%.%.:.:.>.>.;.,.,.;.h                                   ",
"                                            j k -.*.,.;.,.;.:.%.%.%.%.%.:.:.:.:.>.;.,.,.,.l                                   ",
"                                              e z *.=.-.-.,.>.:.:.%.%.%.:.:.:.:.>.>.;.,.,.;.x                                 ",
"                                                  c v =.=.,.;.>.:.:.:.:.:.:.:.:.>.>.>.,.,.;.b                                 ",
"                                                      n m ,.,.;.;.>.:.:.:.:.:.:.:.>.>.;.,.;.<.M                               ",
"                                                          N ,.,.,.,.;.>.:.:.:.:.:.>.>.>.;.;.,.B O                             ",
"                                                          O V =.-.,.,.,.;.>.>.>.>.$.$.$.$.$.$.$.C                             ",
"                                                            Z -.-.*.*.,.,.;.;.&.&.&.&.&.&.&.&.&.A S                           ",
"                                                            O D *.*.-.,.,.#.&.#.#.&.&.&.&.&.&.&.&.F O                         ",
"                                                              O G V =.,.#.#.#.#.#.#.&.&.&.&.&.&.&.&.H                         ",
"                                                                  O J #.*.=.*.#.#.#.#.&.&.&.&.&.&.&.&.K                       ",
"                                                                    L #.-.=.*.*.#.#.#.#.&.&.#.*.*.*.#.P ;                     ",
"                                                                    O #.-.=.*.*.#.#.#.#.*.*.#.#.#.#.#.#.I O                   ",
"                                                                      U -.=.=.*.*.#.*.*.#.&.&.#.#.&.#.#.#.Y                   ",
"                                                                      T -.=.=.=.=.=.#.$.&.*.*.&.&.#.*.*.*.&.<                 ",
"                                                                      g -.-.=.=.-.-.$.#.=.*.&.&.#.*.=.=.=.*.R ;               ",
"                                                                      E U -.-.-.-.*.#.=.*.&.&.#.=.=.=.=.=.=.*.W               ",
"                                                                        s #.-.-.=.#.=.*.&.&.*.=.=.=.*.#.&.$.&.&.Q             ",
"                                                                        ! #.-.-.*.=.*.$.&.#.=.=.*.#.#.&.$.&.#.*.~             ",
"                                                                        ^ #.-.-.*.*.$.&.*.=.=.*.#.#.&.&.#.*.*.=.&./           ",
"                                                                        E #.-.=.*.$.&.*.=.=.*.*.#.&.&.#.#.*.=.=.$.( :         ",
"                                                                        ) #.-.*.&.&.*.=.-.=.*.#.#.&.#.*.=.=.=.=.#.$._ &       ",
"                                                                        4 #.-.*.&.&.*.=.-.=.*.#.#.#.#.#.#.#.*.*.#.&.$.` #     ",
"                                                                        ' #.-.*.#.&.#.*.-.=.=.*.#.#.#.&.&.$.$.$.$.$.$.$.]     ",
"                                                                          #.-.*.*.#.&.#.*.-.=.=.*.#.[ { } |  ...X.o.O.+.@.    "
};
