/* XPM */
static char *out[] = {
/* columns rows colors chars-per-pixel */
"50 75 210 2 ",
"   c None",
".  c #010001",
"X  c #090606",
"o  c #010A04",
"O  c #050409",
"+  c #0A060A",
"@  c #07090A",
"#  c #0C0B0C",
"$  c #090A07",
"%  c #120003",
"&  c #110E0E",
"*  c #09100F",
"=  c #10110F",
"-  c #0E0D11",
";  c #080614",
":  c #130E12",
">  c #170917",
",  c #0F1211",
"<  c #131313",
"1  c #191616",
"2  c #181817",
"3  c #16151A",
"4  c #1A1619",
"5  c #17181A",
"6  c #1C1B1C",
"7  c #210000",
"8  c #2C0014",
"9  c #2F0219",
"0  c #370719",
"q  c #211C1E",
"w  c #291519",
"e  c #1F211F",
"r  c #1C1925",
"t  c #211E20",
"y  c #2D1E22",
"u  c #2A1226",
"i  c #3A1422",
"p  c #280026",
"a  c #232323",
"s  c #2B2125",
"d  c #242329",
"f  c #2C262A",
"g  c #2B2B2B",
"h  c #27282A",
"j  c #32252C",
"k  c #322D2E",
"l  c #3B272C",
"z  c #2C2D34",
"x  c #292435",
"c  c #392C32",
"v  c #392E36",
"b  c #343334",
"n  c #3C3337",
"m  c #35353A",
"M  c #3C353A",
"N  c #3C3B3C",
"B  c #441D32",
"V  c #442C34",
"C  c #4C2933",
"Z  c #462731",
"A  c #502E37",
"S  c #413137",
"D  c #44353B",
"F  c #433A3D",
"G  c #49393E",
"H  c #4B343A",
"J  c #55333C",
"K  c #52353B",
"L  c #3D3B43",
"P  c #3E3B4A",
"I  c #363241",
"U  c #473740",
"Y  c #453C43",
"T  c #4A3C42",
"R  c #533E42",
"E  c #5E3E49",
"W  c #5A3744",
"Q  c #623E4C",
"!  c #434344",
"~  c #4B4345",
"^  c #46454C",
"/  c #4B4B4C",
"(  c #4A4249",
")  c #524346",
"_  c #54454A",
"`  c #5B434A",
"'  c #534A4C",
"]  c #5C494D",
"[  c #584042",
"{  c #4F504D",
"}  c #51514F",
"|  c #4D4C53",
" . c #5A4D52",
".. c #564D57",
"X. c #555351",
"o. c #5B5454",
"O. c #5A5859",
"+. c #595759",
"@. c #63434C",
"#. c #65474E",
"$. c #674C52",
"%. c #625C5C",
"&. c #645358",
"*. c #75535C",
"=. c #79545D",
"-. c #75595D",
";. c #785A5E",
":. c #734E5A",
">. c #5E5B62",
",. c #645362",
"<. c #6B5D63",
"1. c #6E5F69",
"2. c #765660",
"3. c #795661",
"4. c #755B61",
"5. c #7A5B65",
"6. c #7D5669",
"7. c #745D6B",
"8. c #7C5C6C",
"9. c #795469",
"0. c #656264",
"q. c #6D6C6C",
"w. c #6B6463",
"e. c #74646B",
"r. c #746B6D",
"t. c #78666A",
"y. c #74726D",
"u. c #766270",
"i. c #786572",
"p. c #767474",
"a. c #7A7474",
"s. c #7D7B7B",
"d. c #7A7878",
"f. c #825C6B",
"g. c #825F72",
"h. c #83626C",
"j. c #856968",
"k. c #8B6B7E",
"l. c #886B77",
"z. c #867B79",
"x. c #917775",
"c. c #907A76",
"v. c #8A817E",
"b. c #8E6F81",
"n. c #887881",
"m. c #947885",
"M. c #858483",
"N. c #8B8584",
"B. c #8D8A85",
"V. c #8D8C8A",
"C. c #928C8A",
"Z. c #978784",
"A. c #9A938D",
"S. c #93928F",
"D. c #959494",
"F. c #9B9392",
"G. c #98979B",
"H. c #9C999A",
"J. c #999996",
"K. c #A19C9B",
"L. c #A49994",
"P. c #A18B88",
"I. c #A1A39E",
"U. c #A39FA3",
"Y. c #AAA4A4",
"T. c #AEAEAB",
"R. c #A8A9A6",
"E. c #B1ADAC",
"W. c #B4B1AE",
"Q. c #B5B5B2",
"!. c #BCBDB6",
"~. c #BDBDB9",
"^. c #BAB4B7",
"/. c #C2BDBD",
"(. c #BFC0B8",
"). c #C4C1BE",
"_. c #CDCBC9",
"`. c #C6C2C3",
"'. c #D1CEC4",
"]. c #D0CDC9",
"[. c #D5D1CC",
"{. c #DAD5D3",
"}. c #DDDBD5",
"|. c #DEDCDA",
" X c #D7D3D1",
".X c #CCD0C5",
"XX c #E1DDD5",
"oX c #E2DDDC",
"OX c #E2E0D5",
"+X c #E4E3DB",
"@X c #E8E5DC",
"#X c #ECE8DD",
"$X c #E5E6E1",
"%X c #EBEAE2",
"&X c #ECEAE9",
"*X c #EAE6E5",
"=X c #F2EEE4",
"-X c #F1EEEA",
";X c #EFF0E4",
":X c #F1F4E6",
">X c #F6FAE7",
",X c #F4F5EB",
"<X c #F9F5ED",
"1X c #F6FAEB",
"2X c #FAFCED",
"3X c #F4F2F2",
"4X c #F9F6F2",
"5X c #F7FBF0",
"6X c #FCFDF2",
"7X c #FFFFFB",
/* pixels */
"                                                                                                    ",
"d @ 6 / d O O . . O X . . . . O @ . . O # # # # , < , - # # # # # # @ @ @ @ <                       ",
"3 . . . . O . . . . . . . . . . . O # . . . . . . . . . . . . . . . . . . . r P                     ",
"3 . . O + a a e a a a a a a a a a e a a a a a a a a a a a a a a a e a 5 . O O I                     ",
"r . . O . . . . . . . . . . . . . . . . . . . . . . . . . . . . . . . . - . . x                     ",
"a . # . ! ~.!.!.!.!.!.!.!.!.(.!.~.~.!.!.!.!.!.~.!.!.~.~.~.!.~.(.(.(.).M.. < . >                     ",
"d . , . O.7X7X7X6X6X7X7X7X7X7X7X7X7X7X7X7X7X7X7X7X7X7X7X7X7X7X7X7X6X6X!.. 6 O O h                   ",
"h . < . X.,X1X,X1X2X,X5X6X6X6X6X4X7X6X6X6X6X6X6X6X6X6X6X5X6X5X2X>X>X2XR.. 5 . . 2                   ",
"z . = . X.,X1X1X1X1X2X2X2X6X6X7X7X6X6X7X6X6X6X6X2X6X6X6X6X6X6X2X2X2X2XT.. e = < 6 N                 ",
"z . = . / ,X2X1X2X1X2X2X2X2X6X6X6X6X6X6X6X6X2X2X2X2X6X6X6X6X6X6X2X2X6XI.. . . . . . .               ",
"z . , . / 1X5X2X>X>X2X>X2X6X6X6X6X6X6X6X6X6X2X6X6X2X2X2X2X2X6X2X2X2X2Xy.. L | q.D.E.~.q.            ",
"m . = . / -X2X>X2X2X2X2X2X2X2X6X6X6X7X6X6X6X6X6X2X6X6X2X2X6X2X2X5X5X1X.X+X:X:X,X5X6X7Xp.. h 6 q     ",
"P . = . ! ;X2X2X>X2X2X2X2X2X2X2X6X6X6X6X6X2X2X6X2X2X2X2X2X2X2X6X2X5X1X5X2X>X1X,X:X,X@XN . $ . . .   ",
"^ . # . N ;X2X2X>X2X>X2X2X2X2X2X2X6X6X6X6X6X2X2X6X2X2X2X2X2X2X2X6X2X>X>X1X1X,X,X,X1X#XY X # . . +   ",
"| . = . b #X2X2X2X2X2X2X2X2X6X6X2X6X6X6X6X2X6X2X6X2X2X2X2X2X2X2X2X2X2X2X1X1X>X>X:X1X%XM : $ . . O   ",
"| . # . k #X2X2X>X2X2X2X2X6X2X6X6X6X6X6X6X6X6X6X6X6X2X2X2X2X2X6X6X2X2X2X2X1X1X>X:X1X@Xc w X . . O   ",
"| . # . a OX6X2X2X2X2X2X2X2X6X5X6X6X6X6X6X6X6X6X2X2X2X2X2X2X2X6X6X6X2X2X2X1X1X1X,X2X@Xs q + . . O   ",
"/ . # . 2 OX6X2X2X>X>X2X2X2X2X6X6X6X6X6X6X6X7X6X6X2X6X6X6X2X6X6X6X6X6X2X2X1X1X1X>X2XXXw j X . . #   ",
"^ . # . = OX6X2X2X2X2X2X2X2X6X6X6X<X6X<X<X<X<X,X<X=X=X#X#XXX:X6X6X6X6X2X2X2X2X2X,X4XXXw j $ . . -   ",
"^ . # . 1 oX6X2X2X2X2X2X2X2X2X5X6XL.P.P.v.x.x.x.j.j.t.:.#.. /.7X5X6X5X2X2X2X1X1X>X4X{.y c + . . -   ",
"/ . # . 1 OX6X2X2X2X2X2X2X2X2X6X2XZ.W 2.f.f.f.f.g.f.f.6.h.Z _.7X6X6X6X6X2X2X2X2X,X4X|.n S + . . -   ",
"^ . # . s @X6X1X1X2X1X5X1X2X2X5X6XF.$.h.f.k.k.k.b.b.b.l.b.B `.7X6X6X6X2X2X2X2X2X<X6XXXS U + . . #   ",
"^ . # . k #X6X2X1X2X2X5X2X2X2X5X4XA.[ 4.5. ...,.,.,.,.&.,.p ^.7X6X6X6X2X2X2X2X2X,X4XXXT D + . . .   ",
"^ . # . M %X6X2X2X2X2X1X2X1X2X5X4XA.K -.&.. . . . . . . . . R.7X6X6X6X2X5X2X2X2X2X6X#X .U - . . .   ",
"! . # . F &X6X2X6X2X2X2X1X2X1X5X6XA.A ;.] . # # + + & X 6 . D.7X6X6X6X2X6X2X2X2X2X6X#X%.D - . . .   ",
"! . = . T :X6X6X2X2X2X1X2X1X1X5X4XF.Z :.T . X . . X . . 6 . B.7X5X6X6X2X2X2X2X2X2X6X=X<.U - . . .   ",
"! . = . ~ &X6X2X5X2X2X1X2X1X1X1X2XA.B $.D . X X . X X . 6 . d.7X6X2X6X2X2X2X2X6X2X5X;X-.U : . . .   ",
"! . = . ~ -X6X2X2X1X2X2X2X5X1X4X6XA.i #.V . . . . . . . 3 . e.4X5X6X6X2X6X2X2X2X2X5X:Xe.U : . . . r ",
"L . < . ~ :X6X2X5X2X2X1X2X5X2X5X6XL.0 $.c . . . . 1 O . < . ..-X6X6X6X2X2X2X2X2X2X6X,Xr.D < . . . e ",
"N . = . ' -X6X<X2X2X2X1X2X1X1X4X7XF.0 #.k . X . . a.G.| . . n *X6X2X2X2X2X2X2X6X2X6X4Xa.S 2 . . . 6 ",
"N . < . ' ,X6X2X5X2X2X2X2X5X2X5X6XD.8 ` j . X X . z.U.^ . o > oX6X2X6X2X6X2X2X2X2X6X6Xz.j r . . . 6 ",
"L . : . X.4X4X2X2X2X1X2X2X1X5X4X7XF.8 _ s . . # . d.G.L . * . oX6X2X2X2X2X2X2X2X2X4X7XC.u q . . . 4 ",
"L . < . X.4X4X2X2X2X1X2X2X1X2X2X6XC.9 ) y . X $ . d.J.m . , . oX7X2X2X2X2X2X>X2X4X5X7XU.% a . . . < ",
"m . < . O.4X5X2X2X1X2X1X2X2X1X6X6XC.9 ) q . . $ . d.D.b . , . oX6X<X2X2X2X2X2X2X4X6X7XE.. a . . . # ",
"b . < . O.4X2X2X<X1X2X2X1X2X2X5X4XC.9 T q . . # . s.J.N . , . oX6X<X2X2X2X2X2X2X6X6X7X^.. s . . . # ",
"g . < . %.6X4X2X2X2X1X1X2X2X2X5X6XC.i ~ q . . # . s.J.N . < . oX6X2X2X2X2X2X2X2X6X6X7X/.. a . . . # ",
"h . < . %.5X6X2X2X2X1X2X2X2X1X5X4XV.i _ q . . . . M.H.F . < . oX6X2X2X2X2X2X6X6X6X6X7X`.. t . . . # ",
"h . < . 0.4X2X2X2X,X1X2X2X1X1X5X6XZ.l _ q . X . @ V.Y.! . < . XX7X2X2X6X2X2X2X6X6X6X7X_.. 6 . . . # ",
"a . < . w.4X4X<X2X1X2X2X2X2X1X5X6XN.Z _ q . O . t C.Y./ . < . oX6X2X2X2X6X6X6X6X6X6X7X X. 3 . . . - ",
"a . < . q.4X2X2X2X2X2X1X2X5X5X6X6XN.V  .s . # . M U.T.X.. 6 . |.7X2X2X6X6X6X6X6X7X6X7X{.. : O . . , ",
"a . < . y.4X6X2X2X2X2X2X2X2X5X6X6Xm.H o.s . & . / Y.W.<.. e . |.7X2X2X6X6X6X6X6X7X6X7XoX. O O . . 3 ",
"a . < . d.6X6X2X2X2X2X2X2X5X5X6X6Xv.H &.f . < . +.T.Q.r.. a . }.7X2X6X6X6X6X6X6X7X6X7X$X; . + . . t ",
"a . < . z.7X6X2X2X6X2X2X2X2X5X6X6Xv.R &.k . < . 0.T.Q.p.. h . {.7X2X2X6X6X6X6X6X7X6X7X$X; . + . . a ",
"a . 6 . s.6X6X<X2X2X2X2X2X6X5X5X4Xz.R <.n . < . q.T.Q.n.. h . [.7X5X5X5X6X6X6X6X6X7X6X$X; . + . . h ",
"a . < . s.6X4X6X2X2X2X6X2X2X6X6X2Xz.K e.F . < . p.Q.Q.M.. h . [.6X5X5X6X6X6X6X6X6X7X6X$X. O + . . h ",
"h . 6 . M.7X6X6X2X2X2X2X2X4X4X6X6Xz.) t.T . 3 . d.~.~.D.. a . }.7X6X5X5X2X2X6X6X6X6X7X}.. ; + . . g ",
"h . 2 . s.7X6X4X6X2X2X2X6X2X6X6X4Xa.R r.T . # . ! y.d.q.$ 6 . |.7X1X2X2X2X2X2X6X7X6X7X_.. < O . O   ",
"h . 3 . a.7X6X2X6X2X2X2X2X6X2X6X<Xa.R r.T . X O . . . . @ # . |.7X2X2X2X2X6X2X6X5X6X7X`.. 6 . . #   ",
"g . < . q.7X6X4X4X2X2X2X6X2X2X6X<Xa.R t.~ o e 6 e a a a a < g @X7X6X2X2X2X2X2X2X6X6X7X~.. r . . #   ",
"g . 2 . <.7X5X6X6X2X2X2X2X2X2X2X>X&.7 R . . . . . . . . . . N &X6X6X2X2X2X2X6X6X6X5X7XQ.. e . . <   ",
"g . < . ,.7X2X2X2X2X2X2X2X2X2X2X<XA.Y.).~.I.S.V.B.N.M.M.V.s.q.3X7X6X2X2X6X2X2X6X6X5X7XQ.. a . . <   ",
"g . < . +.6X2X2X2X2X1X2X2X2X2X2X2X2X6X6X6X7X6X7X7X7X7X6X7X6X*X6X6X6X6X2X2X6X2X6X6X6X7XT.. a . . <   ",
"g . < . | 4X2X2X2X2X>X2X2X2X2X<X2X2X1X2X2X2X<X<X2X2X2X2X2X2X6X6X6X6X2X2X2X2X6X2X6X4X7XR.. a . . =   ",
"g . < . | 3X2X<X2X2X2X2X2X<X2X2X2X2X2X5X2X2X2X2X6X2X6X2X5X2X2X2X2X2X6X2X2X2X2X6X5X6X7XY.. a . . #   ",
"g . & . ^ 3X2X1X2X2X2X2X2X2X>X2X2X2X6X5X6X2X6X6X6X6X6X6X6X5X2X2X2X2X2X2X6X7X5X5X5X5X7XJ.. r . . #   ",
"g . & . P &X2X<X>X2X<X2X2X<X1X2X2X2X2X2X6X5X6X6X2X6X6X2X6X2X6X2X2X2X2X2X%X:X7X6X7X6X7XS.. q . . #   ",
"h . # . M &X2X<X1X2X2X<X2X2X2X2X2X2X5X6X6X6X6X2X2X6X6X6X6X6X6X6X6X2X2X<Xy.O.C.I.W.].oXs.. 4 . . @   ",
"a . & . L &X2X1X<X2X2X2X2X2X2X2X2X2X2X5X6X2X6X6X6X6X6X6X2X6X2X2X2X2X2X6XC.. % . . . X : + . . . .   ",
"h . # . Y &X2X2X2X2X2X2X6X5X2X4X4X5X6X4X6X6X6X6X6X6X6X6X6X6X6X2X6X2X2X6XW.. ) G G D j & . . . . @   ",
"h . < . ^ &X4X<X2X1X<X2X2X5X1X4X5X2X4X2X6X6X6X6X6X6X6X6X6X6X6X6X2X2X<X2X_.. T D V S c $ . . . . #   ",
"h . < . | 7X7X6X6X6X6X6X6X6X6X7X6X7X7X7X7X7X7X6X7X7X7X6X7X7X7X6X6X6X2X7XXX. M M S D c # . . . .     ",
"g . # . d /.{.[.[.'.'.].[.{.{.{.XXXXXXXXXXOXOXXXXXXXOXXX}.}.}.OXOXOXXX+X/.. 6 6 t y s + . . . @     ",
"g . . . . _ $.Q ` Q E E E E @.@.@.@.#.@.@.@.Q W W J J K A A A J J W W _ T . . . . . . . . . . a     ",
"g . . . 6 t.h.3.3.-.2.2.*.2.-.3.3.5.5.5.5.5.5.5.f.8.f.8.h.8.u.8.u.u.i.i.1.. + . . O . . . . @       ",
"h . O . q l.f.3.3.;.=.*.*.:.*.*.*.3.2.3.3.2.3.3.6.6.6.8.8.8.8.8.7.7.7.i.1.. . X . . . X O . 6       ",
"h . O . b Z.h.h.5.5.;.;.;.*.*.;.-.-.4.4.5.4.5.8.5.8.3.7.7.7.7.7.e.7.1.u.<.: . . . . X . $ . d       ",
"6 . . . b r.[ ) T G G G H G G T T G U T G D n S c c c c v v v v F N L U U 1 . . . . . + = < h }     ",
"2 . < 3 . . . . . . . . . . . . . . . . . . . . . . . . . . . . . . . . . . . . . . b               ",
"  <   h . # . X O . X . X . O . . X . X O . O . X . O . O . O O O . O X X . . . . 6                 ",
"      @ . . . . . . . . . . . . . . . . . . . . . . . . . . . . . . . . . . . . . e                 ",
"      O . . . . . . . . . . . . . . . . . . . . . . . . . . . . . . . . . . . . . 5                 ",
"      . . . . . . . . . . . . . . . . . . . . . . . . . . . . . . . . X . . . . . <                 ",
"      . . . . . . . . . . . . . . . . . . . . . . . . . . . . . . . . . . . . . . O                 ",
"      . . . . O ; , < < < 3 < 3 - - # - # - # # # # # # # O @ # @ # @ + + - - - < 6                 ",
"    k # g m m                                                                                       "
};
