/* XPM */
static char *tile008[] = {
/* columns rows colors chars-per-pixel */
"64 64 54 1 ",
"  c black",
". c #7B7B7B",
"X c #7C7C7C",
"o c #5A5A5A",
"O c #5A5A5A",
"+ c gray35",
"@ c #5B5B5B",
"# c #647A7A",
"$ c #607580",
"% c #5A5A5A",
"& c gray35",
"* c #5A5A5A",
"= c #5A5A5A",
"- c black",
"; c #808080",
": c #6D6D6D",
"> c #66707A",
", c #63737E",
"< c #5A5A5A",
"1 c #808080",
"2 c #7C7C7C",
"3 c white",
"4 c #5A5A5A",
"5 c #5A5A5A",
"6 c #393939",
"7 c #393939",
"8 c gray22",
"9 c #608080",
"0 c None",
"q c gray22",
"w c #5B6D80",
"e c #3A3A3A",
"r c #666680",
"t c #71718E",
"y c #3A3A3A",
"u c gray23",
"i c #3C3C3C",
"p c #191919",
"a c gray35",
"s c #393939",
"d c gray48",
"f c #393939",
"g c gray35",
"h c #393939",
"j c #181818",
"k c #181818",
"l c gray9",
"z c #181818",
"x c #5A5A5A",
"c c #393939",
"v c #7B7B7B",
"b c #181818",
"n c gray74",
"m c white",
/* pixels */
"                                                                ",
"                                                                ",
"                                                                ",
"                                                                ",
"                                                                ",
"                                                                ",
"                                                                ",
"                                                                ",
"                                                                ",
"                                                                ",
"                                                                ",
"                                                                ",
"                                                                ",
"                                                                ",
"                                                                ",
"                                                                ",
"                                                                ",
"                                                                ",
"                                                                ",
"                                                                ",
"                                                                ",
"                                                                ",
"                                                                ",
"                                                                ",
"                                                                ",
"                                                                ",
"                                                                ",
"                                                                ",
"                                                                ",
"                                                                ",
"                                                                ",
"                                                                ",
"                                                                ",
"                                                                ",
"                                                                ",
"                                                                ",
"                            .X  X.                              ",
"                            oO  O+                              ",
"                            @x#$x@                              ",
"                            %xccx%                              ",
"                            &xxxx*                              ",
"                            =xvvx=                              ",
"                            cxvxcc                              ",
"                            cxvxcb                              ",
"                           -cxvxcb-                             ",
"                           ;cxvxcb;                             ",
"                           :cxvxcb:                             ",
"                           >cxvxcb>                             ",
"                           ,cxvxcb,                             ",
"                          :<cxvxcb<:                            ",
"                         12bcxvxcbb21                           ",
"                        34xbcxvxcbbx43                          ",
"                        5cxbcxvxcbbxc5                          ",
"                       6ccxbcvnnvccxcc6                         ",
"                      ;7bxxccxvxcbbxxb7;                        ",
"                      8bcxcbcxvxcbbcxcb8                        ",
"                     90bcxbbcxvxcbbbxcb09                       ",
"                     qbbcxbbcxvxcbbbxcbbq                       ",
"                    wcbbxxbbcxvxcbbbxxbbcw                      ",
"                    ebbcccbbcxvxcbbbcccbbe                      ",
"                   rcbcbbbbbcxvxcbbbbbbcbct                     ",
"                   ybcbvvvbbccvnccbbvvvbcbu                     ",
"                   7cbxxvxbcbbbbbbcbxnxxbc7                     ",
"                   ipasdfghjklbblkzhgfdsapi                     "
};
