/* XPM */
static char *tile009[] = {
/* columns rows colors chars-per-pixel */
"64 64 63 1 ",
"  c black",
". c #7B7B7B",
"X c #7C7C7C",
"o c #5A5A5A",
"O c #5A5A5A",
"+ c gray35",
"@ c #5B5B5B",
"# c #647A7A",
"$ c #607580",
"% c #5A5A5A",
"& c gray35",
"* c #5A5A5A",
"= c #5A5A5A",
"- c black",
"; c #808080",
": c #6D6D6D",
"> c #66707A",
", c #63737E",
"< c #5A5A5A",
"1 c #408080",
"2 c #7C7C7C",
"3 c blue",
"4 c #5A5A5A",
"5 c #5B5B5B",
"6 c gray25",
"7 c #393939",
"8 c gray22",
"9 c #373737",
"0 c #393939",
"q c #393939",
"w c #3A3A3A",
"e c #393939",
"r c #373737",
"t c #373737",
"y c #393939",
"u c #607379",
"i c #607080",
"p c #64757E",
"a c white",
"s c #393939",
"d c #63737B",
"f c #393939",
"g c #3A3A3A",
"h c #3C3C3C",
"j c #181818",
"k c gray9",
"l c #181818",
"z c #181818",
"x c #191919",
"c c #7B7B7B",
"v c gray48",
"b c #5B5B5B",
"n c #5A5A5A",
"m c #181818",
"M c None",
"N c #5A5A5A",
"B c #373737",
"V c #5A5A5A",
"C c #393939",
"Z c #7B7B7B",
"A c #181818",
"S c gray74",
"D c white",
/* pixels */
"                                                                ",
"                                                                ",
"                                                                ",
"                                                                ",
"                                                                ",
"                                                                ",
"                                                                ",
"                                                                ",
"                                                                ",
"                                                                ",
"                                                                ",
"                                                                ",
"                                                                ",
"                                                                ",
"                                                                ",
"                                                                ",
"                                                                ",
"                                                                ",
"                                                                ",
"                                                                ",
"                                                                ",
"                                                                ",
"                                                                ",
"                                                                ",
"                                                                ",
"                                                                ",
"                                                                ",
"                                                                ",
"                            .X  X.                              ",
"                            oO  O+                              ",
"                            @V#$V@                              ",
"                            %VCCV%                              ",
"                            &VVVV*                              ",
"                            =VZZV=                              ",
"                            CVZVCC                              ",
"                            CVZVCA                              ",
"                           -CVZVCA-                             ",
"                           ;CVZVCA;                             ",
"                           :CVZVCA:                             ",
"                           >CVZVCA>                             ",
"                           ,CVZVCA,                             ",
"                          :<CVZVCA<:                            ",
"                         12ACVZVCAA21                           ",
"                        34VACVZVCAAV43                          ",
"                        5CVACVZVCAAVC5                          ",
"                       6CCVACZSSZCCVCC6                         ",
"                      -7AVVCCVZVCAAVVA8                         ",
"                      9ACVCACVZVCAACVCA9                        ",
"                     ;0ACVAACVZVCAAAVCA0;                       ",
"                     qAACVAACVZVCAAAVCAAq                       ",
"                    ;wAAVVAACVZVCAAAVVAAe;                      ",
"                    rAACCCAACVZVCAAACCCAAr                      ",
"                   ;wACAAAAACVZVCAAAAAACAw;                     ",
"                   tACAZZZAACCZSCCAAZZZACAt                     ",
"                  -yCAVVZVACAAAAAACAVSVVACy-                    ",
"                  uCAVCZCVCAAAAAAAACVCZCVACu                    ",
"                  7CVCCZVVCAAAAAAAACVVZCCVC8                    ",
"                 iCVCCCZZVVZSVCCSZZVVZZCCCVCi                   ",
"                 pCCCACZCVAAAACCAAAAVCZCACCCp                   ",
"                asCCAACZVVAAAACCAAAAVVZVAACCsa                  ",
"                dCCAAAVZZVAAAAVVAAAAVZZVAAACCd                  ",
"                fCAAAAZZCVAAAAAAAAAAVCZZAAAACf                  ",
"                gAAAAAZZVVAZSZZZZSZAVVZZAAAAAg                  ",
"                hjklzxcvbnm<=MVVM=NmnbvcxzlkjB                  "
};
