/* XPM */
static char *tile010[] = {
/* columns rows colors chars-per-pixel */
"64 64 109 2 ",
"   c black",
".  c #835330",
"X  c #835331",
"o  c #5A7878",
"O  c black",
"+  c #835231",
"@  c #F07C17",
"#  c #6D6D92",
"$  c #F07B18",
"%  c #EE7B18",
"&  c #64737D",
"*  c #5D7474",
"=  c #EF7B18",
"-  c #EF7B18",
";  c #F65B09",
":  c #F7B521",
">  c #F6B521",
",  c #EE5500",
"<  c #66757C",
"1  c None",
"2  c #627676",
"3  c #5E7979",
"4  c #F07B17",
"5  c #EF7B18",
"6  c #6D6D6D",
"7  c #408080",
"8  c #845231",
"9  c #835131",
"0  c #808080",
"q  c #DE0000",
"w  c #DF0000",
"e  c #DE0000",
"r  c #E10000",
"t  c #EF7B17",
"y  c #EF7B18",
"u  c #E6801A",
"i  c #F07817",
"p  c #DD0000",
"a  c #DC0000",
"s  c #667380",
"d  c #637180",
"f  c #555555",
"g  c #F75A08",
"h  c #F75A08",
"j  c #855231",
"k  c #845131",
"l  c #855332",
"z  c #666699",
"x  c #855030",
"c  c #835033",
"v  c #EE7B18",
"b  c #83552E",
"n  c #F75B08",
"m  c #845331",
"M  c #627180",
"N  c #835130",
"B  c #55AAAA",
"V  c #F75A08",
"C  c #5A5A5A",
"Z  c #393939",
"A  c #3A3A3A",
"S  c #393939",
"D  c #3A3A3A",
"F  c #393939",
"G  c #373737",
"H  c #393939",
"J  c #393939",
"K  c #393939",
"L  c #3A3A3A",
"P  c gray21",
"I  c #393939",
"U  c #6D8080",
"Y  c gray22",
"T  c #5555AA",
"R  c #3A3A3A",
"E  c #64727B",
"W  c #393939",
"Q  c #3A3A3A",
"!  c gray22",
"~  c #393939",
"^  c gray25",
"/  c #191919",
"(  c #161616",
")  c #181818",
"_  c #181818",
"`  c #181818",
"'  c #7C7C7C",
"]  c #7B7B7B",
"[  c #5A5A5A",
"{  c #5A5A5A",
"}  c #181818",
"|  c #5A5A5A",
" . c #5A5A5A",
".. c #5A5A5A",
"X. c #5B5B5B",
"o. c #181818",
"O. c #845231",
"+. c #EF7B18",
"@. c #F75A08",
"#. c #F7B521",
"$. c #EFDECE",
"%. c #EFBD9C",
"&. c white",
"*. c #DE0000",
"=. c gray74",
"-. c #5A5A5A",
";. c #393939",
":. c #7B7B7B",
">. c #181818",
/* pixels */
"                                                                                                                                ",
"                                                                                                                                ",
"                                                                                                                                ",
"                                                                                                                                ",
"                                                                                                                                ",
"                                                                                                                                ",
"                                                                                                                                ",
"                                                                                                                                ",
"                                                                                                                                ",
"                                                                                                                                ",
"                                                                                                                                ",
"                                                                                                                                ",
"                                                            . .                                                                 ",
"                                                          X O.O.X                                                               ",
"                                                        o O.O.O.O.o                                                             ",
"                                                      O + O.+.+.O.+ O                                                           ",
"                                                      @ O.@.+.+.@.O.@                                                           ",
"                                                    # $ @.+.#.#.+.@.$ #                                                         ",
"                                                    % @.+.@.+.+.@.+.@.%                                                         ",
"                                                  & @.+.@.+.#.#.+.@.+.@.&                                                       ",
"                                                * = +.#.+.#.$.$.#.+.#.+.= *                                                     ",
"                                              # - +.#.#.#.$.$.$.$.#.#.#.+.- #                                                   ",
"                                            ; : +.+.#.%.$.$.&.&.$.$.%.#.+.+.> ,                                                 ",
"                                          < 1 @.#.+.%.$.%.&.&.&.&.%.$.%.+.#.@.: 2                                               ",
"                                        3 4 +.+.#.#.$.#.&.$.&.&.$.&.#.$.#.#.+.+.5 6                                             ",
"                                      7 8 +.#.+.%.$.#.&.$.&.&.&.&.$.&.#.$.%.+.#.+.9 0                                           ",
"                                      q O.+.+.#.$.#.$.$.&.&.&.&.&.&.$.$.#.$.#.+.+.O.w                                           ",
"                                    e +.+.*.#.%.$.&.$.&.&.&.&.&.&.&.&.$.&.$.%.#.*.+.+.r                                         ",
"                                    t *.+.+.#.#.&.$.$.&.#.#.&.&.#.#.&.$.$.&.#.#.+.+.*.y 0                                       ",
"                                  u *.+.#.+.#.$.#.&.$.&.=.-.&.&.-.=.&.$.&.#.$.#.+.#.+.*.i                                       ",
"                                  p +.#.+.#.$.#.$.$.&.$.=.-.=.=.-.=.$.&.$.$.#.$.#.+.#.+.a                                       ",
"                                  & *.+.+.+.#.$.&.$.&.$.=.-.;.;.-.=.$.&.$.&.$.#.+.+.+.*.&                                       ",
"                                  s +.+.#.+.+.$.$.&.&.&.=.-.-.-.-.=.&.&.&.$.$.+.+.#.+.+.d                                       ",
"                                  f *.+.+.+.#.+.$.$.&.$.=.-.:.:.-.=.$.&.$.$.+.#.+.+.+.*.0                                       ",
"                                    g *.+.+.+.$.#.$.$.%.:.-.:.-.;.:.%.$.$.#.$.+.+.+.*.h                                         ",
"                                    j @.*.+.#.+.$.#.%.$.:.-.:.-.;.:.$.%.#.$.+.#.+.*.@.k                                         ",
"                                    l *.@.*.+.+.#.%.#.+.:.-.:.-.;.:.+.#.%.#.+.+.*.@.*.l                                         ",
"                                    7 $ *.@.+.+.+.@.+.@.-.-.:.-.;.-.@.+.@.+.+.+.@.*.4 z                                         ",
"                                      x +.*.@.*.@.*.@.*.;.-.:.-.;.;.*.@.*.@.*.@.*.+.x                                           ",
"                                        c y O.@.O.@.*.+.;.-.:.-.;.>.+.*.@.O.@.O.v b                                             ",
"                                          0 n m *.O.O.O.;.-.:.-.;.>.O.O.O.O.m n 0                                               ",
"                                              O M N O.#.;.-.:.-.;.>.#.O.N M O                                                   ",
"                                                  s +.>.;.-.:.-.;.>.>.+.s                                                       ",
"                                                B V -.>.;.-.:.-.;.>.>.-.V B                                                     ",
"                                                C ;.-.>.;.-.:.-.;.>.>.-.;.C                                                     ",
"                                              Z ;.;.-.>.;.:.#.#.:.;.;.-.;.;.Z                                                   ",
"                                            0 A >.-.-.;.;.-.:.-.;.>.>.-.-.>.A 0                                                 ",
"                                            S >.;.-.;.>.;.-.:.-.;.>.>.;.-.;.>.D                                                 ",
"                                          0 F >.;.-.>.>.;.-.:.-.;.>.>.>.-.;.>.F 0                                               ",
"                                          G >.>.;.-.>.>.;.-.:.-.;.>.>.>.-.;.>.>.G                                               ",
"                                        0 H >.>.-.-.>.>.;.-.:.-.;.>.>.>.-.-.>.>.H 0                                             ",
"                                        J >.>.;.;.;.>.>.;.-.:.-.;.>.>.>.;.;.;.>.>.J                                             ",
"                                      O K >.;.>.>.>.>.>.;.-.:.-.;.>.>.>.>.>.>.;.>.L O                                           ",
"                                      P >.;.>.O.+.:.>.>.;.;.:.=.;.;.>.>.+.+.O.>.;.>.P                                           ",
"                                      I ;.>.-.-.#.-.>.;.>.>.>.>.>.>.;.>.-.#.-.-.>.;.I                                           ",
"                                    U ;.>.-.;.:.>.-.;.>.>.>.>.>.>.>.>.;.-.>.:.;.-.>.;.U                                         ",
"                                    Y ;.-.;.;.:.;.-.;.>.>.>.>.>.>.>.>.;.-.;.:.;.;.-.;.Y                                         ",
"                                  T R -.;.;.;.:.+.-.-.:.=.-.;.;.=.:.:.-.-.+.:.;.;.;.-.R T                                       ",
"                                  E ;.;.;.>.;.:.>.-.>.>.>.>.;.;.>.>.>.>.-.>.:.;.>.;.;.;.E                                       ",
"                                  W ;.;.>.>.;.:.;.-.>.>.>.>.;.;.>.>.>.>.-.;.:.-.>.>.;.;.W                                       ",
"                                U ;.;.>.>.>.-.:.=.-.>.>.>.>.-.-.>.>.>.>.-.=.:.-.>.>.>.;.;.U                                     ",
"                                Q ;.>.>.>.>.:.:.;.-.>.>.>.>.>.>.>.>.>.>.-.;.:.:.>.>.>.>.;.!                                     ",
"                                ~ >.>.>.>.>.:.:.-.-.>.:.=.:.:.:.:.=.:.>.-.-.:.:.>.>.>.>.>.~                                     ",
"                                ^ / ( ) _ ` ' ] [ { } |  ...-.-... .X.} { [ ] ' ` _ o.( / ^                                     "
};
