/* XPM */
static char *tile011[] = {
/* columns rows colors chars-per-pixel */
"63 64 59 1 ",
"  c black",
". c #7B7B7B",
"X c #7C7C7C",
"o c #5A5A5A",
"O c #5A5A5A",
"+ c gray35",
"@ c #5B5B5B",
"# c #647A7A",
"$ c #607580",
"% c #5A5A5A",
"& c gray35",
"* c #5A5A5A",
"= c black",
"- c #808080",
"; c #6D6D6D",
": c #66707A",
"> c #63737E",
", c #5A5A5A",
"< c #408080",
"1 c #7C7C7C",
"2 c #5A5A5A",
"3 c #5B5B5B",
"4 c #3C3C3C",
"5 c #808080",
"6 c #393939",
"7 c gray22",
"8 c #557171",
"9 c gray22",
"0 c #6D6D92",
"q c gray22",
"w c #555555",
"e c #393939",
"r c gray23",
"t c #3A3A3A",
"y c #617979",
"u c #393939",
"i c #63727D",
"p c #393939",
"a c #666680",
"s c #393939",
"d c gray22",
"f c #181818",
"g c gray9",
"h c #181818",
"j c #181818",
"k c #181818",
"l c #7B7B7B",
"z c #7B7B7B",
"x c #5A5A5A",
"c c #181818",
"v c None",
"b c #181818",
"n c #393939",
"m c #5A5A5A",
"M c #393939",
"N c #7B7B7B",
"B c #181818",
"V c gray74",
"C c white",
/* pixels */
"                                                               ",
"                                                               ",
"                                                               ",
"                                                               ",
"                                                               ",
"                                                               ",
"                                                               ",
"                                                               ",
"                                                               ",
"                                                               ",
"                                                               ",
"                                                               ",
"                                                               ",
"                                                               ",
"                                                               ",
"                                                               ",
"                                                               ",
"                                                               ",
"                                                               ",
"                                                               ",
"                                                               ",
"                                                               ",
"                                                               ",
"                                                               ",
"                                                               ",
"                                                               ",
"                                                               ",
"                                                               ",
"                                                               ",
"                            .X  X.                             ",
"                            oO  O+                             ",
"                            @m#$m@                             ",
"                            %mMMm%                             ",
"                            &mmmm&                             ",
"                            *mNNm*                             ",
"                            MmNmMM                             ",
"                            MmNmMB                             ",
"                           =MmNmMB=                            ",
"                           -MmNmMB-                            ",
"                           ;MmNmMB;                            ",
"                           :MmNmMB:                            ",
"                           >MmNmMB>                            ",
"                          ;,MmNmMB,;                           ",
"                         <1BMmNmMBB1<                          ",
"                        -2mBMmNmMBBm2-                         ",
"                        3MmBMmNmMBBmM3                         ",
"                       4MMmBMNVVNMMmMM4                        ",
"                      56BmmMMmNmMBBmmB6<                       ",
"                      7BMmMBMmNmMBBMmMB7                       ",
"                     8MBMmBBMmNmMBBBmMBM8                      ",
"                     9BBMmBBMmNmMBBBmMBB9                      ",
"                    0MBBmmBBMmNmMBBBmmBBM0                     ",
"                    qBBMMMBBMmNmMBBBMMMBBq                     ",
"                   weBMBBBBBMmNmMBBBBBBMBew                    ",
"                   rBMBNNNBBMMNVMMBBNNNBMBr                    ",
"                   tMBmmNmBMBBBBBBMBmVmmBMt                    ",
"                  yMBmMNMmMBBBBBBBBMmMNMmBMy                   ",
"                  9MmMMNmmMBBBBBBBBMmmNMMmM9                   ",
"                 wumMMMNNmmNVmMMVNNmmNNMMMmuw                  ",
"                 iMMMBMNMmBBBBMMBBBBmMNMBMMMi                  ",
"                 pMMBBMNmmBBBBMMBBBBmmNmBBMMp                  ",
"                aMMBBBmNNmBBBBmmBBBBmNNmBBBMMa                 ",
"                sMBBBBNNMmBBBBBBBBBBmMNNBBBBMs                 ",
"                dfghjklzxOcvVNNNNVvcOxzlbjhgfn                 "
};
