/* XPM */
static char *tile013[] = {
/* columns rows colors chars-per-pixel */
"65 65 121 2 ",
"   c black",
".  c black",
"X  c #474100",
"o  c #473F00",
"O  c #55AAAA",
"+  c #484000",
"@  c #474100",
"#  c black",
"$  c black",
"%  c black",
"&  c black",
"*  c #607080",
"=  c #63747D",
"-  c #697887",
";  c #808080",
":  c #667777",
">  c #62747D",
",  c #63747D",
"<  c #607580",
"1  c #475800",
"2  c #406000",
"3  c #406000",
"4  c None",
"5  c #475800",
"6  c #3B2700",
"7  c #2C2100",
"8  c black",
"9  c black",
"0  c black",
"q  c black",
"w  c #311F00",
"e  c #302000",
"r  c #312000",
"t  c #302000",
"y  c #302100",
"u  c #302000",
"i  c #2F2100",
"p  c #2F2000",
"a  c #312000",
"s  c #301F00",
"d  c #2F1F00",
"f  c #302000",
"g  c #62747C",
"h  c #63747D",
"j  c #302100",
"k  c #302100",
"l  c #301F00",
"z  c #302000",
"x  c #311F00",
"c  c #64757D",
"v  c white",
"b  c #301F00",
"n  c #584020",
"m  c #593F1F",
"M  c #321F00",
"N  c #584020",
"B  c #56411E",
"V  c #301F00",
"C  c #583F20",
"Z  c #594120",
"A  c #292208",
"S  c #583F20",
"D  c #58411E",
"F  c #2A2108",
"G  c #58401F",
"H  c #5A4120",
"J  c #555555",
"K  c #627689",
"L  c #281F09",
"P  c #190000",
"I  c #180000",
"U  c #170000",
"Y  c #1A0000",
"T  c #180000",
"R  c #281100",
"E  c #302000",
"W  c #270F00",
"Q  c #170000",
"!  c #271100",
"~  c #312100",
"^  c #271000",
"/  c #170000",
"(  c #180000",
")  c #170000",
"_  c #190000",
"`  c #180000",
"'  c #190000",
"]  c #282008",
"[  c #282108",
"{  c #372911",
"}  c #483817",
"|  c #483818",
" . c #4F3818",
".. c #503819",
"X. c #4F3718",
"o. c #503719",
"O. c #513918",
"+. c #513818",
"@. c #584020",
"#. c #584021",
"$. c #58401F",
"%. c #573D1F",
"&. c cyan",
"*. c black",
"=. c #302000",
"-. c #484000",
";. c #406000",
":. c #505000",
">. c gray22",
",. c #281000",
"<. c #383000",
"1. c #080000",
"2. c #485800",
"3. c #387000",
"4. c #200800",
"5. c #503818",
"6. c #483818",
"7. c #282008",
"8. c #382810",
"9. c #180000",
"0. c white",
/* pixels */
"                                                                                                                                  ",
"                                                                                                                                  ",
"                                                                                                                                  ",
"                                                                                                                                  ",
"                                                                                                                                  ",
"                                                                                                                                  ",
"                                                                                                                                  ",
"                                                                                                                                  ",
"                                                                                                                                  ",
"                                                                                                                                  ",
"                                                                                                                                  ",
"                                                                                                                                  ",
"                                                                                                                                  ",
"                                                                                                                                  ",
"                                                                                                                                  ",
"                                                                                                                                  ",
"                                                                                                                                  ",
"                                                                                                                                  ",
"                                                                                                                                  ",
"                                                                                                                                  ",
"                                                                                                                                  ",
"                                                                                                                                  ",
"                                                                                                                                  ",
"                                                                                                                                  ",
"                                                                                                                                  ",
"                                                                                                                                  ",
"                                                                                                                                  ",
"                                                                                                                                  ",
"                                                                                                                                  ",
"                                                                                                                                  ",
"                                                                                                                                  ",
"                                                                                                                                  ",
"                                                                                                                                  ",
"                                                                                                                                  ",
"                                                                                                                                  ",
"                                                                                                                                  ",
"                                                                                                                                  ",
"                                  . X o O                       + @                                                               ",
"                                  # *.*.$                   . % *.*.&                                                             ",
"                                * =.-.-.=.= - ;       ; : > , =.-.-.=.<                                                           ",
"                                1 ;.;.;.;.;.;.;.2 3 4 ;.;.;.;.;.;.;.;.5 .                                                         ",
"                              6 -.:.:.:.:.:.:.:.:.:.:.:.:.:.:.:.:.:.:.-.7                                                         ",
"                              8 =.:.-.-.-.-.-.-.-.-.-.-.-.-.-.-.-.-.>.,.9                                                         ",
"                              0 ,.:.-.-.-.<.<.-.-.-.-.-.-.<.<.-.-.-.>.,.q                                                         ",
"                              w *.:.-.-.<.1.1.<.-.-.-.-.<.1.1.<.-.-.>.*.e                                                         ",
"                              r <.:.-.-.<.2.3.<.-.-.-.-.<.3.2.<.-.-.>.,.t                                                         ",
"                              y <.-.-.-.<.:.3.<.-.-.-.-.<.3.:.<.-.-.>.,.u                                                         ",
"                              i <.=.-.:.<.-.2.<.:.:.:.:.<.2.-.<.>.>.=.,.p                                                         ",
"                              i <.=.=.=.=.-.:.,.=.=.=.=.=.:.-.,.=.=.=.,.t                                                         ",
"                              a <.=.<.<.=.<.-.,.<.<.<.<.=.-.<.,.<.<.=.,.s                                                         ",
"                              d <.=.<.<.4.4.4.4.<.<.<.<.4.4.4.4.<.<.=.,.f                                                         ",
"                              r <.=.<.<.=.:.:.,.<.<.<.<.<.:.:.,.<.<.=.,.s                                                         ",
"                              g <.=.=.=.=.=.=.=.=.=.=.=.=.=.=.=.=.=.=.,.h                                                         ",
"                              j <.:.-.-.-.-.-.-.<.*.,.:.-.-.-.-.-.-.-.,.k                                                         ",
"                              l <.=.<.<.<.<.<.<.=.*.=.=.<.<.<.<.<.<.,.,.z                                                         ",
"                              x <.-.=.=.*.*.=.=.-.*.=.-.=.=.*.*.=.=.-.,.=.c v                                                     ",
"                              b <.:.<.<.*.*.<.<.-.*.=.:.<.<.*.*.<.<.-.,.=.5.n m v                                                 ",
"                              M <.-.<.<.<.<.<.<.-.*.=.-.<.<.<.<.<.<.-.,.=.6.5.5.N B ;                                             ",
"                              V <.=.=.=.=.=.=.=.<.*.=.=.=.=.=.=.=.=.<.1.=.7.8.6.5.5.C Z ;                                         ",
"                              A =.1.,.,.,.,.,.,.*.,.*.,.,.,.,.,.,.,.1.9.7.7.8.6.6.6.6.6.S D ;                                     ",
"                              F 9.9.*.*.*.*.*.,.=.=.=.,.*.*.*.*.*.*.9.9.7.8.8.6.6.6.6.6.5.5.G H J                                 ",
"                              K L P I U Y T R E W Q ! ~ ^ / ( ) _ ` ' ] [ { } |  ...X.o.O.+.@.#.$.%.&.                            ",
"                                                                                                                                  ",
"                                                                                                                                  ",
"                                                                                                                                  "
};
