/* XPM */
static char *tile014[] = {
/* columns rows colors chars-per-pixel */
"65 65 77 1 ",
"  c black",
". c #2E7400",
"X c #377000",
"o c #387100",
"O c #406000",
"+ c #406000",
"@ c #485800",
"# c #505000",
"$ c #515100",
"% c None",
"& c #505000",
"* c #505000",
"= c #505000",
"- c #505000",
"; c #505000",
": c #4F4F00",
"> c #505000",
", c #555500",
"< c #55AAAA",
"1 c #307800",
"2 c #485800",
"3 c #808080",
"4 c #307700",
"5 c #495800",
"6 c #108800",
"7 c #485800",
"8 c #148900",
"9 c #465100",
"0 c #317700",
"q c #474000",
"w c #397000",
"e c #484000",
"r c #406100",
"t c #473F00",
"y c #485800",
"u c #485800",
"i c cyan",
"p c #485800",
"a c #717171",
"s c #61737C",
"d c #503818",
"f c #573F22",
"g c #58401F",
"h c #573F20",
"j c #584020",
"k c #555555",
"l c #574020",
"z c #594021",
"x c #505000",
"c c #484000",
"v c #281000",
"b c #707000",
"n c #C0C000",
"m c #888888",
"M c gray47",
"N c #606060",
"B c #585800",
"V c #686800",
"C c #989800",
"Z c #808000",
"A c #F8F800",
"S c #108800",
"D c #387000",
"F c #208000",
"G c #307800",
"H c #406000",
"J c #383000",
"K c #485800",
"L c #302000",
"P c #483818",
"I c #403018",
"U c #503818",
"Y c #282008",
"T c gray19",
"R c #382810",
"E c #584020",
"W c white",
/* pixels */
"                                                                 ",
"                                                                 ",
"                                                                 ",
"                                                                 ",
"                                                                 ",
"                                                                 ",
"                                                                 ",
"                                                                 ",
"                                                                 ",
"                                                                 ",
"                                                                 ",
"                                                                 ",
"                                                                 ",
"                                                                 ",
"                                                                 ",
"                                                                 ",
"                                                                 ",
"                                                                 ",
"                                                                 ",
"                                                                 ",
"                                                                 ",
"                                                                 ",
"                                                                 ",
"                                                                 ",
"                                                                 ",
"                                                                 ",
"                                                                 ",
"                                                                 ",
"                                                                 ",
"                                                                 ",
"                                                                 ",
"                                                                 ",
"                                                                 ",
"                                                                 ",
"                                                                 ",
"                                                                 ",
"                                                                 ",
"                                                                 ",
"                                                                 ",
"                                                                 ",
"                                                                 ",
"                                                                 ",
"                                                                 ",
"                  .XoO+@#$%xxx%&*=-;:>,                          ",
"                <1cvbnmMNbBVVVBbNMmnbcx23                        ",
"               34cvbnmMNBbBCZCBbBNMmnbcx53                       ",
"               6cvbAmMNNVnBnbnBnVNNMmAbcx7                       ",
"              8SSDFFFFFFFFFFFFFFGGGGGDDcHH9                      ",
"              0xxJcxxxxxxxxxxxxxxxxxxxxHccq                      ",
"              wxxJcxxxxxxxxxxxxxxxxxxxxHxxe                      ",
"              rxxJcxxxxxxGKKKKKKcxxxxxxHxxt                      ",
"              yxxJcxxxxxxGxxxxxxcxxxxxxHxxc                      ",
"              uxxJcxxxxxxDxxxxxxcxxxxxxHxxci                     ",
"              pxxLJcccccccJJJJJJcccccccKxxca                     ",
"              KxxJxHHHHHHxccccccxHHHHHHKxxcs                     ",
"              KxxJcxxxxxxxxxxxxxxxxxxxxKxxcPdf                   ",
"              KxxJcxxxxxxxxxxxxxxxxxxxxKxxcIPUg3                 ",
"              KxxJcxxxxxxxxxxxxxxxxxxxxKxxcYTPUh<                ",
"              KxxJcxxxxxxxxxxxxxxxxxxxxKxxcRIPPPjk               ",
"              KxxJcxxxxxxxxxxxxxxxxxxxxKxxcIIPPPUl3              ",
"              JJJJJJJJJJJJJJJJJJJJJJJJJcJJJPPPUUUEz3             ",
"                                                                 ",
"                                                                 ",
"                                                                 ",
"                                                                 "
};
