/* XPM */
static char *tile017[] = {
/* columns rows colors chars-per-pixel */
"65 65 68 1 ",
"  c black",
". c #696900",
"X c #64747C",
"o c #667380",
"O c #707000",
"+ c #5D7474",
"@ c #707000",
"# c #71718E",
"$ c #55AAAA",
"% c #707000",
"& c #707000",
"* c #808080",
"= c #707000",
"- c #6F6F00",
"; c #6A6A00",
": c None",
"> c #606000",
", c #6A6A00",
"< c #696900",
"1 c #686800",
"2 c #686800",
"3 c #686800",
"4 c black",
"5 c #686800",
"6 c #6D6D6D",
"7 c #686800",
"8 c #687880",
"9 c #686800",
"0 c #63737B",
"q c #584020",
"w c #686800",
"e c #717171",
"r c #686800",
"t c #594120",
"y c #686800",
"u c #493817",
"i c #676700",
"p c #696900",
"a c #57401E",
"s c #666600",
"d c #513918",
"f c blue",
"g c cyan",
"h c #666699",
"j c #557171",
"k c #667777",
"l c #667780",
"z c #63747D",
"x c #697887",
"c c #707000",
"v c #585800",
"b c #686800",
"n c gray47",
"m c #888888",
"M c #484800",
"N c #404000",
"B c #606060",
"V c gray44",
"C c #303000",
"Z c #282828",
"A c #880000",
"S c #202020",
"D c #808000",
"F c #909000",
"G c #483818",
"H c #382810",
"J c #503818",
"K c white",
/* pixels */
"                                                                 ",
"                                                                 ",
"                                                                 ",
"                                                                 ",
"                                                                 ",
"                                                                 ",
"                                                                 ",
"                                                                 ",
"                                                                 ",
"                                                                 ",
"                                                                 ",
"                                                                 ",
"                                                                 ",
"                                                                 ",
"                                                                 ",
"                                                                 ",
"                                                                 ",
"                                                                 ",
"                                                                 ",
"                                                                 ",
"                                                                 ",
"                                                                 ",
"                                                                 ",
"                                                                 ",
"                                                                 ",
"                                                                 ",
"                                                                 ",
"                                                                 ",
"                                                                 ",
"                                                                 ",
"                                                                 ",
"                                                                 ",
"                                                                 ",
"                                                                 ",
"                                                                 ",
"                                                                 ",
"                                                                 ",
"                                                                 ",
"                                                                 ",
"                                                                 ",
"                                                                 ",
"                                                                 ",
"                                                                 ",
"                    .cccccccccccccccccccc.                       ",
"                   XvvvvvvvvvvvvvvvvvvvvvvX                      ",
"                  oOcbbbnmbcccccccccbnmbbcOo                     ",
"                 +@vMMMMMMMMMMMMMMMMMMMMMMv@#                    ",
"                $%vMNBBBBVBNBBBBBVBNBBBBVNNv&*                   ",
"                =vMCZnmnAnVZVnmnAnVZVmnAnVSCv-                   ",
"               ;ccDFFFFFFFFFFFFFFFFFFFFFFFFDc:>                  ",
"               ,vMvvvvvvvvvvvvvvvvvvvvvvvvvvMv<                  ",
"               1vMvvvvvvvvvvvvvvvvvvvvvvvvvvMv2                  ",
"               3vNNMMMMMMMMMMMMMMMMMMMMMMMMNNvb4                 ",
"               5vvcccccccccccccccccccccccccbvvb6                 ",
"               7vMvvvvvvvvvvvvvvvvvvvvvvvvvvMvb8                 ",
"               9vMvvvvvvvvvvvvvvvvvvvvvvvvvvMvb0                 ",
"               9vNNMMMMMMMMMMMMMMMMMMMMMMMMNNvbq                 ",
"               wvvcccccccccccccccccccccccccbvvbGe                ",
"               rvMvvvvvvvvvvvvvvvvvvvvvvvvvvMvbGt                ",
"               yvMvvvvvvvvvvvvvvvvvvvvvvvvvvMvbHu                ",
"               ivNMMMMMMMMMMMMMMMMMMMMMMMMMMNvbHG+               ",
"               pvNNNNNNNNNNNNNNNNNNNNNNNNNNNNvbHGa               ",
"               svHHHHHHHHHHHHHHHHHHHHHHHHHHHHHHHGd               ",
"    44fg***$hjklzGGGGGGGGGGGGGGGGGGGGGGGGGGGGGGGGJx              ",
"                                                                 "
};
