/* XPM */
static char *tile019[] = {
/* columns rows colors chars-per-pixel */
"65 65 97 2 ",
"   c black",
".  c #808080",
"X  c #6D6D6D",
"o  c #989898",
"O  c gray69",
"+  c #898989",
"@  c gray44",
"#  c #898989",
"$  c #505050",
"%  c #4C4C4C",
"&  c gray44",
"*  c None",
"=  c #63737E",
"-  c gray40",
";  c #55AAAA",
":  c #393939",
">  c gray28",
",  c #505050",
"<  c #606060",
"1  c #797979",
"2  c #898989",
"3  c #5555AA",
"4  c #697887",
"5  c gray44",
"6  c #66757C",
"7  c white",
"8  c #647A7A",
"9  c gray22",
"0  c #888888",
"q  c #63747D",
"w  c #63747D",
"e  c #939300",
"r  c #808000",
"t  c #63747C",
"y  c #808000",
"u  c #61757D",
"i  c #707000",
"p  c #617380",
"a  c #686800",
"s  c #667780",
"d  c #686800",
"f  c #646F7A",
"g  c #697878",
"h  c #686800",
"j  c #627676",
"k  c #686800",
"l  c #666680",
"z  c #676700",
"x  c #6D6D92",
"c  c #676700",
"v  c #666699",
"b  c #686800",
"n  c #676700",
"m  c #686800",
"M  c cyan",
"N  c #676700",
"B  c black",
"V  c #686800",
"C  c #484800",
"Z  c #696900",
"A  c #484800",
"S  c #696900",
"D  c #474700",
"F  c #686800",
"G  c #483818",
"H  c #483719",
"J  c #503918",
"K  c #503818",
"L  c #607080",
"P  c #556A80",
"I  c #503917",
"U  c #503718",
"Y  c #63757D",
"T  c #63747D",
"R  c #61727B",
"E  c #667380",
"W  c #557171",
"Q  c #558080",
"!  c #555555",
"~  c blue",
"^  c gray66",
"/  c gray47",
"(  c #989898",
")  c #888888",
"_  c #606060",
"`  c gray22",
"'  c #484800",
"]  c #63747D",
"[  c #484848",
"{  c #707000",
"}  c #686800",
"|  c #585800",
" . c #404000",
".. c #483818",
"X. c #382810",
"o. c #503818",
"O. c white",
/* pixels */
"                                                                                                                                  ",
"                                                                                                                                  ",
"                                                                                                                                  ",
"                                                                                                                                  ",
"                                                                                                                                  ",
"                                                                                                                                  ",
"                                                                                                                                  ",
"                                                                                                                                  ",
"                                                                                                                                  ",
"                                                                                                                                  ",
"                                                                                                                                  ",
"                                                                                                                                  ",
"                                                                                                                                  ",
"                                                                                                                                  ",
"                                                                                                                                  ",
"                                                                                                                                  ",
"                                                                                                                                  ",
"                                                                                                                                  ",
"                                                                                                                                  ",
"                                                                                                                                  ",
"                                                                                                                                  ",
"                                                                                                                                  ",
"                                                                                                                                  ",
"                                                                                                                                  ",
"                                                                                                                                  ",
"                                                                                                                                  ",
"                                                                                                                                  ",
"                                                                                                                                  ",
"                                                                                                                                  ",
"                                                                                                                                  ",
"                                                                                                                                  ",
"                                                                                                                                  ",
"                                                                                                                                  ",
"                                                                                                                                  ",
"                                                                                                                                  ",
"                                                                                                                                  ",
"                                                                                                                                  ",
"                                                                                                                                  ",
"                                                                                                                                  ",
"                                                                        . X o O +                                                 ",
"                                                                      @ # ^ / $ %                                                 ",
"                                                                  . & ( / * = -                                                   ",
"                                              ; : > , < 1 2 3   4 5 ) _ ` 6                                                       ",
"                                          7 8 9 ' ] ] ] ] [ 0 q ^ / _ ` w                                                         ",
"                                      e r { { { { { { { { { } } } } } ' t                                                         ",
"                                      y } | ' ' ' ' ' ' ' ' ' ' ' ' | ' u                                                         ",
"                                      i |  .' ' ' ' ' ' ' ' ' ' '  .| ' p                                                         ",
"                                      a | |  .' ' ' ' ' ' ' ' '  .| | ' s                                                         ",
"                                      d | ' |  .' ' ' ' ' ' '  .| ' | ' f                                                         ",
"                                      a | ' ' |  .' ' ' ' '  .| ' ' | ' g                                                         ",
"                                      h | ' ' ' |  .' ' '  .| ' ' ' | ' j                                                         ",
"                                      k | ' ' ' ' |  .'  .| ' ' ' ' | ' l                                                         ",
"                                      z | ' ' ' ' ' |  .| ' ' ' ' ' | ' x                                                         ",
"                                      c | ' ' ' ' '  .|  .' ' ' ' ' | ' v                                                         ",
"                                      b | ' ' ' '  .| ' |  .' ' ' ' | ' ;                                                         ",
"                                      n | ' ' '  .| ' ' ' |  .' ' ' | ' .                                                         ",
"                                      m | ' '  .| ' ' ' ' ' |  .' ' | ' M                                                         ",
"                                      N | '  .| ' ' ' ' ' ' ' |  .' | ' B                                                         ",
"                                      V |  .| ' ' ' ' ' ' ' ' ' |  .| C                                                           ",
"                                      Z | | ' ' ' ' ' ' ' ' ' ' ' | | A                                                           ",
"                                      S | | | | | | | | | | | | | | | D 3                                                         ",
"                                      F ' ' ' ' ' ' ' ' ' ' ' ' ' ' ' ' ..G H J K L P 7                                           ",
"                                      I ..X.X.X.X.X.X.X.X.X.X.X.X.X.X.X.X.X.............U B                                       ",
"                                      Y o.o...................................o.o.o.] T R L E j W Q - ; ! . . . . M ~ B B B       ",
"                                                                                                                                  "
};
