/* XPM */
static char *tile000[] = {
/* columns rows colors chars-per-pixel */
"65 66 45 1 ",
"  c black",
". c black",
"X c #009B9B",
"o c #009898",
"O c #008080",
"+ c #008181",
"@ c #008181",
"# c #008080",
"$ c #009696",
"% c #00B2B2",
"& c #004040",
"* c #00B0B0",
"= c #004040",
"- c cyan",
"; c #00B0B0",
": c None",
"> c #637180",
", c #63757C",
"< c #009898",
"1 c #558080",
"2 c #71718E",
"3 c #61737C",
"4 c #009797",
"5 c #584020",
"6 c #563F21",
"7 c #005959",
"8 c #004040",
"9 c #004040",
"0 c #003F3F",
"q c #004040",
"w c #004040",
"e c #584020",
"r c #594020",
"t c #593F21",
"y c #5A4020",
"u c #5C3D1F",
"i c #007070",
"p c #005858",
"a c #282828",
"s c #004040",
"d c #009898",
"f c #00B0B0",
"g c #008080",
"h c #584020",
"j c white",
/* pixels */
"                                                                 ",
"                                                                 ",
"                                                                 ",
"                                                                 ",
"                                                                 ",
"                                                                 ",
"                                                                 ",
"                                                                 ",
"                                                                 ",
"                                                                 ",
"                                                                 ",
"                                                                 ",
"                                                                 ",
"                                                                 ",
"                                                                 ",
"                                                                 ",
"                                                                 ",
"                                                                 ",
"                                                                 ",
"                                                                 ",
"                                                                 ",
"                                                                 ",
"                                                                 ",
"                                                                 ",
"                                                                 ",
"                                                                 ",
"                                                                 ",
"                                                                 ",
"                                                                 ",
"                                                                 ",
"                                                                 ",
"                                                                 ",
"                                                                 ",
"                                                                 ",
"                                                                 ",
"                                                                 ",
"                                                                 ",
"                                                                 ",
"                                                                 ",
"                                                                 ",
"                                                                 ",
"                                                                 ",
"                                                                 ",
"                                                                 ",
"                                                                 ",
"                                                                 ",
"                                                                 ",
"                                                                 ",
"                                                                 ",
"                                                                 ",
"                                                                 ",
"                                                                 ",
"                                                                 ",
"                                                                 ",
"                            .XoO+@#$                             ",
"                            %ipaasd&                             ",
"                            *fdgdds=                             ",
"                           -;ipipps:                             ",
"                           >disispss                             ",
"                           ,disispss.                            ",
"                           <gipippss1                            ",
"                          2diiiiipss3.                           ",
"                          4giiiipssshh56                         ",
"                          7890q:sw=ertyu                         ",
"                                                                 ",
"                                                                 "
};
