/* XPM */
static char *_[] = {
/* columns rows colors chars-per-pixel */
"64 64 94 2 ",
"   c black",
".  c #555555",
"X  c gray22",
"o  c #7B7B7B",
"O  c #7B7B7B",
"+  c gray22",
"@  c #808080",
"#  c #5A5A5A",
"$  c #393939",
"%  c #191919",
"&  c #191919",
"*  c #181818",
"=  c gray9",
"-  c gray9",
";  c #181818",
":  c #6A8080",
">  c #6A6A80",
",  c #63747E",
"<  c black",
"1  c gray35",
"2  c gray35",
"3  c #5A5A5A",
"4  c #3A3A3A",
"5  c gray23",
"6  c gray22",
"7  c #3A3A3A",
"8  c #393939",
"9  c #393939",
"0  c #3A3A3A",
"q  c #3A3A3A",
"w  c #393939",
"e  c None",
"r  c #717171",
"t  c #62747D",
"y  c #C77349",
"u  c #6D6D6D",
"i  c #F1A575",
"p  c #66707A",
"a  c #C6734A",
"s  c #666699",
"d  c #64757E",
"f  c #EFA574",
"g  c #835132",
"h  c #647A7A",
"j  c #80552B",
"k  c #EEBC9C",
"l  c #845231",
"z  c #667780",
"x  c #80512E",
"c  c #EFDECE",
"v  c #855132",
"b  c #FFFFBF",
"n  c #608080",
"m  c #F6E3D0",
"M  c #855131",
"N  c #EFBB9C",
"B  c cyan",
"V  c #845231",
"C  c #F1A473",
"Z  c #64747C",
"A  c #63747A",
"S  c #835331",
"D  c #68717B",
"F  c #855331",
"G  c #627676",
"H  c #67757C",
"J  c #808080",
"K  c #855231",
"L  c #845331",
"P  c #835230",
"I  c #805030",
"U  c #C67248",
"Y  c #C5724A",
"T  c #C6724A",
"R  c #C6734A",
"E  c #C7734B",
"W  c #C67349",
"Q  c #845132",
"!  c #835231",
"~  c #845231",
"^  c #845231",
"/  c #F0A573",
"(  c #EFA573",
")  c #7B7B7B",
"_  c white",
"`  c #5A5A5A",
"'  c #393939",
"]  c #EFDECE",
"[  c gray74",
"{  c #181818",
"}  c #845231",
"|  c #C6734A",
" . c #EFA573",
".. c #EFBD9C",
/* pixels */
"                                                                                                                                ",
"                                                                                                                                ",
"                                                                                                                                ",
"                                                                                                                                ",
"                                                                                                                                ",
"                                                                                                                                ",
"                                                                                                                                ",
"                                                                                                                                ",
"                                                                                                                                ",
"                                                                                                                                ",
"                                                                                                                                ",
"                                                                                                                                ",
"                                                                                                                                ",
"                                                                                                                                ",
"                                                                                                                                ",
"                                                                                                                                ",
"                                                                                                                                ",
"                                                                                                                                ",
"                                                                                                                                ",
"                                                                                                                                ",
"                                                                                                                                ",
"                                                                                                                                ",
"                                                                                                                                ",
"                                                                                                                                ",
"                                                                                                                                ",
"                                                                                                                                ",
"                                                                                                                                ",
"                                                                                                                                ",
"                                                  . X o O + .                                                                   ",
"                                                @ # ) _ ) ` $ @                                                                 ",
"                                                % ` ) _ ) ` ' &                                                                 ",
"                                                * ` ) ] ) ` ' =                                                                 ",
"                                                - ` ) [ ) ` ' ;                                                                 ",
"                                              : { ` ) [ ) ` ' { >                                                               ",
"                                              , { ` ) [ ) ` ' { ,                                                               ",
"                                          < 1 [ { ) [ [ [ [ ) { [ 1 <                                                           ",
"                                        < 2 ` ) { ) _ ) ) _ ) { ) ` 3 <                                                         ",
"                                        4 ' ` ) { [ ] ) ) ] ) { ) ` ` 5                                                         ",
"                                        6 ' ` ) { [ ) ` ` ) ) { ) ` ` 7                                                         ",
"                                        8 ' ` ) { [ ` ' ' ` ) { ) ` ' 9                                                         ",
"                                        0 ' ` ) ' ) [ [ [ [ ) ' ) ` ' q                                                         ",
"                                        w ' ` ) ' ` ) ) ) ) ` ' ) ` ' '                                                         ",
"                                        e ' ` ) ' ` ` ` ` ` ` ' ) ` ' ' @                                                       ",
"                                        ' ' ' ` ' { { { { { { ' ` ' { { r                                                       ",
"                                      < ' { { ` ' ' ' ' ' ' ' ' ' { { { t                                                       ",
"                                      @ ' { { ' ' ) ` ` ) [ ) ' ' { { { } y                                                     ",
"                                      u ' { { { ' ` ` ) [ [ ) ' { { { { } | i                                                   ",
"                                      p ' { { { ' { { { { { { ' { { { { } | a s                                                 ",
"                                      d ' { { { ' { { { { { { ' { { { { } } | f                                                 ",
"                                    g } ' ' { { ' { { ' ' { { ' { { ' { } } |  .h                                               ",
"                                  j } } ' ` ' { ' { { { { { { ' { ' ` { } } |  .k                                               ",
"                                  l } } } ) ` { ' ' { { { { ' ' { ` { } } } } | ..z                                             ",
"                                x } } } } } ) { ' ' ' ' ' ' ' ' ' { } } } } } |  .c                                             ",
"                                v } } | | } } { ` ` ) ) ) ) ` ` ' } | | } } } |  .] b                                           ",
"                              n } } |  . .| } { { { { { { { { { { | |  .} } } |  .] m                                           ",
"                              M } } |  .......} } } |  . .| } } | ....} } | |  . .] N                                           ",
"                            B V } } } |  . . . .} } } | ....| | |  .} } | | |  ...] C                                           ",
"                            Z } | } } } |  . . .......} } }  .| | } } | } | | ..] ] A                                           ",
"                            S | ..| } } } |  ...] .... .| | } } } | | } } |  ...] ] D                                           ",
"                          . F | .. .| } } } | .. . .| | } } | | | } } } } |  ...] ..G                                           ",
"                          H }  ... . .| } } }  . .| | } } } } } } } } } |  . ...]  .J                                           ",
"                          K |  . . . .| | } } |  .| } } } } } } } } } } |  . ...] F                                             ",
"                          L |  . . .| | | } } }  . .| } } } } } } } } } |  . ...] P                                             ",
"                          I U Y T R E W P Q ! ~ ^ / ( | } } } } } } } } |  . ...] v                                             "
};
