/* XPM */
static char *_[] = {
/* columns rows colors chars-per-pixel */
"64 64 129 2 ",
"   c black",
".  c #555555",
"X  c #393939",
"o  c #7B7B7B",
"O  c #7B7B7B",
"+  c gray22",
"@  c cyan",
"#  c #5A5A5A",
"$  c #3A3A3A",
"%  c #808080",
"&  c #161616",
"*  c gray10",
"=  c #181818",
"-  c #181818",
";  c #181818",
":  c #181818",
">  c #667380",
",  c #63747E",
"<  c black",
"1  c #5B5B5B",
"2  c gray35",
"3  c gray35",
"4  c #5A5A5A",
"5  c #373737",
"6  c gray23",
"7  c #393939",
"8  c #393939",
"9  c #393939",
"0  c #393939",
"q  c #393939",
"w  c #393939",
"e  c #558080",
"r  c #65747E",
"t  c #808080",
"y  c #C6734A",
"u  c #C8754C",
"i  c #637180",
"p  c #F1BE9E",
"a  c #63747D",
"s  c #EEBD9C",
"d  c #835232",
"f  c #EFBB9B",
"g  c #845133",
"h  c #EEBD9C",
"j  c #55AAAA",
"k  c #845231",
"l  c #68717B",
"z  c #845332",
"x  c #EEBD9D",
"c  c #845231",
"v  c #EFDDCE",
"b  c #824F33",
"n  c gray75",
"m  c #855232",
"M  c #F0E1D2",
"N  c #608080",
"B  c #EFBF97",
"V  c #865131",
"C  c #EEA274",
"Z  c #845231",
"A  c #637180",
"S  c #667A7A",
"D  c #607580",
"F  c #627676",
"G  c #83542F",
"H  c #71718E",
"J  c #855231",
"K  c #697878",
"L  c #855231",
"P  c #61747D",
"I  c #607080",
"U  c #63747C",
"Y  c #62747C",
"T  c #66707A",
"R  c #606080",
"E  c #7B7B7B",
"W  c #5A5A5A",
"Q  c #5A5A5A",
"!  c #62757C",
"~  c #797979",
"^  c #62737B",
"/  c #845232",
"(  c #EEDECE",
")  c #6D6D6D",
"_  c gray74",
"`  c gray22",
"'  c #64747C",
"]  c #7B7B7B",
"[  c gray",
"{  c #5B5B5B",
"}  c #717171",
"|  c gray49",
" . c gray74",
".. c #5B5B5B",
"X. c gray74",
"o. c #666699",
"O. c gray",
"+. c #585858",
"@. c #7B7B7B",
"#. c #627689",
"$. c #5F757C",
"%. c gray74",
"&. c #5A5A5A",
"*. c gray74",
"=. c #667780",
"-. c #7C7C7C",
";. c gray",
":. c #5A5A5A",
">. c None",
",. c #3A3A3A",
"<. c gray9",
"1. c gray9",
"2. c #393939",
"3. c #7C7C7C",
"4. c gray74",
"5. c white",
"6. c white",
"7. c #BBBBBB",
"8. c #7B7B7B",
"9. c white",
"0. c #5A5A5A",
"q. c #393939",
"w. c #EFDECE",
"e. c gray74",
"r. c #181818",
"t. c #845231",
"y. c #C6734A",
"u. c #EFA573",
"i. c #EFBD9C",
/* pixels */
"                                                                                                                                ",
"                                                                                                                                ",
"                                                                                                                                ",
"                                                                                                                                ",
"                                                                                                                                ",
"                                                                                                                                ",
"                                                                                                                                ",
"                                                                                                                                ",
"                                                                                                                                ",
"                                                                                                                                ",
"                                                                                                                                ",
"                                                                                                                                ",
"                                                                                                                                ",
"                                                                                                                                ",
"                                                                                                                                ",
"                                                                                                                                ",
"                                                  . X o O + .                                                                   ",
"                                                @ # 8.9.8.0.$ %                                                                 ",
"                                                & 0.8.9.8.0.q.*                                                                 ",
"                                                = 0.8.w.8.0.q.-                                                                 ",
"                                                ; 0.8.e.8.0.q.:                                                                 ",
"                                              % r.0.8.e.8.0.q.r.%                                                               ",
"                                              > r.0.8.e.8.0.q.r.>                                                               ",
"                                              , r.0.8.e.8.0.q.r.,                                                               ",
"                                          < 1 e.r.8.e.e.e.e.8.r.e.2 <                                                           ",
"                                        < 3 0.8.r.8.9.8.8.9.8.r.8.0.4                                                           ",
"                                        5 q.0.8.r.e.w.8.8.w.8.r.8.0.0.6                                                         ",
"                                        7 q.0.8.r.e.8.0.0.8.8.r.8.0.0.8                                                         ",
"                                        9 q.0.8.r.e.0.q.q.0.8.r.8.0.q.0                                                         ",
"                                        q q.0.8.q.8.e.e.e.e.8.q.8.0.q.w                                                         ",
"                                        w q.0.8.q.0.8.8.8.8.0.q.8.0.q.q.<                                                       ",
"                                        q.q.0.8.q.0.0.0.0.0.0.q.8.0.q.q.e                                                       ",
"                                      @ q.q.q.0.q.r.r.r.r.r.r.q.0.q.r.r.r                                                       ",
"                                      t q.r.r.0.q.q.q.q.q.q.q.q.q.r.r.r.t.y u                                                   ",
"                                      i q.r.r.q.q.8.0.0.8.e.8.q.q.r.r.r.t.y.u.p                                                 ",
"                                      a q.r.r.r.q.0.0.8.e.e.8.q.r.r.r.r.t.y.y.s t                                               ",
"                                    d t.q.r.r.r.q.r.r.r.r.r.r.q.r.r.r.r.t.t.y.u.f                                               ",
"                                  g t.t.q.q.r.r.q.r.r.q.q.r.r.q.r.r.q.r.t.t.y.u.h @                                             ",
"                                j k t.t.q.0.q.r.q.r.r.r.r.r.r.q.r.q.0.r.t.t.y.u.i.l                                             ",
"                                z t.t.t.t.8.0.r.q.q.r.r.r.r.q.q.r.0.r.t.t.t.t.y.i.x                                             ",
"                              % c t.t.t.t.t.8.r.q.q.q.q.q.q.q.q.q.r.t.t.t.t.t.y.u.v                                             ",
"                              b t.t.t.y.y.t.t.r.0.0.8.8.8.8.0.0.q.t.y.y.t.t.t.y.u.w.n                                           ",
"                              m t.t.y.u.u.y.t.r.r.r.r.r.r.r.r.r.r.y.y.u.t.t.t.y.u.w.M                                           ",
"                            N t.t.t.y.u.i.i.i.t.t.t.y.u.u.y.t.t.y.i.i.t.t.y.y.u.u.w.B                                           ",
"                            V y.u.t.t.y.u.u.u.u.t.t.t.y.i.i.y.y.y.u.t.t.y.y.y.u.i.w.C                                           ",
"                            Z y.u.y.t.t.y.u.u.u.i.i.i.t.t.t.u.y.y.t.t.y.t.y.y.i.w.w.A                                           ",
"                          . t.y.i.u.y.t.t.y.u.i.w.i.i.u.y.y.t.t.t.y.y.t.t.y.u.i.w.w.S                                           ",
"                          D t.y.i.u.u.y.t.t.y.i.u.u.y.y.t.t.y.y.y.t.t.t.t.y.u.i.w.i.F                                           ",
"                          G y.u.i.u.u.y.y.t.t.u.u.y.y.t.t.t.t.t.t.t.t.t.y.u.u.i.w.u.H                                           ",
"                          J y.u.u.u.u.y.y.y.t.y.u.y.t.t.t.t.t.t.t.t.t.t.y.u.u.i.w.t.K                                           ",
"                        % L y.u.u.u.y.y.y.t.t.t.u.u.y.t.t.t.t.t.t.t.t.t.y.u.u.i.w.t.P                                           ",
"                        I t.y.y.y.y.y.y.t.t.t.q.t.u.u.y.t.t.t.t.t.t.t.t.y.u.u.i.w.t.U                                           ",
"                        Y t.y.y.y.y.y.t.t.t.q.q.q.t.y.y.y.t.t.t.t.t.t.8.8.8.8.8.8.8.0.T                                         ",
"                      R 0.8.e.e.e.8.8.t.t.t.r.r.r.r.q.t.y.y.t.t.0.8.e.e.e.e.e.e.e.w.9.E <                                       ",
"                      W e.w.w.w.w.w.w.w.e.8.0.q.r.q.Q ! t.t.0.8.e.e.e.e.e.8.8.e.e.e.9.9.~                                       ",
"                    D e.w.9.9.w.w.w.e.e.8.8.0.0.0.0.^   / 0.8.e.e.e.0.q.r.q.8.8.8.e.e.9.( )                                     ",
"                  @ _ w.9.9.9.9.w.e.8.8.8.0.q.q.r.r.`   ' 8.8.w.e.8.q.r.0.0.0.e.e.e.e.9.w.]                                     ",
"                  [ e.e.e.w.9.9.9.w.e.e.0.r.r.r.r.r.{   } 8.9.w.0.q.r.r.r.0.0.8.8.e.e.w.9.w.|                                   ",
"                e  .w.9.9.9.9.9.9.9.9.w.e.8.q.r.r.r...  % 8.9.0.q.r.r.0.8.8.8.8.8.0.0.8.e.9.X.o.                                ",
"                O.9.9.9.w.e.e.e.e.e.w.w.e.8.0.q.r.q.+.  < 8.8.q.r.0.8.8.0.0.0.8.e.e.8.0.0.e.w.@.                                ",
"              #.e.9.9.w.e.e.8.8.8.8.0.0.0.0.q.r.r.0.e     8.0.r.0.8.0.0.q.r.r.q.0.8.e.e.8.0.e.w.$.                              ",
"              %.9.w.e.e.8.8.e.9.8.0.q.q.q.q.r.r.q.&.      8.q.0.8.0.0.0.8.0.q.r.r.q.0.8.e.e.8.w.*.%                             ",
"            K 9.9.w.e.8.0.0.8.e.e.8.0.0.q.r.r.r.0.=.      8.q.8.8.8.e.e.8.8.0.0.q.r.r.q.8.e.9.9.e.-.                            ",
"            ;.9.9.w.e.8.0.0.0.8.8.e.8.q.q.r.r.q.:.<       8.8.8.e.w.w.w.e.8.8.8.>.,.<.1.2.3.4.5.6.7.                            "
};
