/* XPM */
static char *_[] = {
/* columns rows colors chars-per-pixel */
"64 64 158 2 ",
"   c black",
".  c #DD0000",
"X  c #DE0000",
"o  c #DE0000",
"O  c #DA0000",
"+  c #DB0000",
"@  c #F85A08",
"#  c #DC0000",
"$  c #666680",
"%  c #F75A08",
"&  c #E30000",
"*  c black",
"=  c #DD0000",
"-  c #DE0000",
";  c #555555",
":  c #DE0000",
">  c #DE0000",
",  c #808080",
"<  c #DD0000",
"1  c #668080",
"2  c #DE0000",
"3  c #DE0000",
"4  c #608080",
"5  c #5A7878",
"6  c #DE0000",
"7  c #DF0000",
"8  c None",
"9  c #DF0000",
"0  c #DD0000",
"q  c #DE0000",
"w  c #DE0000",
"e  c #DE0000",
"r  c #DD0000",
"t  c #DE0000",
"y  c #EE7B18",
"u  c white",
"i  c #DF0000",
"p  c #DE0000",
"a  c #E10000",
"s  c blue",
"d  c #DF0000",
"f  c #71718E",
"g  c #62747C",
"h  c #63747C",
"j  c gray35",
"k  c #F7B421",
"l  c gray35",
"z  c #5A5A5A",
"x  c #5A5A5A",
"c  c #373737",
"v  c #393939",
"b  c #393939",
"n  c #3A3A3A",
"m  c #393939",
"M  c #393939",
"N  c #393939",
"B  c #3A3A3A",
"V  c #393939",
"C  c cyan",
"Z  c #61727B",
"A  c gray40",
"S  c #C8744B",
"D  c #687480",
"F  c #ECA270",
"G  c #62737E",
"H  c #EFA573",
"J  c #845231",
"K  c #EEA472",
"L  c #808080",
"P  c #835131",
"I  c #5D7474",
"U  c #845130",
"Y  c #EFBC9B",
"T  c #894E3B",
"R  c #845231",
"E  c #EFDCCC",
"W  c #845231",
"Q  c #EFDECE",
"!  c #825432",
"~  c #F1E3C6",
"^  c #845231",
"/  c #EBB99B",
"(  c #6D6D6D",
")  c #F1A675",
"_  c #825032",
"`  c #845133",
"'  c #835231",
"]  c #64767C",
"[  c #855331",
"{  c #646F7A",
"}  c #61727B",
"|  c #6D8080",
" . c #845331",
".. c #617979",
"X. c #845230",
"o. c #63737B",
"O. c #60757C",
"+. c #63737D",
"@. c #63737D",
"#. c #647680",
"$. c #627676",
"%. c #7C7C7C",
"&. c #5A5A5A",
"*. c #393939",
"=. c #62757C",
"-. c #7B7B7B",
";. c #62737B",
":. c #845232",
">. c gray74",
",. c #606080",
"<. c #5A5A5A",
"1. c gray22",
"2. c #64747C",
"3. c #7B7B7B",
"4. c #585858",
"5. c #5B5B5B",
"6. c #717171",
"7. c gray48",
"8. c gray74",
"9. c #5B5B5B",
"0. c gray74",
"q. c #558080",
"w. c #5A5A5A",
"e. c #585858",
"r. c #7C7C7C",
"t. c #627689",
"y. c #5F757C",
"u. c #5A5A5A",
"i. c gray74",
"p. c #697878",
"a. c #667780",
"s. c #7C7C7C",
"d. c #5B5B5B",
"f. c #5A5A5A",
"g. c #5A5A5A",
"h. c gray9",
"j. c gray9",
"k. c #393939",
"l. c #7C7C7C",
"z. c gray74",
"x. c white",
"c. c white",
"v. c #BBBBBB",
"b. c #DE0000",
"n. c #F75A08",
"m. c #EF7B18",
"M. c #F7B521",
"N. c #EFDECE",
"B. c #EFBD9C",
"V. c #EFA573",
"C. c white",
"Z. c gray74",
"A. c #7B7B7B",
"S. c #5A5A5A",
"D. c #181818",
"F. c #393939",
"G. c #C6734A",
"H. c #845231",
/* pixels */
"                                                                                                                                ",
"                                                                                                                                ",
"                                                                                                                                ",
"                                                                                                                                ",
"                                                                                                                                ",
"                                                                                                                                ",
"                                                                                                                                ",
"                                                    . X o O                                                                     ",
"                                                  + @ b.n.b.#                                                                   ",
"                                                $ % b.n.b.n.b.&                                                                 ",
"                                              * = b.m.m.m.n.n.- ;                                                               ",
"                                              : n.m.M.m.M.m.n.n.>                                                               ",
"                                            , < n.M.m.M.m.M.m.n.n.1                                                             ",
"                                            2 n.m.M.N.B.N.V.M.m.n.3                                                             ",
"                                          4 n.n.V.N.B.C.N.C.B.V.n.n.5                                                           ",
"                                          6 n.n.B.N.C.C.C.C.N.B.n.n.7                                                           ",
"                                        , 8 n.m.N.C.C.Z.Z.N.C.N.n.n.n.$                                                         ",
"                                        9 n.n.M.C.A.A.C.A.S.A.N.M.m.n.0                                                         ",
"                                        q n.m.N.D.S.A.C.A.S.F.D.N.m.m.w                                                         ",
"                                        e m.M.N.D.S.A.C.A.S.F.D.N.M.m.r                                                         ",
"                                        t m.M.N.D.S.A.N.A.S.F.D.N.M.y $                                                         ",
"                                        u i n.M.D.S.A.Z.A.S.F.D.M.p a                                                           ",
"                                          s d n.D.S.A.Z.A.S.F.D.- f                                                             ",
"                                              g D.S.A.Z.A.S.F.D.h                                                               ",
"                                          * j k D.A.M.C.C.M.A.D.M.l *                                                           ",
"                                        * z S.A.D.A.C.A.A.C.A.D.A.S.x                                                           ",
"                                        c F.S.A.D.Z.N.A.A.N.A.D.A.S.S.v                                                         ",
"                                        b F.S.A.D.Z.A.S.S.A.A.D.A.S.S.n                                                         ",
"                                        m F.S.A.D.Z.S.F.F.S.A.D.A.S.F.M                                                         ",
"                                        N F.S.A.F.A.Z.Z.Z.Z.A.F.A.S.F.B                                                         ",
"                                        V F.S.A.F.S.A.A.A.A.S.F.A.S.F.F.s                                                       ",
"                                        F.F.S.A.F.S.S.S.S.S.S.F.A.S.F.F.4                                                       ",
"                                      C F.F.F.S.F.D.D.D.D.D.D.F.S.F.D.D.Z                                                       ",
"                                      A F.D.D.S.F.F.F.F.F.F.F.F.F.D.D.D.M.S                                                     ",
"                                      D F.D.D.F.F.A.S.S.A.Z.A.F.F.D.D.D.M.M.F                                                   ",
"                                      G F.D.D.D.F.S.S.A.Z.Z.A.F.D.D.D.D.V.M.H ,                                                 ",
"                                    4 J F.D.D.D.F.D.D.D.D.D.D.F.D.D.D.D.V.V.V.K                                                 ",
"                                  L P V.F.F.D.D.F.D.D.F.F.D.D.F.D.D.F.D.V.G.G.V.I                                               ",
"                                  U V.V.F.S.F.D.F.D.D.D.D.D.D.F.D.F.S.D.G.H.G.G.Y                                               ",
"                                T G.V.V.H.A.S.D.F.F.D.D.D.D.F.F.D.S.D.H.H.H.H.G.V.$                                             ",
"                                R G.G.H.H.H.A.D.F.F.F.F.F.F.F.F.F.D.H.H.H.H.H.G.V.E                                             ",
"                              A W G.H.G.G.H.H.D.S.S.A.A.A.A.S.S.F.H.G.G.H.H.H.G.V.Q *                                           ",
"                              ! H.H.G.B.B.G.H.D.D.D.D.D.D.D.D.D.D.G.G.H.H.G.H.G.V.N.~                                           ",
"                              ^ H.H.G.V.B.N.B.G.H.H.G.V.V.G.H.H.G.B.H.H.V.H.G.V.V.N./                                           ",
"                            ( H.H.F.H.G.V.B.N.N.V.G.G.G.B.B.G.H.G.H.H.V.G.H.G.V.B.N.)                                           ",
"                            _ G.G.H.F.H.G.V.V.B.N.N.V.G.G.H.G.H.H.H.V.G.H.H.G.V.B.N.`                                           ",
"                            ' G.B.G.H.D.H.G.V.B.N.B.B.V.G.G.H.H.G.V.G.H.H.G.V.V.N.N.]                                           ",
"                          L [ G.B.B.G.H.D.H.G.B.V.V.G.H.H.H.G.G.G.H.H.H.H.G.V.B.N.B.{                                           ",
"                          } H.V.B.B.V.H.H.D.H.V.V.G.H.H.H.H.H.H.H.H.H.H.G.V.V.B.N.V.|                                           ",
"                           .G.V.V.V.V.H.H.F.D.G.V.G.H.H.H.H.H.H.H.H.H.H.G.V.V.B.N.H...                                          ",
"                        u X.G.V.V.V.G.G.H.H.D.D.V.V.G.H.H.H.H.H.H.H.H.H.G.V.V.B.N.H.o.                                          ",
"                        O.H.G.G.G.G.G.G.H.H.D.D.H.V.V.G.H.H.H.H.H.H.H.H.G.V.V.B.N.H.+.                                          ",
"                        @.H.G.G.G.G.G.H.H.H.D.D.D.H.G.G.G.H.H.H.H.H.S.A.A.A.A.A.A.A.S.#.                                        ",
"                      $.S.A.Z.Z.Z.A.A.H.H.H.D.D.D.D.F.H.G.H.H.H.S.A.Z.C.C.C.C.C.C.C.Z.%.*                                       ",
"                      &.Z.N.N.C.C.C.N.N.Z.Z.S.F.D.D.*.=.H.H.S.A.Z.C.C.C.Z.A.A.Z.Z.C.C.Z.-.                                      ",
"                    #.Z.N.C.C.N.N.N.Z.Z.A.A.S.S.S.S.;.  :.S.A.Z.C.Z.S.F.D.F.A.A.A.Z.C.C.>.,.                                    ",
"                  u <.N.C.C.C.C.N.Z.A.A.S.S.F.F.D.D.1.  2.A.Z.N.Z.A.F.D.F.S.S.Z.Z.C.C.C.N.3.                                    ",
"                  4.Z.Z.Z.N.C.C.C.N.Z.Z.S.D.D.D.D.D.5.  6.A.C.Z.S.F.D.D.D.F.S.A.A.Z.Z.N.C.Z.7.                                  ",
"                ( 8.N.C.C.C.C.C.C.C.C.N.Z.A.F.D.D.D.9.  L A.Z.S.F.D.D.F.A.A.A.A.A.S.S.A.Z.C.0.q.                                ",
"                w.C.C.C.C.Z.Z.Z.Z.Z.N.N.Z.A.S.F.D.F.e.  * A.S.F.D.F.A.A.S.S.S.A.Z.Z.A.S.S.Z.N.r.                                ",
"              t.Z.C.C.N.Z.C.C.Z.A.A.S.S.S.S.F.D.D.S.q.    A.F.D.F.A.S.S.F.D.D.F.S.A.Z.Z.A.S.Z.Z.y.                              ",
"              z C.N.Z.Z.F.A.Z.C.Z.S.F.F.D.D.D.D.F.u.      A.F.F.A.S.S.S.A.S.F.D.D.F.S.A.Z.Z.A.N.i.L                             ",
"            p.C.C.N.Z.A.D.F.A.Z.C.Z.S.S.F.D.D.D.S.a.      A.F.A.A.A.Z.Z.A.A.S.S.F.D.D.F.A.Z.C.C.Z.s.                            ",
"            d.C.C.N.Z.A.D.D.F.A.A.Z.A.F.F.D.D.F.f.*       A.A.A.Z.N.N.N.Z.A.A.A.g.B h.j.k.l.z.x.c.v.                            "
};
