/* XPM */
static char *_[] = {
/* columns rows colors chars-per-pixel */
"63 64 146 2 ",
"   c black",
".  c #637680",
"X  c #393939",
"o  c #393939",
"O  c gray22",
"+  c #556A80",
"@  c #181818",
"#  c gray9",
"$  c gray14",
"%  c None",
"&  c gray10",
"*  c gray9",
"=  c #191919",
"-  c gray9",
";  c #181818",
":  c #181818",
">  c gray9",
",  c #181818",
"<  c blue",
"1  c gray40",
"2  c #627680",
"3  c #667A7A",
"4  c #63747D",
"5  c #62747C",
"6  c black",
"7  c #3A3A3A",
"8  c gray22",
"9  c #393939",
"0  c #393939",
"q  c gray9",
"w  c gray22",
"e  c #181818",
"r  c #393939",
"t  c #181818",
"y  c #393939",
"u  c #808080",
"i  c #393939",
"p  c #64737D",
"a  c #EEBD9C",
"s  c #627689",
"d  c #EFA573",
"f  c #FFB692",
"g  c #808080",
"h  c #F0A674",
"j  c #558080",
"k  c #EBBA9D",
"l  c #61727B",
"z  c #EFBD9C",
"x  c #63747E",
"c  c #697887",
"v  c #865432",
"b  c #EEBC9C",
"n  c #845232",
"m  c #F0BE9C",
"M  c #555555",
"N  c #924924",
"B  c #845231",
"V  c #65757A",
"C  c #845232",
"Z  c #EFBC9B",
"A  c #835231",
"S  c #667380",
"D  c #F3DBCE",
"F  c #835231",
"G  c #EEDDCC",
"H  c #845331",
"J  c #F0BE9B",
"K  c #55AAAA",
"L  c #F2A872",
"P  c #804E31",
"I  c #697878",
"U  c #835132",
"Y  c #845332",
"T  c #EFBD9B",
"R  c #C6734A",
"E  c #EFA674",
"W  c #6A6A80",
"Q  c #64727B",
"!  c #855332",
"~  c #855231",
"^  c #607080",
"/  c #835331",
"(  c #5E7979",
")  c #408080",
"_  c #63727D",
"`  c #7B7B7B",
"'  c #63747E",
"]  c #627676",
"[  c white",
"{  c #5A5A5A",
"}  c #5A5A5A",
"|  c #62747C",
" . c #608080",
".. c #647680",
"X. c #66757C",
"o. c #5B5B5B",
"O. c white",
"+. c #7B7B7B",
"@. c white",
"#. c #5A5A5A",
"$. c gray34",
"%. c gray35",
"&. c white",
"*. c #7C7C7C",
"=. c white",
"-. c #373737",
";. c white",
":. c #71718E",
">. c #5A5A5A",
",. c #EFDECE",
"<. c #5A5A5A",
"1. c gray48",
"2. c #5A5A5A",
"3. c #EFDFCE",
"4. c #393939",
"5. c #5A5A5A",
"6. c gray",
"7. c #7B7B7B",
"8. c #BCBCBC",
"9. c #64767C",
"0. c gray48",
"q. c #BBBBBB",
"w. c #7B7B7B",
"e. c gray37",
"r. c #7C7C7C",
"t. c #65777D",
"y. c gray74",
"u. c #F0DECF",
"i. c #5A5A5A",
"p. c #393939",
"a. c #181818",
"s. c gray35",
"d. c #7B7B7B",
"f. c gray",
"g. c white",
"h. c #393939",
"j. c #5A5A5A",
"k. c white",
"l. c #7B7B7B",
"z. c #181818",
"x. c #EFDECE",
"c. c gray74",
"v. c #C6734A",
"b. c #845231",
"n. c #EFA573",
"m. c #EFBD9C",
/* pixels */
"                                                  . X h.o O +                                                                 ",
"                                                @ h.j.k.l.j.h.#                                                               ",
"                                              $ % j.l.k.l.j.h.z.&                                                             ",
"                                              * z.j.l.x.l.j.h.z.=                                                             ",
"                                              - z.j.l.c.l.j.h.z.;                                                             ",
"                                              : z.j.l.c.l.j.h.z.>                                                             ",
"                                              , z.j.l.c.l.j.h.z.%                                                             ",
"                                              z.z.j.l.c.l.j.h.z.z.                                                            ",
"                                            < z.z.j.l.c.l.j.h.z.z.<                                                           ",
"                                            1 z.z.j.l.c.l.j.h.z.z.1                                                           ",
"                                            2 z.z.j.l.c.l.j.h.z.z.3                                                           ",
"                                            4 z.z.c.k.k.k.k.l.z.z.5                                                           ",
"                                        6 7 l.l.z.c.k.c.c.k.l.z.l.l.7 6                                                       ",
"                                      6 8 l.c.j.z.c.k.c.c.k.l.z.j.c.l.9                                                       ",
"                                      0 j.l.c.j.z.c.k.l.l.k.l.z.j.c.l.h.q                                                     ",
"                                      w j.l.c.j.z.c.k.c.c.k.l.z.j.c.l.h.e                                                     ",
"                                      r j.l.c.j.z.c.k.l.l.k.l.z.j.c.l.h.t                                                     ",
"                                      y j.l.c.j.z.c.x.l.l.x.l.z.j.c.l.h.z.u                                                   ",
"                                      i j.l.c.j.z.c.l.j.j.l.l.z.j.c.l.h.z.p                                                   ",
"                                      h.j.l.c.j.z.c.j.h.h.j.l.z.j.c.l.h.z.a s                                                 ",
"                                      h.j.l.c.j.h.l.c.c.c.c.l.h.j.c.l.h.z.v.d f                                               ",
"                                    g h.j.l.c.j.h.j.l.l.l.l.j.h.j.l.j.h.z.v.v.h                                               ",
"                                    j h.h.j.l.j.h.j.j.j.j.j.j.h.j.j.h.h.z.b.v.n.k                                             ",
"                                    l h.h.h.j.j.h.z.z.z.z.z.z.h.j.h.h.z.z.b.v.n.z                                             ",
"                                    x h.z.h.h.j.h.h.h.h.h.h.h.h.h.h.z.z.z.b.v.v.m.c                                           ",
"                                  v b.h.z.z.h.h.h.l.j.j.l.c.l.h.h.z.z.z.z.b.b.v.n.b                                           ",
"                                n b.b.h.z.z.h.h.h.j.j.l.c.c.l.h.z.h.z.z.z.b.b.v.n.m M                                         ",
"                              N B b.b.h.j.h.z.z.h.z.z.z.z.z.z.h.z.z.h.j.z.b.v.v.n.m.V                                         ",
"                              C b.b.v.b.l.j.h.z.h.h.z.z.z.z.h.h.z.h.j.z.b.b.b.b.v.m.Z                                         ",
"                            6 A b.v.v.v.b.l.j.z.h.h.h.h.h.h.h.h.h.j.z.b.b.b.b.b.v.n.x.g                                       ",
"                            S b.b.v.n.k.v.b.l.z.j.j.l.l.l.l.j.j.h.z.b.v.v.b.b.b.v.n.x.D                                       ",
"                            F b.b.n.m.x.m.v.b.z.z.z.z.z.z.z.z.z.z.b.v.v.n.b.b.v.v.n.x.G                                       ",
"                            H b.b.b.n.m.m.m.v.b.b.b.v.n.n.v.b.b.v.n.m.m.b.b.v.v.v.n.x.J                                       ",
"                          K b.v.b.b.v.n.n.n.m.n.v.b.b.v.m.m.v.v.v.m.n.b.b.v.n.v.v.n.x.L                                       ",
"                          P v.n.v.b.b.v.n.n.n.x.m.m.m.v.b.b.n.v.v.v.b.b.m.n.v.v.v.n.x.I                                       ",
"                          U v.m.n.v.b.b.v.n.n.x.x.x.m.n.m.v.b.b.b.b.m.m.n.v.v.b.v.m.x.M                                       ",
"                          Y v.m.n.n.v.b.b.v.n.x.n.n.v.v.v.n.m.m.m.m.n.v.v.b.b.b.v.x.T                                         ",
"                        6 R v.m.n.n.v.v.b.b.v.n.n.v.b.b.b.v.v.n.n.v.v.b.b.b.b.v.n.x.E                                         ",
"                        W v.n.n.n.n.v.v.v.b.b.v.n.v.b.b.b.b.b.v.v.b.b.b.b.b.b.v.m.x.Q                                         ",
"                        ! v.n.n.n.v.v.v.b.b.b.v.n.n.v.b.b.b.b.b.b.b.b.b.b.b.v.n.m.x.2                                         ",
"                        ~ v.v.v.v.v.v.b.b.b.b.b.v.n.n.v.b.b.b.b.b.b.b.b.b.b.v.n.m.x.^                                         ",
"                        / b.v.v.v.v.b.b.b.b.v.v.b.v.v.n.v.b.b.b.b.b.b.b.b.v.v.n.m.x.(                                         ",
"                      ) b.b.b.b.b.b.b.b.b.v.b.h.h.z.z.v.n.v.b.b.b.b.b.b.b.v.v.n.m.x._                                         ",
"                      3 b.b.b.b.b.b.b.b.v.b.h.h.z.z.z.h.b.n.v.b.b.b.b.l.l.l.l.l.l.l.`                                         ",
"                      ' k.k.k.k.k.k.k.c.c.b.h.z.z.z.z.h.j.v.v.b.j.l.l.c.c.c.x.k.x.c.l.]                                       ",
"                      [ k.c.c.c.c.c.c.c.c.l.l.j.z.z.h.{ 5 b.j.l.l.c.c.l.l.l.l.x.k.k.c.}                                       ",
"                    M k.k.k.x.c.c.c.c.c.c.l.j.h.h.h.j.| 2 j.l.c.c.l.l.j.j.j.j.l.l.l.c.l. .                                    ",
"                    ..k.k.k.k.k.k.c.c.c.l.l.j.j.z.z.j.X.W l.l.c.x.l.l.l.c.c.c.c.l.l.l.c.o.                                    ",
"                    O.k.k.k.c.c.c.c.l.l.j.j.j.j.z.z.j.) j l.c.x.x.c.c.c.l.j.l.l.c.k.k.c.+.g                                   ",
"                    @.k.k.c.c.c.l.l.j.j.j.j.j.z.z.z.#.  M l.c.x.c.l.j.h.h.j.j.j.l.l.c.c.l.$.                                  ",
"                  j k.k.k.k.c.l.l.j.h.h.h.h.h.z.z.h.%.  &.l.c.l.j.h.h.j.j.l.l.c.c.c.j.j.l.*.                                  ",
"                  =.k.k.k.k.k.c.c.l.l.l.h.z.z.z.z.h.-.  6 l.l.j.h.j.j.l.l.j.j.j.l.c.c.l.j.j.W                                 ",
"                  ;.k.x.x.x.x.k.k.k.c.c.l.h.z.z.z.j.:.    l.j.h.h.j.l.j.j.j.j.j.j.j.l.c.c.l.>.                                ",
"                  ,.x.c.c.c.c.c.c.x.k.k.c.l.h.z.z.<.6     l.h.h.j.l.j.j.j.h.h.h.h.j.j.l.c.c.1.6                               ",
"                s c.c.j.l.l.l.l.c.c.c.x.k.c.j.z.z.2.      l.h.j.c.l.j.h.h.j.l.l.l.l.j.j.l.c.l.l                               ",
"                3.c.j.j.j.j.j.j.j.l.c.c.c.c.j.z.h.4.      l.l.c.c.j.h.j.j.l.c.c.c.c.l.l.j.j.l.5.                              ",
"                6.k.k.x.l.j.h.z.h.h.j.l.l.l.h.z.j.Q       l.k.j.j.h.j.l.l.c.c.k.k.k.c.c.x.c.l.7.g                             ",
"              g 8.k.x.c.k.c.l.h.z.z.h.h.j.h.z.z.j...      l.j.h.z.h.j.l.c.l.l.l.c.c.j.j.l.c.c.l.9.                            ",
"              2 k.k.k.k.c.k.c.l.l.h.z.z.z.z.z.z.j.W       l.h.z.h.j.l.l.l.j.j.j.l.c.c.l.l.l.c.c.0.                            ",
"              q.k.k.k.c.c.c.k.k.c.c.l.h.z.z.z.z.h.u       l.z.h.j.l.l.j.h.h.z.z.j.j.l.c.c.l.l.c.w.M                           ",
"              @.x.c.c.l.c.c.c.k.k.c.l.j.h.z.z.z.h.g       l.z.h.l.l.j.h.j.l.j.h.z.h.j.j.l.c.c.l.x.e.                          ",
"            j k.x.c.l.z.j.c.c.c.c.l.l.j.h.z.z.z.h.6       l.z.h.j.l.l.l.c.c.l.j.j.h.z.h.j.l.c.k.k.r.                          ",
"            t.k.x.c.l.j.z.j.l.l.l.l.j.h.z.z.z.z.h.6       l.z.z.h.j.l.c.c.c.c.l.l.j.h.z.z.j.l.c.k.y.                          ",
"            u.k.k.x.c.l.j.z.z.z.h.h.h.z.z.z.z.z.h.        j.z.z.z.h.j.l.x.x.c.c.8.7.+.i.p.a.s.d.f.g.                          "
};
