/* XPM */
static char *out[] = {
/* columns rows colors chars-per-pixel */
"134 476 256 2 ",
"   c None",
".  c #030403",
"X  c #0A0404",
"o  c #040A03",
"O  c #0A0B04",
"+  c #04040B",
"@  c #09060C",
"#  c #060A0C",
"$  c #0A0B0C",
"%  c #120D0B",
"&  c #170905",
"*  c #0C1303",
"=  c #0C120D",
"-  c #081608",
";  c #13130D",
":  c #141B0C",
">  c #171807",
",  c #050512",
"<  c #090613",
"1  c #050A13",
"2  c #0B0C13",
"3  c #0C0D1A",
"4  c #07061A",
"5  c #130E14",
"6  c #0D1213",
"7  c #0D131B",
"8  c #0C181A",
"9  c #121414",
"0  c #141A14",
"q  c #1B1C14",
"w  c #13141B",
"e  c #141A1C",
"r  c #1A1C1C",
"t  c #1A1516",
"y  c #261709",
"u  c #261A17",
"i  c #321309",
"p  c #192508",
"a  c #1C2314",
"s  c #1C231C",
"d  c #192619",
"f  c #173008",
"g  c #262A08",
"h  c #283607",
"j  c #22251C",
"k  c #252919",
"l  c #293618",
"z  c #35391A",
"x  c #362E10",
"c  c #0A0923",
"v  c #0C1424",
"b  c #131522",
"n  c #141B23",
"m  c #1A1C23",
"M  c #1A1C29",
"N  c #110E22",
"B  c #1C2323",
"V  c #1B2627",
"C  c #1B3031",
"Z  c #222423",
"A  c #242B23",
"S  c #2A2C25",
"D  c #242C2B",
"F  c #2B2D2B",
"G  c #252528",
"H  c #2C3324",
"J  c #2C332C",
"K  c #273628",
"L  c #333B2C",
"P  c #353728",
"I  c #282C32",
"U  c #2C3332",
"Y  c #2B3935",
"T  c #323532",
"R  c #343B33",
"E  c #3A3D34",
"W  c #373B39",
"Q  c #342B26",
"!  c #231E26",
"~  c #4D1B09",
"^  c #4F2E15",
"/  c #6A3416",
"(  c #483A28",
")  c #4F382D",
"_  c #6B3726",
"`  c #374607",
"'  c #385706",
"]  c #374817",
"[  c #3A5518",
"{  c #2A470D",
"}  c #396709",
"|  c #384529",
" . c #3B4334",
".. c #3C443B",
"X. c #3D4A3B",
"o. c #374636",
"O. c #364D2E",
"+. c #295415",
"@. c #465818",
"#. c #49520F",
"$. c #6E4917",
"%. c #496706",
"&. c #587509",
"*. c #496517",
"=. c #556818",
"-. c #587617",
";. c #516F0A",
":. c #667A09",
">. c #657A18",
",. c #6F7312",
"<. c #454829",
"1. c #475628",
"2. c #42453C",
"3. c #444B3C",
"4. c #464936",
"5. c #4B533C",
"6. c #485538",
"7. c #555939",
"8. c #56502C",
"9. c #6D5030",
"0. c #4A6525",
"q. c #576827",
"w. c #596538",
"e. c #56722F",
"r. c #677928",
"t. c #677836",
"y. c #6B6C33",
"u. c #383C42",
"i. c #3C4844",
"p. c #3B5347",
"a. c #444C43",
"s. c #484B46",
"d. c #455244",
"f. c #4B5344",
"g. c #4C544B",
"h. c #4D5B4C",
"j. c #495847",
"k. c #535B44",
"l. c #52554B",
"z. c #545B4C",
"x. c #575947",
"c. c #4B5753",
"v. c #545C53",
"b. c #585C56",
"n. c #4F4C4A",
"m. c #665B47",
"M. c #5C6344",
"N. c #5C634C",
"B. c #586649",
"V. c #556253",
"C. c #5C6353",
"Z. c #5C645B",
"A. c #5B6957",
"S. c #546E4E",
"D. c #646849",
"F. c #69754A",
"G. c #626554",
"H. c #646B54",
"J. c #646B5B",
"K. c #6A6D5C",
"L. c #656858",
"P. c #6B7354",
"I. c #6B735C",
"U. c #677558",
"Y. c #74785A",
"T. c #76724B",
"R. c #5B6963",
"E. c #676C64",
"W. c #6C7363",
"Q. c #6A7768",
"!. c #747B6C",
"~. c #767967",
"^. c #767B75",
"/. c #6D7671",
"(. c #585D64",
"). c #413C40",
"_. c #8A5330",
"`. c #916E32",
"'. c #A7762E",
"]. c #936518",
"[. c #8E754E",
"{. c #837D6F",
"}. c #A67048",
"|. c #833F26",
" X c #568514",
".X c #688519",
"XX c #748D12",
"oX c #688726",
"OX c #768928",
"+X c #738F31",
"@X c #67962B",
"#X c #758752",
"$X c #7A846A",
"%X c #7A8576",
"&X c #738C70",
"*X c #6B9746",
"=X c #879918",
"-X c #8B9111",
";X c #92A915",
":X c #ABB314",
">X c #879824",
",X c #8E9331",
"<X c #AC8C36",
"1X c #97A727",
"2X c #91AB30",
"3X c #A9B22F",
"4X c #AE8916",
"5X c #CE9D2D",
"6X c #B3C633",
"7X c #B7C617",
"8X c #C3C826",
"9X c #8C8E53",
"0X c #AD934B",
"qX c #91AB4E",
"wX c #AEB14F",
"eX c #858968",
"rX c #858977",
"tX c #8A9379",
"yX c #93977A",
"uX c #8E936A",
"iX c #94A773",
"pX c #ADAF72",
"aX c #AB8E73",
"sX c #C8B450",
"dX c #C7B26A",
"fX c #B4C84D",
"gX c #B3C671",
"hX c #CCD054",
"jX c #D0CE6C",
"kX c #E2EE6C",
"lX c #767D81",
"zX c #7B8B85",
"xX c #868B86",
"cX c #899587",
"vX c #959988",
"bX c #969C94",
"nX c #8C9490",
"mX c #9BA38A",
"MX c #9AA596",
"NX c #92A88F",
"BX c #A4A998",
"VX c #AAB399",
"CX c #AEB291",
"ZX c #A9B5A6",
"AX c #B6BBA7",
"SX c #AAB0A8",
"DX c #A1A496",
"FX c #B7C68F",
"GX c #B7C4B0",
"HX c #C9CC8E",
"JX c #C9CFB1",
"KX c #E6E7A7",
"LX c #CAD3C7",
"PX c #EDEFCE",
"IX c #DEE8D1",
"UX c #BEBAA3",
/* pixels */
"                                                                                                          zX&XS.p.j.d.d.j.B.p.d.p.R.S.                                                                                                                                      ",
"                                                                                                        &X*Xp.+.O.S.Y.&X&XU.O.K f d f f | ]                                                                                                                                 ",
"                                                                                                      %XS.S.S.+.w.yXFXFXGXFX&XK C +.+.+.{ +.+XqX{ U.                                                                                                                        ",
"                                                                                                      6.p.p.+.+.*XiXmXpXiXFX&XO.f 0.e.e.-.}  X;.e.&X&X                                                                                                                      ",
"                                                                                                    S.&X+.S.}  X@XiXiXgXqXiXS.0.+.e.0.*.-. X}  X+X&XNXGX                                                                                                                    ",
"                                                                                                  NX*XS.+.S.}  X+XKXgXKXHXgX&X0.f { } ;.@X@XoX-.*XgXtX#X                                                                                                                    ",
"                                                                                                  j.+.+.+.} } @X2XfXfXfXgXgX*X} } qX@X@X@X&.oX@X} *XF.mXS.                                                                                                                  ",
"                                                                                                S.p.+.+.+.@X X@XqXqX*XfXfXqX*X+.+.uX@X@X-.;.oXoX+.h 1.yX                                                                                                                    ",
"                                                                                                zXS.e.*.@X*X*X@X2X@X@XqXgX+XF.f ] e.e.@X0.+.oX@Xe.p a 2.                                                                                                                    ",
"                                                                                  f././.f.j.I.&X&X*Xe.0. X@X@X X@X@XoXt.} *Xt.{ l O.1.+.{ [ 0.*XO.- o 8 9                                                                                                                   ",
"                                                                                - a L E.a E H.VX&XO.6.] | ] g g f l p k p p p a k d l P 8 d l ] d . . 1 6 o                                                                                                                 ",
"                                                                                : = = s * > E A.h.l : : q q q u V k j S > q g k g l h f : - f l a # @ @ # # # 9 s                                                                                                           ",
"                                                                              cXe = $ k a k | 3.K : * O * > > g g g z { h <.g x ] r.-.#.f h ` T.l X O # 2 # + 6 Y # .                                                                                                       ",
"                                                                            MXMXA K vXVXVXVXCXVXNXU.M.4.B.#XuXmXpXpXuXqX9XpX9X=.e.qXqX2X+Xt.+X9X| X . . # 6 $ 2 I 1 $                                                                                                       ",
"                                                                            d.R.v.4.VXLXJXJXKXJXJXiXyX#XNXFXFXFXFXgXgXHXFXFXFX` +XqX+X+X+X2XqX9X7.X . . . $ 2 . # # # o                                                                                                     ",
"                                                                            d U C.5.VXJXJXFXFXAXCX] l [ *XiXFXFXFXFXFXgXgX#XpXr.r.} %.;.;.9X` #.g . . , 2 w $ . # o # #                                                                                                     ",
"                                                                            = ..j.A.6.mX$XF.1.| p o . > n a L 4.| 1.0.7.7.0.w.F.e.f p p h h g g g . . @ F B G . # O # O #                                                                                                   ",
"                                                                            =  .B.U.4.tX$XyXtX$XQ...).s.) s.^.!.yXCXCXFXCXCXFXiXF.1.h h t.y.8.eXY.& + 5 m Z G . @ @ # @ . o                                                                                                 ",
"                                                                          # o ..h.A.5.$XY.$X$XU.E.g.g.l.) n.Y.L.yXCXFXgXFXqXpXqX' *X*X2X2XOX#.9X8.O . @ 6 Z . $ # # # $ = # # +                                                                                             ",
"                                                                          # V c.h.U.k.I.I.#XY.I.J.l.c.l.n.4.K.D.yXiXiXuXCXFXwXqX} gXkXgX,X+X#.q.k X . @ $ e . . . # # . # o + + + . bX                                                                                      ",
"                                                                          V c.c.b.I.G.P.P.U.P.P.L.l.l.c.n.x.L.D.$XF.D.D.1.q.t.{ o [ } oX-.r.,X#X4.% @ @ . e t e $ # o $ $ X # @ . 2 9                                                                                       ",
"                                                                          V i.A.N.W.L.D.P.P.U.I.G.x.l.l.n.l.G.G.M.6.7.7.w.1.t.e.t.h f ' q.t.OX[.k X . X # 9 w 9 $ 9 9 2 $ O O $ . + . AX                                                                                    ",
"                                                                          8 Y R.L.~.H.H.P.I.I.W.Z.C.b.l.l.f.C.K.K.K.K.Y.U.#X#XgXHX.X=.t.y.+Xr.t.z X X $ $ 9 r w $ $ @ t j P P P X % @ %XrX~.W.I.I.G.7.5.4.|  .L z z z P P P k Q P P  .P P                                   ",
"                                                                          B W E.E.W.N.x.f.4.f.z.C.b.l.b.l.E z.L.L.H.H.U.Y.F.#X,X,X%.` #.@.y.y.T.u X @ # @ # t 9 # $ Z G S k z E T % o X o O * O * > > p p g x h g x g g g x g x h x x g g x z x                             ",
"                                                                          8 s ..J.~.B.3. . ...a.l.v.g.g.l.L z.x.G.G.C.L.K.P.eXr.OX#.p h g 8.y.D.; @ @ @ @ # w w . 9 9 Z Z k Q P j A k S z z <.@.1.#.] ` h ` #.#.#.#.#.#.=.q.8.=.q.q.y.=.=.,.y.y.`.y.y.9._.                  ",
"                                                                          e B ..h.A.B.z.d.h.v.V.Z.Z.g.l.l.E b.f.C.G.Z.L.G.$XuXt.y.=.g p | w.w.Y.% @ O $ @ $ Z 9 5 2 w s a : : > > > g h h ` ` ` ` #.#.#.=.=.=.=.#.,.,.OX,.,.,.>X>Xr.OX`.OX,X>X-X-X>X,.x #.=.#.x             ",
"                                                                          w B D V.J.H.k.2.a.c.v.Z.E.g.v.g. .b.l.b.b.L.L.G.~.tXw.q.q.h ] 1.y.D.Y.O X # X % 9 r r 6 2 9 B j : g p p g ` *.>..XOXOX>XOX=X>X,X>X>X2X1X1X1X1X1X1X1X3X1X,X1X1X3X1X3X6X3X3X,Xh `.;.9XFXPX#         ",
"                                                                          n B a.J.W.U.x.a.g.c.v.v.Z.l.x.v.2.f.4.a.n.l.l.3.C.U.6.7.q.] q.w.8.T.F.O X $ # @ # Z 9 ; $ 9 r E l M.<.8.+X+X,X,XOX>X>X=X>X=X>X;X1X1X3X3X3X3X:X:X3X1X3X3X1X3X3X3X3X7X6X6X6XwX%.hX,.gXKXQ.,         ",
"                                                                          d C c.W.~.K.b.s.l.l.x.C.x.k.l.f.f.f.l.n.l.b.b.v.C.f.P p l 1.T.T.w.y.{.O X $ O @ # t $ 6 6 6 w 6 : k @.=.r.+X>X>X>XXX>X>X=X=X2X;X>X=X=X-X1X1X3X;X3X3X3X,X1XhXhX2XfX8XfXhX3XfX.XwX,XHXJX6 1 3       ",
"                                                                          e C s.W.W.K.b.s.l.z.f.l. .|  .5.3.s.n.) n.b.b.z.C.4. .a l w.F.y.t.T.eXO X X O $ @ 8 # 6 6 6 6 $ o p ] -.:.XX>XOXXX=X=X1X>X1X1X2X2X2X1X1X3XwX3X3X3X3X3X<X-XdXkXfXwXhXhXkX1XkXkXHXHXJXBX# , 6       ",
"                                                                          V D i.!.~.W.G.G.K.L.L.L.x.k.7.4.f.b.b.b.n.x.l.4.P P E 4.l 8.t.w.y.Y.~.o X # @ $ $ 9 B $ 2 6 = o * @.=.OX.XXX=X=X>X>X=X3X1X1X3X6X3XfX6X1X3X3X3XwX3X3XfXjX,X,.gXkX>XhX3XhXqXHXKXPXJXGX6 + 1 3       ",
"                                                                          C D a.W.~.W.L.~.!.~.W.H.D.N.l.x.b.G.L.E.L.W.K. .<.x.H.7.h w.t.w.w.#X~.X + # + 9 @ Z J w $ $ 0 = <.#Xr.OX.X-..X.X.X:.XXXXXXXXXXXX;XXX=X:.XX,X,XwXkXsXjXKXjXjXgXjXwXhXsXwXr.9XGXGXk w . , + 1       ",
"                                                                          V D a.W.~.W.G.~.rXL.M.D.L.G.4.x.N.v.G.!.W.{.xX{.K.{.m.8.` w.F.8.w.Y.eX. o + + @ # r W r 9 $ 0 . H q.q.r.>.%.%.;.OX2X@X@XXXXX;X;X7X6X6X-X-X4X-X<XKX0X,.0X<X=.XXOX,.-X>XHXg j q = + 1 + + , 1       ",
"                                                                          D I i.W.~.K.z.b.2.2.2.Y.~.K.4.b.b.b.K.~./.lX{.{.DXaX[.7.h y.y.8.w.{.~.. X + @ @ # q s.w 9 = = . p { @.=.-.@.#.&.&.%.' ' %. XXXXXXX3X8XhXwXkXKXHXKXKXKXHXjXKXKXjXhXwXjXHX#X& . a.B M 1 , 1 6       ",
"                                                                          D D i.W.^.W.C.s.E 2.x.P.~.~.l.Z.L.L.W.^.{.lX{.{.DXvXT.y.x 7.y.w.D.eX~.X . @ X . @ r l.9 9 6 = : g [ @.` #.#.=..X%.' { %.;.XX&. XXXXX;X1X4XsXjX<X0X0X0X<XwXkXKXkXkXhXkXKXw.. # 2 3 4 4 , , 1       ",
"                                                                          C V a.~.~.W.G.3.E L E K.cX~.G.L.L./.{.xXlX{.lX{.mXrXY.y.x 8.y.7.y.{.eXO @ # + o X Z b.t 9 = - w.1.q.@.h ` %.-.>..X>.+XoX X XXXXXXXXX-X-X=X<XkX3X4XsXwXhX-X3XhXkXhXhXfXFX<.. 2 1 4 4 , + 1 3       ",
"                                                                          V D a.!.!.W.z.E H G r G.vXrXK.G.G./.xX/.n.).lXxXvX{.T.F.z w.w.w.7.eX~.# + # . @ X j b.9 9 = : @.q.-.=.#.-.r.,.&.&.%.-.&.&.%.%.XX XXXXX;X3XkXkXhX-X3X4XhX;.].wX3X3XsXjXuX* . 2 , 4 4 4 , , 6       ",
"                                                                          V D a.Q.~.I.x. . .s.n.xXBXrXx.G.f.~.E.).u T /.bXvX~.( 7.7.w.D.D.D.~.~.O . @ . O . Z Z.0 9 o p 0.r.>.-.%.%.%.&..XOX&.:.>.;.&..X+X>X;X6X6X;X=X;X4X3X<X,.sX].#.qX,XwXsX0X8.* + 3 4 , , 4 , 1 6       ",
"                                                                          V C a.J.W.G.f. .E n.c.K.eX~.H.G.b.^.rXn.).c./.xXvX%X; > 4.6.M.D.w.Y.~.X . @ . . @ r L.r 9 O p @.>.>.-.;..X.X2X2X.X%.=.;.' &.>.&.XXXXXXXXXXXX-X-X:X-X3XwX,Xq.aXy.9X`.pXl 6 1 4 4 c < , , , 6       ",
"                                                                          V V i.J.I.J.C.s.a.W f.K.{.$XW.z.f.!.!.E.(.^.{.xXvXxXrX2.4.M.m.w.D.{.rXO @ X . # o S G.0 ; . : q.q.=.-.OXoX2XOX,X>.%.' #.' >.-.%.;.>.2X3X3X3X:X1X:X<XfX0X#.w.7.> > AXCX% 1 N N 4 4 4 , , , 3       ",
"                                                                          V V a.J.K.J.A.a...2.L 2.G.~.C.b.l.{.xX{.n.n.lX{.rXbXDXvXx.x.m.D.D.eX~.X @ o . . O s z.G 9 # a @.[ ] #.-.&.OXOX=.h f ` -.=.=.+XoXoXXX2X1X3X1X3X>X2X0X,Xr.#.#XY.> ; T t 5 @ < 4 4 4 < < , 3 6       ",
"                                                                          V V a.J.!.I.b.a.a.a.s.x.K.^.E.l.G.%XvXnX^.) b.xXbXDXbXrXx.x.M.D.w.{.eXX . @ . . . G b.F 9 O H | f ` 1.=.q.#.' ` @.' =.-.#.' %.;.-.:.:.XX-X].XX>.r.,Xy.q.9XiX$XS . 9 @ @ < 1 < 4 4 < < , 1 6       ",
"                                                                          D V c.W.W.J.z.s.g.v.!.$XrX{.L.x.b.W.bXnXxXb.n.^.DXSXAXrX3.5.D.y.<.Y.{.X X o X . . A 2.s 2 # q | ] { h h @.#.=.=.r.-.r.r.*.h #.>..X>.&..X>XXXfX=.@.q.#.9.T.uXyXd . $ O @ % < 4 4 < < , , , n       ",
"                                                                          D V c.W.!.L.f.g.g.J.tXmXvXcX!.f.x.W.nXvXxXb.b.xXBXSXAXrX5.4.7.x.w.Y.eXX # # X + @ G l.W $ o = l l q.@.' #.` ' t.r.+X-.oXq.=.q.>.OXr.,.r.oXfX9X@.h <.x g z T.mX9 # # o @ < < < < 4 < < + 4 b       ",
"                                                                          U D g.E.~.K.a...E 5.rXCXCXvXY.l.l.~.rX^.L.E.E.bXSXSXAXyX4.4.D.w.7.Y.rXO @ o o . + t Z.W $ o * l [ q.' #.%.h ` 0.q.r.#.t.t.t.` @.q.=.+Xr.=.q.@.w.* k > > ( ) m.o + 1 1 1 < , < , < @ < 4 ,         ",
"                                                                          U V a.J.~.W.f.a... .tXpXmXyX$XL.G.!.^.T Q E.SXBXAXAXUXrX4.x.D.D.8.{.yXX X # X @ o k l.T # # * 1.1.` h @.@.q.F.@.f f f h #Xt.g x ` z z ` ] z <.E 5.x.u Q 4.) y + + , , , < + 1 2 < , , ,           ",
"                                                                          Y V v.J.~.G.f.s...x.CXVXtXN.4.l.L./.E.n.l.L.xXDXBXGXSX~.5.4.k.D.w.~.vXO @ @ o @ X t l.G X . . l z ] @.8.t.P.w.6.* > 1.z 7.<.g * l ] z x | z z P 4.( u x 4.Q t + , , , < , , + + + 4 3             ",
"                                                                          Y D c.!.W.b.l.g.2...J.Y.N.H.I.b.L.W.L.W.^.^.vXSXBXAXBXW.8.x.Y.Y.D.K.yXO . @ + $ # Z L.T @ < X O l z p g l k a a p k 4.k z z P P ( |  .5.4.E 4.n.) I ) ( L.T % , , , , < , @ < # 3 LX              ",
"                                                                          Y V c.^.W.b.l.s.s.s.c.b.b.5.G.G.C.Q.~.rX^.xXDXSXbXBXvX~.5.D.~.Y.D.Y.rX& @ @ # . @ O l.F 2 . @ e 9 t 0 : = r t 2 2 u ! t 0 9 9 w 9 9 9 $ 5 5 9 5 5 5 9 w t 5 @ < < < , , , @ @ . xX                ",
"                                                                          W K g.!.!.G.b.).s.s.c.s.l.b.W.C.v./.^.rXrXbXBXDXvXBXrXI.<.x.Y.P.x.~.tXO o @ + @ # ; l.t + + . r G B w r M r 3 2 < 3 3 3 2 3 1 < w 5 2 2 2 5 < 5 2 , 1 1 4 4 < < < , , , , , + #                   ",
"                                                                          o.U c.%XQ.G.l.n.i.s.u.j ..G.W.V.C./.%XxXbXBXSXbXBXbX{.~.4.x.Y.D.7.Y.{.O + . + 2 o . s.m + + + b m 3 3 3 7 b w w 3 3 4 3 w w 3 3 3 1 3 3 3 w b b b w n b b 3 < 4 4 < , + < < +                     ",
"                                                                          Y V b.%X!.(.(.n.n.s.) v.E.{.!.l.E.L.xXbXDXBXSXDXvXBXrXyX5.D.H.x.D.Y.%XO o + @ $ + o ( G . + + w 1 , , 3 3 3 3 m w M M m M M ! M G G V ! M b b N b 7 b b N N 4 < , , < , < 2                       ",
"                                                                          Y V Z.xXtXE.G.E.E.^.K.~.rXyXrXb.C.v.rXGXSXBXBXvXbXVXvXyX5.7.k.D.5.P.{.% X + @ . . O b.G + + + w , , , 4 4 3 w N w M b m N 3 , 5 3 3 3 w w 2 < 4 3 c 4 4 c 4 4 4 < < < < 2                         ",
"                                                                          Y B E.vXvXrXrXbX~.yXtXrXyXvXrXs.!.f.!.BXnXxXrX~.rXDXrXvX7.k.G.D.k.P.^.O + + @ @ + X t T + . @ 3 3 4 , < 3 3 2 N 3 ! M w m w 3 3 w 3 N w w 3 3 4 4 c 3 4 c N 4 4 < , + +                           ",
"                                                                          Y V V.yXDXrXvXBX~.cXVXmXBXiXuX5.E.W.g.n.n.s.f. .x.4.rXrXx.5.x.L.7.Y.{.; . # + + @ + 2 I , , , 3 2 1 < 2 I 2 2 5 N M M N b b b b b m m n b w 4 3 3 4 4 4 , 4 4 , @ + 3                             ",
"                                                                          D C Z.vXVXMXVXAXvXvXmXmXBXvXrXI.~.!.E D T J  .s.E n.{.eXD.4.C.D.7.Y.~.; . @ + @ 2 < 2 m + . + 1 < < < r T w + 3 3 N 3 3 3 3 3 3 3 2 < 3 1 < < 4 4 4 4 4 4 , , + @ 5                               ",
"                                                                          D C /.vXZXBXMXvXrX%X$XZ./.G.~.$XJ.Z.u.T b.b.l.a.L x.rX{.D.4.D.H.x.Y.!.9 + + . @ < < + @ + + + , , , , b M 1 < 4 , 4 , , , + , , , , , , + , , < 4 4 < 4 , < , < 5                                 ",
"                                                                          D C /.$XW.B.j.N.C.x.f...a.s.E.Q.L.v.n.u.(.E.C.z.4.G.~.{.G.4.D.H.k.Y.K.t + . . @ 2 5 < @ @ . + , , , 3 , , 2 < 4 < < 4 , , , , , , , 1 , , , , 4 , , 4 , 4 4 , , +                                 ",
"                                                                          C D /.I.S.B.D.D.M.5.5.s.s.s.W.~.z.g.T Z F s.z.x.H.K.L.K.5.5.H.H.D.P.K.: . . , + b w + + + @ + , , + , , + + + , + , + , , , < , , < < , , , , < < 4 < , 4 4 < +                                   ",
"                                                                          K B a.W.F.M.N.D.6.7.7.a.( f.E.I.j. .W T T f.x.B.K.~.bXvX~.f.x.k.4.D.K.t . + + < 5 w + + , + , + + + + + , , , , , , , < , , < , 2 4 < 3 1 3 3 < 4 < < , < , , +                                   ",
"                                                                          U V A 5.x.k.M.U.| 7.4.E E 3.G.D.M.3.f.z.L C.J.H.U.x.K.K.x.f.f.x.5.D.K.t . . . < w w < , , , . . . + + + , , , , < , , , , + , < , , , , , , , 4 < < < < 1 3 2                                     ",
"                                                                          D U o.N.b.k.I.%X| 7.L P :  .X.k.6.P | 2.l b.z.7.6.( 3.x.l.s.5.x.k.x.H.> . . + @ m + w 2 , + . + + + + + + + , 4 5 3 4 4 3 5 4 5 4 3 3 3 2 3 3 3 w 3 N 1 w w                                       ",
"                                                                          K ..R G.x.x.N.I.a L <. .P H 6.5.E E 3.<.S  .<.<.<.E 4.l.l.3.n.x.z 5.K.t # + , , b . 3 w , . + + + + . . o $ @ @ , , , , < + + , + + + . , , + + , + . + 1                                         ",
"                                                                          D Z W z.G.x.H.K.| k.C.k.P 5.x.l.5.<.4.f.5.3.x.M.7.7.5.m.x.n.v.x.<.x.G.; # . < < M , w M b 3 , + . . . . o = 2 G I u.n.(.(.E.E./.lX^.lXlXxXxX                                                      ",
"                                                                          8 G W b.K.x.G.L.4.G.I.G.( E 7.H.f.x.H.K.G.E $XP.P.D.D.L.x.x.K.G.x.H.K.u + . , + b 1 b M b 3 , , + . . E MX                                                                                        ",
"                                                                          V b a.L.W.x.x.b.H.Y.K.G. .2.G.G.x.~.~.~.~.K.eXeXeXtXeX{.K.~.rX{.eXrXxXW . . + , b w M V I b + , , < o 2.                                                                                          ",
"                                                                          v 6 n.E.L.G.x.V.V.W.J.V.g.g.V.G.Z.G.L.E.E.W.~.~.Y.~.~.eX{.rX{.~.E.W.L.Z < + + , , 1 v w 7 3 2 , + . o.k                                                                                           ",
"                                                                          n B s.E.L.b.n.s.g.v.l.l.g.g.l.n.g.l.s.b.l.n.f.s.4.2.3.4.( s.).T r 5 @ + + , , , + , + , , , , 1 + o /.l                                                                                           ",
"                                                                          C # 6 5 u $ ; o $ $ # 5 9 9 2 2 9 2 # 9 5 9 ; 9 % $ 5 9 X X 5 m < < @ , < , + , , , + + , + + + + # cXL                                                                                           ",
"                                                                          /.# # 5 < 2 2 $ 5 2 @ 2 2 2 5 2 2 9 9 @ 2 @ 2 2 2 9 5 r @ 9 w u.c N < < , + , + + , , , + , + . + o vX|                                                                                           ",
"                                                                              1 2 6 2 7 2 9 9 9 @ 2 m r w 2 5 w w 2 9 w w m % 5 5 5 9 m b 3 w @ , , + + + + + , + , + , , . a.                                                                                              ",
"                                                                              1 # 6 $ $ $ $ % # % 9 9 5 9 ; 5 9 % $ $ 9 6 9 % @ @ % # # % 2 % @ + , . , + , + + + + + + + .                                                                                                 ",
"                                                                              . % ; $ = ; q 0 ; : a a j p a a a z k k k j j j u j u > u j u t X + @ + , + , + , , + , + + m                                                                                                 ",
"                                                                              Y vXbXBXSXSXZXZXVXBXVXDXDXVXVXVXVXVXBXVXAXAXAXAXAXAXAXAXAXUXAXGXvX. + + + + + + + + + + + + b.                                                                                                ",
"                                                                            o.c.vXSXBXBXBXMXMXmXcXtXuXtXrX$X$X$XtXtXyXtXyXtXrX%XrXrXxXmXtXvXDX^.. + + . 2 n V V 1 , + , + . . +                                                                                             ",
"                                                                          C V i.A.J.J.C.z.C.C.V.k.A.U.U.$X$XU.A.U.U.&XU.~.$XQ.U.W.N.x.K.H.D.rXl.. + + . n M n w 8 6 1 1 1 + . +                                                                                             ",
"                                                                          p.v p.E.d.X.o.X.X.o.c.K R A V K K U K A k J s a A K K X.o.K W.L.G.rXl.. . + . w n m n v 1 + 1 1 6 v n                                                                                             ",
"                                                                          V.n p.Q.o.o.j.R./.Q.&XA.A.K B R U i.R.d D C C a.d.o.d &XZ.W %XK.N.{.x.. . + . n n n n 7 7 + 1 1 7 b 8 c.                                                                                          ",
"                                                                          (.d c.E.i.o.j.R.&X&XU.V.V.V V n C i.c.B D i.M i...s K %XV.p.%XK.x.~.f.. . + + b M M n w 8 1 1 1 n u.6 .                                                                                           ",
"                                                                          c.V c.V.X.Y h.R.V.S.l Q.h.Y C 7 V i.u.Z T E.I T R 0 d R.A.d.&XG.k.~.x.. X + + M M m w w 8 4 3 N c I M 1 U                                                                                         ",
"                                                                          c.B c.R.a.Y h.Q.h.X.f.V.V.i.Y V u.c.p.s.E.lXn.s.P j k L.V.X.W.D.x.~.f.. . . + b M b b b w 3 3 w 2 2 9 o $ X 9 T n.E.E.^.^.xXcXxXxX                                                                ",
"                                                                          c.V c.R.d.K i.j.X.Y 3.T v.d.: Z W i...s.b.b.a.3.k.2.P ..z.h.v.z.n.~.E X @ o + 3 m b n b n w b 9 2 # ; 9 @ o . . . X . O X O * * & * O O O * * p a k g l z g g g x z P z <.<.| <.                  ",
"                                                                          c.C c.R.h.d R d 0 d K b.rX!.E.W.!.&X/.zXzXmXNXtXyXvXBXvXW.g.Z.f.G.~.l.. . . . @ b b M m b < w 2 o = o ; $ O # A S k l x h x g g g g g > & > g x x h z x ] x h ] ` ` @.#.@.8.@.@.8.<.              ",
"                                                                          c.D c./.c.K o.R ..| p.!.vXcX&X$X%X&XR.H.k.A.U.%XrXvXcX{.a.W E.x.x.{.x.. . . . < w n n b N 2 2 # o o o o O o . O g 1.8.w.w.0.q.1.1.8.w.0.#.w.w.w.q.y.y.y.y.y.y.q.q.q.>.r.r.,.y.,.=.=.              ",
"                                                                          a.C c./.V.d.i.c.X.o.K v.MXcX&X&X&X&X#XS.B.j.&X&XtX%XQ.%XX.Y R.m.l.!.n.. . . . + w M n N 1 3 # o o * o p { oX@X,X@X%.;.%.q.y.q.e.e.e. Xq.=.t.e.r.r.r.OXoXr.OXr.>.r.OX`.,.,.,.,.:.XX,X9X            ",
"                                                                          p.C R./.R.c.h.c.c.V.d.%XGXVXcXcX&X#XU.P.U.B.&XtXtXtXQ./.h.o.J.x.f.W.3.. . . . @ w n b b , + o l l 6.0.*X2X>X;X2X3X2XwX+XOX#.%.%.%.%.} ;.-.>.>.,.OX,.XX,.XXXX,.XX].-X>X-X>X;X-X4X-X,.,.            ",
"                                                                          i.K Z.&XJ.h.h.h.v.A.S.tXGXMXNXvXNX$X&XY.U.A.Q.rXtX%XQ.%XB.o.A.m.f.K.2.X . . . # 9 7 b M N 2 - K +.] [ r.OXXX;X;XXX;X2X X2X2X6X3X3X:X;X=X-X,X=X-X-X-X-X=X;X=X;X>X-X-X-X-X-X-X-X-X-X3XpX.           ",
"                                                                          i.C V.xXW.h.V.V.B.B.B.&XJXZXMXmXMX%XtXrX$X$XQ.&XNXcXQ./.h.a.A.L.L.~.l.. X . . # 6 e B M b 7 a { { { { %..X@X7X;X:X;X;X;.@X2X3X;X;X;X:X;X1X1X4X3X3X:X6X6X:X:X3X1X3X:XhX3X3X3X3X3X3XqXy.. 9         ",
"                                                                          i.K A.%X$XG.D.V.B.B.B.yXJXJXAXAXbXrXrXrXQ.&X&XQ.nXcX$XQ.h.j.A.D.D.{.L.. X + . + 5 6 M M 3 # a l { f { #.&.XX;X;X;X;XXX%.%.1X:X;X;XXX;X:X;X1X-X1X1X:X:X:X:X4X:X:X4X:X7X>X,XqXwXfXqXuX] . w         ",
"                                                                          i.C A.AXJXeXx.d.5.j.S.tXGXGXGXbX..E Q k P j.&XU.zX&XR.Q.j.j.A.G.f.~.b.. X . + # # C D V 6 # : ] [ { ] [ %.XXXXXX;X;X;X>.&.1X1X;X;X;X;X;X-X3X-X,.-X:X7X7X:X7X8X:X:X:X8XwXp ] F.iXe.6.d . 6         ",
"                                                                          p.Y E.JXPXIXY.$X$XtXh.tXGXMX%XW.3.Q k k Q X.Q.NXGXZXNXZX&Xc.Q.G.b.{.L.. . + X X $ Y W F $ # = { ] [ [ @.*.&.>XXX;X;X;XXX%.XX1X:X:X7X7X8X7X:X1X#.,.1X:X:X7X7X7X7X:X7X8XqXx d K C o - - . 2 6       ",
"                                                                          i.C R.JXPXHX#XeXF.#XA.xXZXBX%X .<.( ) z P G.C.MXGXZXZXGXU.o.V.x.m.{.L.X . . + @ $ J R I # # 9 { ] { ] #.@.%.>.XXXX=XXXOX%.:.>X;X:X7X7X8X7X-X1X#.,.3X8X:X:X:X:X:X8X:X8XqXl 8 v 8 # o 1 . 6 =       ",
"                                                                          i.K A.CXJXCXpXuXS.$XS.rXZXrX%X .x m.CXL.{.K.G.NXLXSXNXcXA.o.j.x.f.~.K.. . + . . # R W T # O 0 l ] { [ [ { ` -. XXX-XXX>X' &.XX;X1X7X7X:X:X-X;X:.-X5X5X-X1X:X:X:X:X8XwX9Xp o 7 - 1 , 6 + 8 9       ",
"                                                                          ..C Z.FXKXKXKXuXU.U.S.%XSX$X&Xx.( [._._.uXm.G.NXGXnX&XcXV.R v.x.k.~.K.. . . @ + # o.o.T # o a l +.] { [ [ ` *. XXX-XXX=X%.%.&..X;X1X;X:X7X;X-X3X4X:X3X-XXX=XXX,.3X3XwXF.a o 6 + 1 1 6 + 7 9       ",
"                                                                          i.D B.UXKXPXLXcXS.U.A.rXmXrXY.m.T.9._.m.m.d.Q.NXzX%XQ.%XQ.K h.v.b.~.E.O # + . $ o R o.T o . : l f ] [ [ | ] @. X;XXX=X>X.X} -.&.fX3X;X6X3X3X;X3X].:X3X6X,X{ f h r.=.y.L : # # # 1 1 1 + 6 =       ",
"                                                                          Y J x.UXKXPXPXNXS.&XU.%X%XI.H.9.9._.m.9.8.X.R.zXp.V.d.h.d.K h.z.2.{.{.X + + . @ # o.| R o . : | { [ [ [ [ [ ' &.@X>X=XOX=.' [ ;..XXX=XXX,.:.XX,.,.-X1X2X;.e.[ [ h ^ y.s 6 # @ # # $ 2 # 2 =       ",
"                                                                          u.C B.CXKXPXPXmXB.J.h.3.P 6.8.7.[._._.m.) ( W K d o.K Q.d.K h.h.V.^.^.X @ + + . . ..L T # . : d f { ] 6.S.oX0.-.-.>.&.,.%.[ [ 0.-.-.%.;.>.XX+X&.>.:.:.oXoXe.S.O.f P ~., 4 # # 2 + $ $ + 6 =       ",
"                                                                          Y Y h.JXPXPXIXCXP.Q.&XW.5.H.k.m._./ _.9._ P i.d./.&X&XO.g.K c.c.L.~.{.O O @ . @ . i.Y U . . 6 f f { +.[ [ 0.e.0.r.+XOXr.t.+.w.0.0.0.*.=.oX+X*X*.*.%.*.-.0.0.O.0.- F ) + 1 + $ $ + 2 $ 1 6 =       ",
"                                                                          u.o.d.CXIXPXJXVXU.&X&X$XI.!.8.T.9.$.9._ x k ..g.VXSX~.J.d.A c.b.f.G.~.O # + + # + T K G + . : l f f f f f h { *.+X+X,Xr.e.l | [ [ [ -.*.-. X*X[ 0.[ } *.[ 1.6.o.= t w $ $ # 1 $ $ # 2 + 6 #       ",
"                                                                          Y o.5.pXKXPXJXVXA./.R.K.rX~.x.9._ _._ ) z P 3.f.eXCXeXQ.V.C V.b.b.L.K.O # @ + @ # J K I 2 # = K +.+.O.[ { l : h ' *.=.#.` f d f { { [ *. XoX0.0.0.[ 1.{ <.1.8.o.0 t 6 @ @ $ 1 @ $ # # + # -       ",
"                                                                          I o.p.yXPXPXJXVXS.Q.B.A.D.~.9.^ |.9.}.9.) m.E. .K.DXyX$X!.i.Z.R.W.K.E.O X . @ @ X D K M , + r K +.O.[ [ O.| - p f @.0.@.@.g d k l l h #.*.*.0.+.4.l a k g ^ D.T 9 % < < < < # $ , $ 2 + $ 0       ",
"                                                                          D o.X.yXPXPXJXCXB.A.v.J.4.x.<.9.[.|._.[._ 5.H.l Y.CXDXrX%Xp.R.R.A.E.~.o @ @ + @ # D D n + . 8 l f h f l ] l K l l { @.0.1.> H P 6.<.h 0.q.e.y.7.7.j r j x 8.7.j $ 2 w < 4 1 + # $ # $ + #         ",
"                                                                          C o.X.yXKXPXIXGXk.V.c.L.P u m.{._ 9.$.9.8.4.L.k G.VXBXvX%Xs.V.R.C.J.~.O # + + X # D D M . + 9 D k k k | 4.L L | 1.6.0.q.w.g ( 8.8.<.#.q.y.t.y.9.y.% 4.8./ x > O @ 2 < < < @ 2 2 1 1 2 6           ",
"                                                                          D o.i.rXJXIXJXHXW.h.K ~.4.Q K.L.9.[.$.9.9.Q x.G.rXBXDXvXrXd.Z.Z.C.K.~.X # @ @ @ # D D n + . 2 = ; : t : D l P L z <.w.F.M.l k ( 4.| <.8.w.y.9.D.) ; > 8.8.( y $ < < @ < < , + . + . 2             ",
"                                                                          D o.X.eXY.P ~.D.7.) (.vX~.G.~.[.D./ [.`.8.K.W.UXLXCXmXvXrXX.V.b.b.L./.o # + @ @ $ F D e + . , + 5 t ; r u G E H H l P k k j : 3. .H l p P <.4.4.k $ q <.P j O @ + @ , @ , + # # o .               ",
"                                                                          D o.3.vXvXl 7.{.x ) !.vXrXrXrXmXaX[.T.[.x P W.yXBXUXCXmXtXX.V.G.n.L.{.O # @ . @ @ D D n , + + 3 2 2 5 w ! T ).T T S k s T T k G...o.A K K s A T j $ $ E Z % . @ , , + , @ , # . o                 ",
"                                                                          V W i.uXvX7.Y.m.n.^.E.!.mXvXBXUXCXT.[.~.4.k !.L.{.vXvXvXtXf.z.L.l.L.{.O # + @ @ @ J D n + . 2 w M m u w I T T T F S Z t U F T n.W D V s B B U T w n w # # # # + , @ , @ < + 2 .                   ",
"                                                                          D o.d.rXtXM.5.9.Q x.~.N.cXrXrXuX{.m.m.Y.J.A zXL.m.yXCXbXtXd.v.Z.b.L.~.O # @ @ @ O D D w , . < N M b b m u.w I F G Z m B Z I V n.G B B B d e G ! 3 b w , 1 , , < @ , @ @ < < .                     ",
"                                                                          D o.d.!.D.7.4.) s.l.~.&XMXcXtXyX~.m.D.4.f.h.%XE.~.vXBXDXtXs.b.Z.v.G.~.O @ @ + $ O F D 9 + + 3 3 1 , 3 < 3 5 w w w w w w w w r b M 3 n n e 6 1 3 b n 4 1 , 1 , + , + < + 2 2                       ",
"                                                                          D Y d.~.D.k.5.s.W x.{.J.A.S.H.D.T.H.H.P.C.h.A.W.L.DXvXvXrXd.c.V.l.K.W.O # + @ @ @ D A w + , 3 N 4 , 4 < < 2 5 2 3 4 2 2 w 4 b , N 7 b 1 3 3 3 1 7 7 1 1 + 1 1 , @ < + + <                         ",
"                                                                          I Y a.I.H.N.D.D.m.L.rX%X&XW.D.<.D.Y.T.H.I.&XMXAXAXbXBXmXxXd.v.Z.z.K.E.. o + @ . # F D e 2 c v v v v v N 3 1 w 3 1 1 7 w 3 3 b M n b 7 7 7 8 7 1 v n n 1 1 1 , , 2 @ 2 .                           ",
"                                                                          D R s.C.J.K.P.K.Y.{.~.%X%XrXrXyXuX[.Y.Y.Y.&XZXJXAXAXBXmXcXd.V.b.z.K.K.. # + + < # U s v , c M v v v v v b 1 3 b w b w b w w b I n 3 7 8 v 8 v 8 v V v 1 , 1 < , , + + @                           ",
"                                                                          S L s.v.Z.z.j.5.N.I.C.C.%XyXvXvX{.[.K.[.K.!.AXJXAXJXVXvXvXf.h.c.z.K.L.o o + + + + K V s , , c c v v c v v , 7 n n n n w 8 7 n M n 7 7 n v n n n v n 7 1 + @ < @ 2 + $                             ",
"                                                                          K L a.Z.V.d.h.V.D.Y.H.5.W.vXvXyXm.m.Y.{.D.eXZXJXJXJXUXvXcXj.h.h.j.E.L.. # + @ < $ 8 6 1 + , , 4 c c c , 1 , N w M M w 7 7 6 7 n e 8 8 8 8 8 w 8 e 8 6 + 1 < < @ @ o                               ",
"                                                                          A R i.V.Z.b.x.x.7.[.T.1.eXCXCXyX4.m.P.Y.K.eXZXSXVXAXAXBXxXz.c.h.z.G.b.. . @ @ @ 2 6 # # . , , , , , + + + + # M e e 6 6 7 6 6 6 6 7 6 6 6 6 6 8 1 1 1 + 2 2 < @ .                                 ",
"                                                                          D o.d.v.L.N.b.x.7.CXHXT.yXHXAXyXL.K.Y.D.I.%XcX/.~.W.~.W.!.g.j.h.f.G.b.. + @ + . + 6 - 1 + , + . , + . + + + + 2 # 3 # 1 2 2 3 3 2 3 1 2 2 3 2 1 1 # # # + < . +                                   ",
"                                                                          K R 3.V.A.V.Z.b.8.aX{.7.M.$XtXrXY.Y.W.W.J.W.Z.A.E.Z.E./.lXi.p.g.g.C.x.. . + + # # 1 - , + + , + + + + . , + , 3 # 2 1 2 < 2 + # @ # # 2 $ @ $ # # # # 2 @ @ X                                     ",
"                                                                          A T o.V.J.V.J.K.x.{.L.Y.H.U.U.W.A.U.U.G.W.A.g.d.R.W.%XxXzXp.c.d.d.b.z.. . + . . # 6 8 1 . , + + + . + + + , , 6 2 1 . . . + # # + @ @ @ X @ @ + # + @ + @ % !                                     ",
"                                                                          Z T | h.B.j.R.l.) l.l.b.h.X.o.o.X.z.C.G.H.J.| V.cXrXvXbX^.c.c.a.s.b.C.. . . . , , 1 # 1 , , + + + . . + + 1 + # # 2 $ , 2 2 $ $ 2 @ 5 2 @ $ @ @ + 2 2 2 5 $                                       ",
"                                                                          D R X.h.U.%XbXE.s.W X.g.g.a.p.V.v.V.j.C.G.C.4.~.$XK.~.J.E.R.b.s.l.G.C.. . + < , 1 v n v 3 , , + . @ . . . + 1 e + + 2 6 6 9 6 @ 2 2 9 9 2 6 2 5 # 3 b r r                                         ",
"                                                                          D ..b.N.W.~.~.E.X.K a.g.d.o.X.v.g.x.f.b.A.B.O.w.tXGXAXJXGXSXa.X.b.P.C.. . + @ 2 w n e e # + + . + + + . < . s.zXlXlXzXxXnXxXzXnXnXnXnXzXxXxXzX                                                    ",
"                                                                          D s.L.L.~.xXrXE.d.R i.i.a. .l.K.f.5.k.M.B.S.| B.GXIXKXJXAX%Xs.h.W.rX~.. . + + . 7 7 8 B 1 . + + $ . , + + . E.bXbX                                                                                ",
"                                                                          Z l.b.f.k.k.3.d.X. .a.f.5.2.x.Y.m.8.4.7.B.j.O.A.VXPXJXF.~.W. .d.~.~.G.@ + + < + 7 n 8 n 1 + . . + + . . . . /.                                                                                    ",
"                                                                          G E 3.4.4. .|  . .o.4.s.f.n.G.D.7.m.( 7.S.S.O.f.JXPXAXyXVXtX5...%XvX!.X + @ < , 8 8 8 n + + + . . + + xXi..                                                                                       ",
"                                                                          w j H P ( Q P z u k 2.) 2.5.n.8.m.m.7.H.G.x.3.X.AXtXCXUXJXJXE D E.^.(.$ + + , , , 1 1 7 , + , . . . E.xXMXo                                                                                       ",
"                                                                          U F T H S P P Q P L 4.2.( 4.2.P ) m.n.x.l.2.4.4.E f.$X!.cXBXW G U r 9 2 + , . + + + , + 1 , , + . . xXMXSX#                                                                                       ",
"                                                                          I 8 r ! u r u q q u u u u r t 5 u ! G ! ! u ! 9 ; O $ % + + . < @ + + @ + . + + , + + + + + + + . : MXMXZXa.                                                                                      ",
"                                                                          lX6 $ $ < $ $ X X X X $ @ X @ @ < @ @ @ @ < X o @ # @ % < < + 2 < < < # . + + + + + + , , , + , . ..MXmXMXZ.                                                                                      ",
"                                                                          zX, + @ @ # . @ @ @ X @ o @ @ # X + @ . + @ @ X O O # # @ < @ @ @ @ @ + # + + + + + + 1 , , + . . j.ZXmXmX                                                                                        ",
"                                                                          (.. . . . . . . . . . . . . + O $ @ @ . X X % . . . . . . O O % @ & & . . + + + , + + 3 1 , + + . /.ZXmXcX                                                                                        ",
"                                                                          c.C /.rX^.%X%XrX~.I.f.N.~.~.{.!.z.!.vXvX^.~.~.rXyXmXBXvXD.5.vXmXCXCXBXxX+ + + + + 1 v M + , . + o Q.GXMXtX                                                                                        ",
"                                                                          C - p.b.E.A.A.~.eX$XtXtXrX{.~.L.G.4.cXmXvXtXmXvXvXtXyXyXP.7.yXuXyX{.uXb.# . + + + 8 v V + + . # . o ZXBX                                                                                          ",
"                                                                          Y 8 c.Q.h.X.o.j.D.$X$Xl.s...R U H a L.W.tXuXeXeX$XY.Y.eXF.#XeX#XeX{.eXs.+ . , + 1 7 n n 1 + + # o . tXrX                                                                                          ",
"                                                                          C C c.R.h.o.V.$X#XU.~.Q d r e 6 d s f.W.~.eX$XtX$X$XY.Y.Y.yXY.Y.$XY.{.( , . 2 + # 8 V n , + + + . - Z.tX                                                                                          ",
"                                                                          o.D Z.Z.2.V A.W.A.A.U.J . s U I B B c.V.E.Q.$XcX&X&XY.P.U.$XS.D.~.L.I.U 2 + , # 1 v n n , + . , 3 8 0 ZX                                                                                          ",
"                                                                          i.D b.b.R 0 /.c.h.h.h.J C c.c.c.c.D V.v.d.X.d.o.Y | O.O.j.O.| k.Y.K.W.D # # 3 + # 8 n b + , + 1 6 7 : K                                                                                           ",
"                                                                          W F b.c.Y v Y i.Y j.p.F Y p.p.i.i.Y c.c.o.C C d 8 e V A D V C h.U.H.W.F + + + # + v B m + + @ , 4 5 2 # o W                                                                                       ",
"                                                                          ..F (.p.V 8 C 8 # d A ; 0 0 V C Y U i.o.V C o.C K U I u.Y v Y C.W.x.!.Z . + 3 # 1 8 n N + + @ < 5 2 < + o X = d R V.Q.xXtXtX&X&X&XQ.I.X. .4.X.3.3.j.7.D.F.F.F.Y.U.F.D.F.Y.#XY.$XuXyX              ",
"                                                                          W I b.c.C n V C V d O.R d d U o.i.i.c.C o.Y p.h.R.c.n.i.a.n ..C.Y.G.~.G 2 + . # 1 7 v , . + . , + < @ o . X o . . o . o o * * * * * - o O * > p p g g ` x ` x ` #.h ` ] h h z ` h x h >           ",
"                                                                          Y I b.i.# 8 B D d d.j.L A 3.h.h.S.p.V.V.v.p.c.&XR.c.K W g.Y ..L.~.~.^.G + , + + 1 8 8 , + @ @ . . . * . . X * . . o * p p h h h h h [ h h <.z x ] #.=.=.=.=.r.@.^ =.q.q.#.@.@.@.8.#.^ g           ",
"                                                                          Y T b.s.A A Q K o.V.U. .j.z.V.V.S.B.!.Q./.i.A.Q.Z.a...s.d.g.h.W.eX^.^.Z @ + , + # 7 n , + @ O l O.g p * * * x ` 0.=.q.oXOXOX=X>X@XOXoX&..X>.=.#.' -.&. X X&.;.%.- *.#.#.' ] ] z #.#.^ x           ",
"                                                                          R U Z.f.2.S J Y | h.B.j.M.A.B.B.B.j.W.$X&XX.A.V.g.a.f.g. .c.Q.!.{.rXrXZ + + < + 1 3 b . + . q 5.O.0.6.6.F.F.*X#XqX2X>X2X2X6X7X6X3X1X1XXX-X:.&.;.,X:.3X6X6XfX6XwX' OX&.' { h g x g #.#.y.          ",
"                                                                          J U g.z. .f.V.c.A.A.U.D.K.C.B.z.f.l.Q.R.Q.o.p.K d.d.j.j. .o.d.x.W.{.~.j + + + # 3 3 3 4 + # # K K l | { f @.-.OXXX&.XXXX3XhXkXkXkXkXkXkXkXkXhX2X#..X=X1X:X7X2X6XXX1X3X2X1X2X4X-X].,X^ y           ",
"                                                                          K Z Z.G.J.Q.V.S.I.U.Y.H.U.L.C.Z.d.g././.$X/.Q.&XQ.J.A.Z.d.V.f.b.~.eX^.! + < $ # 2 c 3 < , + $ - a o : ] 0.r.qXfXfX3X;X:.=XkX8X8XkXkXKXkXkXhXhXfX&.&.XX2X2X;X;X7X;X3X;X:X;X;X:X-X1XwX^ & +         ",
"                                                                          D J c.L.j.d.V.V.Q.U.~.I.G.G.j.h.K o.c.R.&X&X/.&XQ.W.J.E.i.V.A.m.W.{.!.! . + , @ 5 3 2 1 + + 2 $ = o l e.e.-.oX.XOX=X.X#.:.wX:.%.XXfXkXkXhX3X6XfX>.>.OX XXX6X6X7X X=X=XXXXX;X;X-X,X0Xy O + 1 6     ",
"                                                                          J J v.J.V.^.A.C.E.U.U.Y.N.N.X.p.X.p.R.R.&X&XR.Q.%XE.R.Z.L c.Z.x.K.~.~.u + @ , @ @ 9 2 1 + + 2 ..X.4.] ] ' -.>.;.>.>XXXXX2X:.:.&.&.1X3XqX@X1X1X2X,X&.'  X} XX6X@X} =XXX2X2X2X1XXX<Xy.& $ 1 1 # D   ",
"                                                                          Y U b.E.Z.E.v.h.R.J.W.$XU.H.N.&XV.c.&XS.p.R.Q.W.Q.E.W.L.E d.R.G.K.L.K.! + . + 2 @ w G . + # 0 L | 1.[ 0.=.oX-.%.;.%.;.XX=XXX1XXXXXXX X X X>.2X3X2X2X-.@X X@X X X X{ >X2X*XoX*Xq.t.<.t @ + + + J   ",
"                                                                          U I (.E.Z.R.v.g.J.J.$X~.Y.Y.U.&XA.S.R.c.p.V.R.J.E.E.E.b.i.Q.Z.n.K.K.K.Z + + + 2 @ W a.r . $ O z 1.t.e.e.-.*.;.%.%.` =.:.:.:.XX:. X X&.;.fXgXwXfXwX@X&. X@X@X X}  X} @XqX{ - o o g S 2 , + , + D   ",
"                                                                          U I b.E.Z.g...o.V.Z.W.Y.P.H.k.f.f.h.Q.&X&XE.E.A.!.rX^.g.i.g.o.H L.K.K.G @ 2 + # . s.s.e # o O z 1.q.*.-.=.%.*.;.%.%.%.&.&.;.&.&. X X X%..X2X X;.:.XXXX@X;X X X}  X X*X&Xf . , . # N 4 + + 1 + V   ",
"                                                                          U I (.E.J.c.i.R V.H.~.Y.H.D.4.L 3.V.^.%X/.%X^.%X%XrX^.Z.G H s > x.G.~.Z $ @ @ @ @ 3.2.s # + ; ] @.1.@.*.*.=.=.;.=.' =..X;.oX.XXX.XXX.X;. XXX@X.X XXXXXXX@X2X} }  X X*X*Xf + 4 1 3 I c , + 1 + B   ",
"                                                                          W G b./.Z.g.g...G.A.I.P.P.H.j.O.X.V.!.%XrX^.xX%X%X^.!.Z.W a.E x.K.W.W.u # @ 2 + @ l.a.e # + : 7.[ [ ` #.*.*.*.=.*.' -.oX&..X-..X&..X X}  X2XfXhXfX;XXX;X;XXX} } XX X*XR.1 , 4 c c v 3 + + # + 8   ",
"                                                                          Y B b./.A.g.l.a.J.U.P.P.Y.Y.H.h.d.g.Q.xXxX{.{.%X%X^./.E.f.n.s.f.G.K.~.r $ + @ + . s.a.e + o : <.| h ` ] ' @.q.*.' [ *.' ;.;.-.-.;.} %.} } }  XXX;XXX;X;X;X@X X@X@X} *XS.8 , 4 c c N 4 + # o o 6   ",
"                                                                          U Z b.Q.E.g.V.f.I.D.P.H.P.K.P.z.V.g.!.xXxX{.rXrX%X%XQ.J.f.s.s.N.L.W.W.r 2 @ # + . W E w . + = L l h l | ] [ +.[ *.r.e.' ' ' ' { { } *.} }  X@X.XfXXXXX@X@X X X X X} S.R.c 4 c c c 3 , + # # o #   ",
"                                                                          U B b.E.A.2.C.3.U.D.B.D.D.P 4.J.h.i.rX{.xXlXrX^.%X!.Q.E.l.s.f.G.G.K.K.r 2 @ + @ 2 T D w . # o p l l p h { l ] [ [ *.} oX*.+.0.+.0.*.} ' } =. X;. XXX X X X X@X} } S.S.zXC c c c c c , + # . # #   ",
"                                                                          U V b.Q.Z.d.z.k.D.H.H.D.b.P Q L  .a.!.rX{.^.{.^.^./.!.Q.b.f.n.z.G.K.W.j $ + # # 2 Z H w # # = : k l z ] l ] { [ *.0.[ +.-.} } } +.} *.' } *.} }  X X X X} @X*X+.p.p.p.p.v c c c c < , # o . . #   ",
"                                                                          R G b.R.Z.3.j.6.5.M.M.5. .H T R A z.!.!.^.W./.!.^.%X!.!.C.g.l.b.x.G.W.u $ $ + 2 2 Z F e @ # 9 l l H f | [ 0.[ 0.t.0.[ [ [ -.*.[ } +.e.' *.-.*.} }  X X} }  X} +.f C C v v c c c 4 4 , + . + o o   ",
"                                                                          W D (.R.A.3.3.4.4.| 6.6.5.5.4.f.2.b./.E.Q.L.E.E./.!./.Q.C.a.l.l.x.N.L.r # @ @ @ 6 J F 9 @ + = K a k l g l ] h { 0.+X@.{ { ' [ ' +.[ [ e.0.-.} } } +.+.{ { +.+.o + 4 c c c c c c 4 4 + + + # .     ",
"                                                                          W D Z.E.V.3. .f.5.7.6.G.eXY.W.K.E.L.Q.b.b.g.c.L./.^.W.E.V. .f.l.C.P.L.r @ $ 2 $ 9 W R w < + 9 d a l p l l O.] h ] 1.e.[ f ] [ 1.[ [ w.0.} e.*. X} %.} { *X0.- . , 4 c c v 4 c 4 4 < , + + .       ",
"                                                                          W U b.R.Z.| X.4.j.k.<.N.U.P.U.L.W.A.V.Y c./.E./.^.!.W.W.V.K j.l.k.J.J.9 $ $ $ # # F q $ + $ # = : : a a d a P h 6.6.1.| f L 6.l a a l O.+.t.e.0.1.0.[ F.e.X.- + , 4 < , < < < , , + + # 8         ",
"                                                                          W J v.R.d.H d P 3.k.x.B.G.I.I.B.G.E.b.c.lX^./.E./.Q.E.A.z.L j.z.x.G.E.r $ # # @ # j J $ # 2 # o = = = o 0 0 k d p : g l * l k a 0 - 0 0 - - : p p a d ] O.5.s , , < < < < @ , @ @ + #             ",
"                                                                          i.F g.v.R j R  .f.5.B.C.B.K.H.M.P.C.g.R.zX^.R.(.R.Z.V.U.A.o.j.C.Z.L.Z.0 $ # # + # 0 = $ + @ 2 # o = s r 0 A g. .H l d d - p d : - - w $ # . O O & $ ; ; 9 m w < < < 4 , < @ @ @ @ <               ",
"                                                                          Y U Z.E.N.3. .3.f.f.C.A.k.C.N.A.I.g.g.c.(.(.c.c.b.J.v.W.A. .l.C.x.J.J.9 $ # $ 2 % k s 6 + # 2 w 9 9 = 6 t Z J K ..R J A A K d l d A ..i.r Z G Z S m Z 5 9 b I < , < < < @ @ @ X +                 ",
"                                                                          T I b.~.~.x.5.f.f.j.A.N.f. .z l L  .i.Y u.i.i.c.g.c.h.J.C.d.f.b.C.L.L.9 $ # + @ 9 o.E $ . . 1 w 0 r m B t D D V H a K k K A l | K K K R E S J L L R g...2.W 9 < 4 N < , + + @ .                   ",
"                                                                          U D Z.Y.D.7.2.f.j.z.A.C.6.| P  .z.J.E.i.i.c.c.c.c.j.h.A.V. .z.x.G.C.E.9 2 + @ @ w E S X # , 3 e w w 9 r G D 9 s s K K K A K A A l K H A J Q l L A ....k S Z 2 < < N < , @ + # ^.                  ",
"                                                                          I V C.eX[.T.P 4.k.z.U.A.M.M.N.B.A.z.g.i.i.c.c.c.c.h.h.C.z. .z.G.b.H.L.9 # # + < 9 E  .G 2 2 b ! M w w 2 w 7 w = 6 e d B B V s q l H s r d - a 0 K s l k a 6 . , 4 3 , , < +                       ",
"                                                                          I d C.eX#XF.z 6.k.B.U.I.Y.M.M.D.H.V.g.c.c.c.c.c.c.h.h.h.f. .z.b.D.Z.L.9 # # + + w 2...j # 3 w w 2 2 1 2 w # + 6 2 1 7 3 8 6 8 o ; r 9 6 0 0 s 0 s S q a s + 3 + , , , 5 , @                       ",
"                                                                          U B z.[.w.7.L 4.M.k.P.P.T.T.F.F.B.G.j.p.c.R.c.p.V.h.d.B.d.L x.x.G.C.L.9 # + . + e W F 5 @ , 4 3 4 3 3 2 w w 2 c N 3 b 3 4 , 1 , 1 7 3 # # # 2 7 2 2 w Z 6 @ , , < + , < 4                         ",
"                                                                          D s l.D.7.k. .| j.w.B.F.F.Y.F.F.M.K.f.i.p.p.c.p.p.p.p.d.z.s.C.G.H.b.Z.9 # $ + , r F G r 2 w b N b b N 3 w b 3 b M M M b 4 c b 4 c c 4 w 3 7 1 1 3 1 1 3 b 4 , < , < @ <                           ",
"                                                                          I r g.H.D.z.2.X.B.B.M.D.P.Y.Y.T.G.G.s.s.u.Y o.i.p.p.i.c.c.j.W.J.L.G.E.r @ # o 2 w I r 5 3 1 3 N b N b 3 3 7 b b n N b n M n N C M M c v n v v n v v 3 w n , 4 , < , ,                             ",
"                                                                          I w f.H.U.l.f.3.z.h.6.5.D.D.H.m.L.l.n.s.u.C Y u.o.Y Y v.z.g.L.N.C.x.J.Z # + # $ 2 6 2 , < , 4 4 3 4 4 4 < 3 w n n 4 4 1 7 v b M M n v N 3 v 4 3 3 4 4 3 , 4 , , , < +                             ",
"                                                                          U n 2.7.6.4. .4.3.7.d.4.x.x.D.n.n.b.E.c.Y I Y o.K D K v.Z.f.J.G.H.C.J.Z $ + @ + 1 , , , , , , 1 + + + + , 3 w n v 7 3 N v 3 3 v 3 N N 3 4 c 4 4 , 4 , 4 , 4 , + + +                               ",
"                                                                          I s i.D.D.k. .3.k.B.A.Y.~.~.~.{.{.{.E.n.s.s.s.a.X.2.E f.f.N.J.G.N.G.E.A + . # + + , + , , , , . + + . + + 1 3 3 4 1 1 1 1 4 , < 1 1 4 4 , 4 4 4 , , 4 , 4 , , + .                                 ",
"                                                                          D t 3.D.8.P H 5.M.B.j.G.eXyX{.Y.rX{.{.s.v.l.f.l.z.V.j. .4.x.H.G.N.C.L.F # . , # 1 < , , , , , . . , + + + + , , , + + + , + + + + + , + + , , , , , , , , , # +                                   ",
"                                                                          U e 3.D.7.| 4.k.N.B.7.rXAXAXDXrXCXDX~. .g.f.N.B.C.B.C.5.x.P.W.L.L.x.C.H @ . + 2 3 3 4 4 4 , , @ + + + + , , , , , , , , , , @ @ + @ @ 1 @ , @ + + , , , , , ,                                     ",
"                                                                          I e T D.D.w.7.5.7.M.D.CXGXUXCXDXvXyXG. .j.5.j.d.X.X.o.4.C.A.J.A.E.V.v.U + . , 3 3 3 b < , , , @ + + + + , + + < , + + + + @ , @ , < < , @ @ @ , < , , , , + 9                                     ",
"                                                                          Y n S K.T.7.8.7.7.M.M.rXBXGXAXvXBXvXK. .N.U.B.V.v.C.V.l.3.a.X.R  .3.s.T # . , , , , < < , , , + + . + + @ + + @ + , + @ , + @ + , , , @ , , < < < < , + , 1                                       ",
"                                                                          Y 0 s D.7.8.1.7.7.D.M.R.$X%X$XcX$X$XV.X.A.A.J.V.V.Z.v.l.a.f.d.h.L.A.E.a.o 1 6 , 7 n n b w , @ + + + + # + + + , 1 1 1 , , 1 2 , 1 4 , , 4 4 , 4 4 , 1 3                                           ",
"                                                                          Y 6 0 w.Y.w.w.w.7.w.x.S.%XNXNXZXGXVX%XK h.o.d.d.X.2.o.X.d.g.z.z.h.f.2. .6 o + 1 n n 8 w 3 @ , , + + . + + # + + # 1 2 w e M Z I T u.i.s.s.(.(.E.                                                  ",
"                                                                            0 a 7.T.8.8.7.m.D.8.D.mX$X3.P.tXW.Q d g.3.g.h.a.2.o...3.a.s.j.3.3.l.a.0 1 # V n v n n w , + + @ . . O O V V./.nX                                                                                ",
"                                                                            8 q M.D.#.8.<.8.7.x.N.$X~.W.G.n.W.S D C.V.V.V.g.g.a...2.3.2.3.2.f.v.2.6 + + C 8 V v n 3 + , + + < X j ZX                                                                                        ",
"                                                                            8 0 N.w.w.7.K.G.L.x.K.H.f.a.a.3.J o 0 A.B.v.h.h.l.f.3.a.3.a.a.2.j.g.d.B # 1 v 7 7 1 4 1 < 3 . @ X &                                                                                             ",
"                                                                            9 e 5.4.4.Q H E W T S T J U A B Z D K c.X.i.i.W ....E W ..a.....R T T n 1 1 4 , , 3 b M N w @ @ X 2.                                                                                            ",
"                                                                            # # X X % @ . @ @ + + + + + + + + + + # o + . . + . . + . . + + . + + 1 , 1 < 1 1 1 1 1 4 1 @ @ .                                                                                               ",
"                                                                            2 $ # + @ < , 2 2 , + + + + + + + + + + + + , , , + , , , , + , 1 2 + , , , , < , 1 1 1 , < @ @ .                                                                                               ",
"                                                                            . 6 u < < t , 2 < , + , , + , + , + + , , , , , , , , , , , , , , 1 + , + , + 2 , 1 # 1 < @ @ 9 .                                                                                               ",
"                                                                              U n.! @ < + @ < + + @ + , + , , , , , , + , , , , , + , , + , , . # # + # $ + # # < + # @ + $ .                                                                                               ",
"                                                                                  SX. @ @ @ @ @ + , + < + + + + , , , , , , , , , , , , , , + + . # . # . # + @ # 2 + + % + .                                                                                               ",
"                                                                                    @ . . 2 + . @ . + + + , + + + + + + , , , , , 4 < < , , + + . . . . + + 6 2 . # + (.b.W                                                                                                 ",
"                                                                                    % @ @ I /.b.. + + + + + + + , + , + + , , , < , < < , 1 + . % E rXnX^.b.$ @ @ 5 $ xX                                                                                                    ",
"                                                                                  6 o # #       E.@ . + + + + + + . + + + + @ + @ , + + , + + + 9 nXBXnX/.E.6 @ % 2 $                                                                                                       ",
"                                                                                    .             + . . + + . . + # + . @ , + , @ + + @ . , # + w 2 $ # , . $ w 2 1 6                                                                                                       ",
"                                                                                    o             Z . + + , + , . . . @ @ , @ , @ + # , . $ + + $ @ < # 3 7 2 n 3 1 n                                                                                                       ",
"                                                                                    e             9 + + . , + 2 w 9 Z 2 @ + @ . # + @ @ @ 1 6 + 2 @ % < , 3 I n 7 8 n                                                                                                       ",
"                                                                                                  6 . . , 2 u.G w r D Z r w m r @ @ . + 1 B # 7 7 2 2 < 4 , 1 1 1 7                                                                                                         ",
"                                                                                                  + . , . w T M w r Z G r Z G w 2 . @ . 2 7 1 . c.lXzXlX(.(.V 3 # 6                                                                                                         ",
"                                                                                                  . . . + 2 w w 9 9 r B r ! r 5 9 @ 2 @ 2 6 2 + 4 b (.zXlXzXzX/.U                                                                                                           ",
"                                                                                                  2 . . + + 2 w 6 w r B S F ! t t @ $ 2 < 2 2 @ + + . $ /.xXMX                                                                                                              ",
"                                                                                                9 # # @ w M U G w t Z D F S j t w @ 2 + @ @ 2 2 @ 2 # . 6                                                                                                                   ",
"                                                                                            %X. e . m @ G n.M + 6 Z D J T F Z r w , 2 < < @ . 5 $ # # $                                                                                                                     ",
"                                                                                                  zX. # m m 7 w Z F u.s.) J u r 4 , 3 < , @ @ 3 = # o                                                                                                                       ",
"                                                                                                  AX+ . w G M r 2 Z H U F F G Z M ! c 4 @ @ xXSX                                                                                                                            ",
"                                                                                                    6 + w r 2 2 . . $ $ @ @ X $ 5 b 4 @ . . bXSX                                                                                                                            ",
"                                                                                                    $ + . + + , + . # o # $ $ t ! M 2 + + . ^.                                                                                                                              ",
"                                                                                                    # + . + , + + . 9 9 + @ # 2 M b % 2 , . E.                                                                                                                              ",
"                                                                                                    1 , + + < w b . b.; . @ + + < @ @ 2 + + xX                                                                                                                              ",
"                                                                                                    # # # + $ w 3 . s.# @ < @ @ @ , @ 5 $ + E.                                                                                                                              ",
"                                                                                                    # + . , $ 2 @ < ! @ + @ @ X @ % @ $ + # b.                                                                                                                              ",
"                                                                                                    # + . . # 5 w @ . 5 . X X . @ @ @ 2 + # g.                                                                                                                              ",
"                                                                                                    9 # # a.v.E.u.9 . L 4.6.3.4.s u . 6 + # ..                                                                                                                              ",
"                                                                                                    8 # 6 a.X.| u G . h.O.1.1.X.j X 2 e + # R                                                                                                                               ",
"                                                                                                    a 1 6 a.O.K D T . Q.6.[ O.l t o < w 1 # U                                                                                                                               ",
"                                                                                                    d = s d.X.| f.%X. !.1.O.[ K q @ 3 3 + # J                                                                                                                               ",
"                                                                                                    D # s i.o.K X.%Xo %XO.] ] K : @ t 3 # # J                                                                                                                               ",
"                                                                                                    Y 6 n i.o.K 3.xXo %X1.] ] ] 0 % 5 5 2 $ A                                                                                                                               ",
"                                                                                                    ..1 r s d d 3.cX. ~.1.` | K r 9 B 3 2 $ G                                                                                                                               ",
"                                                                                                    i.# e Y o.O.3.cX. !.[ l { O.e 6 M 6 + 2 j                                                                                                                               ",
"                                                                                                    i.6 8 o.X.X.j.vXo $X[ ] | o.e 6 w 3 + $ Z                                                                                                                               ",
"                                                                                                    i.- 9 X.p.6.j.cXo W.] h H | 0 3 6 7 2 # T                                                                                                                               ",
"                                                                                                    a.6 V X.f.j.A.mXd Q.O.h | | D r N M # O T                                                                                                                               ",
"                                                                                                    p.1 d X.x.H.M.vXP B.6.| l d 0 7 3 G # # W                                                                                                                               ",
"                                                                                                    j.- 0 f.N.M.D.x.P H | z | A T 6 1 V # @ i.                                                                                                                              ",
"                                                                                                    g.= 0 f.x.~.vXUXAXUXCX6.S.d.s.@ < M @ @ a.                                                                                                                              ",
"                                                                                                    c.- s z.L tXVXAXAXUXAXP.| f.a.t + M $ o s.                                                                                                                              ",
"                                                                                                    c.# 0 h.| mXGXZXAXAXyXM.5.3.W u @ Z $ + s.                                                                                                                              ",
"                                                                                                    V.- d j.d.vXvXmXmXvXeXP.5. .T j 2 r 9 o g.                                                                                                                              ",
"                                                                                                    V.# d h.h.&XMXBXMXmXyXP.M.| H F % 2 9 # l.                                                                                                                              ",
"                                                                                                    R.- d p.p.zXGXzXnXcXCXP.B.j.z...= = 9 # v.                                                                                                                              ",
"                                                                                                    R.# d o.C NXSX&XZXtXCX#XS.A.L.g.9 6 9 . c.                                                                                                                              ",
"                                                                                                    R.o V L D ^.xXlXvXrXeX$X#XS.I.v.V = 9 # v.                                                                                                                              ",
"                                                                                                    R.- : j L v.E.AXJXAXI.#X&XA.V.W.d = 6 . c.                                                                                                                              ",
"                                                                                                    R.. * k P j.n.^.(.3.$XbXQ.j.Q.W.J 6 # o c.                                                                                                                              ",
"                                                                                                    R.o a  .AXLXLXIXLXLXLXGXGX^.Z.%X..7 - $ v.                                                                                                                              ",
"                                                                                                    R.o | K S.GXGXSXSXSXGXLXGXR.B./.o.6 - # l.                                                                                                                              ",
"                                                                                                    E.- O.p.zXp.c.SXLXSXzXSXzXR.V.&Xi.1 # # v.                                                                                                                              ",
"                                                                                                    /.1 ..s.&XzXGXLXGXnXSXGXzXp.V.zXc.9 = = g.                                                                                                                              ",
"                                                                                                    /.# .. .zXzXSXLXGXSXzXGXzX&Xp.zXn.w $ = g.                                                                                                                              ",
"                                                                                                    /.- K O.zXzXZXLXGXNXGXGXzXzXp.zX(.# = # g.                                                                                                                              ",
"                                                                                                    &X1 C O.zXNXZXIXGXZXzXZXzXR.R.zXp.# = # n.                                                                                                                              ",
"                                                                                                    zX1 p.o.zXNXZXZXzXzXzXZXZX&X&XzXg.; 0 6 n.                                                                                                                              ",
"                                                                                                    ^.# C p.NXzXzXGXZXNXzXLXGX&Xp.%Xs.8 0 $ c.                                                                                                                              ",
"                                                                                                    ^.# A R cXcX&XGXZXzXZXLXGXzXo.V.Y 8 6 - g.                                                                                                                              ",
"                                                                                                    /.o J E cX&XNXGXGXMXzXZXzX&X3.H d 6 # $ a.                                                                                                                              ",
"                                                                                                    /.# T ..NXzXMXGXZXMXGXAXNXtXT.W.L.0 9 # g.                                                                                                                              ",
"                                                                                                    /.- L o.NX&XGXGXZXZXZXyX1.w.m.Y.3.r : # s.                                                                                                                              ",
"                                                                                                    /.# U X.cXzXNXNXMXSXBXI.y j u u 2.Z 0 # s.                                                                                                                              ",
"                                                                                                    Q.# T a.&XzX%XMXnXcXZXvXu y i Q f.J 9 $ s.                                                                                                                              ",
"                                                                                                    R.: S v.Z.cXMXZXSXVXDXvX9.7.n.s.d.K : # a.                                                                                                                              ",
"                                                                                                    Z.0 A V.h.cXMXZXMXvXcXrXK.9.( R c.D 6 # a.                                                                                                                              ",
"                                                                                                    V.8 A c.- X.R.cXnXcXMXvXY.8.4.Q u.I 5 X 2.                                                                                                                              ",
"                                                                                                    h.a d j.c.zXZXZXMXvXMXvX[.m.8.T W I 2 . ..                                                                                                                              ",
"                                                                                                    c.: R V.Q.NXGXMXSXMXDXCX[._.9.Q T D $ o ..                                                                                                                              ",
"                                                                                                    E.s S g.V.cXZXSXSXZXBXSX}.{.7.z H A # # E                                                                                                                               ",
"                                                                                                    Z.0 T Q.Q.zXxXBXSXBXVXyX9.9.P P L s = # T                                                                                                                               ",
"                                                                                                    V.0 E Q.E.&XrXBXSXBXVXuXx.) <. .d.J = o H                                                                                                                               ",
"                                                                                                    v.0 ..W.G.rX$XmXBXCXZXuX8.<.|  .g.U # o j                                                                                                                               ",
"                                                                                                    v.: 4.~.D.uXm.yXCXAXCXaXm.9.j  .W K # # s                                                                                                                               ",
"                                                                                                    v.0 4.K.[.{.}.aXUXUXCX}.{._ ).Q ) M o o a                                                                                                                               ",
"                                                                                                    g.q ) [._.}.|./ |.|._ _ ~ ~ ! Q Q ! $ O 0                                                                                                                               ",
"                                                                                                    g.0 Q _ _ |.|./ / / ~ ~ _ ~ ) u ! Q $ $ 0                                                                                                                               ",
"                                                                                                    a.q ^ _ _ |.}.|.|.|._.|.) ) ( u Q ! # # :                                                                                                                               ",
"                                                                                                    s.q T ) _ _.|.|._.|._ ^ ~ Q ) u Q Z . X =                                                                                                                               ",
"                                                                                                    g.t ( _ _ _ |.|._./ / _ i ! Q X Q S . o :                                                                                                                               ",
"                                                                                                    c.t )._ _ _ / |./ |.|./ ~ ) ) u k Q X o 9                                                                                                                               ",
"                                                                                                    g.! ) ) _ ^ ~ |._ |.|._ ~ ) ) ! k Q X O ;                                                                                                                               ",
"                                                                                                    g.a ( 8._ / _ _ _ |._ _ ~ ).n.t u Q X O 0                                                                                                                               ",
"                                                                                                    j.s ( 9.^ ^ _ _ / _ _ / ~ ) ) u u Q o $ :                                                                                                                               ",
"                                                                                                    c.a 8.9.$.'.$./ / ~ / _ ^ ( ) i y ! % @ 0                                                                                                                               ",
"                                                                                                    ..s Q ( 0X0X<XsXdX}._._.^ ^ ~ i y u % O 0                                                                                                                               ",
"                                                                                                    c.Z k ) 9.0XsXsXsX'./ / ~ i Q Q i ) % X 0                                                                                                                               ",
"                                                                                                    G j ) m.9.0XhXhXsX'.$.~ ~ ) _ ) Q ).% $ :                                                                                                                               ",
"                                                                                                    e r ( 9._ 0XjXsX5X'./ ~ / _ _ ) i Q % X a                                                                                                                               ",
"                                                                                                  xX= j Q 8.$.0XjXdX<X'.$.~ / ^ Q ! i ! 9 % q                                                                                                                               ",
"                                                                                                  E.O t u ^ 9.0XjXjX0X`._ / _ _ ^ u N u 5 @ u                                                                                                                               ",
"                                                                                                  R.o q S x 9.0XsXjX<X]./ ^ ^ ^ i i i u 5 & u                                                                                                                               ",
"                                                                                                  E.. t F ( 9.'.sX5X].]./ / ^ _ _ ).! u 5 O j                                                                                                                               ",
"                                                                                                  /.. 9 G Q 8.'.sX5X<X'.$./ _ 9._._ ~ ! % $ s                                                                                                                               ",
"                                                                                                  Q.# 5 I ) ) [.'.<X<X'._./ $.`.9./ i u & % q                                                                                                                               ",
"                                                                                                  zX$ w I ) ) / $.`.`.'._./ _.9.$.~ i i X X q                                                                                                                               ",
"                                                                                                    # e I Q Q ^ 9.`.`.$._ / / _ _ ^ ^ Q & O t                                                                                                                               ",
"                                                                                                    2 m Q ! Q ( 8.9./ `.9.~ / ) _ ) ) u X $ :                                                                                                                               ",
"                                                                                                    6 m ! u u Q <.[.( $.9.^ ^ _ ^ x u u X % :                                                                                                                               ",
"                                                                                                    w e r y y i x ^ ^ y._ / ~ ^ Q u u 5 @ ; q                                                                                                                               ",
"                                                                                                    6 t k {.[.y.#.8.0X9X$.^ x Q i u t t $ ; q                                                                                                                               ",
"                                                                                                    6 w Q eXuX0X0XaXwX0X[./ ^ u t t t 5 $ & t                                                                                                                               ",
"                                                                                                    m G z [.wXpXwX<XsX0X0X/ & i & t t & 5 t q                                                                                                                               ",
"                                                                                                    r D E eX9XjX0X<X<X<X0X/ & ~ & i i t & & t                                                                                                                               ",
"                                                                                                    Z j 2.uX9XdX0X,X<X`.'.].'.'.'._.~ i & & t                                                                                                                               ",
"                                                                                                    G Z E eX`.dXdX,X,X<X'.].].5X5X5X_.u @ @ t                                                                                                                               ",
"                                                                                                    D j E {.[.dXdX}.0X0X4X].].4X5X<X_.i & % t                                                                                                                               ",
"                                                                                                    R Z T uX[._.0X[.`.'.'.].4X5X5X5X'.i & O t                                                                                                                               ",
"                                                                                                    R Z P yX[.x [.,X<X'.4X'.4X5X5X5X'.~ & % 9                                                                                                                               ",
"                                                                                                    ..j R yXx.^ 0X0X0X<X4X4X5X5X5X5X`.~ & % ;                                                                                                                               ",
"                                                                                                    s.B o.%X..Y.[.pX0X<X<X5X5X5X5X4X'.~ & & t                                                                                                                               ",
"                                                                                                    c.r q f.c.tX`.HX0X<X'.].4X5X5X5X|.~ & % u                                                                                                                               ",
"                                                                                                    b.r m.mXtXCXy.dX`.`.].].].4X'.'.}.i & @ r                                                                                                                               ",
"                                                                                                    E.r 9.0XpXHX[.[.9.$.'.].|.]./ ~ ~ i % ; 0                                                                                                                               ",
"                                                                                                    ^.q 9.pXwXdX`.[._.}._.|.~ ~ ~ i i i 5 5 u                                                                                                                               ",
"                                                                                                    ^.j 9XdXsXsX`.`.^ |./ ~ / }._./ ) ~ & 5 q                                                                                                                               ",
"                                                                                                    ^.a 9XdXsX3X'.`._ / ~ / |.|._.|.|.~ i ; u                                                                                                                               ",
"                                                                                                    lXg 9XjXsX4X`.'./ ~ ~ / / |.|.'._./ & y k                                                                                                                               ",
"                                                                                                    %Xj 9XsXwX'.0X`.~ i i i ~ _ }.'.'.[.^ u y                                                                                                                               ",
"                                                                                                    lXa 0XwX<X,X0X`.~ i i i i _ }._.$./ ( y y                                                                                                                               ",
"                                                                                                    ^.k 9X0X,X0XsX'.x & i N u i ~ i i u O $ :                                                                                                                               ",
"                                                                                                    ^.k `.`.`.`.0X0X^ & 5 u N u t t % 5 @ 9 :                                                                                                                               ",
"                                                                                                    ^.k 9.,.9.,.`.`.x O $ t t & t u 5 5 @ @ X                                                                                                                               ",
"                                                                                                    /.j x ^ `.[.].`.^ . % 5 & & i N ! ! 5 5 &                                                                                                                               ",
"                                                                                                    ^.0 i 8.y.0X`.,.^ & & i & & i m.i u 5 u @                                                                                                                               ",
"                                                                                                    %Xs y ( @.T.`._._ ~ _ 9.9.9.^ i i u y u & xX                                                                                                                            ",
"                                                                                                    %Xa x 9.z #.$./ / _.$.$.0X}._.i i u i u & xX                                                                                                                            ",
"                                                                                                    %Xs P y.y.9.^ / `.'.`.].].wX[.~ & u i & i xX                                                                                                                            ",
"                                                                                                    zXl <.T.y.aX#._.y.].$.].<X}.m.i & ) u & t vX                                                                                                                            ",
"                                                                                                    zXl ^ _.y.T.i ^ / $.$.4X<X`._ ~ i ^ u 5 & nX                                                                                                                            ",
"                                                                                                    nXs ( D.9.8.i _ ^ $.}.0X<X`.~ i i ) u y & xX                                                                                                                            ",
"                                                                                                    nXs z m.<.7.) 9.( 8.aXdX9.$.i i i ~ u ; ; yX                                                                                                                            ",
"                                                                                                    cXK k ^ x T.9.9.~ ^ ^ x i i i u u Q y & t xX                                                                                                                            ",
"                                                                                                    cXT z ( 9.[.0X[.9.x & Q ^ Q ) u y & y % u rXBX                                                                                                                          ",
"                                                                                                    nXo.F.uX9X`.`.`.8.i ^ m.m._ _ i & % > t y K.H                                                                                                                           ",
"                                                                                                    zXo.y.pXpX0X$.$.$.^ #.) ^ ~ i ^ x t t & q xXT                                                                                                                           ",
"                                                                                                    cX| #XpX0X0Xy./ g y & i i i i ~ u & * X X rXG.                                                                                                                          ",
"                                                                                                    zXX.mXiXuX9.$.) ^ y i 9._ ( u ) Q % O X % vXvX                                                                                                                          ",
"                                                                                                    zXd H.T.) ( ^ ( x ^ 9.y.) i u t & < $ O > rXvX                                                                                                                          ",
"                                                                                                    zXd j k x <.8.( ^ 9._._.) & @ @ @ 5 # & * Y.~.                                                                                                                          ",
"                                                                                                    zXd > : k.7.x <.#.9._.9.y X . . @ % X $ & W.rX{.                                                                                                                        ",
"                                                                                                    xX= = O 4.6.^ <.y 8.8.^ & . . . X @ % O * eXeXrX                                                                                                                        ",
"                                                                                                    cX6 6 = 4.7.1.8.g 8.x > X @ . @ X X @ % t {.rXyX                                                                                                                        ",
"                                                                                                    nX6 0 # | B.6.<.> ^ ( O X @ @ X X . ; ; ; eXrXtXrX                                                                                                                      ",
"                                                                                                    NX8 w *  .M.8.<.y Q ) > & @ @ < X X % & ; !.yXyXyX                                                                                                                      ",
"                                                                                                    bX# 9 $ | M.7.P u x ( y & X @ & @ & O % > {.uXrXyX                                                                                                                      ",
"                                                                                                    bX1 6 = L M.x.P y F m.( u 5 u Z Q Q % & y vXrXyX                                                                                                                        ",
"                                                                                                    nX# = = L z.l.Q u ) D.D.x.) Q Q R u u @ & vXrXvX                                                                                                                        ",
"                                                                                                    nX# 9 ; K l.G.( Q <.T.{.w.8.E E R ; r t > vXeXyX                                                                                                                        ",
"                                                                                                    bX6 ; 0 B g.x.k ( P {.T.7.4.E j 9 2 u ; u mXrXyX                                                                                                                        ",
"                                                                                                    bX6 9 r j a.n.<.Y.9X[.{.x.5.P 9 O $ 9 % u DXeXmX                                                                                                                        ",
"                                                                                                    nX= $ ; J x.eXuXaXCX#XeXm.<.P t 9 + X X > bXrX                                                                                                                          ",
"                                                                                                    nX6 O ; tXtX{.eXuXeX#XrXD.E s.Q t = % % & vXrX                                                                                                                          ",
"                                                                                                    nX= 0 : M.tXmXyXeXeXY.uXD.H ( S = O ; % > bXyX                                                                                                                          ",
"                                                                                                    nX9 d q B.mXCXuXeXeXF.eXk.j 0 X O O $ ; u                                                                                                                               ",
"                                                                                                    nXw r k U.CXCXuX#XY.D.eXm.l Q Z 9 O X ; u                                                                                                                               ",
"                                                                                                    xXd w Y $XrXU.B.G.D.w.9XM.Q L G u 5 @ & q                                                                                                                               ",
"                                                                                                    nXe B K S.S.O.6.| j.w.eXD.z E W r 2 % O j                                                                                                                               ",
"                                                                                                    xX8 V A U.A.$XeXQ.S.#XeXD.E l.s.5 % % $ u                                                                                                                               ",
"                                                                                                    nXe : d 3.S.N.H.Q.#X#XuX8.2.T 2 % t 5 % a                                                                                                                               ",
"                                                                                                    xX: 8 V 3.| 6.D.P.tXuXuX8.g j j 5 5 % % q                                                                                                                               ",
"                                                                                                    nX8 9 j o.3.M.D.uXFXpXmX#XN.l.2.r % % % q                                                                                                                               ",
"                                                                                                    xX6 7 K o.d.6.U.F.eXuX#XeX| <.L t 9 % % :                                                                                                                               ",
"                                                                                                    nX6 6 ..o.3.f.7.6.$Xw.eXT.7.4.P q 9 $ & t                                                                                                                               ",
"                                                                                                    cX= d i...X.f.5.k | F.6.7.D.x.f.Q o % 9 ;                                                                                                                               ",
"                                                                                                    xX= s a.s.H k k a p z z k <.<.f.G % % > %                                                                                                                               ",
"                                                                                                    xX8 0 i.g.o.R P * 3.~.| > : t ; $ O % 9 %                                                                                                                               ",
"                                                                                                    xX6 d s.a.d.2.a.* C.tX .u j 5 5 e 5 % ; ;                                                                                                                               ",
"                                                                                                    xX= 0 i.a. .2.v.- V.rXs.t s 5 G F % t 9 ;                                                                                                                               ",
"                                                                                                    zX= 0 R d.g.J.v.s l.!.o.0 e 9 I T 5 9 ; >                                                                                                                               ",
"                                                                                                    zX6 d A K K a H P Q.Q.W r m w G F w 9 ; :                                                                                                                               ",
"                                                                                                    xX- 0 R z.z.~.tX3.W.o.9 2 6 m 2 ! 9 % 9 q                                                                                                                               ",
"                                                                                                    xX8 :  .U.$XmXmX6.VX!.S A G w w G ! % t :                                                                                                                               ",
"                                                                                                    xX1 0 P S.F.F.w.| vXtXK.Z.E.W Z 9 r % t ;                                                                                                                               ",
"                                                                                                    xX- = l 5.P.FXF.z mXyX#Xx.f.T G w r ; t *                                                                                                                               ",
"                                                                                                    nX= = H B.F.P.D.] yXmX$XU.l.T Z ! m $ t &                                                                                                                               ",
"                                                                                                    nX# = K V.B.U.B.l yXiXF.k.d.W D r B $ 9 %                                                                                                                               ",
"                                                                                                    xX# - k j.5.J.C.l tXiXD.5.l.R A e e = ; *                                                                                                                               ",
"                                                                                                    nX# = s 5.j.C.z.k tXtX6.<.s.Y D r r $ ; O                                                                                                                               ",
"                                                                                                    nX# 6 s d.h.B.g.a $X$Xk.3.s.R D s B = ; O                                                                                                                               ",
"                                                                                                    xX= 9 s d.j.v.z.s z.&Xf.l.d.i.V d B ; ; O                                                                                                                               ",
"                                                                                                    zX# = V d.i.o.Y 0 R | L f.s.X.U e e $ = o                                                                                                                               ",
"                                                                                                    %X# 1 B R K Y R e r H L E L Y D e w = % o                                                                                                                               ",
"                                                                                                    %X# # d W i.s.2.r Z R o.J A R s s t 5 = o                                                                                                                               ",
"                                                                                                    /.# $ r .. .E T Z Q Q P W T D s 6 = ; = o                                                                                                                               ",
"                                                                                                    Q.2 9 s E 4.( T Z u Q T S Q A t % 9 6 $ o                                                                                                                               ",
"                                                                                                    Z.6 $ G S k S F t m u u O r F e 9 9 9 $ o                                                                                                                               ",
"                                                                                                    v.6 O J E f.n.) F u u R G E R e w e = $ o                                                                                                                               ",
"                                                                                                    v.6 o T 2.3.2.( Z t G E Z T T r 0 9 $ O o                                                                                                                               ",
"                                                                                                    9 6 + Q s.f.3.2.F u Q E u J H 0 9 ; = $ o                                                                                                                               ",
"                                                                                                    . 6 . J 2.4.s.) I ! T W t F U 0 9 = $ $ o                                                                                                                               ",
"                                                                                                    o = $ T 2.4.5.4.Q Z T ) t T I 0 9 $ = O *                                                                                                                               ",
"                                                                                                    0 = 9 J R 4.2.( Q F ).n.Z F J w = = $ o ;                                                                                                                               ",
"                                                                                                    : 0 ; G R  .5.f.( R n.L.T J T e 0 : - # =                                                                                                                               ",
"                                                                                                    = 9 2 s  . .<.4.( A Z R t J o.d 9 = = # 0                                                                                                                               ",
"                                                                                                    = 6 $ t 4.| <.4.P : Z 2.A R Y n 8 - = - :                                                                                                                               ",
"                                                                                                    7 6 5 r 4.| <.<.l : k u.D R i.v e = # = 0 MX                                                                                                                            ",
"                                                                                                    8 6 9 Z 5.<.4.7.| k P ( k R o.n n $ = o : BX                                                                                                                            ",
"                                                                                                    6 6 2 0 5.<.1.<.] z 2.( J Q Y V M 2 6 o : MX                                                                                                                            ",
"                                                                                                    6 2 2 t f.6.7.w.7.<.5.E 4.S C C Z 2 # o - vX                                                                                                                            ",
"                                                                                                    $ 2 2 s f.7.F.Y.7.z <.k 3.s 0 9 2 < . # $ A.                                                                                                                            ",
"                                                                                                    = 2 6 a 5.O.6.w.8.7.l L 3.a = $ # # 2 # o a cX                                                                                                                          ",
"                                                                                                    2 3 < t 3.6.6.6.j.B. .3.s.k o o # o @ @ o * L J.%X                                                                                                                      ",
"                                                                                                  bX# # 2 w J K o.L K i.K ..W B . o . # @ X X O o o a 0 o j                                                                                                                 ",
"                                                                                      k s s.J E D e . + < t # $ = 6 e u.T n.T , + + + $ < @ X . = 0 p.xXQ.T -                                                                                                               ",
"                                                                                    p * o : - : = $ + 2 . r Z 5 # $ w D N n n 1 + + + @ @ @ X . o # J g.L H 6                                                                                                               ",
"                                                                                    o * 1.Y.eX$XN.d...A K K 0 o . + # . . $ $ + o + + o X O O . > ; t 0 $ = a A.                                                                                                            ",
"                                                                                    B.l 9XT.iXpXmXmX$XW.A.U.!.L.x.5.3.J.V.W.L.h.9 s J W g.f.l.5.4.s.2.) 0 0 : k                                                                                                             ",
"                                                                                  BX<.1.T.8.F.T.F.D.D.D.H.D.y.w.7.8.<.H.~.eX$Xj.r s F ....R L H > k k Q w w 9 ; bX  BXS                                                                                                     ",
"                                                                                  rX7.1.eXeX9XY.T.Y.Y.eXmXyXY.y.y.<.| 6.uX$XM.7.= m s W R R H J Q j X ! ! M r O Z vXbX. ^.                                                                                                  ",
"                                                                                ~.N.a <.tXY.W.U.K.P.G.H.vXyXeX#XP.w.P M.U.H.B.6.0 G B I I I D D I V 6 8 V M n - = SXi.e ^.                                                                                                  ",
"                                                                            W.b.4.3.| K B. .f.5.3.d.f. .j.z.C.M.B.L k X. .<.|  .B M n w 7 7 w w 8 1 + 3 v v 7 7 6 U V I /.                                                                                                  ",
"                                                                          ..g.H a 0 0 s k A A F H D H ..i.W E A A A r 0 w 9 0 $ 1 e 7 w w w w b 8 v v 8 v v 1 e 7 7 2 U E.                                                                                                  ",
"                                                                          L A O = ; 6 0 2 $ # # $ 9 9 Z e 9 6 # 9 # $ w + 2 1 # 3 b 4 + 1 2 3 3 N 8 8 8 v 3 7 6 7 3 3 G J                                                                                                   ",
"                                                                          d 9 = $ 6 2 7 3 2 7 # 0 9 e B A D 2 8 8 + o . . # 6 - # 6 1 2 2 @ 2 w # # # # 3 1 # 2 6 2 7 w 8                                                                                                   ",
"                                                                          o ; q 0 t Z F r Z Q R ....E.rXzXrXvXSXZ.= j ~.B.E H 0 t t 9 @ 9 ; 9 w e q 0 q n ) G Z $ = 6 8 $ %X                                                                                                ",
"                                                                         .* mXZXGXJXJXJXJXIXJXZXAXyXP VXJXLXJXVX&XO 5.AXVXJXJXCXCXBXb.9 . m ) J P 2.5.x.x.n.Q s U 9 n n e /.                                                                                                ",
"                                                                         .: VXHXFXJXFXFXJXJXHXAXVXDXk bXGXJXFXyX!.: k.AXCXaXpXmXCX~.z.T 1 ! R k z z P P P k S s J 7 n 8 B E.                                                                                                ",
"                                                                      MXX.* JXHXJXFXVXCXFXmXiX$X^.E...E.!.$XW.H.V.d a.cXx.4.P P x.x.v.i.n u.U S l P P L S * r 9 Y 8 n n C R.MX                                                                                              ",
"                                                                    SXxXY : yX#XiXuX$XD.P.P.6.<.P u B R E  .H K V 9 d ; * * * p  .c.c.o.V c.T A T P Q T Z . t r Y 8 n n V /.zXcX                                                                                            ",
"                                                                  + e B K j k k p > : l z ] z l a r q Z A S A Z s 9 Z R o.L H S g.c.p.o.n W M Z D A B r m # 1 6 B v v v V A.c.V s                                                                                           ",
"                                                                  # 6 $ U a k q q 9 : A.k.5.6.6.b.r o j a > - s j T T T E 6.3.K a.p.Y V # e # 6 # 1 3 7 1 , 1 3 7 3 1 8 1 o.V - . V.                                                                                        ",
"                                                                E.8 7 1 %XK J Q E k k C.M.e.M.k.j.* d R.V.x.k.x.. 9 q  .1.7.6.k ....K d . 0 . 8 6 3 3 1 1 c 1 4 , , , , # # 8 # . a.                                                                                        ",
"                                                                nXv 3 1 rXk j <.l.T H D.e.F.F.w.j.: = V.G.N.7.5.* E 3.M.7.7.w.P C.V.h.o.o e 8 1 1 1 3 7 v 3 3 , , 1 1 , # # 6 # + W                                                                                         ",
"                                                                xXe 1 = rXp u 3.f.J T H.M.T.F.6.3.: d !.P.D.D.5.q f.k.F.T.y.w.l B.A.A.X.- D 6 # 1 1 3 6 v 1 4 , , 1 1 , + # 9 1 # R                                                                                         ",
"                                                                lX7 # o W.> > f.f.Q H N.D.T.F.7.k.s l W.7.7.8.P > P 7.Y.eXT.D.| S.E.A.Y = V w + 1 1 3 3 7 4 4 1 , 1 , 1 # 2 w $ # U                                                                                         ",
"                                                                lXw # o W.> a k.s.Q k x.7.D.M.5. .s A f.2.( Q q & k <.7.D.D.P.p p.h.j.K = V 7 + # 1 1 3 3 , , , , < 1 < + $ w 2 # J                                                                                         ",
"                                                                /.2 2 = U.q > 2.2.j k z.k.M.x.k.a.= = G P k g q H 4.k.#XyX$X&XK p.h.p.o.$ D 6 1 1 1 7 v 3 4 , , , , 1 + # 2 w # # A                                                                                         ",
"                                                                /.w + 6 K.k ; E W Z s z.k.B.j.s.a.m $ j 2.m.G.4.I.N.A.$X$X$X&X3.p.A.i.X.0 V w 6 1 1 1 1 3 4 , , , 4 1 , + 6 e 2 # Z                                                                                         ",
"                                                                E.N 2 9 L.k j J W A * f.<.7.6.5.) % 9 j K.H.W.x.G.7.B.A.~.$X&Xj.h.Z.3.2.8 Z B 6 1 6 1 1 3 1 1 , , , , + 1 2 e # # s                                                                                         ",
"                                                                E.m # e v.P j F F 9 = a.| 6.w.C.i.9 T j H.I.Y.5.U.I.S.$X$X$X%XV.l.L.l.E d e V V 8 7 8 3 7 1 1 , , , , , + 2 r 2 # r                                                                                         ",
"                                                                (.e + Y C. .k.b.2.T Q  .6.<.B.G.U w u S P.P.H.M.Y.#X$X&X$X$X%Xz.v.L.2.f.1 e i.e 7 8 v n v 1 , 1 , 1 , 1 < 6 w 2 # 0                                                                                         ",
"                                                                b.n # g.Y.uXeXY.7.4.b.U.7.1.F.I.T D x.N.I.P.P.6.#XtXuXuXyX$XtXf.b.W.W.Z.d e D 8 7 1 n B V 7 1 1 8 3 1 , # w w 2 $ 0                                                                                         ",
"                                                                g.v # ..$X9XeXY.eXY.P.D.N.D.Y.$XL.E.N.Y.#XF.H.6.Y.uXeXeXtX~.rXL.E.L.E.g.V B C n 1 7 B M 8 v 8 1 v 7 3 1 + w m $ # 9                                                                                         ",
"                                                                c.8 . s F.eX9X#XuXeXD.x.Y.Y.#XP.Q 5.k.Y.#XP.F.<.Y.uX9X$XeXY.tXE.a.).u r G V V B 7 1 8 v 7 v 8 8 v 8 3 1 , w m $ O $                                                                                         ",
"                                                                c.8 . s P.uXeXeXeXeXw.P.Y.w.D.6.>  .7.Y.F.P.P.6.#XeX$X#XuX$XrXv.9 $ 6 6 e B D e 1 1 8 6 7 7 8 n n 1 1 1 + v m # # $                                                                                         ",
"                                                                i.6 + D uXeX#XY.P.Y.D.7.D.w.F.F.P 5.M.P.P.P.U.M.~.$XY.Y.$XeXrXa.T , 9 w t B V 8 2 1 1 7 6 1 7 7 1 1 3 1 + M B 2 $ O                                                                                         ",
"                                                                i.7 + K $XY.x.7.P.Y.D.7.D.M.P.I.5.4.7.P.F.F.N.Y.~.U.M.M.5.4.g.A W . $ r e B m w + 2 1 1 1 1 7 w 3 7 7 7 6 B G 8 $ $                                                                                         ",
"                                                                ..8 + Z x.7.4.4.M.H.M.7.M.x.M.N.k.5.k.D.M.w.5.C.l.3.3.3.f.l G A u 6 e m 9 B e w , 1 1 1 1 + + + , , 1 1 1 V V 3 X $                                                                                         ",
"                                                                Y 8 + r P P z P <.L |  . .4.f.s.a.E | M.6.5.3.P k K P L E j s s r w r 9 9 Z w w + + 1 4 1 1 , , . + 1 1 1 V B 2 # #                                                                                         ",
"                                                                Y 8 . d L L | | | o. .| E ..u...2.a H | 5.w.z...G  .a.z.g.A s E a.c.l.R r D M m M , 4 4 1 1 , + + . 1 1 3 M M 7 # O                                                                                         ",
"                                                                J 2 + J o.o.o.o.o.o.X.X.a.a.p.o.o. .5.U.B.k.d.H k E W.C.Z.o.E l.v.E.v.S 9 I G M F , n N 1 1 + . + + + 1 v M M 7 o $                                                                                         ",
"                                                                D = . J o.o.o.o.o.o.X.p.p.L o.| K d.k.&XS.k.3.P S 2.C.E.V.| <.Z.W.W.b.s o W T D V 1 N b , @ + . + + , , 3 M V 7 # @                                                                                         ",
"                                                                B 6 . F X.O.| | | | | | +.d a K K d.5.I.F.k.3.L P ..v.B.A.L 3.!.$X~.N.k . s.i.D G 1 3 7 + + + @ . + , 1 3 M M 7 o O                                                                                         ",
"                                                                Z 9 # J 6.X.O.O.o.O.O.o.O.| d K | j.5.M.B.x.5.o.K R  .3.C.k X.$X%XW.A.s . s.u.I D 2 2 3 . # + X @ + < 1 7 n M 2 . o                                                                                         ",
"                                                                B 6 + R 6.6.j.X.6.6.6.X.O.X.K  .o.f.A.N.D.G.J.2.L a.s.k.J.P d.C.f.M.A.D + s.u.V Z 2 2 # # . % 2 @ @ + 6 e m m 2 O .                                                                                         ",
"                                                                e = . W d.6.S.6.6.d.j.6.j.O.X. . .H.Y.Y.D.x.D.d.Z.j.4.n.C.Q.f.v.X.a.v.J V n.W B s . + 1 w e 1 # @ 2 V s.Y I B w # .                                                                                         ",
"                                          +                     6 6 . E 5.j.6.k.6.6.6.6.6.X. .O.Y.yXuXeX{.D.N.B.M.4.D.7.W.!.d.f.Z R v.J G u.T G n 9 n m B B w . . o B s.W U m 2 # .                                                                                         ",
"                                      + # #                     6 = = R j.6.6.6.6.6.X.O.X.O.a 5.T.uXaX9XuX{.D.uX9XiXaXpXyXY.z.s.T T U 6 n I I I G $ 2 m e n 7 # . # e s.W T m w 5 . yX    X.                                                                                ",
"                                    V # # .                     = 6 - ..6.X.X.O.O.X.X.O.| X.l 4.T.eX{.[.Y.7.P Y.pXgXwX9XT.w.v.g.Y T U # 2 w w 3 7 2 2 6 6 2 6 + + # 2 F U I r 1 $ . rX    *                                                                                 ",
"                                    i.# 6 .                     # 2 6 ..| Y | K K A K | L L H O.Y.eX7.7.P P l M.eXiXpXdXy.z V.Y A G r . # 6 6 w 2 # 2 2 2 6 # # + # # G I G m $ @ . I.  W.:                                                                                 ",
"                d                     + # o                     1 2 - i...W o.R o.o.K K K A H o.~.eX4.) K d l 1.U.#Xy.y.[.P R s s F G ; = 6 $ $ # @ 2 = w 9 $ # # $ 2 ! T Z Z = . . 5.eX| a                                                                                 ",
"                E                     # # .                   s.o # - e V V s s d s 0 8 : : d L tX$X7.3.X.l 6.F.$X#X<.9.T.H.j. .5.x.5.x.s.E R R E E R L L R R 2.E J F T F G K 9 @ $ P E A j                                                                                 ",
"              i.o.                    # 0 .                 s.s.- 9 d T R W D K V D V V d K Y V.$XA.#XS.A.X.S.U.F.e.z 8.G.I.U.A.D.k.D.x.5.H P J L P J H J K R R J K H H H k j = 9 % j L D d                                                                                 ",
"              # d                     # # .               d.GXLXLXSXSXBXMXZXSXZXZXZXZXZXGXZXNX&XU.$XU.S.&Xp.S.P.D.w.q.w.D.N.S.M.D.F.T.D.3.k j l S k d k A K H k A k s K Z j j $ 9 t 0 j j V                                                                                 ",
"              - K                     . # o               o : Y c...a.z.B.J.!.A.f.h.B.j.S.S.p.S.O.O.X.X.+.p.A.U.D.w.6.P.N.K.U.U.#XeXyXD.| a k s j j k V K k J K ; 0 o % w Z J 0 9 t ; = D Z                                                                                 ",
"              1 K       = J           o # o               - # 1 6 : d l { O.S.O.8 d l L O.X.| X.K D d - 8 o.p.S.k.M.X.S.&XzXR.$XY.&XiXB.j.D F 0 s r s B V B D 9 9 w w w V M n w 8 8 B c.u.n                                                                                 ",
"              - s     o . # -         . # a A.          Y # + s 0 d.J.&X&XtXCXNXK d | o.X.O.j.j.a.e 9 8 - o.j.S.U.D.h.c.zX/.i.A.V.&X#XU. .q T $ # 6 + 6 6 8 6 # + , , , + , 1 4 + 1 3 C I 6                                                                                 ",
"              6 V     o # = d         + 6 0 o.          K - . D a d.S.#X#XU.#XS.O.C | O.O.O.X.O.T V U n # H 5.j.$XU.X.o.(.R.i.1 R W.tX%XK # # 6 w 2 8 7 3 7 2 2 , , , , + , 1 1 1 1 8 8 n 1                                                                                 ",
"              = d     6 # # -         1 = e K           C 1 . j k 6.O.S.e.e.e.O.O.O.| K | O.j.j.a D B B # D j.X.A.A.o.= p.(.o.1 J W.tXK.T # 8 w w 8 7 8 e 8 e M 1 + 1 , 1 , + + 1 1 1 8 n 8                                                                                 ",
"              6 d     # + - = :       . 6 6 o           e 6 o 0 l X.1.S.S.w.S.0.O.O.K O.f p.j.O.0 8 7 n 1 D B.A.U.V.a.o C (.p.C T rXW.E.K - 2 6 7 3 1 1 7 1 n 8 + , , , 1 1 1 1 8 n n v n #                                                                                 ",
"              1 V GX  : 1 6 - d       # 1 6 #           d = O = : | O.*X*X*XS.e.X.O.O.O.l j.6.j.d d n B 6 D A.U.B.B.o.. u./.R.u.F Q.b.n.R 1 # 7 m n 7 B v 8 b 7 + + + . , 1 1 3 v V v 8 $ o %XGX                                                                            ",
"            6 # o.LX  - e - - d - Y U $ 1 8 8           0 0 6 0 d O.p.*XS.F.w.6.6.O.O.o.1.S.X.o.e 8 n n 1 L J.$XS.7.3.k c.zX/.c.T b.~.( R 0 9 e D B n n v V n 7 , . . . $ 1 3 w V n v 7 1 . Q.GX                                                                            ",
"            7 o o.LX  8 0 0 6   . o.SX= o 9 8 d         - a d B o.h.S.p.6.S.0.j.O.l +.| O.O.O.A 9 1 v 8 6 Y W.&XP.B.j.H (.^./.R.C.W.~.rXV.B - r B B e e n n n 3 , , , < 1 1 3 b M n V n # . NXZXAX  AXGX                                                                    ",
"          lX7 # d.    0 0 d B     cXLXq 6 9 1 d         0 8 8 8 i.p.O.O.X.e.S.p.X.O.O.K O.+.| d 9 9 s e ..d.I.U.F.7.6.O.L./.E.b.G.E.rXrXf.a 6 0 V V 8 8 M n v 1 + + @ + 1 1 3 n V 8 n I B = V.Z.H j s o.p.                                                                  ",
"        B c.6 #       e ; V 9         . 9 6 8 V JX      - 0 # - 8 n C K C K d K K O.o.+.C o.K d O T D V 8 d.J.$XY.#XP.N.%X%XxX^.rXrXxXeX3.s 0 8 m n 8 8 B n n 3 + , , , < < 7 w v 1 v i.U 6 - 0 B m 8 6 6 d                                                                 ",
"        + 7 # 1       r # e #       MX^.s + 6 V JX      0 9 9 6 t V 0 d s 0 s D j s A O.X.O.o.o.o.g.V.o.o.o.B.W.P.x.Y.U.J.cXvX%X%XrXrXW.4.q 9 8 n n 8 V V n n 3 + + + , , 2 w b 7 . , 7 8 : d 8 3 3 7 v + + d.                                                              ",
"        . . # # e s e 8 # V . 8 MXIXVX/.n.+ 2 D A.A K K 0 s $ 6 i.V J j j s A W J d o : a d A j.v.X.X.U.V.U.W.~.K.N.4.A E.MXNXcX%X%XrX~.5.0 = 8 e n n C V V n 7 + , < + + 3 N 7 3 + + 8 - R.      c.Y Y /.v.T                                                               ",
"        g.V 8 e D A w 8 # w # # o.X.: E.  . . G d = d 0 0 w $ e Z B 9 ; d ; J ..H S 0 a d o.p.c.W D d X.0.NXtXB.f.T 0 0 X.%XMXcX%XW.eX~.f.0 = 6 8 n 8 V M n M b , + 2 2 1 3 3 3 3 v V M 8 K         ^.zX    V                                                               ",
"        o.- # s V = o # $ 6 6 - j.eXK.    . . W 7 = 0 6 # = a V 0 t r 0 9 * > p k k : ; d A j.o.K V - : O.#XS.H s 9 7 V Y %XMXxXI.H.^.~.f.0 = e 8 n 8 n v v n v + 2 3 + + + , 1 1 n C C = o.        ^.zX    s                                                               ",
"        W.$X- ..K A d o 6 = = o H.  F.    o . I V r t 8 8 D U X.A : 9 0 - * h O.h h - 0 0 K U.O.A Z B * B.#Xh.K r t t Z s %XMXrXS 4.W.~.l.: 6 B 7 n v 8 N 7 b w + 1 2 # , < 1 2 + 7 n V # X.      d = . B Q.=                                                               ",
"      H.U.U.o.. V.j.C.rX; 6 = . H.        o + I w w 0 r d C K Y V = e 8 : - F.#X+X#X] f k O.S.+.d s ; . f B.K k 9 q u ; * J.%X2.P l.tXyXb.= 9 e n V B v n n n w + + + + , 2 1 3 1 + 3 B # V     K = + . . W :                                                               ",
"      &X&XU.k f | #XtXC.$ $ r .           . 2 6 2 3 9 2 - D o.o.e 8 r m Y - w.qXqXqXuXF.VXO.e.] l l K o l w.p o t u t k L G.N.x.P.G.K.G.5.0 d 7 n n n n M V M w 1 + 3 # 2 . , 2 6 + # 8 + a     . $ 3 3 , i.k                                                               ",
"      vX#XU.p : U.F.$XC.@ @ 3 .           $ 2 2 3 5 2 6 8 Y O.X.= 2 m Z U p e.qXqX2X*.h { h O.O.O.6.#X6.w.F.| 3.f.k X ; 2.5. .z.4. .$XrXW.0 0 7 n n n n n n M b 3 + . 3 e m n w 8 + 1 e # o.    . @ 5 N c m W                                                               ",
"      tX$XS.: P 3.B.J.d.$ @ < . ^.        9 2 6 2 5 6 2 # 8 K X.6 # e ! D 0 O.qXqX+X` p * l H  .O.6.S.6.O.{ 1.w.6.o % H  .P H 2.T H a k H A = 7 e e v e n n n 3 + 1 7 I B B 8 e 7 6 7 w - 3.    . . @ 3 ! 4 s.AX                                                            ",
"    V E.!.j d D o.3.d.R @ X 5 w i.U V I G w w 2 9 2 6 $ o a d l : 1 0 e ! : K qXqXoXh t ; D | H | | l O.l f 1.M.6.: 4.%X .: s Z 0 9 : o : 0 0 e 8 v e v n n n 3 . # m V V D B B 1 n n 7 6 h.    . . # @ 4 4 2 @ + + . . . #                                                 ",
"    0 w 0 $ = r e 0 9 = $ @ 2 ! G e w m 6 6 2 $ 6 ; ; l <.1.F.O.= . 9 5 $ t l 9X+XoXg j A Y K K s s > a k * p l K K B.j.s o = 0 0 9 0 a D S r 7 n n n 8 3 3 1 3 , 2 9 J T U d 8 1 n V 1 v /.GXQ.o + X # < < < @ 1 1 2 # 2 = 2 2 2 2 6 6 $ # :                               ",
"  9 $ # 2 5 6 w 9 9 5 $ t % < 2 $ @ w I m w w 6 # $ 4.M.1.t.*X] o O : ; O t p #Xt.@.o 9 j K s 0 q t t G 2.j 6 q p p p - : = 0 0 s B L ..E F e e n v 1 1 , , 1 1 6 + w U U Y 8 n 8 n V c 1 E.rX3.o @ # @ @ < @ @ 1 $ < 2 X # O O @ + 2 2 + = j V.R                           ",
"O 2 @ $ % @ 2 w 2 2 5 5 5 @ 2 < o @ # @ $ 5 w t 0 = f.w.#Xt.t.t.t.#XtXO.> k p F.q.` . $ q A r 9 9 9 9 F n.S O : A K p d a a s B R J A f.3.S 6 7 V v 8 1 1 1 1 # 2 2 2 U W D 0 d v V u.v 1 e e + . 2 + + @ # @ @ @ @ @ @ @ X X X @ 2 w w w t 0 2.S >                         ",
"  $ . X @ < % 2 2 3 < @ < < + @ $ O O O * * $ ; a : a p p f - { %.%.` * g z g Y.y.q.* 9 : k a t ; = s s k q . . p l d o.H l j Z s 6 q a Z s 6 b 7 7 1 3 3 3 2 3 # 2 e D K 8 e 8 C n u.v 8 D p.I . 9 @ + o # @ @ $ @ % @ O X O O X + X X $ 9 * = q - M.                      ",
"    O . X + 2 @ < < @ < 5 5 < . . * p p ] 7.o o * p - . o o . f f } oXqX+XF.] 8.t.q.o * B.B.a p A K > p l l p k | | a | H O.f.j r 9 : B E i.w 3 3 1 2 2 2 2 2 2 1 + w B e e 8 7 M n D I 2 7 M v . + + @ @ @ . @ + X @ @ o . X X X X O f.x.H > j ; p F.                      ",
"    O o O @ . @ X @ 5 , 5 @ @ % | ] *.=.-.0.k D  .B.S.#Xw.| o h *XfX*X@X;.r.` h #X+X[ p M.B.l ] K - { U.#Xw.{ l l - o - p o.L.D 9 9 8 - w B b b , 1 o X . o $ $ . + # r G M w 1 7 1 3 2 6 + 1 , + . . . O . . $ X . o q k g g j % X k L p l g * O > #XqX                    ",
"    p o . O > * O = + 3 O = O | ] r..X-.%.` j Z q l 0.*X0.' [ +XqX+X.XoX-.oX@.] 0.q.t.h @.<.| l d K oX&XB.{ O.1.1.f f f K A q t % 9 6 # w 2 w 9 O X * X k O . # # 2 $ r M w 1 , , . + . , . + . + . o K.7.& X @ + . 6.#X#X+Xy.1.j - a h ] @.@.p > g uXqXqX                  ",
"      p g <.6.| 7.d.- + . $ o 6.0.-..X X=.x * . o f e.[ f +.} } %.' ' >.' r.w.p g +Xt.#.q.#X@.* f +.S.S.f p ] 6.6.] 6.U.P p * q X = - a I w 1 2 $ . j DXyXN.. o 1 # $ # . + + + , . + + . + + . . . k eXT.x X X . . 1.uXoX=.` h p l 5.w.q.t.F.1.l 1.aXiXqX9X                ",
"      O.] q.1.@.O.z a = + 2 . - [ q.*.' h > d f { oXoX X-.@Xr.{ -.&.;.;.&.oXF.h h *X-.{ +Xt.f > d a * : a s a a p * l 6.1.1.] @.l * l #X$XO $ 2 @ # J rXG.4.O + @ + + . # + @ + + + + + . # 3 + + o > eXT.y.* @ + o w.9X+Xq.y.7.k.M.6.6.1.q.F.] 1.T.9XqX9X9X                ",
"        1.1.h 0.O.l a 0 $ = 8 a l [ @.1.| y l l oXoXe.oX@X.X.X{ -.-.,.;..X+X0.* h #X0.*.q.q.p O.p 0 = % w M G J Z - o * h t.9X+X@.h +Xt.Y.. # $ 2 . l.%X4.E $ . + + . # X + + @ + + + . . 9 # . . o O P.q.8.k . 2 . J.#Xt.@.P z > > f l <.] * p p w.9XqXwXwXwX              ",
"        j : k P a : ; 0 0 z.L k : * * > > = o h *X-.oX+X@XoX+X.X&.>..XoX@X+Xy.g h B.1.e.[ 0.e.#Xp - = 3 3 2 $ = # = * p *.@XoX-.p [ #X[ H.. . $ @ @ # ; t $ # 2 + @ . @ . @ @ . . @ . o o s.w X . O O P z z k $ o $ b.P l > . X O . O . . . . o * #X9X2X9X,XqX9X            ",
"          o . O O * = : k s : * * O t $ X = o : p h 1.@.q.e.*.oX*.=.r.+XoXoXT.g > k z l p O.] 1.j.: = # 2 $ o O . . * | -.XX.XoX] h f S.l . . X @ + 2 @ < % 9 # # # + @ X + + X X . @ . ; l.r $ . . O % * O % O $ @ 9 O : ; + . @ # $ $ . + . + p #X9X*X*X`.OX,X            ",
"            o $ 0 = = 0 9 $ % $ $ $ $ + $ @ # # . . . . . . . . o O * > p > > 5 o o X O o : a G.L ; ; = O O $ O o ; > w.-.@Xr.0.> = o o $ . . @ @ < # @ 2 w m + + + + + . + + + + . @ . a b.0 + + # o o . . $ $ ; 6 # O # t @ @ 2 $ $ # o 2 $ . = #XF.r.q.q.q.q.            ",
"            O $ $ # o . o . # . . + # . . + . . . . @ @ X @ @ . . X @ % X X @ @ O X . . . . . O ; . X . & O O O X $ % p q.e.{ l O < + 1 < . o @ X X o O @ . # # . . @ . + @ + @ @ @ @ . S b.9 + . 2 r u j j F S s t % # t b.% . o X @ X . X 5 O O <.<.@.@.q.w.y.            ",
"              X % ; & % $ X @ X 5 6 @ & X X % 5 @ @ @ X & < % X X X @ & & @ 5 5 & @ @ X @ @ X @ X . @ X . X . X @ X X * g * o ; $ < @ m ! @ @ X ; ; = ; ; = ; O . X . . . . . . . . . . % ; # . . ; & * > O & % X X X X t u . @ X X X X X & ( O & z h z x                   ",
"                O & 2.rXvXxX~.~.b.( q ; % t u Q ) E J G F ) b.^.E.^.vXxXBXxX{.n.u % t Q (.{.SXDXDXnXxXxX{.^./.E.Z.b.R j d a $ r ! F R W././.^.{.rXtXvXvXMXmXvXvXcXxXcXcXxXrX{.^.^.W.Z...j S ( l.l.K.~.~.~.E.E.K.~.~.~.~.xX/.) ) ) s.n.b.L.L.K.~.                            ",
"                                                                                                                            NXvXvXvXtXtXrXrXcXvXvXvXvXvXvXvXvX                        rXZ.cXMX                                                                              ",
"                                                                                                                                    yXrXrXeXtXyXvXvXyXvXcX                                                                                                                  "
};
