/* XPM */
static char *out[] = {
/* columns rows colors chars-per-pixel */
"82 202 256 2 ",
"   c None",
".  c #020304",
"X  c #0B0404",
"o  c #0B0A04",
"O  c #03040C",
"+  c #0A060B",
"@  c #050A0C",
"#  c #0B0B0C",
"$  c #030A03",
"%  c #120D0C",
"&  c #160909",
"*  c #0D120D",
"=  c #0A1407",
"-  c #13120D",
";  c #171809",
":  c #040513",
">  c #0A0613",
",  c #050A13",
"<  c #0B0C13",
"1  c #040519",
"2  c #0A0C1A",
"3  c #050A19",
"4  c #120D13",
"5  c #1A0D14",
"6  c #0C1214",
"7  c #0D131A",
"8  c #0B1818",
"9  c #131314",
"0  c #1A1415",
"q  c #131A14",
"w  c #1B1C14",
"e  c #14151A",
"r  c #141B1B",
"t  c #1B1C1B",
"y  c #1B151A",
"u  c #260E13",
"i  c #24141A",
"p  c #2B151B",
"a  c #231D1C",
"s  c #281617",
"d  c #33161B",
"f  c #351A1D",
"g  c #3B1A1C",
"h  c #361516",
"j  c #25130C",
"k  c #192505",
"l  c #1C221C",
"z  c #192519",
"x  c #182C0D",
"c  c #252608",
"v  c #23241D",
"b  c #272818",
"n  c #29331A",
"m  c #373818",
"M  c #31310F",
"N  c #0C1424",
"B  c #151C22",
"V  c #1B1D23",
"C  c #151725",
"Z  c #0B0E26",
"A  c #251D23",
"S  c #341B21",
"D  c #3C1D21",
"F  c #152223",
"G  c #1C2324",
"H  c #1B232A",
"J  c #1B2926",
"K  c #1B2832",
"L  c #232424",
"P  c #232B23",
"I  c #2B2C24",
"U  c #23252A",
"Y  c #242B2B",
"T  c #2B2D2C",
"R  c #2A2626",
"E  c #362826",
"W  c #24322C",
"Q  c #2C322C",
"!  c #2A3627",
"~  c #32332C",
"^  c #373929",
"/  c #282C33",
"(  c #2C3332",
")  c #2D3B34",
"_  c #2A3639",
"`  c #343533",
"'  c #343B33",
"]  c #3B3C35",
"[  c #343B3A",
"{  c #3D3D3A",
"}  c #373536",
"|  c #342E33",
" . c #431C1E",
".. c #44381C",
"X. c #441E22",
"o. c #442123",
"O. c #4B2324",
"+. c #49292A",
"@. c #562828",
"#. c #423C38",
"$. c #53352F",
"%. c #633332",
"&. c #3A4619",
"*. c #354B13",
"=. c #39452A",
"-. c #3B4334",
";. c #35443B",
":. c #3C433B",
">. c #3C4C3C",
",. c #364636",
"<. c #34492F",
"1. c #48461B",
"2. c #4B5319",
"3. c #484828",
"4. c #495628",
"5. c #57562C",
"6. c #43443D",
"7. c #444B3C",
"8. c #4B4A3C",
"9. c #464736",
"0. c #544B3A",
"q. c #4B533C",
"w. c #485738",
"e. c #565839",
"r. c #544B27",
"t. c #645A36",
"y. c #64572A",
"u. c #58663A",
"i. c #536632",
"p. c #676839",
"a. c #66763A",
"s. c #6F7236",
"d. c #58671C",
"f. c #373D43",
"g. c #2C3942",
"h. c #3B4744",
"j. c #3C4F49",
"k. c #444B42",
"l. c #4B4C43",
"z. c #4B4C4A",
"x. c #454745",
"c. c #534C44",
"v. c #445343",
"b. c #4C5343",
"n. c #4C534A",
"m. c #495848",
"M. c #535445",
"N. c #575A48",
"B. c #4C5754",
"V. c #585B56",
"C. c #474C53",
"Z. c #635C4A",
"A. c #665852",
"S. c #5B6344",
"D. c #5C644B",
"F. c #586648",
"G. c #5B6556",
"H. c #50644D",
"J. c #636B4C",
"K. c #666748",
"L. c #697547",
"P. c #76784A",
"I. c #646B53",
"U. c #676958",
"Y. c #6B7657",
"T. c #737B5D",
"R. c #767858",
"E. c #746C4E",
"W. c #5C6669",
"Q. c #676A65",
"!. c #6B7568",
"~. c #737B64",
"^. c #777968",
"/. c #6C7673",
"(. c #767B76",
"). c #6D6E6C",
"_. c #595C65",
"`. c #423F42",
"'. c #847C56",
"]. c #847D6F",
"[. c #788737",
"{. c #7B8448",
"}. c #7A855A",
"|. c #6D844F",
" X c #7B8464",
".X c #7A8669",
"XX c #7B8478",
"oX c #758B68",
"OX c #878959",
"+X c #8C9154",
"@X c #858A68",
"#X c #8A9468",
"$X c #969869",
"%X c #838C73",
"&X c #878979",
"*X c #8C9374",
"=X c #8B9679",
"-X c #969978",
";X c #948C71",
":X c #A49A70",
">X c #9AA378",
",X c #95A56E",
"<X c #A4A779",
"1X c #ADAF74",
"2X c #95A254",
"3X c #B4D777",
"4X c #889439",
"5X c #747A86",
"6X c #7A8585",
"7X c #878B85",
"8X c #8B9587",
"9X c #969986",
"0X c #969A94",
"qX c #8C9193",
"wX c #9BA488",
"eX c #9BA494",
"rX c #96AC89",
"tX c #A5A987",
"yX c #A9B38A",
"uX c #B6B888",
"iX c #A4A897",
"pX c #AAB496",
"aX c #B4B898",
"sX c #B4AC92",
"dX c #98A6A7",
"fX c #B6B9A7",
"gX c #ADB3AC",
"hX c #9A999B",
"jX c #C6BBA7",
"kX c #B9C497",
"lX c #BBC4B1",
"zX c #C7C696",
"xX c #C7C9A9",
"cX c #C7C9B7",
"vX c #D8D6B8",
"bX c #D0D1AF",
"nX c #E5DCBB",
"mX c #E8E5BA",
"MX c #D2E6A8",
"NX c #A6B8C2",
"BX c #B9C5C5",
"VX c #A4CDE0",
"CX c #D7D8C5",
"ZX c #CCD4CE",
"AX c #E4DBC9",
"SX c #DAE3D7",
"DX c #D9E3CA",
"FX c #E6E8D9",
"GX c #EFEFCE",
"HX c #D9E8E6",
"JX c #D5EBEA",
"KX c #E5EBE7",
"LX c #EAF2E9",
"PX c #F7F8E9",
"IX c #F1F5F2",
"UX c #CFDCE6",
/* pixels */
"                                                                    Q.Q :.T / U U U U G a t t r t                                                                   ",
"                                                                    * . . . o X . . . . . . . . # < e                                                               ",
"                                                                    = . fXgXiX0XeXiXiXeX9X7X(.T t y 9                                                               ",
"                                                                  m.= - FXcXvXbXxXxXxXxXxXcXCX^ ( t 6                                                               ",
"                                                                  z $ <.FXnXbXxXvXbXvXbXzX:X^.a A V + &XiXgXfX&X                                                    ",
"                                                                eX8 = Q.FXnXbX$X:X1X<X-XsXR.N.I t y 0 a B.V.c.E fX                                                  ",
"                                                              eXqX8 * 9XDXpX%Xn M ^ =.^ ..e.9.] w 9 % 0 # e y a (.                                                  ",
"                                                            B.h.!.l z N.T.}.}.=.-.8.S.e.^.D.-.~ ; e 9 - 9 0 4 A R                                                   ",
"                                                          9.eX^.^.N.N.@X;X{.}.4.q.J.I.K.E.c.#.} 4 + t R E I w a t P                                                 ",
"                                                      w U.E ].].].U.N.#X#X#X|.e.F.S.Y.K.K.c.#.#.E e I I E ] ^ w - o                                                 ",
"                                                      = s - ] ^ } 0.^.R.@X@XI.N.D.I.I.N.N.c.8.#.| A E E E ] l.` - @                                                 ",
"                                                      ~ 8.l.N.l.x.n.A.Q.U.U.M.n.b.M.M.N.U.N.l.#.E A ` ~ I 9.8.E - *                                                 ",
"                                                    0Xk.' ^.V.V.Q.Q.(.).5XV._.} [ T v ~ 6.c.V.Q.).l.x.x.s 7.#.R 9 *                                                 ",
"                                                  gX8X:.L x.{ T L T / U / | | / U R R x.V.(.0X7X/.G.B.z.t { ~ a - %                                                 ",
"                                        5X).W.z.h.' T L V ` T U L | R V R C.x.f.} V V T t V Y T L P U T a ` U L # 0                                                 ",
"          W.(.W._.C.j.h.f.[ ( Y Y U Y U J G B z P J v t t l t t t y < % + i e y V 2 4 V y V T t Y U R r t e t o 9 # x.B.n.z.z.;.' Q ! Y Y P v l l l t v T           ",
"        Z > i C C H H V A U U A U A U ( R Q ~ ] b.V.q.L I ~ a t y % % 0 % 0 9 < 9 0 4 y 0 9 a 4 0 a 0 4 % 0 0 0 a o A / T R R a R v R a v I I I ~ I v * o y         ",
"      VXj.1 2 C A / | #.z.A.Q.^.(.&X7X9XwXiXiXwXwXtX-X9X&X8X8X9X^.^.^.(.G.I.A.] 6.6.6.] #.#.9.0.8.c.c.0.8.8.0.9.0.#.#.#.#.#.} o.~ ^ M j b j c I s m b 0 # U jX      ",
"      NX6XZ A / C.).].9X9X9X9XwXwX9X-X-X<X9X-X#X,X>X#X-X$X-X$X-X#X#X-XwX-X9X-X-XwXtX>XtX<X<X#X$X:X<X;X:X;X:X$X;X'.@X:X;X;X;X;X'.E.p.E.E.Z.p.E.'.'.;X'.X # a lXjX    ",
"      VXVXZ x.&X).].tX>XtXyXyXyXtXtX<XtXtX>X<XOX$X1X>X>X,X<X,X>X#X<X>X-X;X-X<X-X>X>X$X<X<X<XOX#X$X;X:XOX$X$X$X$X$X:X;X:X:X:X:XOXOX1.y.OX:X$X$X$X'.:X@Xo 4 0 7X9X    ",
"    Z NXUXBXBXDXsXyXtXtX>XyXyXtXtX<X9X-XtXyXyX<X<X$X#X#X>X>X,X,X,XuX,X>X*X$X,X#X$X#X#X+XOX+X}.,X-X-X<X<XOXL.|.OXOXOX'.P.+X:Xp.s.P.3.1.OXuX:XOX$XOX<X;Xo 0 4 X X     ",
"  : Z N NXeXiXDXsX*X-X<X>XwX>X9XaXaXaXaXpXuXyX#X$X-X=XoX,X=X#X@XoXoX#X$X,X$X,X,X,X-X$X+XOXP.a.a.L.L.L.R.oX|.a.+X'.s.L.s.+X+Xs.s.a.; 3.OX2X1X+XOX$XtX-X0 0 + O &     ",
"  @ 3 N BX(.*XpX*X X=X>XyX>XY.*XkXpX=X=X-XyXY.#XR.oXL.|.H.|.L.i.u.i.i.a.L.[.a.a.{.|.{.+X{.{.}.2X+X#X$X{.{.d.[.+X{.u.p.a.[.a.a.a.|.w.e.#X+X$XOXP.tXtX;X; 0 > 4 &     ",
"XX, 8 N gXpXwX>X-X%X=X-X>XoX XD.wXiXpXkX=X*XoX1X|.#XL.|.u.F.|.|.|.rXoX|.|.L.a.a.2X4.4.5.p.a.{.,X1X1X<XOX,X[.+X+X+X4.&.d.d.*.k c 4.3.J.#X+X$X{.a.-X-X^.b i + # 9     ",
"/.6 r v 9X>X>XtX-Xe.T.#X#Xu.tXpX=XY.>XaXY.#X#XOXP.,X4.4.=.4.4.&.m m c M M M m 5.t.^ 3.R.P.S.u.r.a.a.P.OXs.4X+X[.+Xs.d.[.d.d.k s.R.p.T.-X+X$X#X-XpX-XZ.#.a # < -     ",
"/.@ w l XXR.>X>X@Xn  XaXyXw.rXkXkX>X-XkXY.4.wXP.{.$XL.xXxXzXzXxXjXjXaXsXtX-X-X-X].N.9.e.5.4.u.P.L.#Xp.s.M d.[.4X+X2X+X3X{.[.*.d.y.3.OX$X+X:XL.^ 9.#.0.c.E 4 4 #     ",
"!.@ r G !.oXoX*XJ.x oXkXyX4.wXuXuX1X1XyX}.c zX$X$XOXJ.nXmXmXvXmXnXnXvXjXbXvXvXnXvXDXvXbXxXkX:X'.p.y.t.p.*.[.+X[.2X1X4X4X[.[.d.[.s.2.L.P.p.$XR.-.I ; ^.A.b # . *     ",
"W.@ V G XXrX=X=XoXn XXvXxXF.rXkXkX<X<XyXP.I.xX<XMX5.3.mXmXnXmXvXAXAXAXAXCXvXvXvXvXvXnXvXbXvXvXjXbXjX;XxX&.x [.s.d.+X1X4X4X[.d.d.2.M OXOXP.<XR.=.; X Z.A.a - # #     ",
"!.O V H 6XeXeXrXXX*.XXkXaXF.wXsXyX1X<X#XE.7X&XsXxXoXw.DXDXnXvXCXAXAXvXCXvXCXvXCXnXCXvXvXnXvXcXjXjXAXAX8Xn k i.:X'.4X+X4X[.d.d.s.p.5.R.OXOX<XT.D.! & ].A.p + # *     ",
"/.@ H H 6X0XeXpXpXY.cXDXDXeXaXyX1X>X,X}.^.l.X U.fXY.m.LXFXFXAXFXFXKXFXKXKXLXLXLXPXLXPXLXFXLXFXAXCXfXcX9X<.M zXzXy.s.+X2X[.2.{.:XOX=.e.#XOX-X@XL.J.^ 7XE.i + o %     ",
"/.$ B F 6X0XpXrX@X=.Y. X#Xw.tXyX1X+X$XS.8.V.dXZXZXoXXXLXLXLXIXIXSXZXBXdX0XqX6X5X/./.)./.6XdXlXZXAXZXlXtXR.c bXmXE.y.u.2X,X|.>XuXOXM M.#X$X$X@X*X*XZ.U.Q.a & # % R   ",
"/.@ G K 6XeXrX=X.X>.oX|.=Xw.aX$X2X+X$XD.} ZXSXZXZXSX6XJ /.f.e : O O . O O : : : : : 1 : O , N BXZXUXpXfXu.r.AXGXe.e.4.2.oX#Xu.P.r.b N.@X-X<X$X>XpXwX&X).a + + o L   ",
"/.@ G F /.0XrX#X}.G.Y.}.,Xa.>X1X1XkXP.=X,.KXLXSXIXPXvXN f.K Z Z Z : : , , , 3 3 3 3 1 : @ , @ qXJXSXSXAXnXkXGXPX].E.r.^ *XuX$Xp.c 5.Y.K.}.@XE.S.U.A.).Q.E % # % I   ",
"(.@ F l XXeXrXwXoXY.}.@X-X}.kXGXbX#X}.%Xl.LXZXHXLXLXKXUX5X1 Z 1 1 1 , O O O : : : : : O : O , , ZXKXZXaXGXPXGXGX:XA.b o - @X;X3.P.E.K.u.R.E.e.e.R.E.].Q.R o # & I   ",
"(.$ G Y 7XeXyXwX,XY.}.;X#XtXLXoX0X=X@X^.=XSXeXdXUXNXBXhXO : : : : O > > : 1 1 O O O : O O O @ O O B | # =XAXxXuXvXM.^ r O gX&XK.<XL.L.R.*XOXP.R.^.^.^.U.T & # - v   ",
"(.O H F 6XeXkXrX=Xu. X@XOXoXlXgX$ t U.tXvXBXh.dXBXg.Z : O O O O O . O O O O O O O O O O O O O O O O O O `.jXvXjXsXfX0XdXH V.a u.K.$XOX#XtX@XP.K.E.R.T.Q.E + o - v   ",
"6XO B F qXeXaXaXrXrXaXaXwXY.%XDX9XQ.ZXGXFXdXN K W.Z : O O O O O O O O O O O O O . O O O O O O O O O O : 4 0 D 9X;X:XCXAX(.#.q ^ 4.p.{.OX<XOXP.K.u.I.Y.U.E 4 # 9 v   ",
"XX@ V F 7XeXaXaXpX.XfXrX.XD.D.DXSXgXDXPXLXhXF 3 3 1 O O O O O O O O O O O O : O O O O O O O O O O O O 2 2 + & s sXsXAXAXiX~ x b m 5.p.OXuX+XP.#XOXI.E.U.^ % o 4 a   ",
"6X@ B G 7XiXpXlXeX7.m.j.H.<.F.DXCXkXDXPXFXC.3 3 3 O O O O O O O O O O : : O : O O : O : O O O O O O O O > : : + p E.vXCX..^ N.^ n 3.P.K.tXOX$X$XR.I.U.U.] % < 9 l   ",
"(.O B H 7XiXgX9X~.Q F , h.<.oXDXbXpXcXSXlXF 3 3 : O O O O O O O O : : O : : O : : O O O : O O O O O O O > 1 : > > hXGXvX@X.X(.b.I ..-XyXtX5.'.-XR.J.U.U.#.o 9 - t   ",
"6XO G T /.iXaX9X!.W l G.8Xw.oXDXDXkXfX(.B : 1 Z 1 > O O O : : O : O O : : O O : O O O O O O O O O O : 3 7 3 , e + } iXaX*XpXlXV.T b @XtXE.E.;X-X].E.U.!.8.o 9 < U   ",
"7XO G J U.^.T.J.H.! ' I.8Xu.Y.LXDXvXlXr : 1 N 1 1 : O > : O : O O O O O : : : O O O O O O O O O O O O 1 2 3 > 4 o a bXCXbXvXwXz - = j b c ..Z.c.;X^.Y.E.8.% 0 4 a   ",
"6X. L V G.XX^.N.q.-.q Z.sX].^ CXKXDXlX7 : : 1 1 : O O : O : : O O : : > + O O > O + : O O O : O O : O O 2 > O + 0 X ; 0.eXcX9Xo o o - M E.9.b j ].R.U.E.8.% 4 * t   ",
"7X. G J !.9X=X-X-X,.^ bXGXbXc.fXSXSXgX7 1 1 1 O O O O O : O : O : O O O O > : O : O + : > O : O O O O O < 1 > + X X & - fXbXvX^.b ; s j sXj j b Q.E.K.U.l.% 4 9 e   ",
"7XO J G ).9X=XwX*XI K.AXAXnX].A.CXgX/ 2 3 : : O O : O : : O O O O O O O O O < < < < < + , < @ : O : O O > O + + + + X o gXsXvXc.0.; s - | ^ E m Z.E.I.U.M.9 6 e 9   ",
"qX$ G F /.%X;X-XR.z l.nXmXnXjX'.XXY 7 O : : : : : O O O O : : O O O O : O O e < < 6 < # 6 @ @ @ < O > > > > > > + + + 9 9 sXsX#.X ; b w % E j b M.K.J.U.M.- 4 9 9   ",
"8XO r B (.%X9XyX*X! b tXmXGXjXjXJ @ O O > : O : : O : : O O O O O O O O > < 7 4 6 e e 6 9 < + + + > : + O + > + > > > O O % iXjXtX].;X~ X I & j 0.Z.N.I.b.9 9 e *   ",
"qX$ r B (.%XyXuX-X' b 5.mXmXnXcX8 @ : > 1 O O O : : : O : O : O O O O O < < 4 # < 9 e 0 0 4 + # + > + : + + + > > > 2 O + X 0XvXjXsX9XE 9 b & o 9.N.D.I.M.- 9 9 *   ",
"qX$ B r (.=X*X$XL.! I 3.MXmXAXfX$ $ 2 : : : O : : 2 : O O O O O , O > < e y e y 4 4 9 5 0 0 5 5 < + . > O + > > > > > O @ + a tXsX:X].s 0 R 0 ; #.Z.N.U.M.- 9 0 -   ",
"  O B G !.=XR.OXK.z ! u.zXmXPX:.O O + O : : : : > : : O : O O + + O < 5 5 y 5 y y 5 5 0 i E i i 4 + + O + > + > 4 > > O + # X fXvXsX@X0 5 l.E b 9.Z.V.K.M.- 9 9 <   ",
"  @ r P Y.9X@XOXu.n >.L.$X-XKX@ O O @ > : > O : : : O : : O : : > > < 5 i 5 A A S a 5 5 a f S A 5 # < + + > > < + < + > 6 X . ).sX:XE.& . 5 a 0 #.N.U.G.b.9 9 e 9   ",
"  O r J !.I.=X@Xe.z =.F.;XP 0XO O O , O O : O O O : O O O O O O O > y A i D | D +.E s s f E +.A 5 % # 4 > + > + > + # + . O . #.jXtX'.X . . X a c.U.I.U.b.9 9 9 #   ",
"  O B W G.6.^ I.N.k >.I..Xr h.O : O O : > , O O O . O . O + O > O y } +.+.o.+.E +.E h g $.$.$.+.& 5 i A u 5 + & 5 e > 4 + + . U.jX;X'.5 5 5 y R N.N.N.G.l.9 9 9 9   ",
"  $ B / /.7X9X9X!.q >.Y.XXt 2 : : : : O O O O $ O . . O + 4 + > + u #.$.+.+.E @.+.o.h O.%.@.c.D d p u p i 5 & 5 5 5 4 C > y > . cX;X].5 > > 4 0 ] #.b.M.k.- 9 9 #   ",
"  $ r H 7XwXtX9XI.= ;.Y.~.q O : : O : O < O O . O . . O + 5 5 > + p $.%.@.O.@.O.@.o.@.X.+.$.$.+.u g S D S u 5 5 5 + + + + . O . gX;X;X5 + + + X % X n x.>.9 9 9 *   ",
"  . t ( 8XiX9XtX^.q ,.I.Y.Y , : : : : O O O O O O . . . + + 5 Z 4 p $.$.@.$.@.@.%.%.O.X.X.+.o.o.d g D d u u 5 u p + . + + X + $ hX;X].u + + + % % = 6.k.k.0 t # #   ",
"  . r Y 8X-X>XtX~.q <.G.U.h.2 > O : O : O O O . O O . % Z 5 p i 5 S $.@.@.%.%.%.%.%.%.'.@.%.@.@.p E o.D S S S S i 5 + + + + @ $ 7X;X&X% + + 4 < % v 6.-.{ t # 0 #   ",
"  $ r J &XwX-X<X.X= ! F.U.x.2 3 : : : O O O . O . . + 0 i i p p & g %.@.@.%.@.%.%.%.@.@.@.@.O.O.h +.o.X.X.D S S i 5 & + X # # . _.7X;X% + + 4 < 4 t ] ] ] q % 9 *   ",
"  $ q z =X,X$X<X@X= W F.Y.V.2 , : : O : : O O + O # i A S d d d u X.%.@.%.%.%.@.@.@.@.@. .@.O.X.D o.o.O.X.+.E D d 5 % + X @ O O c.;X9X& # + 4 > 4 V } ` ] 9 # 4 9   ",
"  $ q z =X@XOX>X#Xz J F.!.Q.e > : : O O O . . . O < i p d D d D p +.%.%.%.@.@.%.%.@.@.@.@.O. .O.o.g O.X.X.X.D X.f i & + + o @ $ x.8X9X% + % 4 > < y ~ T ~ 9 # % -   ",
"  $ r w 9X XOXtX*Xz J G. X!.V O O O : 6 O O . O + 0 i S S d d D S X.%.%.@.%.@.@.@.@.O.O.@.@.@.O.h g O.O.O.X.D +.S a & + X . . $ `.9X9X& # @ < 4 4 L ] :.] t # # 9   ",
"  . r t &X*X@X9X%X! P F.Y.(.L > : : : 7 O . O O + i p p S S D d D X.$.@.@.%.%.@.@.@.@.@.@.@.@. . .g  . .X.X.D S d p & - 4 9 6 O 5X9X0X& # + # < # v } -.] r % # -   ",
"  . e r 7X-X@XtX*X! J >.G.U.U < @ , , e O O O X % i A S d S d X.d h @.@.@.@.@.@.@.@. .@.@.@.@.X.h h  . . . .d h u u % 9 9 e e O Q.7X9X& # + # < 4 v ' ] { w * # 9   ",
"  $ r 9 &X&X;X-X Xz z =.F.H.n.< > , < e : O O + 4 i p d d d d d X.D O.@.@.@.@.@.@.@.@.@.%.@.@. . . .O. .X.X.D S p u X + @ < 4 O _.].9X4 o # < < - L ] ] :.9 < - 9   ",
"  @ e r 7X-X=XtX%XW z n Y.n.U.9 @ < 3 < + O . O Z i u p d d d d h  .O.O.O.@.@.@.@.O. .O.O.@.O.o.o. .+.O.o.S f S u u % + 9 < e O A.].qX& o + < < % P ] :.l.9 % # 0   ",
"  . q e ].&X&X9X8XJ z n Y.e.U.t < @ , > O O + . 5 i u p d d d g h  .O.@.@.@.@.@.O.O.O. .O.@.O. .h  .X.g g f d S i 5 X X # < 0 O C.].7X& + + + < 4 P :.6.z.q # * t   ",
"  . r r 7X].Y.U.:.z z z !.D.Y.I < @ , < + O + O 5 i p d d d d D h  .@.@.@.O.@.O.O.O.O. . .O.O. . .g X.g g d f p 5 & X < 9 < 8 < A.].7X& o # < O # I k.k.l.q # o t   ",
"  $ e e ].7X9XiX-XH.z z U.L.R.~ < O > < + O . + 5 i u u d d d D h h  .O. .@.O.@.O.O. . .O.O. .g g  . .X.D f S p & i R # 6 < # . z.9X^.& . O X + 4 Q l.l.n.e + # t   ",
"  $ e q (.9X-XwX@X7.k ; I.R.J.v.9 < > > O O X + 5 i p p S D S S  .d X.X.O.+.O.+.O.X. .O.+. .g g h g  .D g D p p S a y 4 9 t # ; 9X9X*X& o 4 / T L T :.k.l.0 # # v   ",
"  O e q !.=X*X XI.N.! z ^.aXkXxXpXe # < 2 + + # C u u u d S d d d  .X.X.D O. .o. . . . .o.D g h h g D h d u p p A a 0 9 9 * . S.K.aXsXv 4 < 2 e t Q 6.6.z.9 # # l   ",
"  O 9 9 (.XX*X*X.XT.=.b ~.<X,XbXtX(.$ + > + & > y p p u p f d p S S D X.D E g  .h h h u h h h d j h h D h d S E R S y % o $ Y.=XsXsX].9 e + 4 < 9 L :.x.l.9 * # l   ",
"  $ 8 l G.=X=X#X XY.^ l v.kXyXbXlXiXn.. + + > > 5 i u p p f f f D d d S h g h h h h h h h g g h h f g o.p d S a R a 9 % o ^ 0XiXiXN.a X < < 4 1 4 ( :.7.l.9 # # L   ",
"  $ e q G.9X=X-X@XY.q.; ^ H.S.9X6.6.U < > + 0 0 i a p p p f d p d d d D S S D d h D h h X.X.g h h o. .f p p u 0 a y o = b tXwXY.w 0 # X + < < 6 V ( ] k.h.+ # < t   ",
"  O e t G.9X=XwX%XY.m.n -.=.=.$ z ' ( T y V 4 y y s p d p S d p d d d S X.o.D D X.X.h h D D g g h o. .E f E s a t < % ^ @XT.b ; o 4 4 # 0 L e V U Q ' 7.#.# # # G   ",
"  @ 9 q n.wX#X*X XY.u.^ <.=.b.b.iXkXeXe O + < e a i p s i p p u u u d d X.X.g h h X. .h g g h D g D h f s p 0 0 0 0 v xXP.L.k . v A 4 a 6.t L T ` -.6.6.:.# # @ t   ",
"  6 r r z.rXXX*X XY.F.w.q.=.! ! iX.XpX).X X X + y i i u i u u u p p S d X.+.X.$.X.X.X.d g f u D f h s h g E & 5 o = %X3.m PXpX# f.4 A l.6.L I R ` 9.l.x.{ - # # G   ",
"  6 # 8 z.eX=X=X.XT.F.w.XX%X=.l N.^.@X;X9Xc.& . 4 i 5 0 u s u u u u u u S X.X.X.D X.h d h s s f u h h f d s j ; n F.4.= w.wXI $ < e | V.] Q T U ` ~ ] x.{ X # . R   ",
"  r 6 8 k.eX8X=XoXG.F.! H.!.=.; 9 n tXtX>XxXtXs 0 5 5 i 0 5 s s u u u u h d d @.@.@.O.g h h p S u u s j p b q.^ *XkX,X&.;X~.w + < y { x.] U P 9 0 ] ] x.`.@ O $ R   ",
"  G 6 9 k.eX8X=X&XY.S.] N.Y.U.I w v ^ sX-X>XzXtXE.i X 5 s a R p s u u u h X.X.X.@.X.X. .h  .h  .f p f & j R.3.o Y.DXkXS.@XI * 0 e L f.z.] V r ( [ 6.-.x.:.X + O (   ",
"  J 6 8 :.rX8X8XXX^.G.! H.D.N.N.] b a n OX5.<XtXaXfXc.& 5 i i s p h u D X.+.$.X.X.O.X.X.X.X.$.h D f h M OX<XK.o x lXkXn n 9 # e A } #.T y V T ).z.q.9.l.f.# $ # /   ",
"  T 8 q h.eX=X%XXX.XG.q..XY.I.7.9.#.v v c b N.;X X9XCX].X X & u u p 5 u u f p S S D d S S h D +.j A.M OXMXkX>Xz - iX] - * 9 y 9 t L L e l I l.G.N.N.l.l.] @ + . `   ",
"  ( 8 * :.eXeXpXrX=X%XH. X XY.S.=.6.L a j - v b ; k Q eX0X% X & X 5 & & 5 & & & 5 u & j 5 u u s j ..c {.mX$X*Xt y y 9 < 0 e e 6 t L ` ' Q q.T.N.=.n.x.x.] O O . (   ",
"  ' 6 9 <.pXpXpXpXpXrXJ.*X@X@X~.^ E L v L t z b v ~ ~ 0 # X X X X & & X 0 j u i & u u 5 j & h  .+.e.M @XDX<.n * V * # t V U V e 9 P I ] .XF.@X9.=.q.-.l.] + O O `   ",
"  [ 6 @ ! kXlXkXlXbXMX#X=XyX*XR.n k ! ` ' ' ' ] l.fXl.~ A.^ ~ a o & o & & 0 5 S u u u p +.0.Z.0.8.9.D.! x = x 8 9 9 9 l t V U t Q 9.q.Y.~.e.*XS.m 9.] l.} . O . (   ",
"  h., 8 ) fXlXlXlXcXyXF.u. X$XY.T.%XY.I.b.m.] ] ^ ~.^.N.R.].=X=X@X@X%X=X^.9X9X^.8.M.].^.R.Y.Y.I.~.z ! :.z = q 6 9 q l ( T x.l.Q ] S.S.4.J.e.T.I.v.q.6.x.} + + O `   ",
"  C.6 8 ( wXpX=X*X~.G.9.=.*XvX>X*X.X%X%X=X9.] v v 0.U.I.N.XX.X9XwXrXrXeXeX&X&X^.N.&XiXpXaXpXkXpXeX~ U t 8 R ` { z.Q h.l.x.] ' I 9.J.J.m }.N.F.I.7.:.:.7.] O < O _   ",
"  V.6 8 J iX=XI.L.H.n.9.w q.G.=.m q.N.Y.Y.N.6.* + % o % o 9 - I :.V.I.&X9XiXiXiXfXgXZXcXlXrXXXH.m.e t L P ~ B.XXn.* G.V.7.T ' -.M.T.Y.3.T.4.9.q.N.' -.x.} O @ O |   ",
"  W., z z 7XoXoXL.>.n I I N.=XI.K.@X*X*X%XV.~ U R 9 < U #.a - # # - * q 4 0 6 q 9 9 Y l z z z z q r R t ! 6.G.n.Q k.&Xz.' Q ' b.q.D.e.M q.^ =.-.-.] ' 7.` . > . (   ",
"  /.8 r r 8X.XY.Y.<.m.D.I..X-XH.Y.=X9X@XU.N.l.] b.M.b 7.&Xn.- o # # + # # 9 r * t 9 q 9 9 - q t 6 6 t L U T { [ L ( B.' Q P ` N.Y.9XaX@XD.e.M.:.' ,.{ z.} + O < (   ",
"  (.8 8 z G..X%XT.F.F.F.I.*X-XJ.^.=XwX#XY.D.Y.M.6.D.=.>.~.^.! = 9 4 e 9 o 9 e e 9 6 @ # - # 9 9 # 9 # r 9 Q n.x.Q v Q * w w l n.N.I.J.L.e.K.7.-.' ' :.l.] # # + (   ",
"  7X8 r l G..X=XF.q.m.u.Y.%X%XS.J.tXtX*XR.U.U.N.q.D.w.4..XY.>.v 9 9 V Y t ` { r t 9 6 9 9 9 e 0 9 * V P P Q ' T t * v q I Q Q 7.=.3.q.E.w.=.^ -.:.( [ x.} O > < `   ",
"  qX8 r r m.XXY.F.N.M.M.T.-X%XJ.Y.>XtX@XR.N.J.J.w.Y.=.Y.rX~.q.] q t P l.I T P P N.h.0 ~ ~ R P I } Q * ! Y I k.:.P * ' :.k.] -.^ 9.N.~.~.9.] =.' ] Y ( { E X > > [   ",
"  0XN F 8 [ (.U.n.V.G.6.Y.9XtX X XtXyX-X@XJ.T.Y.S.J.F.u.~.S.q.9.I 6.8.b.=.=.8.7.w.b.-.Q ] 7.-.:.n.Q * ! 9.v.z ! I ~ >.!.N.^ -.7.J.D.T.N.n 3.^ -.' Q Q ~ R # + 2 C.  ",
"  hXF N e U G.V.7.N.x.N.XX%X.X.X X*X*X%X%X.X-X%X~..X^.Y.^.N.N.Q.N.U.(.~.H.I.%X.X~.b.m.^ 9.m.:.b.q.>.! >.:.n.:.-.z =.l.^.q.-.^ 9.N.M.q.=.n -.-.7.-.' I :.t X 1 Z _.  ",
"  0X/ G y 4 0 t t 0 y 0 ~ 6.] 8.8.G.U.D.U.Q./.!.U.V.G.G.U.z.n.n.7.:.' ! q z z ^ n b =.n q.H.b.N.m.7.7.v.6.-.I -.v -.N.^.U.N.9.q.-.8.N.N.n.V.V.N.x.Q l o X # O qXqX  ",
"  dX_ U V 4 % # o + O # 9 % - X o . . X % < - e r t U U l 0 a v ! ^ ^ 7.,.>.F.M.q.! q.q.I.~..X!.Q.U.V.V.7.9.l.9.V.M.q.V.N.M.V.V.6.9.T T T 0 o X X . X X . & 4 hXdX  ",
"  dXC.K f.y | ( E U T 4 0 a a & j j ; v a w w w R v I :.x.7.9.x.M.A.K.K.Z.e.9.m v b k v b a a U L U / / 0 v L L v w 9 R R R A r < 4 + . + . + X + X + o X + > hXqX  ",
"  dXf.V C.x.b o ; ; ; 0 ; ^ U.I.n 9.m 8.A.U.N.6.! v q ; o ; o o o o X ; c ; m 3.3.8.Y.9.^ ; o X . > + % # - w % - - ; 9 w a t 0 . X + + X . . X X . o X X 5 > C.6X  ",
"  0X_ V z.Q.Z.E.@XE.@XR.0.R.-X;X..E.*X%X'.).'.'.E.U.0.r.0.$.M ..M h c c m m #.9.K.E.R.T.S.Y.T.Y.Z.K.Z.9.n E ~ b E w ; v I 3.9.0.^.;XY.; 0 & - ; w ^ E 0 4 % + U W.  ",
"  /.F 7 E Z.Z.@X-X$XR.E.;XOX:X<Xt.P.OXP.Z.5.$.r.r.3.m ..r.t.r.0...E m ^ m m M M c ; ; ; c k c m m M m c j N.U.U.R.^.;X*X-XwX9X<X<X-XE.^ s c ..K.e.OXR.U.).% + C g.  ",
"  W.r 8 ).iXjXyX-X@X@XK.OX:XOX+XMX1XzX1X2X+X2X2X+X+Xs.E.y.y.....m j E ^ ~ m b b c & & = k c S.5.L.K.4.b = w.R.R.Y.t.5.M L.*XuX1X2X+X1...& ..3.3.3.p.1.E.U.5 > C C   ",
"  !.8 F gXfXxXaXtX X}.L.<XzXuX>XzXzXzX1X1X1X:X1X1X:X:X:XE.0...#.~ I b E E E I E m ^ ^ ] I m M L.}.OXT.=.=.J.T.'.OXOXL.@Xe.u.P.[.'.s.r.e...r.5.3.r.r.p.L.e.0 > C C   ",
"  W.r B G.iXaXpXwX%X#XT.>XaX#XR.>X>X+Xs.y.y.y.1.r.y.1.N.U.G.' !.!.!.XX8X&X8X&X8X%X/.!.Q.G.N.e.J.L.}.L.K.R.<X#XR.OXR.a.oXu.&.c c r.p.r.r.t.r.1.M 1.r.s.t.9.- < N V   ",
"  W.B V qXgXaXtX>X%X.XM &.M c ; 3.{.$Xs.s.y.1.3.'.y.OX^ lXSX7XZXZXUXZXZXSXZXSXZXCXCXCXSXFXDXDXcXbXaXtX'.#XyXL.1.1.d.4.,X>X*X}.Y.e.p.y.3.0.r.M j M 1.t.3.9.9 > e y   ",
"  B.F F ).iXyXtX-X*X XR.i.+X+Xy.+X1X1X{.+XP.P.t.M 2.<XM SXLXgXLXKXHXHXHXHXSXSXCXDXDXDXSXJXDXZXgXpX8XE.R.i.&.k m 3.&.c d.a.L.i.e.K.T.r.M p.t.r.y.t.5.E.3.#.5 < 4 r   ",
"  B.B F (.eXtX9X*X XK.OX:X1X2X'.$X2X,X<XOXR.u.M ..y.#X^ FXSXBXLXJXIXKXHXKXKXKXKXSXJXLXJXJXJXJXJXKX0X6.U.w.x k *.2.3.k 2.{.a.&.i.5.9.; 3.t.....0.5...m 5.0.; # 4 r   ",
"  j.8 F XX0X9X-X XT.Y.p.$X,X+Xy.+Xs.OXsXI.N.Q 6.r.e.=X~.FXLXSXLXJXJXUXJXHXUXUXUXJXSXJXJXJXJXJXUXZX0XI G.H.w.u.4.2.M *.d.{.t.M 5.4.8.c c 9.M c r.3.M b e.8.- + < e   ",
"  j.B J XXeX-X;X*X@XR.-X$X:X2Xs.s.r.@Xn.( Y H /.FX.XgXcXSXIXBXW.5X5XC.g.K Z Z 1 8 3 8 F x J B.6XBXSXm.~.<.j.u.F.d.1.*.OX1XOX5.e.e.#.~ ....b X m 0.3.M 8.9.- X # y   ",
"  h.B F (.eX8X*X%X@XT.$XOXOXy.E.K.0.c./.JXIXIXIXIXIX7XZXLXIXW.3 C Z Z 1 3 3 3 3 3 3 , , , , , : qX/.5XiXlXpXpX>X$XL.m s.$XL.*.u.5.3...y.t...j r.e.;X@X0.9.- X # 9   ",
"  [ B F (.0X-X*X%X&XOXuX1XbX1XE.M.9.R hXIXIXIXLXIXIX(.U HXIX/ : Z 1 1 1 : , : 3 3 : 1 , : , , 1 Z NXLXJXZX0XeXrXwXt.R.*.*.u.k &.r.$.t.r.s.$.& M m ..r.e.8.- + # 9   ",
"  ( F F /.eX8X*X&X*XR.'.'.+XtXsX;X7XE ZXIXIXBXLXIXIXBX+ 5XU > : 1 1 : : : : : : 1 : : : : : : : C JXIXUXBXBXZXcX-X8.aXY.*.4.*.k n m t...y.3.M m 1.4.0.Z.8.% o 4 *   ",
"  _ F F /.8X9X=X*X#XE.P.s.'.'.].].].E IXIXSX;.B.KXIX7X. O : : : : : 1 1 1 1 : : : : : O : O : 1 1 / Z N h.BXSXvX%XZ.*XkXi.2.*.$ k #.p. ...r.e.5.p.P.R.K.8.# < # 6   ",
"  K N F (.8XwX*X$X@X}.'.'.'.:X1X'.;X^.PXKXIXhXdXUXdXO O : 1 : O : : 1 : : : 1 : : : : : : O , , : : : : 7 !.ZXlX9XlXkX,XOXd.1.. c U.A...r.y.t.'.s.+XE.E.c.0 > < -   ",
"  J J F (.8X-X*X*X@XP.P.t.t.uXGXPXGXGX9XFXIXZXKXhXZ O O : 1 1 : O : : : : : : : : : : : : : : O + > : : : O h.).8XcXDX1X+Xs.d.o 6.&XN.M y.r.P.'.+X'.'.Z.N.0 < % 6   ",
"  J K F (.8X=X=X#XP.P.P.p.t.CXtX1XuXuX:XCXKX6XC.Z > 1 : : : : : : O : : 1 : : : : : : : : : : : : : 1 O 1 : : 2 BXeX=XoX|.5.m X L b.c.a $.5.1.M %.t.t.K.M.0 # 4 *   ",
"  F F K XXXX=X#XOXP.R.R.E.R.E.3.bXmXmXAXCXfXG 7 > > > 1 : : : : : : : : : : : : : : 1 1 : : : O O 1 1 : 1 : 1 1 qX).lX9X-Xe.c X a b w v Z.K.1.r.y.p.t.Z.N.e # < <   ",
"  z F F /.XX=X#XOXOXOXP.@XxXvXjXbXmXGXFX0XU O O O , : , : : : : : : : 1 1 : : : : : 1 : : 1 : : : : : : 1 : : , 2 [ qXeX%XeXb . ; w - w %X3.m t.E.p.e.K.M.y < # 6   ",
"  8 F K XXXX,X,X#XOX'.'.@XPXPXCX].jXiXP y < O > : : 1 : : : : : : : 1 : : 1 : 1 1 : : 1 : : 1 : : 3 1 , : : > , 2 > Q.ZX/.N.X z 8.} 0 w 9X#.3...e.p.N.N.M.y < < #   ",
"  8 F K 5XXX-X-XOX+X$X$X#X$XcXcX;X_.R . O . O : 1 , 1 : 1 : 1 : : : : : : : : : : : : : : : : : : : : : : , , O , < 7 NXBXlX&X7XeXG.5 ; | b b 3.e.e.e.N.M.0 e < 6   ",
"  , F J /.XX%X;X$X$X$XOX;X].iX9XA.A.y > > : : : 1 1 1 : : 1 : : : : 1 : : : : 1 : : : : : : : : : : O , , : : 3 < > > O dX0XXXN.].c.5 X & - 0 ^ 8.e.8.N.c.t e < #   ",
"  @ F J (.7X=X X@XR.P.@X'.bXPXPXHXV.O O > > > 1 1 1 1 : , : : : O : : : : : : O : : : : O 3 , 3 @ 3 , , : , , : , , : O ).gXSXz (._.+ . X # % L V.N.0.M.c.y < < 6   ",
"  @ F J 6XXX%XoX@X*X@X5.'.xXGXPXLXf.: : > 2 1 1 1 1 1 1 1 , : : : : O : O : : , > O , : 3 @ 3 3 , , O > , O @ , : , @ O gXZXlX>.XX].0 O + 4 4 a D.0.q.M.8.t < < #   ",
"  , B J XX!.%X X=.9.9.I ].bXGXFXZX> O > 1 : 1 1 1 1 1 1 1 , , : : O : O : O : O O O > O , @ 2 r 7 7 3 , , , , > , @ , 3 W.gXN Q.0X7X] # 4 % & w 8.q.8.8.x.y 9 < @   ",
"  = F W XX~. X}.Y.l.L H &XAXPXcX6X> : > : 1 : 1 1 1 1 1 : : : : : : O : O : O , 3 e B e 8 B r H G 7 8 , , , , : , , , 3 N Z , 6X0X8XU.- < 4 % ; 9.8.8.8.6.t 6 < *   ",
"  @ z ( XXoX.XXXoXh.F g.W.xXGXDXO . O 1 : : 1 1 1 1 1 1 1 : : , : , 3 8 7 C r B r G V B 8 8 8 r 8 8 8 B 7 , O : , , , 2 , , 7 Q.eX9XV.. $ + . a 8.9.-.9.] t < 7 <   ",
"  @ B K XX.X.X@XY.F F h.H.%X8XP . O > : 1 : > 1 > 1 1 1 1 , : : 1 , , 6 2 7 7 e , 8 F B r H T B 8 8 , < , , : O O , 3 3 3 < , !.9X9XG.X # # X t l.b.#.9.] t < < @   ",
"  @ B J XX~.Y.Y.H.= F j./.C.. O . : 1 1 : > : : 1 1 1 : 1 , : , , 2 < , 7 C V C 7 < 8 B r / _ B e 7 , @ , @ @ 3 < 2 7 , 2 7 < x.0X=XQ.% 9 9 % z.n.l.-.] { G < < @   ",
"  O r J XXoX}. XY.F F H.6X6XO 2 : 1 : 1 1 : : : : : 1 : 1 : 1 : : , 3 O , 2 B 2 7 O 2 7 8 H / F r , @ @ , @ , , 2 3 2 3 , , < z.9X8XQ.X # + + - 9 L 6.] { L < < <   ",
"  O 8 ( 6XY.Y. X~.8 F G.6XW., 3 O : 1 : 1 : 1 : > : 1 1 1 , 1 : , , , , F _ B 3 8 O , 2 , 8 H G F G B r @ @ @ , 3 3 2 , 2 3 @ l.9X8X).X X O $ . . w 6.] ] V < < #   ",
"  @ 8 F /.Y.oX.XoXz F G.rX/.O : : : : 1 1 : : : 1 1 1 : 1 : , , 3 , @ @ [ [ F Y 8 8 W W @ ( h.) ! J q 8 8 @ @ , 3 6 3 3 2 < @ h.0X9X^.X # + + O < | #.' } L < < <   ",
"  @ 8 G /.}..X.XXXJ z H.0X).O : : 1 1 : 1 1 : > : 1 > 1 1 : 3 : , > , 8 j.j.j.h.h.<.;.>.<.>.v.' ,.;.' J r r 6 6 6 , 1 < 7 < @ :.iX7X(.o # + + + e f.{ ] ' G 3 < @   ",
"  , 8 F XX XT.}..XP z H.0XW.: : 1 1 > 1 > : : 1 : , : 1 : , 2 3 , , @ 8 m.H.j.,.j.,.;.>.;.j.v.h.,.! P Q W W ' 8 < , 1 3 2 3 O [ iX&X(.o # O @ O y { { ] } L < < 6   ",
"  @ 8 l XXY.Y. X*XQ r >.8X6X3 3 : > 1 1 1 : , : 3 > : 3 2 < 8 Y Y F 6 P m.H.j.j.m.m.w.j.j.j.j.7.>.v.>.,.;.) ( r 2 1 1 < 3 , O ' iX7X].# . # # O e { :.] ] U < < @   ",
"  , 8 8 XX~.|..X%X:.r ,.8X6XO : : : > 1 1 : 1 : 3 > 3 2 7 < r T W W z J G.H.>.j.m.w.v.v.-.' >.j.>.v.>.;.W W G r 6 > > 2 2 2 O ' iX&X(.# # O + . t ] #.{ { V + < @   ",
"  , 8 r XX!.|.}.%X:.z Q 7X6XO O 1 > : 1 : , : : : : 7 V V 6 P Q ,.,.J W G.H.<.>.v.m.v.G q 8 r k.m.m.;.Q z ) Q G r 2 > 3 2 2 $ Q iX%X(.o O # + @ t ] ] ] } V 2 , @   ",
"  @ 8 8 !.Y.Y.oX.Xx.z W 6X(.O : 1 > > : : 1 : : O O 7 B r 6 ' ,.>.k.<.) j.j.<.v.v.m.b.@ @ > @ k.m.m.,.W ! >.' G V C 2 2 , 3 $ ! 0X%X^.o # # < + L | #.-.] L < @ <   ",
"  , 8 , !.!.Y.oX%XH.z z /./.< , 1 > 1 1 > > : > : : C V e 8 ' ,.>.>.>.,.,.) ) <.j.w.j.6 7 2 B n.m.v.<.W W ' ) U y 3 2 2 < < @ Q 0X%X^.o + < + # L ` ] #.{ U < < <   ",
"  , 8 8 !.~.Y.}. XG.8 F XXXXr , > 1 > 1 1 1 1 : : : V V 9 z Q ' =.Q z W ;.J P <.>.v.n.8 7 , 7 n.m.<.J q = z q J B : 3 < , 7 $ ! 9X%X].# # < < % L ] ] ] { L < @ @   ",
"  8 8 8 /.|.Y.oXY.N.z z /.(.( , 1 > 1 > > 1 : : , < V H r P ) -.,.! * z >.,.) >.v.m.n.J F r G m.>.>.>.,.W ' ' / V 2 , 3 , 6 $ ~ eX*X^.$ # + + 6 U ] { -.{ U 2 < <   ",
"  6 8 8 /./. X X.X.Xz z !.!./.O 1 > > 1 1 1 > : , B G U e ( ' ' ,.>.;.W j.v.;.v.m.v.k.j.K _ ) j.j.w.v.,.) ) [ ( H 2 2 < @ 3 $ -.iX&X^.. . + @ # L ~ } ] { L @ < #   ",
"  , 8 7 W..X~.~.Y.F.z 8 W H.7XO O > > 1 1 > 1 : , G r V V R W ( ;.[ ;.<.B.B.;.m.b.v.m.;.F K W ,.>.>.<.) J J J W H 7 O 2 < 2 @ x.iX=XU.X @ < e 9 U ~ ^ ] { L @ @ *   ",
"  6 8 N (..X.X X~.I.z l U U.8XT O O O > > 3 1 > O ` I r f._ 8 G W h.h.! j.m.>.v.v.>.>.( F r 8 6 ,.j.k.) <.J z J H 7 < 2 7 6 @ x.iX8XV.# t f.U 9 L ] } { { G + , @   ",
"  8 B N 6XXX@X XT.Y.^ P W &XXXQ.& . 2 > 1 > : : < _ T B Y Y @ r W W W ! j.m.>.,.7.<.,.W z W ;.) ,.j.;.,.) * F T W G B r < $ $ V.eXwXG.- t 4 < $ t ~ ] { { G < # #   ",
"  2 F B (..X%X.XT.L.=.l G [ &XN.X + > 2 > 1 > < < x.{ F G G J W J W ! ) >.>.<.,.v.>.>.w.m.m.>.,.k.v.v.;.,.J W _ [ ( J q . . q @X9X*X8.= < . O . t ] ] { ] t # , 6   ",
"  7 F H _.XX*X@X}.L.w.z G 6 /.9.b 7X> : > > > O < f.U q ! h.B.>.<.j.<.W <.<.<.v.v.w.w.H.j.m.m.<.>.>.>.,.) 8 J <._ W G 7 . ~.9X.X=X^.v o @ # + # P ` ] { h.y + @ <   ",
"  < C H _.XX%X.XR.L.u.q P J gX!.9XhX0 > > > O < 2 / , @ Y v.m.>.j.<.<.<.<.<.x v.H.w.m.H.H.H.>.<.v.j.>.) <.z z z J F z z I iX~.Y.=Xv - X # @ O @ T ] ] #.#.e < @ @   ",
"  8 B K C.7X&X.XY.F.u.=.7.[ 0X(.9X9X| + . O O < , V B r ) ) j.;.<.<.<.) <.W x v.H.w.H.>.v.H.>.W j.h.,.<.<.h.z W v.z z  XY.Q.q q ~.t + # < 9 G L ` { 6.:.{ r < @ #   ",
"  8 B C C.7X%X.X}.J.b.>.I z T z.hX'.c.| + + O O : 7 e V ' [ ,.>.j.j.j.<.<.j.W j.|.H.m.H.<.<.v.J ,.;.<.J ) W z ;.;.J m.cXk $ :.8X>.# O $ r G r L } { #.{ 6.r # + 6   ",
"  r 7 / f.7XXXXX~.F.F.w.<.q V } (.b ^.7XV O + X + 7 e , U ( ( ' ) ) ) W W ) 8 j.;.<.j.j.>.h.,.W <.W z K _ J 8 F J B.XX! . = GX>.. $ . 8 ;.J P ( ] { #.#.:.9 6 @ @   ",
"  8 r / f.7X%X(.~.G.w.*.u.-.e V A.f hX0X(.. + . 4 4 2 r U H 8 J J W W W W ) J <.;.j.j.<.h.;.;.W J ;.( h.j.J r r F x n $ = >XF.= . O r k.,.P P Q ` ] ] { 6.< < @ @   ",
"  q 8 U T 7X^.XXoXH.4.*.i.I.l t 5X} iXiXqX_.> O 4 e 4 C / B # r g.j.;.K _ ) W g.<.j.j.j.h.,.;.h.;.;.;.z.x.U G G z n x *.|.rXoX>.F l W >.:.z P T ~ ] ] ] #.% < @ #   ",
"  8 r V L XXXXXXoXH.4.*.i.L.^ q z.).iXQ.7XQ.r + > > C V / V 8 r _ <.) W g.<.W W g.;.j.j.h.h.h.h.h.;._ ` T L a ~ x cX>X|.|.H.x = = = z Q Q z G T } ' ] ] f.< # < *   ",
"  q 8 L T (.(.XX~.J.4.*.i.L.q.v #.8X!.] e e . R U y 4 U U / V K _ ;.) W W ) ) ;.k.h.C._ ( ( [ [ ( [ 8 8 = $ u.x $ J.eXH.$ z $ * < > + V V @ e [ } ' ] -.] # 6 @ @   ",
"  r 8 U P (.XX(.!.D.4.4.a.|.J.I ] 9XQ.t + . ~ 8X0XV.< > U _ U T _ ;.) ;.W J _ h.h.h.h.( ( T Y t 9 @ = *.4.x |.a.oXn ! ! . @ 6 < > 5 > < 7 , H } ' ^ ] ] } # < * *   ",
"  r q L G /./.XX~.Y.=.i.L.P.J.! Q B.B.t % 9 } eXcXiX7X< V V F Y W <.W <.j.J W K G Y J t y 0 < 4 6 O x |.3X3X3X3X|.= $ $ . O 2 4 2 > + < 7 7 U [ } ' ' { ` # @ @ 6   ",
"  8 e G G !.XXXX!.Y.&.i.|.S.e.=.! z.:.T L e x.lXlX^.!.+ 6 @ 6 = = 8 F 8 v q q @ @ O @ O < < + . + X k ,X3X3X3XoXx $ @ $ < e C V V V y G J L U [ ' ' ' ] ( # # @ 6   ",
"  q 8 T v G.XXXXXXY.4.i.a.u.u.m v I ( ~ t v (.fXiXXX.XQ . . . $ $ $ $ $ @ $ $ O + + < 4 # X . . X & w &.w.i.x k = $ z z ! h.h.f./ V B G G r 9 4 l Q ` { U . * # 6   ",
"  q 9 l e V.(./.XX}.u.a.|.a.u.=.I ~ ~ v a l n.^.!.=XXX6XG.^..X}.F.q.=.J $ . . . . X X o - v b H.~.=XXXQ.H.v.J <.B.XX6XQ.C.h.f.g.H 8 , l P U } z.z.z.x.h.L @ < @ 9   ",
"  r 6 G t V./..XoXY.u.i.i.i.i.<.=.-.' I L w w q ' B.!.B.) oX,X,X,X,X>XrX=X|.Y.E.Y.P.R.}.}.}.}.2X>X>XY.! _ ;.K J 8 N B _ Y Y C N 7 , , :.n.8.l.8.l.8.x.x.r # * @ q   ",
"  r 9 t t k.G.G.F.F.4.4.a.|.4.n n ! ! ` T I z w l b >.k.= >.oX,X,X,X,X#X#XoX}.@X X#X#XoX}.}.}.oX=X#Xw.6 F J J F J , 2 2 2 @ 3 2 N , G m.v.8.c.c.c.l.l.x.8 6 # @ t   ",
"  t 6 r = h.!.F.H.u.4.w.4.&.*.z ) x x W <.! W z - - - q t z m.=X#XoX@XoXoXoXoX#XoXoXoXoXoXoXoX=XrX%Xn $ @ , , , , 3 3 e > O 7 [ B.H U n.6.9.0.c.c.l.l.x.@ 6 # @ l   ",
"  l < r 6 >.Y.J.i.*.*.&.<.<.<.*.<.x n W ! ! ! x z = = % @ 9 = ; n w.H.D.J.I.Y.oXY.oXoXoX!.oX!.Y.G.,.= @ @ @ @ 8 , , : < O + h.V.[ r k.n.9.9.c.0.$.c.l.} 6 < 6 $ P   ",
"  L * t w 7. X|.i.*.4.4.i.i.w.>.<.<.*.<.<.n W x x v w z 0 0 4 < # % # o . . $ . . . $ . . . . $ $ . @ , > O > > 3 3 1 , < t ` l.l.6.z.M.6.9.c.c.c.0.l.| e 7 @ $ (   ",
"  Y * * - >.|.L.d.*.i.a.F.F.u.i.i.<.<.*.<.<.*.<.<.n z b v V 9 + % 4 4 % X . . @ . O $ + O O . @ O O < 3 < > 1 1 3 3 , V } ] l.8.c.c.M.c.8.6.c.c.c.c.l.U e 6 O $ `   ",
"  ( @ 8 6 :..XL.|.&.S.J.L.S.J.S.i.i.H.i.i.>.w.<.<.<.<.<.! b t q # q T n.X + + O 1 O O @ + > , 2 2 : > > > 2 1 2 2 Z f.x.:.7.M.M.c.M.N.c.8.`.c.c.c.V.V.| e : @ O '   ",
"  [ @ 6 9 :..XL.a.k 4.w.e.e.D.S.H.H.i.H.F.u.i.w.<.4.<.<.<.! n q q P ] -.v + + > 1 1 3 < < < O , 2 2 2 1 > C C / f./ / { 7.l.M.n.M.0.Z.c.#.c.c.V._.C.y C e < @ $     ",
"    @ e V h.(.D.4.&.w.N.Z.Z.K.S.J.S.F.u.u.u.u.u.w.i.i.w.w.j.<.n n ! >.9.I r C N Z Z N N N B F _ V.C.h./ f.f.| f.f.A [ h.:.7.M.M.N.N.Z.Z.#.c.6.x.R 4 V f.V 6 < O     ",
"    O 8 G h.(.H.=.N.q.K.I.Z.I.Z.K.D.F.F.F.F.F.F.F.u.F.u.u.F.m.<.<.>.w.-.! U C g.g.Z Z N N B N N _ C.C.g.f.f.f.C.f.A [ h.v.z.b.V.N.V.U.U.M.c.7.} C C / C r < . @     ",
"    $ @ Y T Q.<.=.w.S.J.J.K.I.Z.N.N.Z.N.t.N.S.S.H.S.u.F.F.F.D.M.9.7.w.=.' ^ [ _ g.g.K K K _ g.8 K h.j.f.f._ h.C.f./ f.h.j.B.B.H.V.H.(.m.!.j.G 8 < e r 6 6 < . .     ",
"    . 6 r q z.:.-.7.F.N.V.N.K.N.N.Z.N.K.K.I.I.I.I.I.F.F.J.J.I.I.F.q.m.M.k.v.k.C.h.f.f.g.h.g.h.K / _ f.f.h._ g.h.h.f.f.K K F J _ T _ W.W.6Xj.r @ # < 9 e 5X0X(.x.    ",
"    @ N 7 r W P ,.6.n.D.G.G.G.G.K.V.I.G.G.G.G.U.G.G.G.G.G.I.Y.V.b.h.>.k.;.h.;.) ;.g.g.g.g.g._ _ _ _ _ g.g.g._ K K K K / K F Z , 2 r r V F B 6 @ 9 9 y L cXZXZXgX    ",
"      hX/ 6 @ < # e q e q t t w t a w a l v l l n z P z l J J J W / T ( _ [ W W W W K H H F C B N Z N 3 N Z , 3 1 Z C Z Z 2 3 7 C e > < 2 , + @ < + < . Q.BXfX      ",
"        qX. . + + + < + + . # . $ . $ # o o + + o + # # # < * , < , , < @ @ O @ O @ @ , O O : 2 , 2 2 > 2 7 , @ < < < < , O # # # < # e * < 6 # # X . . . eXBX      ",
"          O . O + + . + . . . . . . . . . . . O O @ @ < 6 6 O O + @ + @ < O O O : @ + + < < O + > 3 > > + # # # @ < < + # # o $ o # o # o X # # # z.qXt . Q         ",
"          ` . V.a # w # % % 9 r e 9 9 e q 6 9 @ @ # + 6 @ r O @ , @ < > > > O : > : , : 2 2 > 2 O > + . o * - l Q 4 0 < # z 6.U..X7X8X+ < - * * Y gXlXgX            ",
"                7X. a o X #                                 ( , < , , < , O > O O > , < O 2 6 < @ < L (.7X9X    eX` q q o k.&X      7XN.$ $ o # C.0X                ",
"                V.6 R . X o                                 C.@ 6 6 r B V V V V B B V H H U T V r @ :.0XeX        ~ - q z Q.            7X/.Q.                      ",
"                z # t # 6 *                                 G.7 6 6 V L ( _ / U L U U Y T / [ V V 9 x.9X          ] l z G 7X                                        ",
"                t * ( 6 Q =                                 !.8 8 q Y Y Y T Y ( ( ( Q Y T _ ( G r V Q 8X          :.t q I                                           ",
"                  $ q z Q l                                 /.6 r r P J Y ( Q W ( T Y ' } [ [ U G r Y 9X          -.q q I                                           ",
"                  6 * 9 w l                                   r 8 G J T ( T ( ( ( ( ' ] } } { V V V R             6.v z ,.                                          ",
"                  . = 6 q                                     B B B Q _ ( ( ( ` ` ~ ] ] { { ` H G t T             :.v q m.                                          ",
"                    G.Q.                                      N N V [ [ / ( } } ` ` } ] #.} f.U A V ~               v q                                             ",
"                                                              K F r ` f./ } } #.] ^ } #.#.| z.U V V ~                                                               ",
"                                                              f.J H } f.R | ( ] #.`.#.l.x.#.x.U U v L                                                               ",
"                  qX                                          j.Y J ( ( / U ` | x.l.#.} ] { x.y A t                                                                 ",
"                  V.B.                                        W.K G T ( U T | { ` #.] ] ~ ` } V H e                                                                 ",
"                  B.Q                                           B Y L L U T } ] R I R E ' Q ` e A 6                                                                 ",
"                  V.!                                           J L L L t U ~ T ~ } +.R b R ~ t 0 6                                                                 ",
"                  (.m.                                            XXV.U v T ~ } ^ E ^ ^ ` ] { R z v                                                                 ",
"                                                                    eXG w I ^ ^ E ^ #.#.#.] 6.~ v                                                                   ",
"                                                                      V.~ R E } ~ #.#.#.#.] { | ~                                                                   ",
"                                                                      qXt T } #.#.{ #.#.#.` #.^ Q.                                                                  ",
"                                                                        { ` } #.#.#.#.`.#.E x.}                                                                     ",
"                                                                        V.~ ^ { #.#.#.c.#.` 8.a                                                                     ",
"                                                                        (._.#.#...#.#.#.`.] z.                                                                      ",
"                                                                        Q.8Xx.#.#.#.#.`.c.#.0X                                                                      ",
"                                                                          qXc.#.#.x.#.l.x.Q.                                                                        ",
"                                                                          7XQ.#.#.#.x.V.| lX                                                                        ",
"                                                                          7X7Xl.x.| c.n.l.                                                                          ",
"                                                                            7X(.c.~ } P                                                                             ",
"                                                                                qXn.                                                                                "
};
