/* XPM */
static char *out[] = {
/* columns rows colors chars-per-pixel */
"38 37 9 1 ",
"  c None",
". c #180F12",
"X c #A57E89",
"o c #DEAAB8",
"O c #ECB5C4",
"+ c #F9BFCF",
"@ c #FFD8EA",
"# c #FFE0F3",
"$ c #FFEBFF",
/* pixels */
"             X   X                    ",
"             Xo O+O                   ",
"                 oo                   ",
"X                            X        ",
"                          XOOX        ",
"                           XX         ",
"                                      ",
"                     X                ",
"                     OX               ",
"        o+X          +                ",
"        ++++@       Xo                ",
"       o++ @@@ @    X                 ",
"       ++   @###@ O        .         .",
"       ++X +@###@@            OX      ",
"       XX o@ @@##@             XX     ",
"          +##@@@###@@ X         X     ",
"           #$@   @###@ oOoX    Xo     ",
"           ###@    ##     XX  X       ",
"           @@ +   @#@     o           ",
"          +@     @@                   ",
"           @@+  #$$$@ @+              ",
"           o+ @ #$$$@@@@            X ",
"             @#    @@ +@            X ",
"              #        +o             ",
"              @+      XOX             ",
"              +@                  X   ",
"              ++o                o    ",
"XX            +++ XX             X    ",
"XXX   X  XOOX   XoXo                  ",
"   XXoX    XX                         ",
"     X      X                         ",
"            X                         ",
"                                      ",
"                                      ",
"                                      ",
"                                      ",
"                         X            "
};
