/* XPM */
static char *out[] = {
/* columns rows colors chars-per-pixel */
"44 44 9 1 ",
"  c None",
". c black",
"X c #2288F4",
"o c #44C4FF",
"O c #44D3FF",
"+ c #4EE0FF",
"@ c #6EFFFF",
"# c #C0FFFF",
"$ c white",
/* pixels */
"                     XX                     ",
"                        XOX                 ",
"                         oo                 ",
"                          X                 ",
"                                            ",
"                                            ",
"                                      X     ",
"                                    XoX     ",
"               X                            ",
"              o+o                           ",
"            XO+OXoX          XX             ",
"           o++   o+          XX             ",
"           O++    +@         o              ",
"                  +@@ O     XX              ",
"                X +@##@O    X               ",
"                o  @@#@  o@                 ",
"                @@@ @@@@ @O        .        ",
"                @#@   @#@                   ",
"                #$#@  @@@             X     ",
"              X #$$@   @@             XX    ",
"              @@###    o @@@o       X   X   ",
"              +@@@       @@@@XXoXX      X   ",
"              XO@@      @##       X    X    ",
"                   @#@@##@@      XX   X     ",
"                 @####$$#@@      X          ",
"                 @@  @$# @@@                ",
"                 O   +#@  @@                ",
"                 o         o                ",
"                 X         O               X",
" XX             XO         OX               ",
"X               oo         XX               ",
"    X XX   X    X+o                         ",
"    XXX    Xoo      X                   X   ",
"             X    XX  X                X    ",
"             X       XX                X    ",
"                                            ",
"                                            ",
"                                            ",
"                                            ",
"                                            ",
"                                            ",
"                                            ",
"                             X              ",
"                             X              "
};
