/* XPM */
static char *out[] = {
/* columns rows colors chars-per-pixel */
"29 13 124 2 ",
"   c None",
".  c #262C32",
"X  c #2E2F38",
"o  c #2D3138",
"O  c #2F3038",
"+  c #2D323A",
"@  c #2F3740",
"#  c #383240",
"$  c #313D44",
"%  c #323D44",
"&  c #323D46",
"*  c #333E46",
"=  c #343F47",
"-  c #3B3949",
";  c #67014B",
":  c #6C0351",
">  c #6F0456",
",  c #73065B",
"<  c #75065D",
"1  c #76075E",
"2  c #7B015A",
"3  c #413D4F",
"4  c #36414A",
"5  c #39404C",
"6  c #3A434E",
"7  c #3C414F",
"8  c #3B4550",
"9  c #3C4752",
"0  c #3D4752",
"q  c #3E4654",
"w  c #3F4955",
"e  c #404151",
"r  c #414352",
"t  c #414353",
"y  c #464456",
"u  c #434758",
"i  c #494658",
"p  c #424D59",
"a  c #434C5A",
"s  c #424D5A",
"d  c #444E5D",
"f  c #46515E",
"g  c #495364",
"h  c #4C5668",
"j  c #4E596C",
"k  c #555767",
"l  c #556075",
"z  c #576177",
"x  c #586277",
"c  c #59657A",
"v  c #5B647A",
"b  c #5A657B",
"n  c #5F667D",
"m  c #676E78",
"M  c #8A035F",
"N  c #920364",
"B  c #920366",
"V  c #930567",
"C  c #9C036A",
"Z  c #A1036E",
"A  c #AA0471",
"S  c #AD0474",
"D  c #BA047C",
"F  c #BE057D",
"G  c #C0057E",
"H  c #626780",
"J  c #626781",
"K  c #656782",
"L  c #626983",
"P  c #636983",
"I  c #676883",
"U  c #616D84",
"Y  c #646D85",
"T  c #696986",
"R  c #6A6986",
"E  c #636F88",
"W  c #696F89",
"Q  c #677189",
"!  c #6C708B",
"~  c #6E718D",
"^  c #6F7692",
"/  c #6A7892",
"(  c #737592",
")  c #727794",
"_  c #747896",
"`  c #767997",
"'  c #717E9A",
"]  c #737F9D",
"[  c #CD0685",
"{  c #CE0888",
"}  c #F845B6",
"|  c #73809D",
" . c #798198",
".. c #78839F",
"X. c #7B86A2",
"o. c #848AA9",
"O. c #868AAA",
"+. c #868FAA",
"@. c #898CAC",
"#. c #8B8CAD",
"$. c #8C8DAE",
"%. c #8D8EAF",
"&. c #8E8EAF",
"*. c #9EA5BB",
"=. c #A0A6BC",
"-. c #A0A9BD",
";. c #A3AABE",
":. c #A6ADC1",
">. c #ABB0C4",
",. c #ADB3C6",
"<. c #AEB3C6",
"1. c #AEB6C6",
"2. c #B0B4C7",
"3. c #B1B4C8",
"4. c #B2B6C9",
"5. c #B6BACC",
"6. c #B8BCCD",
"7. c #BEC2D1",
"8. c #BFC4D3",
"9. c #C6C8D7",
"0. c #C6CAD8",
"q. c #C7CBD9",
"w. c #DDDDE7",
"e. c #DEDEE8",
/* pixels */
"                                            0.0.          ",
"                                          2.r r q.        ",
"                                        3.K < ( y 4.      ",
"                                      ) 3 M #.2 R i 4.    ",
"                            7.  e.  ^ # 1 #.F %.S T i 3.  ",
"z +.5.+.;.,.8.>.*.:.=.9.6.m 7.[ -.{ W , #.F %.F %.Z I - w.",
"z ] X.| X.X...X.] X.X.X.Q q  .B 1.V P _ G $.} &.C #.N K <.",
"p d 9 s w a f 4 & $ % * % = l ; x : L , ` G %.D $.A I o.k ",
"  @ @ @ 6 @ @               0   8   o H , @.G #.1 I ~ t   ",
"  ' / g U h '                         X H , O.< K ! e     ",
"  j b   c   E                           O n > J W u       ",
"                                          + v Y 7         ",
"                                            . 5           "
};
