/* XPM */
static char *out[] = {
/* columns rows colors chars-per-pixel */
"29 13 126 2 ",
"   c None",
".  c #262C32",
"X  c #2E2F38",
"o  c #2D3036",
"O  c #2D3138",
"+  c #2D323A",
"@  c #35313E",
"#  c #2F3740",
"$  c #313D44",
"%  c #323D44",
"&  c #323D46",
"*  c #333E46",
"=  c #343F47",
"-  c #3A3948",
";  c #67014B",
":  c #6B0250",
">  c #6E0455",
",  c #7D0257",
"<  c #710558",
"1  c #73065B",
"2  c #75065D",
"3  c #76075E",
"4  c #413D4F",
"5  c #36414A",
"6  c #39404C",
"7  c #3A434E",
"8  c #3C414F",
"9  c #3F4150",
"0  c #3F4350",
"q  c #3B4550",
"w  c #3C4752",
"e  c #3D4752",
"r  c #3E4654",
"t  c #3F4955",
"y  c #414353",
"u  c #444454",
"i  c #464456",
"p  c #434758",
"a  c #424D59",
"s  c #434C5A",
"d  c #424D5A",
"f  c #444E5D",
"g  c #46515E",
"h  c #495364",
"j  c #4C5668",
"k  c #4E596C",
"l  c #545666",
"z  c #556075",
"x  c #576177",
"c  c #586277",
"v  c #59657A",
"b  c #5B647A",
"n  c #5A657B",
"m  c #5F667D",
"M  c #676E78",
"N  c #81025A",
"B  c #8A0261",
"V  c #900362",
"C  c #920364",
"Z  c #920365",
"A  c #930567",
"S  c #9C036A",
"D  c #9D036A",
"F  c #BA047C",
"G  c #BE057D",
"H  c #C0057E",
"J  c #626780",
"K  c #636780",
"L  c #656782",
"P  c #616880",
"I  c #606881",
"U  c #626983",
"Y  c #676883",
"T  c #676985",
"R  c #616D84",
"E  c #646D85",
"W  c #636F88",
"Q  c #686E88",
"!  c #696F89",
"~  c #677189",
"^  c #6C708B",
"/  c #6D7591",
"(  c #6F7692",
")  c #6A7892",
"_  c #717490",
"`  c #747896",
"'  c #767997",
"]  c #717E9A",
"[  c #737F9D",
"{  c #CD0685",
"}  c #CE0888",
"|  c #F845B6",
" . c #73809D",
".. c #798198",
"X. c #78839F",
"o. c #7B86A2",
"O. c #8389A7",
"+. c #868AAA",
"@. c #868FAA",
"#. c #888CAB",
"$. c #898CAC",
"%. c #8B8CAD",
"&. c #8C8DAE",
"*. c #8D8EAF",
"=. c #9EA5BB",
"-. c #A0A6BC",
";. c #A0A9BD",
":. c #A3AABE",
">. c #A6ADC1",
",. c #ABB0C4",
"<. c #ADB3C6",
"1. c #AEB3C6",
"2. c #AEB6C6",
"3. c #B0B4C7",
"4. c #B0B5C7",
"5. c #B1B4C8",
"6. c #B6BACC",
"7. c #B8BCCD",
"8. c #BEC2D1",
"9. c #BFC4D3",
"0. c #C6C8D7",
"q. c #C5C9D8",
"w. c #C6CAD8",
"e. c #C6CAD9",
"r. c #DDDDE7",
"t. c #DEDEE8",
/* pixels */
"                                            q.w.          ",
"                                          1.0 0 e.        ",
"                                        3.K 1 _ u 4.      ",
"                                      ( 4 , $.3 Y i 5.    ",
"                            8.  t.  / @ 2 %.S %.C T i 3.  ",
"x @.6.@.:.<.9.,.=.>.-.0.7.M 8.{ ;.} Q 1 $.G *.S &.B Y - r.",
"x [ o. .o.o.X.o.[ o.o.o.~ r ..Z 2.A U ` D %.| *.S %.N J 1.",
"a f w d t s g 5 & $ % * % = z ; c : I < ' D &.F %.V L O.l ",
"  # # # 7 # #               e   q   O J 1 #.H $.3 Y ^ y   ",
"  ] ) h R j ]                         X J 1 +.1 L ^ 9     ",
"  k n   v   W                           o m > P ! p       ",
"                                          + b E 8         ",
"                                            . 6           "
};
