/* XPM */
static char *_c3d037a1ae342599b3dfe7c5c5d4f2cYiiNaTAYaVBM8hh6[] = {
/* columns rows colors chars-per-pixel */
"296 150 256 2 ",
"   c None",
".  c #010101",
"X  c #090808",
"o  c #140908",
"O  c #171509",
"+  c #080C12",
"@  c #091617",
"#  c #141314",
"$  c #1C1B1B",
"%  c #171817",
"&  c #0F100F",
"*  c #231B19",
"=  c #25170A",
"-  c #1B231B",
";  c #17250D",
":  c #28251B",
">  c #302F10",
",  c #1A1C22",
"<  c #081C23",
"1  c #241D23",
"2  c #1A2626",
"3  c #112D2F",
"4  c #242323",
"5  c #2C2C2B",
"6  c #282827",
"7  c #342C29",
"8  c #2A322B",
"9  c #37352A",
"0  c #292C33",
"q  c #2B3637",
"w  c #333433",
"e  c #3B3C3B",
"r  c #373837",
"t  c #342D34",
"y  c #433C38",
"u  c #443A2B",
"i  c #473919",
"p  c #3A433B",
"a  c #37442C",
"s  c #3B4515",
"d  c #4D5015",
"f  c #5A6411",
"g  c #6C7217",
"h  c #474729",
"j  c #44433C",
"k  c #494739",
"l  c #575738",
"z  c #525230",
"x  c #655436",
"c  c #596630",
"v  c #757927",
"b  c #6B7031",
"n  c #645919",
"m  c #383D43",
"M  c #2C3B44",
"N  c #103B45",
"B  c #443E43",
"V  c #0C4E55",
"C  c #3C4344",
"Z  c #3B4749",
"A  c #3B5657",
"S  c #344C4F",
"D  c #0F646B",
"F  c #306E70",
"G  c #215B62",
"H  c #434443",
"J  c #444B44",
"K  c #4C4B44",
"L  c #444B4C",
"P  c #4B4C4B",
"I  c #474548",
"U  c #534C47",
"Y  c #4C534C",
"T  c #485449",
"R  c #53534C",
"E  c #585749",
"W  c #444C52",
"Q  c #4A4D53",
"!  c #4C5354",
"~  c #4C5B5B",
"^  c #485657",
"/  c #535553",
"(  c #545B54",
")  c #5B5B54",
"_  c #535B5B",
"`  c #5B5D5B",
"'  c #565557",
"]  c #534E54",
"[  c #645949",
"{  c #625D55",
"}  c #6C5646",
"|  c #4B625C",
" . c #5C635C",
".. c #576459",
"X. c #58664B",
"o. c #66664A",
"O. c #646354",
"+. c #63645C",
"@. c #69695A",
"#. c #726C5A",
"$. c #767559",
"%. c #6E744F",
"&. c #495C63",
"*. c #575D63",
"=. c #464A62",
"-. c #4A6767",
";. c #536463",
":. c #5B6463",
">. c #5C6B64",
",. c #5C6C6B",
"<. c #556969",
"1. c #59736B",
"2. c #566C72",
"3. c #4B7575",
"4. c #547374",
"5. c #5B7474",
"6. c #557B7C",
"7. c #5C7C7B",
"8. c #587878",
"9. c #4B6F70",
"0. c #636563",
"q. c #646B64",
"w. c #6B6C63",
"e. c #646C6B",
"r. c #696A69",
"t. c #726D64",
"y. c #6C736B",
"u. c #677569",
"i. c #73746B",
"p. c #777868",
"a. c #6B7B74",
"s. c #637C7B",
"d. c #6B7D7B",
"f. c #667674",
"g. c #747C73",
"h. c #7B7C74",
"j. c #767978",
"k. c #686D72",
"l. c #625E63",
"z. c #847B69",
"x. c #847D74",
"c. c #847454",
"v. c #817A37",
"b. c #7B8429",
"n. c #798737",
"m. c #798516",
"M. c #78864E",
"N. c #5B827C",
"B. c #4B827F",
"V. c #79836B",
"C. c #6C837C",
"Z. c #67847B",
"A. c #7C8374",
"S. c #73837C",
"D. c #7C847B",
"F. c #7C8A7D",
"G. c #748779",
"H. c #728F78",
"J. c #3C817E",
"K. c #84892A",
"L. c #858937",
"P. c #8D9633",
"I. c #98A535",
"U. c #9BA52F",
"Y. c #8C924E",
"T. c #98A74D",
"R. c #A9B351",
"E. c #87856A",
"W. c #838B7C",
"Q. c #868778",
"!. c #89937A",
"~. c #96967A",
"^. c #91916E",
"/. c #ABB26D",
"(. c #99A472",
"). c #B8C556",
"_. c #B9C66A",
"`. c #C8D370",
"'. c #C9D563",
"]. c #567D82",
"[. c #6A7D82",
"{. c #367C81",
"}. c #5B8484",
"|. c #529091",
" X c #648483",
".X c #6C8482",
"XX c #688A88",
"oX c #748B84",
"OX c #7B8C83",
"+X c #778886",
"@X c #6A948A",
"#X c #7C938B",
"$X c #799689",
"%X c #6B9594",
"&X c #789994",
"*X c #6F8D92",
"=X c #7BA398",
"-X c #78A18D",
";X c #78A9A7",
":X c #6C9EA2",
">X c #3A8386",
",X c #848D83",
"<X c #878B86",
"1X c #849384",
"2X c #8B9484",
"3X c #84948B",
"4X c #8B948B",
"5X c #849A8C",
"6X c #8C9B8C",
"7X c #899A85",
"8X c #939B8C",
"9X c #9B9D8B",
"0X c #959686",
"qX c #849C93",
"wX c #8C9C93",
"eX c #889895",
"rX c #939C93",
"tX c #979C96",
"yX c #8E8D89",
"uX c #A39D8C",
"iX c #9AA28C",
"pX c #8CA394",
"aX c #88A69A",
"sX c #94A394",
"dX c #9CA393",
"fX c #93A49B",
"gX c #9CA49B",
"hX c #9BAB9C",
"jX c #95AA9B",
"kX c #8CA892",
"lX c #A4A58C",
"zX c #A3A593",
"xX c #A4AB9B",
"cX c #A7A999",
"vX c #AEB29A",
"bX c #89AAA3",
"nX c #97ABA3",
"mX c #98B3A7",
"MX c #8EB5AD",
"NX c #A6ACA4",
"BX c #A8B4A7",
"VX c #B4B8A8",
"CX c #B6BCB4",
"ZX c #A9B7B2",
"AX c #939BA2",
"SX c #B9C4B8",
"DX c #B0C4B4",
"FX c #A9C4A1",
"GX c #C5C7B8",
"HX c #CDD887",
"JX c #B8CCC6",
"KX c #9ACECC",
"LX c #CCD4CB",
"PX c #DDE4DF",
"IX c #BFBDB1",
"UX c #837F83",
/* pixels */
"                                                                                                                                                                                                                                                                                                                                                                      D mXmXmXN.A G V F 9.D                                                                                                                                                                                                                     ",
"                        F G G G V V S A A ^ A S A A ^ W ^ ^ ^ L Z 3 _ C  . .i.u.y. .w. .A.W.@.p. .h.i.h.Q.D.1.F F       V G S S >.u.p u.V.V.V.!...~ <.f.f.S.,.d.<.                                              D D D D D D D D D D D D D D D D F F D D D F F F F F F F F F F F F D D F F D D D D D D D |.].F D V V V V G G G A G G S G G G G S S &.<.N M J V.!.(.E.M./._.HX_./._././.HX/.R.T._.(.kXH.kX(.c X.c F                                             |.].D V V D D D D G D V V V V V V V V V V V V V V V V V V N V V V V V V F F F D D D D V D D D V V V V V V V V V V V V F V D F                     ",
"              V 3 q $ cX0X> h 7 W.tXeXeXfXNXBXBXNXcXzXNXcXNXNX2X9Xi.7 Q.vXiX!.^.^.^.^.^.vXlX(.(.(.(.(.lX(.lXcXyX. . 9 E.E.vXHXHXHX`._.HXHXHX_.HXHXvXk y.zXzXlXuXzX2XF.1X1XsXd.m 2 < W m . k.j.g.y.i.k.g.g.j.j.j.D.D.j.j.j.j.j.j.h.h.D.D.,X<X<Xj.] 1 * i.8XgXzXzXzXcXzXzX2X2X<XQ.W.Q.A.2XW.h.g.i.h.<X<Xj.5 5 $ 1 j.+XaXnXmXmXnXnXnXnXAXtXAXNXnXAX+X0 o ^./._.`.`._.`.HXHX).'.).'.`.`.`.`.`.HX`.`.`.HXHXHXHX_._._._._.(.X.G.  D G V S p q 8 8 w 8 j R r.h.y 6 5 5 : O.Q.p.W.W.yXQ.x.Q.Q.yXh.yX2XQ.2X2X0XdXW.2X0X0X8X!.dXzXlXuXcXcXvXVXVX{ U y t.x.p.Q.E.Q.p.t.Q.E.W.2XQ.A.Q.<XyXtXQ.w.r / { r.H N                 ",
"          X 5 0.<Xa.r cX~.> l > yXtXwX+XG.D.g.,XgXNXcXvXcXBX8X6X2XcXP i.dX@.$.E.^.E.%.%.(.(.^.Y.Y.Y.^.^.E.o.K 4 $ E.^.HX/.R.R.`.`.`.`.R._._.R.).HXHX%.: k 9 p.#.O.iX2XsXA.W.rX_ X / r # j.LXCXBXCXBXCXSXCXSXCXCXVXVXVXVXBXSXCXSXVXSXSXCXSXSXCXCXQ.e ( R VXdX!.9XcXcXVXVXQ.0XW.!.W.<X!.W.2XdXrX0X2X0XzX9X/ . . NXnXeXnXnXnXnXnXeXwX4X0XxX8XcXcXBXCXP 9 LX`.'.R.).'._._._.).).'.'.`.).I.R.'.'.'.R.`.`.`._.`.`.'.'.'.'._.T.z 2 @.9 j.g.@...@.O.z %.V.!.dXzXU O o . 0XvXvXlXlXvXGXGXlXVXVXlXp.~.p.!.lX0X8XvXGXGXVXiXcXcXvXGXlXvXGXLXGXLXLX5 X 0X0Xp.vXvXGXGXlXVXcX2X~.0XzXiXzXvXBX9XzXt.j VXQ.Q.Q.Q.` S             ",
"      . H <XtXgXOXu.8XcX9Xu k yX@.+.p p ( ) w *.<XnXNXgXyXq.H J P w % @ m , 9 ..O.w.tX) R O.O.@.t.> @.E O.7 . p.~.lX/.R.g T.R._.T.R._.`.R././.`./.HXHXlXh @.E.p.~.iXdXBX0X0Xh.* y x.u O NXCXcXBXBXcXGXCXBXVXVXBXCXVXNXVXVXCXVXCXCXCXSXSXSXCXVXLXGXh.w.O dX!.!.cXzX0XE.#.t.i.i.i.t.p.V.W.!.2XW.Q.Q.!.Q.E.tX5 R cXQ.2X8X2XtXrXyXyX<XQ.<X<X0X2X8X<XtXq.9 Y.P.I.'._._.`.`._.R.`.`.`.`.`.I.T.R.).'.).P.).`._.).).'.R.).R.T.R._.(.@.2 C nX8XW.W.A.p.V.X.X.p.dXj : o t.lXlX(.(.lX/.vX/.(.~.R : k W.O.xXp.p.#.h [ O.E.yX<X0Xy > . k p.!.8XcXtX% 0XGXvX0XzXzXzXcXdXVXcXlX!.@.V.!.!.2X0Xh.h.A.W.!.V.~.p.Q.Q.p.r S         ",
"    . :.tXwX! ( p X gXzXQ.y k +.9 . r P w ` 0 I ZXLXPXNXZXnX( PXPXLXAX+ + 6 eXtXj.gXPXLXCXSXLXCXCXNX+ 6 q.8 9 ^.^.(.HX`.T.L.R.T.R.`.HX`._._.`.`.`._././.$.k u O.#.#.x.z.x.c.= k z.z.7 = E SXzX!.0X0X0X9X~.~.0X!.!.!.Q.<XA.D.Q.,XW.!.!.!.!.2XzXzXh.VXO 9 { cXCXVXVXvX9X2X8X0XdXzXzXcXlXcXiXlXlXuXuXlXlXzXvX{ t.IXzXcXlXlXuX~.~.E.z.z.z.E.E.^.Q.p.j.5 : c b K.).R.R.).).'.R.R.R.).`.'.`.)._.).'.I.I.).R.`.).I.R.R.g g P.T.%.o.!.- 2 VX!.!.~.Q.!.A.V.Q.A.!.w.* * O.^.E.E.%.%.o.o.l o.R % @ 8 ) O.` 2X4Xw. .R h.2X9X4Xh.h.k.k.k.r.i.y.OX4X% cXVXW.xX4X0.H Q 0.( Y  ./ ` ` _ _ *.P H ! w r i.h.p.@.@.{ +.t.` $ A     ",
"    . nX3X3X2XrXnX& i.zXyXr k 7 r.tXLXCXBXCXVXNX4XBXLX .<XNXi.SXLXPXPX0 + rXPXLXCXBXSXSXwXNXCXnXgXCXdXp.9 iX$.o.%./.HX/.T.f T.R.R.`.`.`./.T./.`._.T./././.(.^.E.#.[ 7 = k i k [ z.z.u = : h.Q.~.0XlX0X0X0X9XuX9X0X0X8X9X4XyXyX0X2X9XQ.zXcXQ.8XzX9XVX: * X +.Q.<X<Xx.<Xi.w.D.i.t.V.A.Q.Q.V.Q.W.Q.Q.!.2X0XzX@.k vX9X2X9X9XlXcXcXcXlXlXlXlXzXdX9X8Xj.7 . h Y.P.g I.R.).R.).'.'.).).I.R._.`.).`.`.P.I.).R.R.I.R.T.K.b.T.b M.h h A.4 8 q.; a > u h k z X.O.h ) . . . z l z i h k k 9 U & L SXZXnX*.. CXCXVXCXNXBXcXNXNXBXVXSXGXCXCXGXVXCX2XO xXVX8XdX4Xq.y.h.w.g.i.y.i.i.h.j.j.h.j.UXj.e 4 tXyXp.z.p.p.h.O.w.H &     ",
"  < A eX3X3XD.( d.Z ` 0XQ.9 : 2XVXNX2XNXBXxXNXcXxXdX!.8X4X8X8X<X4XrXCXCX+ nXCXNXSXCXBXVXNXNXCXCXxXcX(././.HXHXvX/././.T.v v Y._.HXHX_.HXR.R._.`.T.R.R.T.Y.(.^.vXvXlX^.z.E.{ * 7 z.{ k 9 * . 4 E t.i.w.{ #.O.O.w.@.O./ R K O.+.+.+.O.@.Q.Q.O.* h.<Xx.% % 4 . . o 6 R / rXrX6Xp.@.@... . .e.u.i.y.y.0.` q.i.y $ e e 4 w : 5 ( i.w.q.w.w.w.i.w.+.{ o : %.x b d v I.'.U.).`.'.R.'.'.'.R.R.'.).R.R.g ).I.m.I.R.I.v P.R.Y.b > h 9 7 $ & k.{ 0.j.k.k.OXrXAX<Xj.d.d.e.Z . X l p.p.w.@.8XR # :.LXZXZXNX>.BXBXnXNXhXxXgXdXiXiXiXcXxXdXcXcXdXBXt.O 8XcXiXcX9X9XxXzX8XgXxX9XzX8X!.dXdXcXdXcX0Xe # 0.@.#.@.@.@.@.@.@.e @     ",
"  @ q 3X3X4X2XQ.R p xX2Xp.: 6 dXNX6Xy.hX6XrX4X<XCXNXF.xXgXNXNXsXZXF.,XJX+ NXg.rXBXNXxXxXNXxXCXgX4X!.!./._.R.Y.n.R.R.T.Y.f P.R._.`.HX`.`./._.`._.T.R.P.R.T.T.(./.(.(.^.E.~.lX^.@.. = : 9 $ $ 6 1 t o * 7 7 7 7 1 * * : 7 7 u t 9 7 : : * = 7 u U y . % * * t y t K K U q.q. ./ ) / R R / ) ` ' I ] r 5 6 X 1 6 t 1 # % t I r 1 * 6 7 7 * 7 k u u : E $.> o b R.R.'.).'.'.).U.'.).).'.).).g I.I.).R.P.R.P.b.g b.L.Y.L.M.s O : r - 0.BXgXtXNXVXNXGXGXLXSXGXLXLXGXGXBXh.Q.!.k 0XGXLXj - | JXnXjXNXmXNXBXpXjXhXgXxXgXsXsXsXsX6XrXhXhXhXxXD.& NX8X2X2X8X8XdX2X2X8X2XW.2XBX!.dXiXcXlXdXNXJ % g.t.p.#.#.#.#.O.K * %     ",
"  + . +X#X+XtXgXOXD.4XdXyX7 p VXNXgXgX4X3X6XwX4XhXF.1XrXrXsX4XjXNXmX4XZX@ nX1XNXhXfXsXjXfX4XgXhX,XsXVXlXHX_.v R.R.R._./.T./.`./._.`./.Y.T./.HXHXHXHXHX_.R.L././.Y./.Y.^.%.Y.(.(.E.U # # % y 7 o 7 7 U ) U E { U U U U U [ O.[ [ { [ [ [ { K y U y 6 o % # y 6 * . . . 6 * * 4 6 r w r t 7 t t 0 1 1 $ $ 6 6 $ 7 1 4 I ] U k k U k K k u k [ 9 7 * * . . v P.I.P.R.R.).).).'.R.R.R.I.P.I.g v P.R.P.R.).f P.f v v T.Y.b c 7 R 5 $ <XtX<X4X2X8X0X9X~.!.0X8X0XdXzXVXVXVXVXcXzXVXVXgX6 2 ;.JXjXhXmXfXhXfXfXnXgXgXjXsXgXsXsXrXrXsX6XjXNXgXNX% CXrX6X7X8X2X4X6X1X2XW.1XA.A.!.iX7XV.!.Q.rXJ 6 ( Q.V.t.#.@.O.{ r $ 4     ",
"  + q q m d.#XeX+XfXg.,X<X6 8 8X1XsXrX2XwX1X1XOXa.OXnXBXjXwX6XnXmXwXjXnX8 S.pX6XnXjX6X6X4XrXsX4X1X7XVX~./.Y.R.T.R.T.T.R._.T.R._._.R.R.R.T././.R./././.`.R.R.R.T././.Y.(.^.(.^.^.^.~.{ 7 { K #.{ o % r K E { U k y y k k K E #.t.{ 9 y = * o * . o 7 7 9 7 9 u 9 9 7 7 = = 4 : 7 U 4 9 7 r k 1 B B t # * % # = u l y : 7 u y y k k k E k 7 . . h b n g g P.U.P.I.I.g m.R.I.I.T.g K.T.K.P.m.K.I.g I.R.b.b.K.L.b.v Y.g > c U +.% & nX4XW.rXdX8XdX8XiXdXcXzX8XdXcXiX0XiXiXvXVXxXdXgX# 2 ^ DXfXfXfXfXfX5XsXfXsXsXfXfXsXfXfXsXwXwXsXhXNX6XZX% NX6XF.6X8X,XW.W.D.W.1X7XW.A.D.1XQ.g.p.h.D.2 & : E.z.#.o.#.#.U * # q     ",
"  @ @ ! L C . Z C +Xi.h.i.r 5 rXrXsXsX4XwXfXwX3X3XOXOXfX3XpXfXjXjXF.6XnXf.;.pXsXBXBXjXhXNXVXVXNXBXCXgX7X> c T./.n.n.R.R.HX/.T.Y.T.R.R._.R.`.R.P.P.I.I.R.).R./.T./.T.(.(.^.(./.(.M.E.E.U * w.Q.{ o . E Q.Q.Q.h.i.p.p.x.x.p.E.z.p.#.t.p.t.E o O y [ [ [ [ [ } } } } x } } y * o K t.E.z.$.$.p.z.^.[ E 4 . . : p.p.#.#.$.E.z.$.$.$.o.$.$.$.E o d v.P.P.U.I.U.R.R.U.K.P.g m.P.R.P.f K.).R.P.R.I.m.P.P.P.b.T.Y.n.d n.b z h 9 : : 2 p tX4XrX8X8X8X8XiX8XiXdXzXvXdX8XiXzXdXiXxXBXsX!.2X+ - ;.ZXfXfXfXfXjXjXpXwXfXfXfXjXsXfXjXfXfXnXfXjXsXrXZX- VX1X7X1X1XW.!.F.F.7XW.2X1XD.W.2XD.W.h.g.D.5 # 9 z.z.#.#.$.E : U % Z     ",
"  + ~ 3XgXrX,Xy.. p 2X!.w.9 6 gXrXdXsXrXgXwX3X3X3XwXwXsXfXpXfXhXfXfXnXmXeX| ZXBXBXBXBXNXNXBXNXxXBX6XxXxX!.l Y.(.d M.Y./.T./.).).).R.R.R.R.R.T.g R./.'.).I.R.R././.Y.Y.(.Y.(./.Y.Y.E.^.$.h t.Q.k * @.Q.~.z.Q.Q.Q.Q.Q.Q.Q.^.E.$.E.^.~.~.lXvX* z } } } x x x x x x x x } } K # % : Q.0X$.o.%.b $.E.o.y x.K j 6 E @.0XlXE.E.E.E.c.E.E.E.^.~.h = T.P.U.U.R.U.U.U.R.U.U.U.U.U.U.R.P.I.R.I.U.I.I.I.m.R.b.K.m.P.b.b.R.n.O 9 > - 8 Y 6 tXdXgXgX1X2X7XiXiX8XdXdXdXdXxXxXsXdXxXxXxXjXsXhXnX- - ;.ZXnXnXhXjXnXmXnXfX6XpXmXjXpXjXpXfXnXBXmXmXsXsXBX2 hX1X6XsX2XW.W.2X7XW.W.2X!.2X!.D.F.1XW.,X<X2 # r Q.p.p.[ 9 : k 9 $ W     ",
"  , +XOX2X2X8X,X# g.8Xp.+.6 % 4XdX9XgXhXsXF.3X3XwXnXjXsXsXpX3XmXCXnXNXBXtXZ SXBXBXhXnXNXhXjXjXhXhXjXxXxXxXiX%.> 9 z /.T.T.R.T.R.`.R.T.L.T.'.`.R.T.R.P.T./.`./.T.Y.Y.T.Y.Y.T.(.%.$.E.E.~.k +.0XyXx.x.0XQ.z.z.E.x.~.E.z.Q.E.^.~.uX^.^.E.^.uX= } x } x x x x x x x x x } U y % # : 2X@.o.$.$.%.#.@.uX[ Q.cX^.$.s %.vXvX%.l $.$.$.c.$.$.E.^.9 > /.P.I.P.K.U.U.U.U.R.U.U.P.U.U.U.I.I.K.g g K.m.P.P.I.g f b.b.b f v c s > ..q.| e.X rX8X6X6XW.2X7X7X8XdXxXiXiXgXsXNXgXxXxXsX6XiXsXsXZX2 - Z mXjXaXaXmXmXmXmXmXmXaXaXjXhXjXpXpXjXhXjXmX7X6XnX- 6XgX7XsXxX7XW.W.6X7X7X7X7XW.W.2X6X2XA.p.q.5 # e.+.U y . 9 K j - & ~     ",
"  < e.,X2XW.W.p.r sXdX@.) % X rX1XW.gX1X8X2X3XOXhXrX6XxXjXsX6XBXNXZXNXZXqXC SXhXjXhXhXsXjXjXhXjXsXxXxXsXxXvX .E l %.T.g L._.Y.Y.Y.Y.f L./.`.Y.R./.K.P.Y.Y.Y.v g Y.Y.%.b %.%.b o.z x $.o.o x.z.$.x.z.z.Q.~.E.E.z.~.E.z.z.z.^.E.^.^.E.^.~.cXk E [ } } x x x x x x x x z k u * # r O.) p.@.O.@.#.Q.Q.u o.lX%.b Y.^.$.z l z l [ E #.@.t.E t.K u d b L.K.I.T.P.P.I.I.K.f g I.R.I.P.g P.b.b.P.g I.m.T.f g v c O 9 7 9 9 : w.u.3X3X& rX2XW.2X2X2X0X7X7XxXhX6XsXsXsX7X6XsXiX6XsXhXsXsXmXC 3 wXnXaX$XaXaXjXmXmXmXjXnX&XqXqXaXpX5XaXpXpXpX1X5XnXG.F.jXpXfXjXF.7X6X7XW.F.F.D.W.F.6X7X,Xi.Q.S.q $ 2 @ # k o.[ [ 6 * + &.    ",
"  < W a.W.Q.A...w D.g.y...6 & 3XsXfX6X7X8X6X6XsXZXfXsXhXhXfXNXhXfXmXmXmX;XF JXmXhXBXhXhXhXhXnXjXjXfX6X4X8Xg.W.8XE.^.T.L.P.L.b.g L.L.c c n.L.L.L.K.K.K.P.v L.T.R.T.Y.(.%.i i z h u k 7 o : +.z.^.z.E.^.^.E.E.^.E.^.^.E.z.z.E.z.z.^.E.E.E.0X$.: k [ } } x x } } x x z y k 7 1 # 6 w.@.l o.$.$.%.#.E.k o ^.%.b b c E.E.%.l l E l @.O.p.+.{ 7 : . = d d b.P.v L.v g b.K.g P.P.I.g b.v g b.g P.P.b.b.v d s . O O : * $ . P d.#X,.8 gX,X4X7X7X7X8XiXhXdX8XsXsX6XsX6X6X6X6X6XsXhXhXhXBXS C LXmXaX=X&X$XqXpXpXaX$XqXaX&XqX&X1.5.Z.$X#XpXOX3XNX1XZ ZX6XwX1X3XOXF.G.V.F.G.OX1XF.D.F.8X8XQ.a.8 2 4 { #.z.c.o.[ * # . -.    ",
"  @ ! OX4X2XA.8 J g.q.) :.6 # g.4X7X2XQ.!.8XsX2X1X8X7XW.V.F.OXF.F.OXOX&X|.F MXfXjXmXBXjXsX6XwXgXsXrX6XrXW.,XW.A.lX%.b T.Y.v T.T.T.R.d > T./.P.v f v n g T.Y.T.T.v L.Y.%.> : . % . . . . . { 0X9XE.x.Q.~.^.E.E.^.^.z.E.E.E.E.E.z.E.z.z.E.~.0X% o k E [ x } } } } } [ E [ 7 5 6 K Q.^.E.%.E.E.Y.b c.uXO 7 E.b b b n.n.Y.M.b Y.o.E.l 9 u 7 O * 7 u = x b v v v v v K.R.f d f g g K.b.L.v v f b.Y.n.M.> z h ; % 7 . . Y a.pX3X;.C 2X2X7X7X!.8XsX6X8XhXpXsX6X5XsXsXhXpX5XfXjXpXjXkXfX~ q aX$XaXaXaX&XaX&X$X$XbXnX@XaXaXaXpX$XbXjXpXkXpXa.u.S V nXZ.$XF.F.G.5X$X1XpX5X5X1XV.F.F.u.D.q.g.$ # $ @.[ [ l y o . X % -.    ",
"  < ! ,X4XyXh.r R i.J r w 5 % y.g.y.t.Q.Q.Q.A.w.u.@.@.@...| | ..>.>.>.1.G G 4.:.y.D.,XOXF.,XA.A.A.g.D.D.W.2X8XQ.O.. d b b d f L.R.T.v T.Y./.R.f d c b n b Y.b c %.b X . 9 a $.l x o.^.^.#.7 t.p.{ x.yXE.z.z.E.~.~.~.~.^.z.p.z.#.z.z.z.x.Q.0X{ o . % k [ U y u > > X . . . . . = l E 9X^.E.$.%.$.o.Q.9 9 Q.o.b M.Y./.^.(.Y.Y.b $.E.[ U u . o U o = > c c.Y.b L.L.K.Y.n d g P.I.g b.g g L.L.b.c h a s l c > * 9 +.y...,.S.C.2 ..gX!.!.!.6X6X6X6X,XG.F.6X1XwXwX6X#XqX#XqX#X5X5X5XqX^ Z qX$XC.aXnXaXaXmXmXmXDXmX=XbXMXmXaXJXZX&X$X&X$X$XoXA F &XZ.H.$XH.Z.u.C.oXG.S.a.>.oX5Xe.>.f.>.wXp % % . . . . + e I 4 4 -.    ",
"  , 0 <Xy.) O Y 2X8X4XD.! % % j J A.W.W.W.W.W.2X8XiXdXxXsXsXgXhXgXjXhXmXG G @X3X4X3X6XjX6XV.F.6XgXxXVXBXVXBXhXNXdX9XW.p.l d n.b.L.v n.v d d b d c > > z = . i h u = : o.^.Y.T.R.P.R.R.T./.^.= y . t.Q.Q.$.$.z.#.z.p.#.$.@.p.p.Q.Q.x.z.x.#.p.#.#.I . o t . , Q AXNXZXZXCXCXCXCXVXVXcXQ.uX$.l o.z o.#.9 O : k O.O.h o.E t.t.p.Q.Q.i.UXi.r.{ w.w.w.E j + O . > b v P.v f L.g ).v f v d d c b b b . h z c $.k = : R ` p e ^ ^ q q y.y.a.u.f.S.3Xj.eXtX3X,.,.d.S.+Xd.f.,.^ A A A A | A A V F F N.-.;.| -.7.*X&XXXoX@Xs.<.5.oX4.}.}.|.}.F G F G V -.-.4.Z.Z Z e.Z C L Z - ^ T q p ^ ..0.5 # . P q.w.t.i.0Xj.: % S     ",
"  < 2 j.U k 9 w.!.cXdXW.C 5 p rX2XW.0XW.8X2XdX8X7X8X8XiXiXdXhXVXVXVXVXDXF F DXDXBXNXjXBXmXfXDXDXBXDXSXSXVXVXiXxXxXBXcXcX9X~.M.n.T.g g f d c d c b > > l O : k u o O $.(.T.m.m.K.U.I.K.P.b E.X l lX~.$.#.Q.Q.Q.0X9X!.7XdX8XvXzXVXvXvXlXlXvXvXuXuXxXtXX . tXLXPXPXLXLXLXPXLXPXLXPXPXPXLXLXIX~.. 9 E.E > 9 . . 6 y x.yX0XCXGXGXGXGXCXVXCXGXGXGXGXIXVXIXcX0Xj.% d b v f g v f L.f c c ; h = O ^.d b c z O 9 9 9 o . % D.eXeX2 + . A.NXjXmXmXjXZXZXBXZXmXjXZXZXZXDXDXDXDX#XmXMX=X;X|.G ;XMXbX;X;XMXMXbXbXDXJXDXmXqX&X< -.pX-XaXaX=X=XaXaXF V :X%X XN.XX7...5XBXJXZXrXnXa.>.>. .,Xq.( t $ # W.!.!.Q.p.p.t.[ 9 # S     ",
"  q % 8 R R : ( y.W.D.q.w e ` 2XrX8XW.!.W.A.A.W.1X2X2X1X2X7X2X7X7X7XiXsX.XF MXjXrXsXG.F.jXNXjXsX7X7XW.!.8X8X2X8XW.!.2XQ.!.zXlXo.c c d d d d h o.> = . 4 r . 6 7 : o z %.T.T.b.I.I.I.`.R.R.L.Y.Y.vXY.d ~.z.~.0Xz.@.2X7X!.Q.0XQ.0XE.E.V.^.~.9X0X8X<XNX. +XPXLXZXAX4XyX4X8X2XlXQ.Q.!.9X0X9XzXcXh.K O.h 9X2X9 NXdXdXNXzX8XdXNXzXzX9XzXzXzXzXvXVX9XcX9XuXcXcXCXVX{ . = d b v f g b ^.O X # O > %.c Y.z . X # & % q T | u.OXa.- % # a.1XF.H.kX7XH.5X$XH.$XH.H.-XH.H.H.$X-XH.$XkX$XaX}.F ;X$XbXMXmXmXMXmXDXDX=X@XH.N.1.8.aX@XN.@XH.Z.-XH.-XH.A -XbXaXaX$X&X$X$XoXmXJXs..XC.oXs.Z.fXmXgXJ O & g.A.E.#.[ #.#.E 9 # N     ",
"  ^ + 4 / R j ) w.g.h.D.w 6 q.W.2X2XQ.W.!.W.,X,X1X2X,X1X,X,X1XF.F.1X7XpX5XA ;XaXpX5XG.sXhXhXfXpXjXfXsXsX8XiX8X8X8X0X9X0X9X2X8X9X9 h h s > > . . . % [.[.nX*.# * . 9 X o.v g R.R.I.`.`./.R.L.R.R.I.b > #.~.lX9X9X0X0X!.2X2X!.Q.2XdX8X8X0X~.0XlXdXtXj.2 PXPXCXrXBXNXNXNXcXxXBXxXxXcXcXcXzX2X9XVXSX<Xk SX0X9 xXdX8X8X<X<X0X4X,XW.Q.9X9X8XdX8X6X2X9XzX2XcX9X0XvXVXh.. . > h l h > . o # . . . . h z z o.& % 0 q f.C.;.5.3Xd.$ % % OXpXaXkX7XpX7X5XkX5X$X5XkXjXkX-X5X$X-X-X-X1.$XbX}.F ;XH.$XMXaX-X$XH.@X@X&XH.-X$X@X=X&XZ.XX%X@X@XZ.@X@X3.F @X@XXX@X X XXX@X@X$XoX7.Z.Z.7.4.5..X<.C.d.# X ,Xy.Q.E.$.@.{ R 5 % V     ",
"  2.@ r  .+.) ) A.<Xh.+.w w w.2XQ.Q.W.2X<X<X2X,X1X1X1X3X1XF.OX1XOX1X5X1XoXF bXpXhXa.1X6XjXfXpXfXhXfXsXsX8XiX8X8XiXdXdX0XiX0XdXcXk ; l h ; : O %  .+XnXAXeXAXt 1 ) { O h d Y.Y.K.L.L.f f b b v P.n.n.V.Q.9XzX0X~.9X~.0XiXcXvXvXiXiX9XcXcX0X0X!.iXNX! Z PXLXnXnXZXBXNXNXNXxXzXVXVXvXvXVXVXxXcXcXVXGXw.vXVX: g.8XdXgXxXcXcXcXrXdXdXrXgXdXdXsXhXxX9XzXQ.yXcXyXzXzXzXj . & . . . 4 { xXNXyXq.i.R : o.k ..X q >.<.7.Z.Z.<.eXk.% 2 % S.$X$XkXqXjXqXpXkX$XkXmXjX$X$X5XkX5XH.kXmXH.Z.aXJ.F MXmX$X$X-XH.-X@X@X-X&X-XaX&XoX$X@X-X-XN.-X-X-X@X@XF G N.XX%X%X@XXXXXXXXXZ.N.XXXX.X7.Z.1.1.| S.e.& + j.A.Q.z.@.) ) P % $       ",
"  s.+ H D.A.q.w.W.2X8X<X5 r w.2XW.W.W.W.2X8X2X2X2X2X1X7X7X1X6XS.C.S.u.>.| A &XfXBXpX6XfXjXpXhXjXjXjX1X6XiXxX8XiXiX8X8X0XiXiX2XcXO.O 9 6 k 6 7 L eXnXbXmX[.[.t 1 { : . . > d b c > > . > ; > > M.d M.lXlXzX9X0XlXiX0XiX9XlXcXlXcXvXcX9XvXvXcXlXiXZX0 eXPXCXgXxXBXNXNXNXVXvXvXcXVXvXVXvXcXNXBXxXcXVXdX) 0X% A.dXdXgXdX9XzXcXdX8X8X9XdX8XgXdXdX9XdXzXcXcX0XzX8Xi.R K R . $ y.NXxXNXBXxXyX,X4XQ.r X % 6 - >.1.>.| 9.Z.f.3X! @ C @ fXqX$XaXpXqXaX$X$XkXpXqXbXmXjXqXkX$X5X-XjXkXaX;XF |.MXaXaXH.$X-X@X%X@X@X-X-XaX&X&X&X&X@X&X-X@XH.N.$X@XF G B.}.@X%X%X*XXX@X%X X.XXXZ.7.7.5.5.1.1.^ OXX + X p.E.o.[ E k r B $       ",
"  2.+ w y.A.p.Q.8X9X9X,X5 w y.2X2X!.W.W.0X0X8X2X4X2X1X1X6XNXOXT ^ A 3 q ~ ^ F.fXmXhXfXfXfXpXsXmXhX7X6XsX7XiXiXdX8X0X8X8X~.iX8XcXK - . R k . 5 + Z <.oX3X*.t * # R rX4X<X` ' O . : o z z d x > x > o.lX0X9X9XzXcX0XiXzX0XcXvXiXlXlXcXcXlX9XcXdXiXdX6 JXPXVXcXzXvXBXxXxXcXvXVXVXcXvXzXcXcXxXdXcXzXvXvX. 4X% y.dXzXcXdX9XdX9X8X9X0XcX9XdXdX8XdXdX8X9XVXVXh.U U O y 6 tX@.Q.VX2XW.Q.OXj.g.g.2X4XO.: . @ 2 | Z.-.9.| 8.+Xm . 6 5 $ eXaXkXmXaX#X$XpXH.$XqX5XjXmXmXjXjX-XH.-XkXkX$XaXF }.MXnXaX-X$X-X%X@X@X%X@X@X@X=X&X&X&X%X&X=X@X&XZ.-X%XF G %X@X@X@X&X&X&X@XaXXX7.8.7.7.7.-.5.1.^ u.NX& @ J E.#.l l o.[ k { %       ",
"  -.X r A.W.t.@.2X9X0X,X6 5 w.W.!.!.!.0X2X!.2X2X2X1XF.1XjX5Xq 2 | qXnXnXfX2 G.6XjX3XpXpXpX1X6XsXsXsXsXsXsX0XdXdXiXiXiX0X8X8X8XxXY : w.q.y.i.g.i.) H . . y ) $ . 4XtXwXeXgXnX,XW.O = o.h x d z ^.= k @.2XzXzXiXcXzXzXdXzXcXiX0XiX9X9X~.iXiX8X7XiX9Xw PXLXVXcXcXVXBXcXcXBXvXcXcXvXcXzXcXxXVXzXcXcXVXVXO.p.- y.cXzX9X8X9XdX2XrX8XsX8X8X8XdXdX8X9XcX9XzXNX8X. : 9 U h.K Q.cXGXA.h.yXrX4XD.S.g.4Xi.. / y.S.oX-.N.%X.X>.T E t.uX9X% f.qX$XkXjXpXqXaX5X$XjXnX5X$X5XjXmX5XH.H.jXH.$XmXF =XmX$XmXaX-X&X&X&X%X%X=X=X&X&X&X%X%X%X&X%X%X=X=X&XV F G =X=XXXXX&X&X@X@XZ.Z.@X X8.4.-.9.<.Z.| S.4X# # % e 9 K k { { 9 9 *       ",
"  <.X p 4XW.@.U 2X2X4XW.: 6 @.Q.Q.0X!.2X2X!.W.2X2X1XF.7X5XG.p ..ZXDXnXNXnX- 1X7X1X5XpXfX6X6X6XsXsXsX6X8XiXdXiXdXdXiXiXzXiX8XiXBX8 T GXGXVXNXxXNXgX9XtXi.. 7 4 ) D.4Xd.+X3XtXtXCXQ.> l i . : [ = X q.q.t.VXvX8XzXzXzXcXzX~.iX9XiXlX0XdXiXdXlX0XxX,Xe PXSXBXcXBXVXVXBXBXBXBXcXcXcXcXcXzXcXvXvXzXzXvXVX~.@.% J NXrX8XrXrX8XrXgX8XrXxXhXgXBXdX8XcX9X8X8X9XcXj $ $ $ 4 # h.NX9XE.0X0X8X0XrXrX4XyXR r cXVXBXZXOXqXZXZXT l lXlXuXvX6 ( pXqXpXqX#XpX6XpXnXmXmXkXkXkX$XpX$XH.5XH.5X5X@XF %XaX$X$XpX&X&X@XXX@X%X=XbX&XN.XX%X%XXX&X}.@X=X@X*X].F G }.@X}.%X&X%XXX XN. X X8.7.7.7.-.-.<.;.>.0.. + % . # % . . . w P 5       ",
"  -.X p D.A.w.O.2XdX8X8X5 7 i.0X0X9X8XW.!.0X8X2X8XW.2X1X1XG.dX8XVXVXhXxXtX@ 1X1X5XfXpXsXsXjXjXsXsXsX8XgXxXvXiXiXdXcXiXiXdXiXzXvX; W.BXdXQ.g.A.Q.W.Q.0XNXx.) x.NXnX4X+XOXOXeX4X4Xt.9 > u > O @.+.r D.rXy.w.0XxXcX9XcXVXcXzXiXlXlXlX9XlXSXlXcXvXVX' w PXBXdXzXBXVXcXxXxXBXVXNXxXcXcXcXcXcXvXvXvXcX0XO.9XdXp J NX8X8XrXrX8XgXdXgXcX6XdXdXgX8X8X8X2X2X8XdXdX4X4 . . & r IXcXvXvXp.~.iXcXrX9XzXcXE t w j Y / ! C ! P # @.E.^.E.~.K ( fX#XqXjXnXpX5XjXjXkXkXjXkXkXkX$X$XZ.5X5XjX7X8 S Z.jXaX$X$XoX-X@X@X=X=X&X&X=X=X&X&X*X%X@X@X@X=X}.*X:XF G @XXX@X%X%X*XXX XN. X7.8.7.5.1.1.1.~ s.:.K E $ . & & 7 U E U Q.O.e       ",
"  -.X Y ,X,Xy.t.0X8X2X2X7 r h.Q.Q.@.W.iX!.V.p.p.p.2X!.6XW.2XBXBX6XBXBXrXgX- 1X1XgXsXpXjXjXhXhXjXgXsXdXiXiX2XiXdXdX8XdX8X8X8X8XdX6 W.A.i.i.D.D.Q.W.Q.8X8Xh.<X8XtX+XOXOXOX3X,XtXyX9 = u k = 9 i.j.e.OXtXD.. : p.NXcXcXcX9XVX9XzXcXlXiXcXvXvXcXzXcX0.4 LXGXdXzXcXBXBXcXcXvXNXxXxXcXcXcXcXzXcXzXt.Q.O.E GX!.9 8 dX8XsXgXiX8XrXdXgXdX8XrX8XrX8X6X6XsX8X8X2X2X4X,X) ) % 5 vX~.vXVX!.!.8X0XW.!.W.j.0.4 5 j.4X4XeX5 . . : #.x c.#.o.w.( oXC.oXaXjXpXaX5XkX5XH.7X$X7XpXH.$XH.7X7XkXH.8 - 8 nX5X&XoX$XXX-XaX&X@X&X&X&X&X&XXXXX*X%X@X@X@X&X&X;XF G %XXXXX&X&X%X*XXXN. XN.N.7.9.4.<.-.^ Z _ j U * <XQ.h.z.Q.uX0Xu j *       ",
"  <.X / ,Xh.w.( D.W.D.A.r w w.@.p ) a A.@.k .. .J @.E w.V.F.8X1X..a.wXS.OXr G.jXsXjXsXjXsXsXsXsXsXdXiX8XdX2XdXxX9Xy.i.@.A.W.W.xX% j q.J q.q.u.y.A.W.!.h.W.tXwXOX+X+X+X+X<XyX8X/ % U 7 = 9 9 8 ;.>.OX4X` $ : . ( 9XzXcXzXcXlXiXlXlXlXlXcX9XcX9XcX*., k.PXcXtXcXNXvXcXvXcXcXcXxXcXcXzXzXzXzXzX0X9XcX9Xp.O.T X xX6X8X8X8X2X8XdXdXdX9X2X2X4X4X1X6X8X6X2X!.2X6X8XzXCXr r IXvXvXlX9X9X8X!.!.0XA.2XrX .>.nXBXNXZXj.% # u } } ^.uX0Xj q ~ s.1.$XqXoXC.&XZ.H.H.H.$X5X$XH.6X$X7X6X6XF.u.p < qX#X$X#XqX$XaXoX&X&X&X@X@X&X&X&X%X%X%X*X%X%X%X@X=XF G @X@X@X@X@XXXXX X6.N.}.N.8.3.3.A -.^ p 1Xk O : yXh.p.p.#.p.t.t y 4       ",
"  &.+ p q.y.@...( A.D.h.9 5 K E E K k  .k ..w...E T T  .+.(  .q.( ..p J ^ C ..6Xg.W.gXhXjXjXsXsX6X8XsXdXdXgXhXtX2XA.2XW.K t.9XdX. yX4XW.g.g.D.W.p.Q.t.9XNXNXwX3X3X<XrXyX<Xh.K 9 E #.o.@.u U P  .! j.j.r * 4 : . ) VXVXzXiX~.iXiXlX9X9XiXlXlXiXzX0., . LXVXcXVXVXVXVXVXVXvXcXcXcXcXxXcXcX9XzXcXcXvXcXQ.+.Y & ,XgXgXzXgXxXNXxXNXNXBXgXgXhXxXgXgXgXgXdXdXhXsXhXdXNXy.j GXvXzXcXzX9XdX0X~.0X!.xXVXG.u.mXfXwXNXBX. o #.c.c.z.~.~.O e f.+XZ p #XMXbX#X#X$X$X1.pXmXqX#XkXH.F.jXkXF.a X.X.X.5XpXqXaX$XoX@XXX@XXX@X=X&X&X&X%X@X@X%X@X@X@X@X&XF V @X@XN.XX}.}.}.N.8.6.9.3.3.9.-.<.<.;.q 8 & 4 . { Q.#.t.#.#.+.P r *       ",
"  &.% ,XyXyXQ.Q.i.w.h.h.H 6 ) @.O.p.A.p.p.V.A.Q.V.g.Q.W.A.+.y.A.G.A.y.u.T 8 p a 8 k  .,XF.F.OX1Xa.u.D.F.F.A.u.q. .. q.h.j r ) K O y j t.@.@.y.<Xh.@.4 / 4X4X,XrXrX,XtX<X/ . . k u . k t.. X 0.nXj.<X1 . . . : . j CX9XBXvXVXVXvXVXlX9X9X!.~.~.yX4X. . . 9X0X9X0XuXzXcXzX9X9X0X0X0X2XQ.!.Q.W.Q.t.V.W.h.+.5 : e rXtX<XyX<X<X<X<Xj.g.j.j.y.y.0.r.u.y.r.y.y.y.y.y.e.! 6 NXyXh.9XgXgXwXwX6X2XA.zXSXsXF.wXwXwXtXVX{ 7 z.c.z.c.z.z.7 Q f.f.~ >.eXhXa.a.,X7X4X3XwX5XG.sXhX6X!.iXiXu.X.z l ^.M.V.u.Z.Z.Z.5.7.Z. X&X=X%X%X%X@X@X@X}.}.N.8.6.%XF G F F | A -.-.-.S S &.9.9.A -.-.5.1.0 2 @ % . R Q.h.E O.O.{ { P m *       ",
"  Z J BXCXGXVXcXNXcXyX8XJ : t.O.@.p.@.E ..E O.R @...@.@.9 k k T T ..V.....- . T y.A.Q.i.: 8 8 K y.i.i.i.y.h.Q.Q.<Xy.w. .R i.Y h...O.p.t.p.Q.h.w.@.9 X 4 9 U ) y.j & U { { +.@.Q.VXVXVXvXVXCX# / CXCXVXVXNXNXcXzXzX0X!.VXGXCXGXGXGXzXW.NXVXW.yXNXj.0.xXGXGXGXCXVXVX9Xx.0XyXzXdXyXzXzXNXVXcXNXcXW.9X8X{ P r 5 * . H yXtXtXgXgXgXgXgXtXrX4XNXBX8X2X4X4X<X4X<X4X<Xh.o X U { w.i.r.g.d.a.g.g.w.h.D.rX4X1XW.<X<X4XtXt.{ } } } l 7 O ` p r R k X.X.9 h : 9 T +.( J 9 J  .9 9 l h h o.c b n.P.n.n.b d z a p S A A | A | A A A | -.| p A G F G S A ^ S S ^ | | Z..Xs.*X.X;..X<.f.OXu.X @ @ q.2XQ.Q.Q.O.) { ' ] e 4       ",
"  q r 2X0XVXVXiX9X0X0X,X( 6 j 9 r r 7 E u E k k O - 8 p p J .. .q.2X2X2XW.H # @.W.zXiX9Xi.. & BXGXSXVXVXVXSXSXvXBXVXvXvX8X8XhXD.K @.cXO.O.l 9 6 : 7 : . ' . K R cXQ.cXVXGXVXGXGXGXGXSXVXLXGXX E GXVXvXcXcXcXiXcXzX0X9X9XcX!.!.8X0X0XdXcXxXcXcXVX. 4XPXLXLXLXGXGXGXVXvXGXSXzXvXGXSXVXBXGXGXGXGXGXGXVXVXtX- C $ D.CXJXCXSXSXSXLXSXVXBXsXjXZXNXsXsXhXhXhXZXBXNXrXcX6 { <Xp.0XzXdX2X4Xg.4X2XiXzXlXVXVXVXvXVXVXxXcXVXVXNX0Xx.K . h.SX0XV.V.$.V.!.~.iX7XiX!.W.!.!.E.V.. o k i > %.Y.M.n.c g b.n.n.n.n.n.M.M.n.c z 1.C.1.8.#XbXmXnXaXaXaXoX< q aX&XXX&X&X&X&X&X&X&XZ.oX#XoXq | 3XpXf.@ $ <Xq.E Q.Q.p.O.{ r.0.K 6       ",
"  0 - @.w.Q.2Xp.t.V.2XW.w.: : e & - r #.o.k ; Y .. .>.C.F.OXOXF.F.C.F.q.e.p - rXxXdXdX8XrXY O  .BXdXdXdX8XQ.2X7X2X2X2X7X2X4X6Xq.H ) k = . . : : . X o r { dXdXcXVXlXlXlX9XlXzXcXzXcXzXVXCXW.O 9XvXcXiXlXcX9X0XiXiX0X0XcXdXcXzXzX9XdX8X9XzXzXiXCXw r GXdX8XSXxX8XrXxXdXdX8X2XdXzXxXdXVX8XzX8XdX8XxXdXdXgXC r $ gXSXDXSXCXVXNXnXoXOXwX3XeXoXC.pXpX5X5XpXnXwXwXrXxX5 NX4XQ.t.E.iX0X+.i.cXcXvXvXvXvXvXvXcXcXzXlXzXvXcXvXcXcXyX$ q.BXZ.$XkX1XF.V.V.~.8XxXxX!.!.V.V.iXp.9 9 u : z b b b Y.T.P.b.n.T.T.P.T.R.T.M.a | | Z.oXoXbXpXpXqXC.#X#Xq -.N.-.N.Z.XXXXXX XXX.X.XZ.#XC.^ C.F.+Xa.- @ ! / +.@.O.O.+.+.h.{ U 7       ",
"  2 % k @.p.p.p.Q.Q.0XV.p.# j U X & 5 j #.> i.D.F.a.a.C.S.S.S.S.oXoX#X#XOX2 $ JXgXrX8X8XrXhXW.W.sXsX2X7X8X2X8X8X4X2X2X2XsXrX4XgXJ : ; O % 9 o k l Q.x.zXcXcXlXzXcXlXzXzXuXlXlXlX9XzXzXcXzXR X LXvXcXlXcXzXvXcX9X9X9XzXzX9X9XzXcX0X9XdXxXvXzX8XdXw ( BXxXBXxXNXBXBXNXgXdXxXxXxXgXxXNXBXNXxXxXxXBXxXdXdXgX/ , 2 NXZXBXmX5XOXa.<.| nXmXqX3X#XfXfXpXfX3XhXjX#XeXrXrX+ 4XzXvX!.) t.i.h.Q.0XlX9XzXcXcXzXzXlX9X9X9XzXzXuX9XiXzXtXw ~ LXoX&XaXH.!.~.^.E.^.!.V.W.A.X.W.!.iXQ.: > 9 h c M.b b T.R.T.T.b.I.I.I.P.Y.M.M.X.| 5.oXZ.qXqXqX#XqXoXoXq bX*X*XXX7. XXXXX.X XXXXXXXZ.Z.8.&XC.a.d.@ & ( q.q.w.) q.+.0.{ I U 7       ",
"  q 8 E E #.p.p.p.t.V.w.t.u : O X # o : j w.u.u.S.f.C.S.S.S.S.S.oXoXoXOXeX! 6 CX4X8X8X6X6XW.8X7X8X8X6X2X6X4X2X4X2X2X2X2X7X2X4XxXk j O.= o . p.~.^.vXzX9X0X0X9XlXzXuXzXlXiX9X9XcXlXzXzXzXNX2X: GXvXvXlXvXiXlXcXiXiXvXvXzXcXcXzXiX8X0XdXcXiX0XiXdX6 q.BXBXxXcXxXxXxXBXcXcXxXxXxXNXNXBXBXNXxXgXgXxXxXdXdXgX` 6 J LXDX&X=X@XXXaXwXmXhXxX6XG.H.hXjXfXfXjXjXjXfXfX3X! H 4X0X0X2Xh.h.h.h.E.Q.E.!.Q.!.0X9X9X9X9X9XtX9X9X8X9XzX9X0XK ( LXBX5XF.G.V.V.^.E.V.A.!.F.V.V.H.!.X.!.k X ; c Y.T.n.n.n.P.T.T.T.T.T.n.P.T.n.c a A s.oX#XqXbXbX$XC.oXC.2 &XXXXX*XXX.XZ.s. Xs..X.X X7.7.XXZ.1.C.OX@ + _ w.+.+.( (  .' ` U K 7       ",
"  q g.A.#.E p.E.$.@.V.V.w.@.7 : . O o r OXS.a.S.S.S.a.a.S.S.S.S.oXoX+XOXOXy.r VX4X4X4X,X1X2X2X2X7X2X7X4XsX8X2X2X2X,X2X8X,X2X4XsXk % 7 7 O ^.uXlXlXzX9X9XzX9XlXlXzXiX9X9X9XzXdXzX9X9XzXzXNXh.j VXzXlXcXcXiXlXvXcX9XcXcXzXzXvX9X0X0X!.9XzXzX2X8XgXp <XSXBXgXNXNXxXxXBXBXBXNXxXxXxXBXBXBXBXNXxXxXxXxXxXdXgXy.2 Z JXaX| qXnXZ.8 hXLXDXFXjXH.1XBXZXZXD./ y.NXfXfXfXf.hXsXE.!.2XyXQ.yXw.h.Q.!.Q.!.!.h.0XQ.yX0X4X4X4XyX8XdXlX9XcXj.4 VXA.G.W.G.!.!.!.V.A.!.Q.Q.Q.V.!.!.V.%.a k O > z f n.Y.Y.n.Y.Y.T.Y.M.m.M.M.a a ..1.qXoX#XqX&X*XoX.X.XZ.A oXXXXXXXoXXXXXZ.s.7.s..XoXZ.s.oX#XC.a.d.;.@ r i.p.p.p.{ { { { U / 5       ",
"  q / W.Q.p.o.E k h #.p.t.p.7 X % R j ` d.>.T a.S.d.a.a.C.a.a.S.+XOXoXa.S._ e BX4X,X4X,X2X,X1X6X2X,X,X2X6X,X2X2X,XD.,X,X2X4X4XrX8 % j E u vX~.uXuXuX9X9XzX9XzXzXzXlX9X9X8XdXzXzXzXcXzXcXNXyXk VXzX9XlX9X9XiXcX9X9XcXcXiXzXzX9X9X8X9X9XiXiXdX9XdXw j.BX1XxXBXNXVXBXCXBXNXBXBXxXgXBXNXNXBXNXNXxXNXcXxXcXBX,X2 eXJXeX^ ^ <.| Z.5XjXSXDXhXjXZXVXCXNX4 4 . ` NXfXnX#X,XNXQ.E.!.W.2X2XO.@.A.Q.Q.!.Q.p.Q.cX9X<XyXyXyXyX2X0X0X8XcXp.% NXyX0X0X8XhX7XW.A.V.V.V.V.V.M.M.M.c [ = E 9 R s z d f b b b b c c b c c a > p H.C.C..X.XC..X*X*XoX.XS A &XXXXXoX.Xs.s.s.s.5.5.s.oXoXC.C..XC.u.f.f.@ + 0.+.p.@.@.@.@.O.K U 6       ",
"  Z Y ) K y r 9 9 k y 9 9 r . e j.D.D.y.g.u.u.u.S.S.a.a.oXS.a.a.a.a.+Xa.S.q.Y NX4X2X<X<X1X1X,X1XF.F.,X2XD.,XW.,XW.,X,XW.,X2X,X,X6 $ r . = lXuX~.uXuXzXzX9X9X9XlXiX9XzXzXdX8XdXdXzXcXiXcXxXcX9 VX9XlXiXiXdX9XzXcXxXcXcXzXcXzX9X9XiXcXdXE.8X7XW.rX` q.NXNXdXVXCX4Xg.4XSXBXxXNXBXBXBXNXNXNXNXNXhXjXgXhXiXxXg.2 JXSXfXmXpX#X5XDXaXS 1.aXnXfXrXD.rX4 . 5 r . rXnXNXsX3X4Xp.p.<X9XD.h.Q.A.h.8X9XyXyX+.h.cX<X4X4XyX0X0X0XyX0X0X8Xw.: BXNXtXrXBX!.A.V.W.A.F.V.V.V.E.^.M.O O k Q.y.rXT X.s b s s d s s s s ; ; l p C.C.>.s.#XOXoX.XC.#X$XC.q S #XZ.Z.oX.XZ.Z.s.s.s.s.f.s.s.f.f.C.a.f.a.y.% - 0.R U ) O.{ { ) { H $       ",
"  A e y k E [ { { @.O.E * . j j.g.e.f.d.a.f.f.a.S.S.+Xu.e.S.+XoXS.S.S.S.+Xq.r NX8XrX<X,X,X1X3XOXF.1XOXF.,X2X,X,X,X<X,X,XW.,X1X,X- - O o 9 lXuX9XuX9X9X9X9X9X0X9XzXzX8XzXzXdX9XdXiX9XdX8XtXw.9 GXiX9XlXVXvXlX9XvXvXcXVXvXzXzX0X9XzX9XiXA.!.W.W.gXe.H VXBXCXZX( % . . u.SXxXxXNXNXBXNXxXNXBXmXhXjXhXsXgXNX4Xw JXZXnXBXZXmXZXZXmXnXnXZXnXwXpXjX3XS.:.J dXD.G.a.jXe.0 e rXdX8XdXcXcXzXdXdXcX9XNXzX2XzX9XzXzX9X8X8X0X0X0X2X2X4Xq.: NXe.+XeX3XCXVXNXrXF.4XF.W.Q.iXE.%.^.0X!.A.6XnXC w p.V.X.8 ..a.X.X.X.a a ..a.C.f.<.d..XC.C..X#XoXs.f.3 Z C.Z.Z.f.s.Z..XC..X.Xs.5.5.5.,.5.f.s.a.a.u.% 4 % 4 4 : * 5 6 w t $ 3       ",
"  2.@ $ O o o . . . . o * * <XOXd.f.a.S.d.d.d.d.S..Xd.d.[.+XS.S.S.S.OXS.D...( dX2X2X2X,X1X1X,X,X,XF.W.W.2XF.,X1XF.,XW.2X,XA.1XA.& . O o E.lX~.9XlX9X9X0X9X9X9X8X8X8X8X8XdXiX9X9X9X8XrXrXrXq.9 SXzXiXcXVXcX9X0XdXBXcXzXcXzXzX9X8X0X2XW.2X7X@.!.cXe.p VXNXtX$ . 6 6 6 . SXBXNXNXNXBXNXNXNXnXhXBXBXjXjXhXNXq.r LXSXNXBXjXjXmXjXfXnXpXnXjXfXfX5XfXnXnX1XjXBXnXOX3XZ @ q LXNX2X0X8X4X2X0X8XrX4X4XdXlX~.0XzXdX9X0X8X0X2X8X9X8XrX0.4 tX#X<.k.k.[.<Xf.[.*XeXeXOXy.w.A.dXSXsXA.u.wXS.2 X J A.g...Y a.D.A.| Y ~ :.f.d.+XC.d.d.C.d.s.#XqXd.f.8 8 oX.X7.s.f.Z..XZ.C.s.s.s.[.4.4.5.s.d.f.f.! % 4 w p r r r 1 4 $ 6 6 3.      ",
"  2.@ X P ` q.r.y.j.j.Q # # j.g.d.s.f.d.+Xd.d.d.a.f.f.d.d.,.a.S.S.G.oXC.S.q.+.yX<XW.W.W.2XW.D.,X1XW.W.2XD.W.,XW.W.F.D.W.F.F.W.( . K * o uX~.~.uXlXlXzXzXzXzXzXzX9X0X9X9X8X9X8X0X9X8XsXrXrX8Xp BXzX9XcXzX9XiX8XdXcXxXdXdXdXzXzX9X8X2X1X8XiX8XxXBXg.p CXNXrX` + . . . p VXNXNXNXhXNXNXhXNXhXNXhXNXsXjXfXnXe.C PXSXmXnXjXnXnXnXfXfXpXnXmXmXnX,.pXfXjX5X#XjX#X+XnXeXe 2 NXNX4XdX2X4X8X8X4X4X,Xg.Q.9X2X0X0X0X0X2X0X8X8X9X9X0XiX+.9 tXOX<XrXeXZXNX[.*.&.m M q - T 6X6XgXy.g.OXOXk.H % . Y q.( ; T ( ! _ ..>.| f.f.f.+X+Xd.C.+XC.a.5.f.f.Z @ 3XC.s.s.s.Z.f.s.s.s.s.s.s.2.-.1.f.f.,.! % % $ H e H r 5 C H 6 6 4         ",
"  2.X 6 tXcXVXVXVXCXCXq.X # j.j.+Xf.f.f.S.OX,Xj.g.D.,X3XOXu.a.S.a.OXoXS.OXD.7 cX2XW.Q.,X,XW.W.Q.A.W.,X,XD.F.,X,XW.D.D.D.D.A.g.8 K Q.* . ~.~.lXlXlXlX9XzXzXzXzXzXuX9X9X9XdXdX9XdXdXdXgX8XhXNX- VX8XiXzX8XzXdXdXcXiXdXdXzX8XiX9XzXdX!.dXzX0XvXdX8XD.8 NX8XdXrXgXZXP e.CXNXhXhXNXNXNXNXhXNXNXnXfXhXjXjXfXmX>.2 mXZXmXmXaXaXnXbXfXfXaXmXmXnXZXaX#XmXaXoXqXqXoX#XnXZXgX- . NX<XD.2XW.W.A.h.,X4X4XA.w.p.A.Q.Q.A.2X2X<X1X8XlXuXuXE : CXrXOX+X+X3X+Xk.k.k.e.e p # 6 W.1XD.OXD.j.y.4Xq.% % X q.e.u.a.q.Z >.>...a.OXf.~ S.#X#X+XC.| 1.1.f.f.^ 2 f.s.s.s.C.C.s.f.f.f.5.5.2.5.~ S A W 2 @ + X 4 e j H P ` ` w 6 * 1         ",
"  5.+ 5 Q.lX9X0X9X9X9X .# - G.>.| d.j.i.h.Q.2XA.p.+.h.i.@.i.W.<XOXS.F. .S.( $ 0X8XW.W.2XW.W.2XW.A.4X2X,XW.W.A.F.g.w.D. .J q.y.Q.Q.j 7 { z.~.~.~.lXzXdXcXxXcXdXdXdX9XdXxXNXcXcXxXhXdXgXiXjXfX2 DXsXgXdXxXBXBXBXxX8XzXzXzXzXcXcXzXiXdXzXxXvXxXcXcXD.- . i.X.dXxXSXNXNXNXxXhXNXNXhXBXNXBXBXBXmXBXmXjXmXnXmX| < . JXZXBXBXmXmXnXnXnXnXZXZXmXMXmXmX;.C.#X&X#X#X3XjX6X8Xq.# >.2Xg.D.h.2XxXCXNXgXgX9X2XW.cXgXhXxXW.,X3X#XG.t.h.x.j r 4XS.XX2.2.*.<.<.f._ :.y.y.9 = K 7Xu.>.u.C.u.g.p.% + + 5 ~ >.>.:.q ~ >.e.1XOXS.d.d.+Xd.d.f.1.C.$XS.a.e.< 0 .X.Xf.C..X.Xd.s.5.4.5.7.,.<.&.;.*.! L % # 6 r r 5 w 6 . . . . w         ",
"  2.X 6 @.O.@.^.^.!.W.0.& C V.p.l E V.V.%.o.o.X.9 . . . . : i.W.) @.A.p.% O . . e K w.p.V.p.p.w.+.q.q.( 9 6 : r 9 7 : : ) Q.i.w.K % 4 r . E l p.h.V.p.p.A.A.D.W.,XA.D.W.Q.W.4X,X,X<X<XD.S.T 8 BX6XOXF.1X8XiX8XW.!.V.p.t.h.A.A.A.A.A.p.p.A.y.h.+.w , 4 ( 2XdXxXNX8Xi.xXdXsXrX6X6XsXrXsXwX6X6X6XwX6X6XwX3X~ 2 . 4X3X3X#XjXnXnXmXnXfXfXaXfXnXmXpXS.^ S.jXwXC.jXZXnXtXa.r T Y g.y.0.R / i.q.+.r.<X4X:.tXeXnX3Xe.e.k.d.S.! . r 4 7 :.~ &.=.&.,.,.:.,.*.e.[...) 8 9 V.F.u...>.a.T p & $ r & 6 C Y ! p ! T ! T ! ^ ^ *.W Z ^ ^ ~ <.;.^ ^ *.3 0 ^ ^ Z W ^ ^ W Z q Z C M 2 q ;.f.:.*.*./ $ # X . . w I H P I H 0.F       ",
"  &.. p D.F.@.%.E.Q.2Xy.X H E.E.~.M.c M.Y.n.c c l o.E $ & . . . . 9 j j % X r @.y * w.V.p.p.!.Q.t.p.iXiXE.E.@.h.@.t.Q.9 @.j k U 7 o . +.h.t.xXVXBXVXVXCXVXCXxX6X6XBXCXVXBXBX2XsXNXCXSXSXSX2 . F.sXgXgX4X8XtXgX9Xi.2XgXcXrX8X,XW.8X9XcXcXxXxX4XQ.` $ ( g.k  . .Y . . w D.CXNXsX6XgXhXNXfX3XOXOX3X6X5XOXu.~ % S.NXwX3XjXmXjXfX6XwXfXnXfXhX8XrXCXVX2X2XCXcXsXfX#X[.W 6 . / NXVXVXVXNXxXcXCXCXVXVXBXQ.x.cXzX0X0X2X!.!.8X<XQ.i.% - a.S.g.g.q.` 0._ _ ! *.:.*.T T ......G.rXnXV.l @.O.l { U : 9 R 7 : e K K P ! I P L e e C C e e @ 0 0 0 2 2 @ 0 C P q 0 0 4 r % X + + % _ f.a.y.OXk.+ + . r.0.q.h.h.h.x.i.Q.e       ",
"  -.X ) dX!.^.~.~.^.!.q.. # t.V.(.M.%.c d d s M.c o.9 X $ U +.{ y . . . o ) x.yXh.<X8XA.X.X...A.2XQ.2XvXzXvXdXdX!.0XGXA.i.dX8X0X<X7 P LXGX!.9XvXxXBXVXBXSXSXBXsXsXxXSXGXDXBXjXkXmXfXBXwXnX2 q.nXBXCXJXLXSXZXBXZX6XZXCXLXCXSXZXhXBXgXhXVXZXGXCXCXtX+ NXCXrX,Xg.g.g.g.g.SXSXDXCXZXDXSXZXDXZXZXDXSXSXSXZXJX+X@ wXJXZXZXjXnXnXmXBXBXBXZXZXnXNXSXp.zXcX~.9XzXSXBXR 5 % # rXLXGXSXVXVXVXVXBXSXVXxXsXdX8XQ.0XuXzXQ.0XuXzXvXzXvXuXO.A.xX0XA.!.!.!.4X4X4X<X3X;.S. .E V.V.k p @.F.z l M.X.z 9 u u u = . : E w.@.p.w.+./ ..Y  .w.+.) u.W.<Xj.0.J - 4 / ( :.e. . .:._ q 2 2 @ 5 *.u.+...( h.$ & # D.w.@.@.@.w.p.+.t.K S     ",
"  &.@ ) dXdXE.p.$.t.W.g.% ,XzX$.Y.f c M.d l X.l l O . : t.Q.E.z.~.#.o o o U z.z.p./ H y.!.W.w.g.g.D.y.y.F.W.2XW.g.G.A.1X7XpXG.6XNXe ( LXVX!.dXiXxXiXxXiXiXvX7XdXxX7X7XsXpXkXmXjXjXaXqXeXeX8 LXDX5X5XjXaXaX&XoX$X&XpX&X$X-XpXqXpXqXqX$XkX1XfXF.ZXJX2 ZXSXZXCXSXSXSXDXSXBXmXmXjXjXfXpXqXaXaXaXaXbXaXbXaXbX3X2 < &XaXpX&X#X#X5XqXpXqXqXqXpXjXjXp D.!.!.~.Q.^.lXp.6 w 2 PXSXNXNXNXxXNXNXgXrX4XtXrXrX9XzX0XtXrX4X8X0X9XQ.~.uXuX$.!.GXcXt.O.{ z.0X2X8XyXi.y.u.t.@.p.p Y T X.l a l h u : O o = : = h %.o.o.V.V.p.X.@.@.z E 9 k E $.t.@.@.O...l 9 @.w.+. .R J J 5 e 5 0 , 5 ,.:.k k W.4X6 # $ h.O.@.@.@.@.@.O.O.P 3     ",
"  S , R !.!.!.!.p.yXyX .# yX9Xh M.Y.z = c b %.p.K * & { z.c.c.%.E.~.9 . X k p.$.h.( # Q.tXQ.D.,Xh.W.D.D.D.F.1X<X,X,Xg.,XG.3X7XrXZXe J PXLX2XdXdXjXjXmXsXsXpXfXfXsXjX7XjXnXpXaXpXaXaX&XaXMXG bXMX&XmXqXbXaXaXaXbXbXbX-XaXjXaXaXjXpXkXjXmX$XhXZXnXZX@ DXpXfXmXjXjXpXpXfXnXnXnXaXaXnXbXaXbXbXaXbXbXaXbXbXaXMX3 DXaXmXqXqXpXfXpXaXaXqXqXfXjXmXS.% u.A.0XlX0X0XQ.@.r q % tXNXZXNXNXNXnXtXrXrXtXtXtXrXrXrXrXrXtXrXrX0X8X9XzXzXcXh.+.dXzX0X0Xh.<XtXh.h.0Xh.) +.k o.c.} x x v.b x x [ l * * * % = o.%.%.X.@.w.@.t.O.@.O.E E E #.o.$.E k p.#.@.O.r T @.w.+...( R ` C L Q 0 m :.q.y.p.Q.Q.r % # x.i.w.@.@.O.@.{ O.U 0     ",
"  3 4 H Q.2XE.Q.2XyXQ.r X ) 9Xo.%.M.O h z z o.~.@.= k Q.z.^.E.E.(.lX7 o X 0Xp.p.Q.h.% { p.0XQ.h.i.S.g.g.S.S.D.D.F.F.F.D.F.1X1X4XVXe p PXGXW.D.2X7XjXhXwXqXpXqXjX5XjXmXqXaX&XbXbXbXbXbXbXMXF &XMXbX&XbX=XaXbXMXaX=XbXbXmXjXaXaXaXjXkXnXpXmXjXmXfXZX2 JXnXnXnXnXmXjXaXaXnXaXaXaXbXnXbXaXbXaXaXbXbXbXbXbXbX%XN $XmXnXaX&XqXaXqXpXpXfX5XpX5XfXwX& 8 F.!.Q.p.Q.yXh.( % 4 Y JXBXgXgXgXtXtXrXeXtXrXrXtXtXtXtXtXrXwXrX4XrXcXtXNXNX/ Y tX:.+XAXAXI ] eXh.y.D.w.y.#.l z x i i c.%.z l h O * 9 z d d c z a E p.t.E.E.O.E O.O.E O.@.#.E O.O.k E #.p.% j q. .+.y.+. .r.e._ / w I P / A.yXQ.Q.p + * W.t.@.#.@.@.@.@.+.K 5     ",
"  0 @ K p.!.~.~.~.Q.Q.( & % +.E > l h #.z k h k = = 7 @.#.#.#.[ #.E . . % yXt.z.Q.x.% h.0X0XA.A.g.g.y.a.D.D.D.D.,X,XW.F.G.G.8XrXZXe q PXCXD.F.4XjXjXpXpXpXhXpXaXpXpXnXbXaXbXbXbXbXbXbX;X:XG @XZXaX&X&XaXaXaXaX=XaXbXaXaXbXpXjXaXaXaXaXmXmXjX#XOX#X2 ZXmXnXnXnXnXnXaXnXnXbXaXaXbXnXbXaXbXbXaXbXbXbXbXbXbX;XG MXbXnXaXaXaXaXaXaXfXaXnXfXjXnXZX- 2 C g.w.@.@.+.r.q.w 5 6 LXNXrXrXtXtXtXtXrXtXrXrXrXtXtXtXtXtXwXrXtXgXtXgXcXNXq.Y CX/ <XZXNX{ 5 P j.h.W.4X8X^.^.T.T.Y.x h o.l = 9 b Y.L.P.P.b.g f d c c M.E.l [ o.E O.E $.E.O.w.E ) E E t.) X r y.+.)  .( 0.+.` R r r J j i.A.yXh.Q.Y X & h.+.@.#.@.@.@.+.t.U 2     ",
"  &.X ( h.vXlX~.~.0X4XtX% # . 8 E $.Q.p.$.#.{ @.r O . . . . . . . . 7 y : @.p.p.h.p.+.x.2X0XA.D.D.g...e.S.D.D.,X,XW.1X4XG.G.6X2XNXJ 4 LXVX4X,XsXmXmXpXpXpXjX3XnXjXaXaXaXMXbXbX=X;X=X;X;X:XF }.KXMXMXaX=XaX=XaXbXbXaXaX&X$X&XmXjXkXaXkXpXmXmXf.rXAX2 BXjXaXnXnXnXnXnXmXnXnXaXaXbXaXbXbXbXMXMXbXbXbXbXbXMX&XF MXmXaXbXaXaXbXbXaXjXnXjXnXjXnXnXX 2 8 8 Y / ( (  .q.e ` 8 gXwXtXtXrXtXtXtXtXrXrXrXgXgXfXtXtXeXrXtXtXgXxXzXcXVX@.@.GXcXzXp.E t.t.K 0.h.r.Q.E.%.M.P.P.Y.^.p.w.: = ^.T.I.P.U.P.m.m.K.U.I.I.K.b.d 9 l 9 E o.$.$.E U E O.U E R : $ T ) ) K p H / K ( ) / P K K O.+.y.@.p.R X & h.@.@.+.+.O.) t.{ U 0     ",
"  &.X D.<XcX9X~.~.9XtXtX6 % r.O.O.O.z.p.p.$.t.Q.+.# X # . : 7 k E z.E.p.O u Q.p.p.p.i.h.D.A.h.D.g.g.u.D.,XD.4X<X2X1X1X7XG.G.1X2XNXY 8 LXVX1Xi.A.3XZXwX#XwXsX5Xu.pXmXbXbXMXbX;X=X=X=X=X;X;XF }.KXMXMXbX=XbXbXMXbXaX-XaXaXaXaXaXaXpXaXaXpXaXhXfXnXtXq JXjXnXaXnXmXaXaXbXbXnXbXaXbXbXnXbXaXbXbXbXMXMXMXMXMX=XG MXmXmXmXmXmXmXmXmXmXnXnXjXjXfXfXa.- 2 2 0 C C p 8 r 4 : % X 5 e.tXnXgXtXgXtXtXtXgXnXnXgXtXtXtXtXtXtXtXNXzXzXvXo.p.VX8XQ.yXj.yXyX] r y / O.V.%.Y./.Y.M.%.E k > z L.P.m.m.K.K.U.U.m.K.U.U.P.L.b d d > > h > > > l o.o.l u : * 9 ) O.) q.` ( +.) ` ` / P R K ( w.i.p.i./ X $ W.{ { E K K R { U y 0     ",
"  M % P ,Xp.V.E.!.!.Q.i.6 2 ..+.k @.@.$.p.z.p.x.R # X X K O.p.#.#.$.%.z.k : Q.z.@.p.i.Q.Q.h.g.h.g.g.g.4X,Xj.D.D.,X2XW.1XV.F.iXxXVX( 8 LXCXrXq.i.jXZX3XG.wXhXmXnX&XaX&X=XbX=X&X=X=X=X;X;X;X|.J.KXMX=X=X=XMX=XbXaXaXaXaXbXaXaXaXbXaXaXaXjXaXfXpXeXAX0 ZXmXfXfXnXfXaXaXwXnXaXnXnXbXbXbXbXbXbXbXaXbXMXbXMX;X}.F JXmXmXjXhXjXmXmXnXjXjXjXnXnXjXjXSX2 % % % P / p 4 + + w / K e . 6 eXZXtXtXtXgXtXgXgXtXtXtXtXAXtXtXtXrXrXtXdX9X9 9 zX9Xh.j.<Xh.H P Q / h.Q.p.V.(.(.b c c %.V.c (.T.P.K.g I.R.R.R.K.m.I.I.P.m.f v b.v v L.L.g n %.b %.#.E O : { +.` w.q.y.) w.) R O./ )  .R R p.p.p.h.q.X & ( R R U R R R E U : q     ",
"  0 2 % -  .V.V.$.$.V.2Xw % 8  .E o.@.#.$.z.^.Q.U & & y K 7 : 9 > u k u ) : Q.Q.p.t.h.h.D.h.A.D.g.i.y.D.<Xh.- q.W.2XD.G.F.!.dX8XNXP 5 LXBXsX6X1XfXwXOXOX#XaXmXaX$X&X&X=XaX=X=X=X=X;X;X;X;X|.F KX=X&X=XbX=XbXMXbXbXMXMX-X-X=X-XaX-XaXaXaXpXnXqXrXnX@ ZXnXeXnXnXpXpXaXaXnXmXmXbXaXaXbXmXbXbXbXaXbXbXbXbXMX|.F JXjXaXnXnXjXnXnXnXjXjXnXhXhXhXjXZXq % 2 2 % . . 6 ( tXBXVXtXtXP & 2 4XBXtXtXtXgXtXtXtXtXtXgXtXAXtXtXrXgXgX9XcX7 { cX9X8X4XyXh.Q.h.q.@.w.<XR E $.z c c b E.^.c M.b.g I.I.K.K.m.U.R.R.P.P.P.b.P.b.m.g g m.m.P.v d z 9 6 X O 9 R U j H ) q.+. .` R R R +.w.) 5 h.Q.Q.h.i.& X { ) { E E E { E u O ~     ",
"  0 2 A.w.8  .@.O.V.2XrXH , ..p E #.p.p.E.^.~.uX9 & . 4 4 y y 6 5 6 # . o O R Q.h.Q.Q.Q.D.,XD.A.A.W.y.g.4Xw.# p ,Xw. .V.1XpXrX6XnX! 5 LXBXNX6XhXpXwXpXfXnXmXaX&X=XbXbXbXbX&X=XbX;X;XbX;X;X:XF KX=X;X;XbX=XbX=X;XbX=XaXaXaX=X=XaXaXaX&XmXaXaXnXfXZX2 JXjXwXnXnXaXnXnXnXmXmXaXaXmXbXbXnXMXbXbXbXbXMXMXMXKXF G ;XbXbXMXMXmXnXnXnXnXnXnXfXjXhXBXOX8 6 5 2 % % i.8XrXzX9X4XQ.4XyX8 # . CXeXtXtXnXtXgXtXtXtXtXnXtXrXgXNXrX<X4XQ.* ) cX0XcXcXzX9XdXiX0X9X0X<XW.p.Q.E.E.%.%.o.o.z X f b.K.K.P.K.P.U.P.K.g v g g f f v g v g v b.b h . X o 1 5 O 5 5 9 5 7 7 r j e j y r e e j R h.W.h.h.j.X X i.@.O.O.O.O.{ { #.6 f.    ",
"  < Y 2XQ.A.V.%.E.p.V.Q.H 6 P 4 : E x.p.o.%.$.#.& # & 5 { @.w.@.{ { k 9 * * 7 x.x.@.yXQ.,XW.,XD.D.W.D.A.g.R & X (  .g.4XS.<X<X+X3XZ C JXBXNX7XgXsXpXpXfXnXaX&X&XqXbXbX&XbXbXbX;X=X=X;X;X;X|.>XKX=XbXbX=XMXMXMXMXbX-XaXMXbXaXaXaXaXpXaXjXmXBX3Xe.a.2 a.ZXpXnXaXaXnXmXnXnXjXaXaXbXMXbXbXbXbXbXbX=XMXbXMXMXD G &XaXmXbXjXjXnXnXnXmXmXmXnXmXnX3X. . . . & - 9 gXgXgX4XrXzXQ.yXyXyX* & r.NXgXnXnXtXtXtXtXtXtXgXtXtX,XgX<X0.R : * X  .E O.@.w.p.p.E.p.h.Q.0X9XuX9XQ.E.$.$.%.$.o.s n.T.P.K.K.K.U.P.m.g K.v f d g g v v f K.K.f c 9 : : K / K j R ( R O.( ) R R R ) K j 7 j 5 j.i.p.Q.i.<X. . x.+.@.#.#.@.{ K Q.K a.    ",
"  @ _ 2XW.9X^.E.^.$.o.E.w 1 1 o X . $ 6 9 9 : % # # $ r 9 = O : 9 k h E I * * y k : h.!.Q.!.W.Q.Q.Q.A.D.D.r.p J P 4XrX,X3X3X<Xe.^ 2 q 4X<X+Xd.d.S.S..XOXqXqXbX&X%XMXMXMXbX;X;X:X:X:X;X%X:XD >XKX;X:X|.|.|.%X%X%X=X$X&XZ.1.s.C.oXoXC.#XF.G.f.a r . - . nXoXS.3XwX3X3X3XS.OX5X5XqX#X#XqXpXaXaXbXbXbXbXbX;XF G N.7.Z.Z.1.1.1.<.1.<.1.>.f.f...p S.<XrX<X4 . . . f.D.<X4XzX0Xx.Q.i.. 6 j 4X,X<X<X,X,XD.j.4XrX,XD.<X4X4X8X0X<XQ.O @.w.E O.#.) E E E E O.o.%.$.$.%.$.%.%.o.E l o.c c T.T.P.v I.I.R.R.P.K.v f n c b b g v P.L.b h h U y U ) O.@.@.O.) R ) ) E +.O.) k U 9 5 5 tXr.h.h.h.r.. & <X+.O.R K e J e J r _     ",
"  @ r ,XA.!.!.~.!.E.~.9Xr 6 r 4Xw. .i.i.p.t.t.w.% # * y j k k p.@.O.E E y # r i.Q.W.W.W.Q.Q.<XQ.W.x.W.<X<X2X2XrXgXdXgXgXrXrXNXNXtX. . OX<X3X3X3X3X#XeXaXaXaXnXbX=X;XMXMXbX;X;X;X;X;XMXbX;X3.V F @X%XMXMXMXMX$XZ.Z.5XmXhXpX5X5X6XwXF.i.; ; o 9 U w.: % 8 @.Q.Q.W.dXNXfX6XF.g.q.G.S.u.q.>.>...;.>.>.a.s.bX}.F &XwXqXpXfXfXpXpXfXfX6XsXBXBXLXLXPXPXLXPXLXLXzXA.: . R R [ E k = = 0XGXGX9X9XNXNXNXNXxXBXBXVXcXgXgXgXtX0XyXyX9X7 cXVXuXuX~.0X~.0X9XzX9X~.^.E.E.E.E.$.$.$.V.V.E.h . T.v Y.g n K.U.P.g g f Y.z > > > d b c d > = 9 U 9 : r r r k j K U E O.@.p.@.{ @. .y * 4 4Xi.h.h.w.P & # I 4 O * X * t r t r 4     ",
"  , % H J p J Y R R w.Q.w 5 j <X+.i.h.Q.p.t.h.q.% # : 9 : k @.@.E E k k 7 # U x.h.W.p.y.p.i.i.i.i.p.h.h.A.W.A.g.A.D.1X,XOX,XrXD.3X~ 8 SXBXhXjXkXjXaXaXaXaXaX$X&X&X-X&X&X&X=X=X=X=XaX=X&X=X:XG bXjXkXDXDXDXmXF.5XG.G.G.pXfXfX6XwX6X3XgX9 O T r R y : + 4XcXBXVXVXGXLXLXLXLXSXjXhXLXLXLXLXJXJXSXwXfXfXZXJXF F JXJXDXDXDXDXJXJXSXSXBXBXjXmXBXBXBXBXhXiXFXGXLXLXLX9X7 o @.@.: cXIXCXcXvXvXVXcXdXdX8X2XcX8X4XrXwX4X4X4X4X4X0XyXj 0XzXuXuXuX0X0X0XuX9XQ.$.E.^.^.E.%.$.o.o.%.$.w.X O Y.b d g K.P.P.v v b n c > O O . > 9 > & - 9 H H w :.y.+.+.@.{ X O k r k E O.@.y.+.r O +.W.y.q.i.k.H + & . K Q.yXQ.0X0XlXuXuXj     ",
"  0 2 H P Y  .+.0.0.t i.6 6 ` p +.t.@.i.@.t.w.` % $ 7 K U k @.O.E @.{ { w 4 @.x.Q.h.p.p.g.h.h.p.y.i.g.A.W.!.Q.2XQ.Q.D.D.j.a.D.a.S.f.p sX1X#X1X5X5XoXoX5XqXpX-XpXaX-X&X-X=X=X=X=X=X=X-X=X=X|.;XDXmXjXkXjXkXpX5XaXnXqX#XoX+X#XF.#XF.1X1X1Xu.p r w 7 6 # 2XsXsX2X!.A.F.A.7XkXhXBXBXDXDXBXmXhXDXDXmXmX=XC.MXF F ;XaXpXpX&X$XqXpXpXqX5X#X#X5X5XpX7X7X7XpXsXiX!.7X8XSXNXR . . VXBXrX4XrXgXrXrXrXwX4X4XwXrX4XwX4X3X3X<XOXOXF.W.W.7 uXvXcXcXuXlXlXuXuXQ.k ; l o.z d h l h > O X . O c Y.g b.f f f f b Y.d h = w.) r $ % r 8 - 5 e C q C L e.y.q.) E E 9 O 9 j 9 * : : 7 . 6 cX8Xi.h.i.k.I X + X !.~.^.~.~.~.uXE.z.9     ",
"  0 $ R y.D.2X,X1Xh.i.w.X $ ` r q.q.+.O.O.{ ) ` 1 $ H w.t.E #.p.p.#.{ { 6 6 { Q.h.A.Q.A.D.A.A.h.g.g.A.Q.A.A.A.D.W.A.D.D.OX+XOXa.u.C.e.ZXG.1X5XOX$X&XpX$X&XqX-XaXaX-X-X=X-X-X-X-X-X-X=X=XbXB.:XMXmXaXpXaXmXDXpXqXfXqX5X#X5X#X#X3XOXF.V.6XfXOXw . 8 6 % CXhXsX2X2X1X6X6X5XpXfXhXDXLXZXsXpXpXjXjXbXbXbX&X&XF F ;X=X=X=XaXaXaXaXaXpXaXpXaXaXpXpXpX6X5X5X!.7X7X7XsXsXdXBXy i.VX8X4XrXrXrXwXwXtXwXwX4X3X<X3X3X3X3X3X3X3X1XOXW.2X: 0XvXzX0XuX9XuXuXuXx.p a O E z o.h cXw.q. .Y r . > %.b v g d d > d c > = K k.0.Q I m 6 , w L _ ^ ^ ^ S C *.e.( +.U y 9 E h.+.y { { +.* R zX9Xi.Q.h.x.] & & X uXE.z.$.$.#.#.E j 6     ",
"  0 8 4 J P j K P +.h.h.# X w ! w r.0.O.) E O.r.4 $ / p.E k @.p.p.@.p.x.5 7 r x.A.Q.Q.Q.D.A.A.A.i.g.A.W.W.D.W.D.D.D.D.D.OXOX,Xf.f.fXY NX!.1X#X#X#X&XqX$X5XpX&X$X&X&X-X-X-X&X&X-X-X-X-X=XbX3.;XMXaXaXpXaXaX#X$X5XfXqX5X5X3X3XF.3XOX3XF.1XF.rX+Xe.X 8 & gX2X7X6X1X6X6X6X1XpXfXpX6XsXjXjXpX5XkXaXaXaXbX&X;XF F |.%XbXbX=XaXaXaXaXpXpXpXpXpXpXfXpXpXpXpX7X7X7X6XsX7XrXNXr VXcXdXrXtXwXwXrXeXeXeXeXeX4XeXeX4X3X3X,X4X3X3X1X,XyX: Q.cX9XQ.Q.yXQ.W.h.y.k p . a : 9 zXSXxXxXNXrX9XNX+.O z n v g d x : : 4 o W.t.+.r.` 0.' H e r ! _ | | <.Z *.:.` j O y E 9 w.q.e K +.: % t.8Xp.i.w.p.i.` X % . z.$.#.o.[ [ E U K 8 q   ",
"  0 8 ` 0.) y...+.D.g.w.% # :.e.q.r.+.+.#.@.+.{ 6 % U @.j k t.#.@.@.#.i.e 7 r Q.0X!.W.W.Q.A.p.g.g.g.A.D.,XD.D.D.j.D.D.OX<X,X,XS.f.a.2 F.G.7X5X#X5X5X5X$X#X$X$X$X$X&X&X&X-X&X&X-X&X&X-X-X=XV |.MXnXpX5XpXqX5X#X5X5X5X5XwXwX3X3X1XF.1XF.OX1X1X3XnX<.. X NX2XF.!.7X2X6X6X1X5XpXkXhXhXmXBXBXmXmXaXaXaXaX%X;XF F |.&XMXaX=XaXaXaXaXpXaXpXpXaXaXjXpX5XpXpX6X7X7X6X6X4X1X2Xh vX8XrX6XrXrXrXwXeX4XeX3X4X3XwXeXeX4X4X4X4X<X,X2X4XdXj 0XcXiX0XyXyXyXh.Q.@.9 j k : r ) tXO.h.Q.2XW.W.xXVXdX% u l x i . . . 0X= k O.E i.y.y.@.w.+.T J ( >.| e.Y ( e . * y y U k K K r - $ 4 O w g.i.j.i.q.+./ X # . O U E [ [ [ E O.U 6 3   ",
"  0 6 0.` ) O.( (  .i.h.r # L j.D.i.w.+.@.t.@./ 5 # K p.O.6 t.$.[ ) ) { y * U x.Q.W.Q.Q.A.A.A.A.A.A.h.h.h.j.g.g.j.g.D.,XOXD.u.S.3XOX..i.1X5X3X5X5X#X#XpXqX&X&X$X$X$X$X$X&X&X-X-X&X-X-X&XaX^ 1.mXjXpXpXpXpX5X5XOX3X5X3X3XwXwX1X3XOXOXF.wX3X3XS.oXfXNX- LXgXsXsXsXBXZXhXfXsXsXpX5XnXmXmXjXjX&XZ.H.@X&X&XMX|.F ;XMXbXbXaXaXbXaXaXqXpXaXaXaXpXpXpXpXpX6X7X7X1X5X6X3X<X2XQ.zX9XrX4X4XwXeXeX3X3XwX4XeXwXeX3XeXeX4XeXwX<X4X<X2X0X: p.cX8XcX9X0X2Xp.p.@.k @.Q.Q.dXA.Q.i.2XA.A.V.W.Q.+.<Xr % # X .  .g.Q.0Xp.R R w.i.w.y.i.V.p.p.t.p.V.+.r k y O k t.t.[ { { { ) U j w 6 # % :.g. .` ` { *.# $ & +.+.k U { o.$.[ O.9 2   ",
"  q - # : 5 6 6 8 w e e L % 8 0.H q.w.@.+.+.+.0.w $ x.yX@.O.#.#.@.{ { p.{ 6 k i.{ k O.A.A.D.D.g.g.g.g.g.j.j.g.g.A.g.A.A.g.D.a.+Xf.OX.. .rX6X1X7X3X5X6XpX$X$X$X$X$X$X$X#X&X$X$X$X&X&X&X&XbX8.-.mX5XpXnXnXmX5XfX5X5X5X5X5XpXpX3X3X7X,XF.sX1XF.F.+.NX:.- SXgXsXsXsXjXpX7XwXfXnXnX#XA 9.6.9.4.@XaXaXbXbXaXbX|.F KXMXbXbXbXaXbXbXaXpXaXjXjXaXpXpXpXkXqX5XF.F.6X3X6X1X4XgXp.xXrXrXwXwXwXeXeX3X3X4XeX4X3X3X3X3X3X3X3X3X3X<X<X<X,X8 l vXV.p.W.Q.y.) ( t.w.y.h.6X2XhX6XW.G.G.g.A.A.g.y.g.( $ X R Q.zXVXVXdXp.Y y.j.j.q. .t.p.p.p.p.E.8X0Xx.+.o 9 { { U k { E { R U ) ' ] % 6 j.<Xh.x.x.r.l., 1 & h.O.j O.h.t.p.#.[ 9 $   ",
"  0 2 ` +.y.i.r.i.j.k.e.0 @ r q.( Y w.i.@.@.r.i.7 : yXt.K p.#.{ #.p.t.+.) : y i.i.i.. E W.h.h.i.y.g.g.g.j.j.j.S.D.D.A.D.D.g.G.G.d.:.Y a hX7X1XOX1X5X1XOXF.$X$X$X$X$X$X$X#X#X#X$X$X&X&X$X&XF F bXC.5XjXBXBXmXhXpXfX5X1X1X6X3X4X4X7X,X,X4XF.,XA.rXNXNXp SXgX2XF.D.F.F.1X7XsXsXpXaX1.aXaX&XbXMXMXmXMXbXbX=XXXG MXbXbXaX=XaXaXaXaXaXaXaXfXpXpXpXpXpX1X5X$Xu.F.OX4X2X,XrXU xX8X4X3XwXeXeXeXeXwXwXwX3X3X3X3X3X3X3X3X3X<X3X,XD.NX9 O.GX!.2Xi.q.+.q.w.w.A.g.W.A.u.1XA.A.D.A.G.V.G.i.j.<XP $ R 8X9Xt.E.VXg.g.i.y.y.j.i.y.i.g.w.p.V.p.V.p.h.0X9 6 K y U k k 9 7 U @.R K ' $ 5 ,X8X4XyXx.] k., 1 X 4 e ) { +.E K 7 u 9 2   ",
"  0 6 q.q.(  .,X<X<XQ.h.4 + 4 ` w g.A.@.w.i.0.` 6 * O.O.) t.p.@.p.@.t.O.t.u { t.p./ % { <Xh.j.g.g.g.g.g.j.j.D.D.g.g.D.W.S.i.g.G.OXfX..p hXF.1X1X7X1X$XF.OXF.$X$X5X5X$X$X$X$X#X#X$X$X$X&X&X|.J.MX5X6XhXsX .Y p sXsX7X1X6X6X1X3X4X4X6X4X4X3X1X,XwXtX/ 8 BXD.F.1X1X7X6XjXNXNXjX5XH.pXmXmXaXaX@X&X&X&X=X&XaX:XG ;X@XaXaX=X&XaXaXaXaXpX5X5X5X5X5XpXpX7XH.5XF.V.V.!.1X2XQ.E 8X8X4X4X6X4X3XeXeXwX4X3X4X3X3X3X3X3X3X<XwX3X3X4X8XVX9 0XiXW.8Xq.y.G.OXF.D.,X,XA.F.A.G.1XG.F.W.A.7XW.rX4X4X5 6 9X8XQ.A. .D.a.y.a.j.,Xg.g.y.w.q.u.g.g.y.y.g.w.2XK * ) O.) O.{ E E O.[ k U U % 6 yXyXh.y.i.` j.% % # <XO.E U U U @.p.O.9 %   ",
"  0 6 ( ` e.g.0.( +.w.q.$ +  .:./ y.@.) T R ` / 6 * K { ) O.@.E E t.O.#.E j k E r o I 0./ w.g.g.i.j.g.g.j.j.j.j.g.g.g.A.A.A.G.iXq.2XJ Y rXD.7X7X5X1X$XF.C.C.oX#X5X$X$X$XOX#X#X#X&X$X&X&XaX1.^ JXjXa.F.( X.T ; 4XjX,X3X6XsXsX4X1XsX4XD.D.,X1X1XD.tX. . xX8XsXdXhXjXsXsXsXOXOXf.C.aXaXaX&X&X@X&X$X&X&X$X@X%XG KXaXbXaXaXbXbXaXqXpXpXpX5X5X5XpXpX5X5X#X$X$XG.V.sXsXQ.0XV.E.W.,X4X4X3XeX3XeX3X3X3X3X3X3X<X3X3X3X<X3X3X4X1X3X4XJ W.p.g.q. .A.D.D.3X3XS.OXF.F.4XwXg.D.,XF.G.1XW.1XF.D.6 9 t.g.F.u.| >.f.f.f.a.y.u.u.u.y.w.y.y.u.y.q.i.y.<X_ & Q.#.u U ) E { { p.{ k 7 o : 0X2Xi.j.<X] j.4 $ & yX) k E { O.#.#.@.7 #   ",
"  q % ! :.! p r p / / 0.6 # P e.( q.y.w.+.) ` ' 4 % * r y O.O.O.p.t.k O.{ U 5 j 4 / 5 w . . p ) w.,Xh.h.D.D.D.h.g.g.g.g.g.g.a.1XrXNXY J sX7X1XwXpX1XG.Z.C.oXoXF.F.H.H.oX$X#X$X$X&X&X$X#XnX;.Z nX6X2XD.( V.u.p rXgXwXrXwX7XsXhXNX6X3X<X,X,X6XsXrXNX8 ,XBXW.Q.W.G.g.a.a.C.oXqXqXaXaXaXaX=X=X=X=X=XaXbXaX&X%XG bX&X*X&XoX.XaXnXaXqXqX$X#XqX5XfXqXfXeXnX1X1XNXsXG.G.A.i.r X.k !.4X<X+X,X,X+X<X3X3X3X3X3X<X<X<X3X+X+X<X4XOXtXy.4 w.h.u.u.S.a.D.S.S.OXS.S.a.a.eXeXy.a.G.a.g.i.u.G.S.a.r w i.>.a.f.| S.| >.e.>.>.u.u.y.y.g.g.u.u.u.u.y.y.i.( & R k r U E ) ) ) U U y I % 6 0X<X0.y.UX[.e.4 $ % j y E @.) j k 7 : 6 $   ",
"  q 2 e.>.k.` ! 2 r e.j.4 % e :.:. .q.h.h.r.` *.4 # r y y { t.p.@.E +.w.K j 6 X . H y ` P j . . & / Q.W.D.D.g.h.g.g.a.g.f.y.y.S.q.e.& ..,X1XG.F.F.F.G.G.F.OXOXOX1X$X$XF.F.7X3XoXoXoXoXoX&X,.....u.@.Y J a p.a q.nXsXsXgXxXNXVXrX4X4X,XOXg.jXy. .y.4 4Xg. .u.u.a.OXeXbXbXaX&XpXaXaXaX&X&X&XXX XXX&X&X*X-.}.G G 8.4.&X&XoXbXbXbXbX&X.X#XeXnX#XmXJXZXBXnXCXDXBXa.G.u. .7 % y.q.p.p.A.A.)  .q.g.a.a.3X<Xg.a.q.g.OXrX4X4X4X<X/ X J q.Y  .y.u.a.S.a.f.y.y.q.u.u.y.y.y.y.u.>.y. .` ..! 6 % j q.q.a.>.y.( T ..>... .q. .q.q./ ( ( `  .q. .q.( $ 4 * 5 7 y I r y 7 4 w r O w Q.Y 0.i.<Xj.L , # 5 P R E k E +.R 5 K 7 6   ",
"  M 2 :.u.y. .<X0.r y.D.# & e e.! _ a.j.+.R 0.r.4 $ ` i.i.O.@.O.{ { ) +.U 9 6 q.h.yX9XyXyXh.i.U H . . R K +.i.q.w.y.y.g.a.u.a.A.j.OX& ( D.y.F.OXF.G.G.C.C.F.F.D.+XS.F.#Xa.a.f.fXrXrXOXq.~ p / q.+.9 9  .u...T V.g.rXtXgXhX2XxX2XD.,Xj.g.y.D.D.OXe.$ NXBXdXzXVXNXhXhXhXhXBXfXG.oX#XpXaXaXaXmXpXqX&X#X+X&X}.G ;X&X&X&XbXbXqXqX&XqX&XpXqX5XkX5X#X#XoXS.OXC.f.G.OXy.u.Y 6 ) p.#.z iX9X!.A.!.7X!.!.iX0X!.!.7X!.iXhXiXiXiXF.7Xw.Y 2XW.W.8XsXrXhXiX8X2X8X8XdXxX2X8XW.0X8XzXdX8XsX4XD.Y X { A.A.OXG.u.f. ...Y >.a.q.>.u...q.y.u.y. .q.y.u.u.w.r 4 j 6 6 r 6 6 7 6 * * % % 5 Q.g.i.r.r.k.W , # 4 U j 9 k { E j 9 u 4 5   ",
"  S %  .>.q.( y.q.w 0.y.X X r k.~ ,.f.y. .q.0.j.1 # w K @.t.{ @.{ { { +.{ 7 w.9X9X~.Q.Q.Q.Q.8XQ.+.Q.q.9 . X ( Q.h.S.@XS.D.D.G.A.4XNX. r A.u.1X6X6X1XOX5X5X1XOX+XOX.X.XOXOXd.OXJXLXGXdXy._ r q Y r X - ..e CXBXrXxXrXrX4XA.A.dXgX8X6XD.<XrXrXrXrX! # D.gXxXdXD.rXrXrXpXpXsXjXaXeXbX#XoX&XpXjXqX5XaXnXZXmXF G ;XMXMXbXaXaXmXmXjXjXkXjXBXjXBXBXjXhXhXsXhXBXsXkXgX8XA...; w.Q.E.9 V.z ~.^.E.~.^.V.V.V.!.!.!.iX~.iX!.iXiX7XxXu.) dXiX7X1X1X6XpX5X3X#XOXG.a.G.G.3XF.F.F.OXF.1X1X3X3X..% <X,Xi.a.S.u.f.u.G.F.a.u... .u.y.y.y.y.y.q.i.y.g.y.y.( O j +.+.U R U U U U I * # $ @.y.h.,Xj.j.I # # r I j U y 7 u H j 9 : 5   ",
"  A + P _ q.:.j.P q 0.y.% X 8 y.k.e.q.y.i.i.I j.$ % r ( O.@.@.O.@.@.O.{ U = #.0X!.0X@.) e R i.xXi.@.A.D.@.5 . K Q.a.1.u.D.D.A.g.j.D.& R Q.W.Q.D.OX#XqXqXwXwXeX3X3X#X#XoXoX#X#Xf.Z.Z.<.;.,.m + :.g.e.w . u.SXgX4X8X6X2X,X8XVXBXgXrXdXsX4XrXsXgXgX` + j.dXtXeXwXfX3XOXwXpX#XqX3X3XwXaX#XaXqX#X$XMXbXMXMXJXA G *XaXaXaXaXaXaX&XaXaXaX$X&XqX#X5X5X5X6X5X6XjX1XF.6X1Xy.) 9 w.A.W.g.w.2X!.A.8XzXiXdX!.1X8X2X6X7XdX4XdXxXu.t.gX..T 3X#XoXOXF.S.S.S.oX+XS.oX+XF.F.F.S.C.C.G.G.S.S.oXS.>.8 S.f.,.f.f.1.u.u.C.C.| | ..Z u.D...! ....q.q.@.y.w. .R X R @.@.{ { #.t.p.R y 5 & w g.,Xi.i.j.j.Q , $ e ) k j k K U R E ) r 6   ",
"  A & / e.q.` e.r 5 0.k.$ # w k.q.e.y.y.r.i.0.e., % e K K @.t.p.O.t.Q.p.O.: p.0XQ.2XO . / R . q.zXQ.Q.K p.p.e . K g.+.y.y.y.y.g.D.4X6 r 9Xy.g.D.S.S.#XC.+X3XeXwX3X+XoXoX*XoX#XqX3XpX#X<.a.e 5 ,X,XD.4X8 6XPXxXQ.dXW.W.D.2XD.g.i.A.,XgXrX4X4XD.4X0.# <XNX2X6X3XrX3X3XwXwXOXqXwXeXqXqXqXqX#X5XaXbX&X$X XbXS M *X&X$X=X=X&X&XqXaXaX$X&X$XqX5XpX$X5X5X5X3X5XOX5XV.F.D.q.9 BXW.W.A.1XxX6XhXxXdXiXiXiX8XfXsX6X6XsX8X8XsXsX>.gXe.p 3X$XC.oXOX+X+XS.S.S.oXOXOXoXF.C.C.C.S.C.C.G.OXa.G.T 8 g.u.,.a.>.,.1.5.f.u.u.>.>.^ ~ ~ :.q.q._ ` ..q... .! q.X K +./ E U @.{ { E H r & 7 <Xy.h.x.x.x.*.$ $ $ j : k U k K E ) p.e ,   ",
"  &.& J ` ( :.P _ H j.k.% & $ / C C j.g.0.0.*._ # # H / ) O.+.w.) E w.@.p.9 E.0XQ.9XR 6 / y / i.xX8Xw.yXi.p.t.% 9 w.Y y.A.g.,XW.D.4XP p CXp.h.g...f.S.+XS.S.+XS.#X#XoX#X#XoX#X3X#XeXaXd.~ 8 2 wX,Xg.D.D.xXSXxX2X2X2X2X2XD.Q.2X6XdXgX8XrX<X4X,XtXy.X  .8XD.6X7X6X6XwXwXOXwXnX3X5XwXqXF.mX5XaXnXaXqXaX$XbXG G -.&X&X$XoX$X&XqX&XqX&X&X#X#X$X#X#XOXOXOX#XOX5XF.OX1XD. .8 NX4X4X1X7X1X7X6X6X7X1X1X8XrXwX6X6X6X6X5X6XsXsX3XrXS.q qX$X$X$X+X+XOXoXF.F.F.oXG.G.OXOXoXF.oXoXC.OXF.G.g.T p S.g.a.u.u.5.,.f.u.>.u.u.u.u. .y.y.A.y.q.q. ...( q.q.:.# 5 U k y y k y k K e 7 # 6 D.y.) h.t.i.' % % 5 K j R k U R O.k 7 O #   ",
"  <.+ Y ` ` g./ j.` m P $ % % :.:.:.a.y.q.r.*.! & # : 5 5 w 4 5 5 y R y K 7 p.Q.p.Q.Q.yXh.r.dXyXQ.i. .O.O.w.R O k h.i.y.D.A.D.D.h.h.r 7 8Xq.g.g.y.u.( a.OX3X+XoXC.oXC.C.#XqXeXqX+X#X+X<.< p q nXOXq.2XxX,XW.8XdX6X8X6X6X8X8XrXrXgXxXrX8X4XrXrXgXe.+ gXrX2X4X1XmXjXfXjXhXhXhXjXjXjXpX5XfX5X#XnXnXbXbXbXbXG F F ;X&X#X&X&X&XaX&X&X$X&XqXqXqX5X5X3X#X#XOX1X#X1X6XOXF.r r 4X1X6X,XOX3X3X3X5XwX4X1X1X3X3X1X5X6X5XpX6X6XpX5X5XS.C 5X#X$X$X#X+XoXoXF.F.S.S.oXoXoXoXoXOXOXoXS.G.S.F.G.C J 6Xf.C.u.C.1.u.>.1.1XV.u.!...@.u.@.@.w.y.i.u.w.i.w.q.` $ : . % 7 t 9 7 = X . w % r y.i.+.i.t.i._ % 1 r E k E l E U 9 r 9 6 4   ",
"  ^ . H :.e.q.P ( r  .` 6 # 5 e.*.e.a.y.y.y.0.*.& X r R ) ) ) O.E E E { / % O.p.@.p.i.p.@.E t.@.+.O.` O.{ ) 6 * 7 w.K r j R R j +.+.$ 6 i.q.y.OXOXS.e.D.<Xi.D.<X3X3X+XS.+X+X+X+X#XeXZXNXNXZXW BXJ r.g.0.( 0.Y ( +.@.u.D.dX9X4X4XrXe.y.OX4XrXrXtX0.+ NXgXD.,XhX4XBXZXCXjXOXOX6XpXpXqXeXC.Z aXnXnXbXbXqX.XS F F =X#X&X#X&X&X&X&X&XoX$X5X#XqX5X#X#X+X5X3X3X3X1X3XF.G...g.1X1XOXOXOX3X3X#X#X3X3X5XF.H.#X#XOX#XOX#X#X5X5X$X5XfXC qXOXoX$XoXoX.XoXoX.XoXoXoXoXoX$XoX$XS.oXoXF.Z.Z.F.- Y 8Xg.F.g.y.D.g.q.u.V.u.p.!.u.p.@.@.@.@.w.r. .q.y.q.q.` $ 6 R K 7 * w r j j P r % P y.0.0.j.i.j.] # 5 I K K U k u u 9 : 4 : 6   ",
"  &.q p e.:.4 r j.r y.:., % 5 e.L e.k.y.y.! e./ # & / +.O.O.@.t.@.{ E +.k X O.V.+.q.+.@.@.@.@.+.+.+.O. .y.) & . ` +.e q.,X0.( e H ) $ i.,X` ! j.d.k.d.y.k.:.:.q.e.u.e.a.a.d.y.y.+X3XJXNXnXJXq eX<XwX<X<XeXeX4X4XrXrX<Xj.4XD.j.4XLXZXZXZXjXgXtXNXr.# SXSXh.A.W.dXrX4XD.OX,Xd.S.a.a.<XeX+Xf.^ s.oX+X[..X<.A M < .XC.oX#X&X#XoX#X$X5XqX5XpXOX+XoXu.^ S.S.OXF.F.F.OXF.F.wXOXF.G.1X3X1X1XOXF.F.,XF.OX1X5X5X5X5X$X#X#XOX5X$X#XfXq #X$XoXoXoXoX#XoXoX#X#XoXoXoXoX$XoXoXoXS.S.OX5.f.S.J $ K r +.j J h.D.8XdXp.w.p.g.+.u.i.y.w.q.q.+.( q.`  .` ` & w t.w.) H ) w.0.` +.i.X H j.! <X<Xi.i.] , 5 H 5 * X . . o # % % X X   ",
"  Z r 5 r + C :.[.2 0./ 6 # 0 e.W u.k.k.y.y.k.*.+ % ) ) O.{ ) ) ) E @.E  .. K A.W.y.@.w.@.@.p.w.w.i.i.D.8X) .  .q.R Y ( 4X4XD. .P e % K h.g.j.j.4X4XgXfX1X7XD.D.,X6XwXwXrXrXrXgXhXfX4X,XtXnX8 LXSXBXCXVXVXzXgXxXnXhXrXrXV.A.dXxXgXLXLXCXNXgXNXNXr.# gX<X<XcXdXQ.2XCXLXGXNX8Xy.8XVXSXjXBXDXpXOXOX>.mXDXZX<.0 5.,.1.Z.C..XC.+XOX+XqXpX3X3XfXtXwXwXeX4XOXS.u.u...,Xg.y.4XD.f.G.F.OX4X1XD.D.D.D.g.j.,XF.S.F.S.G.S.f.a.C.oXoXfXp qXoXoXC.oX$X$XoXoX$X$XoXoXoXoXoXC.C.oXS.S.oX+XoXe.w  .+.) - . R I . k t.E 5 y.i.Y w.w. .0. . .....( :.(  . .& 5 q.j.i.r.i.h.` / H / X ` 4X` h.h.r.D.' , 0 * X r U ) w.p.i.i.h.K X   ",
"  @ 2 q.e.f./ *.e.q e._ 4 % w 0.e.f.y.e.k.0.k._ + # H R ) U U E l l E r l.t e 0X@.p.p.z.@.#.@.@.@.+.+.i.P r H tXy.4 Y Y p T ..j.tXe X . 9X9X4X2X1XrXsX6X6X6XgX1X2X4X4X1X6XwXwXhXpXpXpX6XjX>.p BXiXdXzXcXcX9X2XW.<X<XD.W.F.2X8X7X2X+.w.q.>.T ..e r $ GXdXrX6XfXwX3X1X3X1X+XjX+XnXwXwXqXeX+XwXjXhXjXDXZXZXA q JXnXaXqXaXbXnXaXaXqXqX#XOXF.pXjX3XjXjXfX5X6XwXrXA...g.g.h.D.D.2Xg.u.OXwXfX6XfX6X3X,XrX3X#X3XwXpXwXeX#X#Xs.<.+XZ oX.XoX$XoXoXoXoXoXoX$X$XoXC.H.H.H.H.C.S.oXOXC.OXa.p p.R ) +.9 w.h.e @.A.t.O.w.i.) q.q. . . .)  .`  .0.q.0.Y & 4 j.h.h.r.0.0. .P P H & / Q.H w.h.i.h.' % 4 4 % t.h.t.i.h.p.p.h.y &   ",
"  2 8 y.d.+Xj.j.j.C ! _ 4 % r f.f.u.e.y.a.:.e.*.+ # ` +.@.{ ) E E E E U +.{ 7 0Xu E #.t.p.p.p.w.t.w.+.i.R . w.q.) Y +.+. .>.+X .D.% & P 2XW.D.D.D.+Xd.+X#X#XqX#XOXOXOX+X#X3XOX#X#XqXqX3X3XZ u.xX,X!.2XW.0XBXVXNXrX4X4X4X,X3X,Xj.,X,XA.D.W.D.i.2X) $ CX2X+X#XoX#XC..XC.+XoX#XqX#X&X$X#X#X#X+X.XoXoX4.s.bX-.S ZX#XC.$XoX$X&X$X$X$X$XoXoX$X$X$XoXqXOXOX#X#X5XpXW.W.gX..2X1X1XgX6X1X6XwXwXwX7X6XsX6XC.fX#X5XqXeXqXbX&X&X&X5.oX^ <.oXH.Z.H.C.oXoXoXoXC.C.C.C..XoXS.C.C.C.OXoXC.G.( T i.k k T R : % +.+.t.+.w. .r +.t.+.O.)  .O.O.+.q.0.) ' H & 6 0.) q.` 0.' ` / y r & r g.r  .h.i.h./ % 1 : 7 @.) @.+.w.p.q.t.e &   ",
"  2 2 q.e.a.j.y.y.H ` ` $ # w f.>.:.e.e.e.e.,.:.X $ U R ) @.@.@.t.t.O.k 9 ) K O.@.t.{ { +.O.{ +.O.w.q.+.q.O.. 6 h.h.A.<X,Xd.<X:.6 p - g.,XD.D.OX+X.XC.+X.XoXC.oXOX+X+X+XoX.XoX#X#XoXOX#XeXZ wXhXD.<X4X4X4XF.F.,X<X4X4X4X,X4X<Xj.S.g.4XxXNXNXsXNXj.6 gXOXa.oXoX.XoXoX#X.XoXC.C.oX#X#X&X&XeXoX.X.XXX.X5.7.2.M LXqX#XoXoXoXoX$X$X$X$X$XqX&X#X#X#X#X3XwXqX5X#X1XOXrX,XJ 3X6X1X1X4X6XwX3XOX3X5X1X3X3XoX&X#X#X&X*X*X&X&X%X&X*X.XA p $X@XXXXXH.oXC.C.C.oXC.C..XC.C.C.oX$XoX<.C.a.>.r Y O.7 7 R K K h.x.O.) +.q.R E w.O.K j R ) ) O.@.w.q./ / y & % ` K ` R / / K j r U * 9 <X+.Y q.r.D.J $ $ $ 9 @.+.w.q.+.w.{ ` w X   ",
"  q % J ! P H / j._ ! _ $ % r e.~ ;.f.e.0.k.k.0.& 4 q.+.@.O.O.O.O.O.O.U K w.+.@.E i.t.+.r.r.+.w.w.@.w.y.+.i.i.( . R i.q.i.h.j.e . y & i.A.a.S.oXC.C.C.C..XoXoXoX+XOXOXoX+XoXoXoXoXoXoXoXeXq CXtXOX3X3X<X<X,X3X4X4X4X4X4X<X4X4X,X3XrX3XeXOX4XhX4X+X;.| 6XS.+X#X#XOXoX#XoX#X#X#XoXoX#X#XoX#X#X#XnXbXZXnXwX5.0 ZX+XoX$XoX$X$X$X#X#X#X#X5X3X#X3X3X3X3X3X3X3XwX3X1X6XrXeX4XwX3X1XF.,X4X,XOX+X#X#XOX3XqX*XqX&X&X*X&X&X%XXX&X*X&XS 2 5XH.oXC.H.C.Z.Z.oX#XoX.XC.1.1.Z.C.oXC.Z.oXf.~ 8 Y j : * K I y q.R j Y +.) E q.+.R ) K ) U U { { / U K P r & 6 R I K ` / ) ` 0.) U * 9 Q.w.q.i.i.h.j % # & : ) @.@.+.+.) ) R w #   ",
"  M # ( :.:.` :.j.` e ` $ % r y.Z _ d.e.:.` e.0.# $ E +.O.E E E E E E R R @.O.p.O.@.q.+.+.i.y.w.g.h.h.i.p.y.y.D.w.o . w j K e UX/ t o 4Xf.u.S.d..X.XC.C.C.s.Z.C.C..X+XOXoXoXoXoXoX3XoX+XeXe SX4X6XsX4X,X4X4X4X2X2X4X<X4X2X8X4X4XhX>.. . w / * . 3Xf.- y.OXoXOXoX#XOXOX#XqXqX&XqXqXoXC.#X#X#XoXqXJXJXnX#Xs.0 ZX#XqXoXoX$X5XpXqXqXpX5X#X#X#X3XwX6XwX3X3X3X1X1X1X1XrX+.sXsX7X2XF.F.,XOXOXOXOX#X3XqXeXoX&XqX*X&X*X&X%X&X&X9.5.-.< s.1.$XS.#XZ.#X&X&XoXoX.X#XZ.C.oXC.C.C.#XoX#X#Xq 2 8 # 7 w 5 5 . 4 r P  .) O.q.@.R { ( ) j U ) ) ( K j K K & 5 0.0.U K ) ` 0.` K U * o O.i.w.w.0.i.e % # O : U ) O.{ ) +.R H 6 %   ",
"  M @  .e.q./  .g.! e 0.$ % e a.;.>.e.:.e.e.0.' & * @.#.O.{ E E E U E E E @.+.t.t.@.q.+.q.q.+.+.+.0.+.0.q.q.q.q.y.y.& X H 8 j.NX4X .K D.Z.Z.s.C.d.oXC.oX#X.XC.C.oXoX+X.XoXoX#X#X#XeXeX#XeXq BXOX6XsX6X6XgXwX1X,X<X4X4X4X2X1X,XsXY . 2 q mXZXeXk.. e 6 . d.eX3XoX#X+X3XqXoXoX+XOX#XoX.XoX.XoXoX#XoXOXaXnXnXq eXeXoXoX$X&XqX3XqX5X5X1X3X3X1XwX6X1X6X6X5X6X5XF.1X1XwXD.gX6X5X6XjXF.3X3X#X#X3X3X1X3X#XaX&X*XXX*X*X*X&X&X&X XA A 2 ;.&XqXs.#XC.Z.#X1.#XoXoX#X$X#XC.Z.oX#X#XoX#XeXC 2 4 Y Y R j K 9 r K K j R ( w.+.U K R j U { t.U j K U K K 6 K 0.q.r.R ) ` ) H H r % * { +.( +.i.4Xe # w & 6 ) @.+.) +.) w.I w 4   ",
"  C @ ` e.q.0...OX` ! 0.4 : r e.>.e.,.e.e./ _ / & * j k ) @.@.O.{ E E k E O.@.q.i. ...) +. . .q.+.+. .0.q.w.r.e.e.a.P X r w.) q.h.k O.8XC.s.s.C.+X.XC.oX#XC.f.s..X.XC.d.+XOXOXOXOX+X+X+XeX< ZXOX6X2X6X6X,X1X<XF.,XW.W.W.W.6XgXy.2 ,.S C.mXnX3Xd., 1 5 H H nX3X+X.X+XOX#XoXoX+XoX.XoXoX+XoXoX.X+X.XoXoXnXLXq eXeX3X#X$X&X3XOX3X3X#X#X$XpX5X1X3X1X#X3X1X5XwX1X,X4XwXy.4X2XOXOXOXG.OX#X#XOX#XwXOX#X#X&X&X&X*X*X*X*X%X*X*X=X=X3 @ ^ eXbX&X.X@X-..XZ.C.#X.X$X$X#X$Xs.oX&X&X#X+X#X*.0 r  .R j K K j 9 j r $ 7 ( R j j K r y R +.) r R R K P / H j 0.r.0. .q.0.P 5 R R y : : ) q.( h.<Xr & w & y ) ( R ) { { { y I *   ",
"  q @ ! :.e.e.q.D. .! 0.4 - r e.:.:.:.:.q.e.e.P X % R R U { E { E O.{ { l U O.O.w.) (  .+.+.` +.+.q.w.q.+.q.i.i.q.OXh.o K zX+.U { k @.!.,Xa.d.d..Xs.Z..X.Xs.s.s..Xs..XoX+XoXOX#XoX.X+X+XnXq ZXwX1X1X7X6X3X4X4X4X,XF.OXS.,XsXa.e.pXnX;.ZXJXBX<.. . . ` NXH y.<XOXoX#XoXoXoXoXoXC.oXoXoXoX#X+XoXqXqXoX#XqXfXC fXwX5X3X5X#X#X#X#X#X#XF.F.C.F.OX#XF.F.OXOXF.OXG.1X,XOX! F.F.OX#X#X#XOXoXoXOX#XOXOX3X#X$XXX*X*X*X*X*X%X%X%X%X%X9.3 9.aXaXaX&X&XXXZ.aX3 ^ #X&X.X$X$XZ.#X$XC.C.s.d.5.Z 2 r e 7 w 4 7 y / R O * j r K U K w : y U K k R j r P ` j e ` q.q.) R +.0.0.r./ K * 9 Q.h.O.R ` e # 6 $ 7 j 7 6 r r H e % $ $   ",
"  q $ :.e.e.` 0.i.Y Q *.6 2 r e.:._ ,.e.,.` ' P & # y y k E ) E { E E U k E O.@.q.+. .+.w.@.+. . .) q.q.@.w.w.i.i.D.E : k t.i.{ 7 6 . 7 K S.S.5.Z.7.7.s.Z.s.f.s..Xs..XoX.XC.#X#XoX#XOXoXbXq OXOXe.G.G.u.d.OXOX+X+Xe.+X( e.0 . BXnXnXZX+X..@ . #XAXeXr. .P . S.+XoX#X$XoX.X.X#XoXoXC.oXoXoXoX$X&X$X$X#XoXd.W ^ eX#X+X#X#X#X3X3XqX3X6X6XOXfX5XF.1XOXOXG.G.G.G.W.2X4Xg.W.G.G.3X5X5XOXOXOX3XOX+XOX3X#XoXXX*X*X*X%X%X%X%X%X%X%X}.V |.bXaXaX&XaX-.*X7.<.oXqX#XoXoXoX$XXXZ.Z.XX2.s.[.0 Z ` w # w r R ) K 5 : j k U U U U r K * y R U ) R j / ) ) e +.7 r r ) 0.` P e / / u 7 w.j / Q.i.r & 4 4 ` 6 & & . . . X X 6 5   ",
"  0 2 e.:.q.(  .q.w (  .6 $ w :.! :.,.e.:.*.*.] & % e j ) { { ) K K y j k E { p.h.w.@.y.y.w.@.O.) ( (  .@.+.( O.w.E . : O : 6 * % & % O 4 D.a.1.7.N.7.9.7.s.5..X+Xs..X.XC..XoXoXoXoXoX#X<.2 . @ @ e. .T A Z Z Z ^ ^ W C . # # w e.a.tXq . ! ZX+X+Xk.CXtX0.j.S.oXC.#XoX#X#XoXC.oX#XoXZ.oXoXC.C.C.Z.C..XC.+XZ q OXOXOX#XoXoXS.+XOX3XpX5XwXfX6XG.5X1XNX1XF.1X4XW.1X1X) xX1XF.3XOXOX#X#X+XOXOX+XoX#XoX*XXXXX%XXXXX|.|.%X%XXX%X%XV :X=X&X&X&X%X3 p A bXaX&X&X$XoX#XqX&X7.8.7.5.*X[.S ^ ;._ J $ 7 j * X r ) w.t.{ k E t.E R R . . 7 y r / / ) ` U ) R J q.+.) ) R +./ r U 7 X r i.yX+.w # 7 6 { w 7 r $ & & . & # e   ",
"  3 + P _ :. .q.i.p ` q.6 2 r :._ :._ :._ / *.Q # % H R E E E U j k U u 9 k K { t.w... .O.+.t.w.)  .K j k j 9 O.k 4 % j K 6 . . . o * K ( T J >.>.a.d.f.d.d.f.f.S.Z.;.C f..X.X.X.X.X.X<.W 2 $ :.:.~ >.a.a.s.C.C.C.C.C.+Xe.X P % . 1 6 0 m d.d.. . + 0 f.JXnXqXZ.C.oX.XoXoXoXS.#X#X#XS.oXS.s.S.f.a.C.+XS.k.2 q nX3X1X#XOX#X#XOXS.S.u.f.u.u.u.C.Z.a.g.a.jX6X2XF.F.+XY gX1X1X#X#XoXS.S.oXOXoXoXoXoX*XqX9.A -.F F F F F F ].&X%XD ;X=X=XaX=X5.-.7.&X&XoX@X&X#X.X#XqX&X<.-.oX#XeX+XS A ^ T Y 6 4 : % % H w.i.p.+.9 K R E 6 7 * 7 e e j ) R Y R ) w ( R ( ) Y ) H R K j k 7 7 +.i.y.l.5 % 7 * 7 1 5 w * & 6 e 5 % e   ",
"  3 @ ! _ q.( g.g.J  . .5 , 0 _ ! W _ :.:.0.` / $ * U k 9 k o.#.O.@.E E U { { R K 8 R h.h.+.i.) k k ~.uX9X9 5 r * [ [ k j E R K e $ X O : 9 9 9 k p p H p T ~ q.i.Y u...| ~ ~ ^ ~ | >...:.8 % | e.e.| | 1.s.C.s.s.s.f.+Xj.t t . . . t 5 e Z ! 6 % # 5 :.S.wXqX#XoXoXOXOXS.S.g.a.S.+XS.d.e.e.e.u.e.C.OX3X+X0 C nXOXS.OX1XsX3XOX1XF.F.F.F.OXOXG.G.3XS.wXwXG.F.G.F.f.C OXG.OXF.F.Z.+XoXZ.S.C.oXoXoXoX&X7.3 S F F G 3.|.{.F 3.F D ;X&X$X&XoX@XXX&X=X@X@XXXXX@X.XoX.X<..XC.>.a.#XC.S A ^ ^ p 6 : r K e & e R R ) U { E { +.J  .+.q.` ` / ` / J J 6 ` i.0.0.q.) { R K y y : 6 ( i.r.` t % 6 * y w.@.U w.@.i.t.w.5 r   ",
"  3 % q.y.y.` Y ( H q.q.6 $ 8 :.;.:.;.~  .e.k.` # * R E { k k U E k u k u l { p.#.9 U t.#.{ E R U 9XlXE.xX4X: 6 k E u u = u k p.x.7 . r * . . : 5 # w ! _ a.OXOXOXG.wXF.1X| | ..>.u.>.G.OXp p S.OXS.G.a.a.f.u.a.OXS.e.rXe.2 f.3Xa.0.e , . w +X/ I % m W ~ C.C.C.e.,.q.( Y 5 r w 6 w ! ! Y J H ! ..:.:./ / P 5 j.y.e.a.d.G.S.D.g.V.a.G.F.G.D.F.OX1Xa.3XF.S.D.g.S.f.Z OXa.a.a.#Xa.#X#X#XC..XC.$XoX.X#X*X~ A F D F XX&X3.F }.G F ;X=X&X$XoX=X@XXXZ.XX X XXXXX Xs.7.Z.f.a.a.f.oX<.S A -._ 8 # y +.i.+.K X . . j { #.{ y R +.+. .0...) ..` / J ( r P ( p J ` ' R ) ) U U 7 : q.,X<X<X6 % 5 o u U E @.@.@.t.E R 4 6   ",
"  M & e._ _ ` ` q.( r.y.6 - w e.u.:.e.q.:.( *.! % $ j E k u k x.x.Q.#.7 k E [ #.t.#.[ #.l u k 7 t.GXQ.Q.Q.8XQ.: > #.h x [ [ Q.9 t.t.K O.D.OX+Xy._ d.j.S.C.+XS.oXS.OX>.wX3X#X1.1.f.s.1.~ S.r C LXCXNXBXBXVXBXsXF.1X#XOXwX<.. nXZXBXnXtXeXOX_ . w ' y 1 P J ) ( ( C 5 . . . y.S.OXOX| ,.e.;.C.OXwX+XS.:.0.0.6 J +XOXOX+XS.+XD.D.a.u.u.f.e.e.a.a.a.a.u.>.a.u.f.y.` >.q u.>.:.>.e.a.f.,.>.,.f.1.1.1.7.s.s. X7.8.3.F F 1...Z.|.F |.|.N.1.Z.XX@X@XXX XN.Z.N.7. XXXZ.Z.Z.s.s.f.d.d.,.3 S A M 2 + 1 ` @.) #.@.@.x.@.O.O.E 9 R ( ` / ( ~ ! _ / ` ` j.p 0.( q. .` 0.{ ) { U @.u r <X<Xy.<X6 % 6 O y O.@.@.E ) E { U 4 2   ",
"  Z X J :.:.q.i.` ( y.i.- % C e.` / ! :.( C Q m 4 4 K K k k = k @.{ y E o.l E E R u U p.[ E p.k U VX0X8XcXzXx.{ #.z.#.z.#.{ cXy . k +. .S.eXwX+Xd.C.e.,.f.C..X^ @ @ 8 >.wXpXa.s.Z..XbXbXmXZ T LXxX8X<X2XdXxX3X1X+X#X.XoX&Xf.0 :.3XnXmXmXmXZX+X% . H e e.+.9 r 5 . X 6 $ +XmXpX&X5X$XaXbX&XqXqXqX3X3XBXwX3X5 e.nXpXeXeXeXfXwXfXnXeXfXeXwXeX3XrXfXrXrXwXeXwX3Xj.[.,.^ wX#X#X3X#XwX+X.Xf.oX&XXX#X*X*X&XbXbXbXbX;X;XG F oXd. XG F -.A -.4.8.].}.7.6.8.5.1.<. X X7.8.7.5.1.s.2.s.,.2 M M 0 e % . r * U E @.p.#.@.O.U = +.O.) ` / P P W / _ 0.( ` H e ) Y ' ` / / +.U 9 k : 6 *.j.j.[.w % I * { w.R K ) { { +.{ 6 #   ",
"  A X J .. .y.r.( J ` 0.$ % r P L / L J 2 6 4 5 w 6 K U l k 9 O.#.@.[ E l O.k r p ( g.D.2XdX2XF.OXsX6XeXfXjX6XjXSXSXSXSXSXLXCXNX<X0 . nXfX#XoXoX.XC.d.C..XoX#Xf.! q . . P wXF.S.oXqXAX[.nXA Z nX+XoXoXd..X.Xs..XoX.XoXXXC.#XtXa.r q u.S.f.d.OX6 2 8 | ~ i.R r $ # e w & 3XnXqXqX#XaXZXmXaXqXfXnXfXS.tXd.d.C f.oX.XC.C.oX.Xd.d.d.S.G.OXS.a.d.C.d.C.C.oX.XoX.Xa.eX>.>.#X.XoX&XoX.XXX.X*X*XXX*X&X*XXX*X*X%X}.}.}.%XXXXXaX.X1.S F ;XbX&X*XXX*X*X&X*X*XqXqX&X Xs.5.f.s.5.5.C.s.^ Z 0 0 0 C ' : E ^.u * 7 y k 7 k . . O.y.R P ` Y J w q J C p w 6 j w K / I I r H y u u u : t r.k.j.j.r # r o U p.O.O.{ { O.{ K 1 $   ",
"  &.X w ..(  . .P 0./ e # & 4 r e 6 $ $ w 8 w 5 4 4 ) t.o.#.l z.#.#.o.[ U r J ,X3XoX5XwXwX#XC.C.oXC.oX#XoX.XC.C.f.Z.oXF.oXoXoXs.DXnX2 ZXoX1.Z.s.C.C.$XoX#XaXnXaXrXrXa._ % 8 e.f..Xd.f.,.2.~ p oX.XoX$X*X*X*X*X.X.XXX*X*Xs.5.oXwXoXoXC.oXoXoXf.W @ 2 p r j j % O r 0.( @ T nXaX&XaXZXLXJXnXwXwX3X+Xy.. 6 j.Z eXd.C..X+XOXC.+XS.S.C.OXoXS.+XC.C.C.S.C.C.oXC.C.d.eXe.;.#XoX.XoX*XXX X X[.]..XXXXXXXXX XXXXXXX}.%X}.XX@X.X7.A 3 F :X*XXXXXXX}.6.6.N.N. XN. XN.XXZ.Z..X.XoX#XoXwX3X. , e.0.w.j E @.l O.{ [ u 9 9 . O.g.y.q.` ` _ ! ~ _ *.! ( / R P / 5 P +.+.R K K k u u 9 j R { t.w.y * 7 o E z.@.@.#.@.O.{ U t 2   ",
"  <.@ & 5 w H ! 6 5 w X # # & % % % 5 H r r R +.% 9 @.#.E o.k @.[ { { ) T r ..s.1.5.1.1.5.7.Z.7.4.5.-.<.s.s.f.f.f.5.f.a.Z..X@XC.#X<.3 nX@XC.Z.1.5.5.Z.$X&XnXwX#XeXwXnXmXnXd.Z q 5.oX+Xs.s.<.8 aXoX&X*X*X&X*XXX7.XX*X].]. X7.7.XX.XZ.XXXX@X*X&XbX2 % 2 r e 9 6 R 0./ y.OXZ ^ qXoXZ.#XwX4Xg.q.Z 2 . H _ ` j.e OX.XC..X+X+XC.S.C.C.+XC.f.d..XC.C.C.C.C.C.C..X.Xf.s._ Z OXs. X X]. X]. X]. X[. X.XXXXXXX XXX}.}.XX}.}.XX<.oX| S V :X}.XX}.}.}.}.}.6.6.8.8.6.7.7.8.8.8.8.8.7.1.C.eX^ @ 0.g. .: T T ( O.O.l k o . H y...:._ ! _ ! >.e.e._ ( / P P Y r L )  .) +.+.u 9 k u u u k l E U 9 k 9 O @.p.@.#.$.@.p.E t.H #   ",
"  <.@ # & . # % $ % & # # # , 4 , % % , 4 p 0.( 5 9 ) #.[ [ k O.7 k E H / H | Z.1.5.5.<.1.<.-.-.1..XZ.@XZ.f.5.5.f.7.Z.s.7.Z.Z.s. XF S .XXX8.N.7.5.f.1.7..X*X*X.XeXaX&X&X&XqX&X.X-.&XbX.X*X7.3 nX*X@XXX.X X X XN. X7.7.XX*X*XXXXXXX X5. XXXXX XeX;.@ . . . . . r 7 / 7 <X,XI + ! ..:.r . o : y.NXLXLXSXhX` e aX+XoX+X.Xd.C..XC.oX.Xs.s..Xd.s.d.C.C.C.C.d..X.Xs.d.f.Z #X7. Xs.Z.7. X X7.7.[. X[.XXXX}.}.}.}.}.}.}.XXXX8.].;.5.V ;X|.}.}.}.].}.}.6.6.6.6.6.6.8.8.5.8.5.7.s.7.5.s.#X% % :.P # ) E E E k U k o # i.( _ ~ ^ &.~ _ _ y./ J H J H H H r r.R r j k k l l o.[ h u k u 9 j k { : * @.@.[ o.#.#.p.@.@.R $   ",
"  2.% & $ $ # & & & # + # $ $ 5 4 $ 6 6 5 5 % : 6 7 U O.O.O...O.7 j  .J ` ( | C.<.8.7.7.8.8.Z.Z.Z.oXZ.N.7.N.Z.Z.Z.Z. X XN. XZ.7.6.F F  X9.-.-.-.s.s.A < s.*XoX.X*X&XXX.X X7.8.XX*X&X*X9. X X@ &X7. XXXXX*X*XXX X}.].XXXX XXX*X*X8.8.8.XX8.].*X&XZ 3 f.d.oX.X#XOXd.S.f.q 0.( +.P C 0 + q e.q.g.xXZXVXSXLXNXW JXC.oXC.d..XoXC..Xf.d.s.f.f.s.d.d.a.d.d.d..Xd.f.d.d.f.Z +Xd.s.d.s..X.X5.s. X.X X]. X X}.}.}.].}.].}.XXXX6.9.A S V |.}.].}.XX}.}.}.6.}.}.}.7.6.8.5.8.8.8.5.7.7.7.5.d.% Q j.) 7 k k l [ [ #.t # # k.! ~ ^ ^ ^ ^ _ / t % H P U j j 5 / P p C e k h k h > k u 7 : 6 : : : r 9 9 r 7 = : : 7 = : 7 : 2   ",
"  2.Z 2 % . . . & & X X % 4 5 6 % 4 6 6 6 4 + . . % - . X 6 9 9 j Y 6 Y  .>.~ C.7.Z.Z.Z.Z.Z.Z.Z.Z.Z.7.7.N.N.N.N. X X X XXX X X9.}.G F ;X&X%X@X&X&XXXA 3 < s.*XZ..X X].XX X}.}.7.].6.}.4.8.].< &XN.N.XXXX@X@X@XXXXX}. X}. XXXXX X8.8.8.4.s.*XXX&X3 <.bXMXbXbXbXaXaXbXMXmXu.w h.w.r r e.F.S.1.T p p  .sXg.NX2 +X.Xd.7.d.d.C.s.C.d..X.Xs.d.d.d.S..X+XS.d.+X.Xd.f.d.,.Z d.s.d..X[..Xs.s. XXX X4.s.Z. X X}.}.N.}.].6.6.6.3.XXXX3.V |.}.6.}.}.}.}.].6.6.6.6.].7.8.7.8.8.5.5.5.5.7.[.f.+ C d.u.e R E k k k : . * # r.L L W ^ ^ ! :.` ! _ _ H r I j./ Q ` ( @.R 9 k a a 9 > . . . o * : 4 r 6 O : @.E U [ O.[ t.i.) %   ",
"  2.q w y I I H r w 5 4 $ 1 % y ) J 4 8 r p J P e r 5 / i.F.A...y.g.J C ( ~ p +XoX.XXXXXXXXXZ.Z.7.Z.}.Z.Z. X XZ. X XN. X XXXN.9.|.F F %X%X X XZ. XZ.XX7.< 3 <.&XXX*X&XXX}.}.}.6.6.].].6.6.7.q *XN. XXXXXXXXXXXXX}.}.XX@X@X X}.N.N. XN.Z.XXXX*XaXq .XXX X8.].].8.XXXX&XmX~ + - - 8 J >.u.u.Z.f.f.5.;.q >.+Xq .X.X.XoXC.C..X+X#X+XC..X.X.X,.OX+XS.d.f.d.d.d.d.f.f.,.q .Xf..X.Xs.[.s.[.[.s.7.s.Z.s.7.N.7.}.}.}.4.6.6.].].].3.].G %X}.}.}.}.}.}.].6.6.6.6.].N.7.7.7.8.5.5.5.8.7.d.M @ L Y / H R t.@.E k 7 : 6 # r.j.e.^ ! ~ ^ ~ ! *._ _ `  .0.e.! :.0.i.O.l $.p.$.@.X.E O.{ k 5 . . o % O o x.0Xz.p.z.E.p.#.x.P %   ",
"  A % X 7 K P P P ' / K ` 4 * O.@.i.+./ q.w.i.i.q.q.J y.W.V.u.u.q.q._ M Z | p s.C..XXXXX X X X X].7.}.7.Z.XXXXN.7.9.4.7.4.8.7.4.|.F F 6.4.4.6.9.8.6.XX=X7.@ + s.&X&X&X X}.N.6.6.8.6.6.].XX&XA aX}.}.6.6.}.XX X@XXX*X*X@XXX X@X@X X X}.7.7.XXXX XM 5. XXX*X*X*X*XXXXX&XoXoXwXk.% 6 0 < | f.>.;.<.Z.7.<..X+Xd.f.3Xd.oXf.,.d.d.s.oX.X.XoXOX+X.X.Xd.d.d.d.oX+Xs.f.[.k.M #X[..X[.[.s.s.s.[.[.8.Z.4.S 4. X}.}.].].6.].].].].].6.3.V MX].}.}.}.}.6.6.7.}.}.}.}.}.N.7.7.8.5.5.5.8.5.d.- j p.V.M.o.c d l z k . = o.h X h.j.:._ ^ ~ ! ^ ! Q Q Q Q W C Q *.' K = @.#.Q.V.p.@.[ t.Q.Q.t.K * o % * o ( p.O.#.[ { ) K P 5 &   ",
"  @ + +.!.~.~.~.!.!.Q.0X4X: % R a ..u.@.@.u.@.u.V.A.p u.q..... .| ~ ,.Z q d.~ ;.s.s.7.s.Z. X XXX}.7.N.7. X X| q 3 3 S 3 S 8.8.-.3.D F }.4.3.8.8.6.7.7.N.N.<.^ S -.=X@X&XXX4.9.3.3.6.}.].7.=XA bX*X}.XX6.9.3.XXXXXX*X*XXX6.}.%X}.XXXX6.4.XX]. X8.< -. X*X&XXXXXXXXX*XoXoXmXmXZXnX2 ! :.@ y.w ( qXoXs.s.f.,Xu...BXf.W Z ~ ~ ~ ;.;.5.5.d.+Xd.d.d..Xd.C.a.S..Xd.d.d.e.M +Xd.d.5.s.s.5.5.5.7.5.5.s.S -.*X8.6.6.6.6.6.6.3.6.3.3.:XS bX}.6.].].6.6.6.7.}.7.7.8.8.8.8.8.8.8.5.5.5.f.+XC k %.Y.n.n.n.Y.M.b b b ^.Y.c = R e.! ^ ^ ^ ^ Q Q W W W W P Z L P K % O.#.9 O.O.@.O.O.@.t.t.O.k 9 6 * 6 . ) p.@.O.@.{ { K U 5 $   ",
"  + 8 A.Q.~.(.~.^.~.^.~.t.6 : E p.W.A...p.G.A.y.8XdXp  .>.;...;.f.5.f.<.q ^ ~ Z 7.5.7.XXZ.N.N.N.N.N.6.6.7.6.6.4.4.4.9.A S 9.9.9.}.D F %XXXXXXXXX%X%X&X&X@X&X=X=X&X=X;X;XXX9.3.3.6.}.XX}.3.6.S }.}.XX}.8.}.XX}.}.XXXXXXXX%X%X}.}.}.}.}.}.XXXX X[.@ [.*X=XXXXX*XZ..XoXmXDXeX#XnXnXk.+ ` ! * ` yXwX+X+X+Xg.<Xr Y <X/ D.a..XoXoXd.C.5.,.| ~ a.f.,.a.C.f.d.+Xa.C.C.C.f.p d.f.1.7.5.7.s.s.7.7.4.7.<.4.7.8.7.8.8.8.8.4.4.4.6.6.].3.A *X3.].}.}.}.}.}.}.}.7.6.6.6.6.8.8.5.7.7.5.<.d.Z r 6 9 l c z z z c %.d c E.d o.: X I Q ! ^ ! ! W W P L Z P P K / P R e 6 O y 7 : : 9 9 7 7 7 7 = 7 X X = X O.p.{ { @.+.{ E k 7 *   ",
"  @ q Y R @.$.E.E.^.^.^.~.U 9 @.E w.@. ...+.+./ / r p p C q q A ^ ;.^ ~ 8 q S A -.5.<.5.Z.7.4.9.9.-.-.9.3.3.3.}.N.}.}.N.}.6.8.3.|.D F %X@X}.XXXXXX@X@X@X X XN.}.}.XX}.}.}.}.}.6.}.6.9.6.8.6.N 6.6.3.6.}.}.}.6.8.}.XXXXXX@X}.}.}.XXXXXX}.4.4. X8.< &X7.&XbX&X5..Xs.s.MXeXd.+X#Xd.+Xf.+ ! q.O j.<XOX3X3X0.! 6 . . 3XsXwXF.3XOXC.C.f.a.a.C.qX+Xf.f.5.5.,.d.f.,.;.>.Y q S.f.f.f.f.f.f.d.C.s.5.<.~ 5.<.<.-.-.A A &.&.A -.-.A -.< S ].3.6.8.].6.7.7.6.6.7.7.8.8.8.5.5.5.5.7.5.[.#X@ X 6 a l %.%.l z l d d b d c z k % # k._ _ ! Y P P P Z C J r : 6 9 j r 9 O : : : : O : 7 9 9 9 K / { y O X p.@.+.+.+.( R h 7 u *   ",
"  % e p R ( @.p.E.^.^.~.Q.k 5 q.) 6 4 Y  . ...y.y.e.5 % & . J ` | ;.,.| ,.~ 8 A -.<.| -.&.-.9.3.3.3.F F F F 3.}.3.3.3.B.|.|.3.F F D G |.F F {.F {.>X{.F J.3.F F F F F 3.3.3.3.F F 9.3.A -.3.S -.9.9.6.}.N.3.8.4.3.4.4.N.}.}.}.}.}.}.N.7.6.}.].4.3 2.*X*X&XXX5. Xs.8..X*X.XoXoXoXs.#X+XT 2 ^ T +X+Xd.*.Z + @ m ;.<.| e.d.f.,.<.<.>.5.f.f.5.f.f.<.;.,.>.<.f.>.~ C C 8 e.,.>.e.f.<.^ Z Z ~ | 1.1.f.1.5.5.,.<.~ ~ ~ | | ~ ^ S 3 S 4.<.<.<.<.-.-.<.-.<.<.-.-.-.~ ~ <.f.f.f.f.f.M 2 7 : l $.%.c b Y.v b b f v b c l O % j./ J j j j P r 9 j p j L e r ( 0._ q.q.q.q.0.( ( ( Y ( | >.q.O.w * o t.@.@.) ( ( R ) U 7 7   ",
"  , _ H K E t.@.O.p.V.V.+.r 6 Y ( Y 8 w.Q.W.8XdXrXA...8 ( T T _ _ e.3XwXnXqX2 <.Z.XX&X&X%X;X&X%X&X@X@X%X%X=X;XbX;X=X@X&XXX%X@X9.V G V D F |.|.|.|.|.|.|.|.|.|.|.|.|.:X%XXX}.6.3.3.6.6.-.9.S 3 4.}. XXX X XXX XXX@X6. X X7.8.-.4.8.8.].XX X].-.2.q M .Xs.*XXX X7.7.7.[.*X.X.X.XZ..X.X.XZ.| 1..X.X*X#X+X+X<.@ +X3Xd.d..XqX#XoXoX.XC.f.S.d.S.S.d.a.d.S.d..X+X.Xf.:._ w a.a.a.OXeXOXe.<.;.,.f.f.+X#X$XoXoXoX.X#X&X&XXX*X*X.XoX2 -.&X$X.XoXoX#X#X#XoX5.~ S <.<.5.,.f.d.d.d.>.e.! 5 r % ) #.%.b b Y.Y.Y.b b %.b l 9 * # P w % 9 j e e r : 4 # OX.Xf.,.<.,.>.a.f.e.,.e.>.>.>.>.| >.~ T K % # . E O.k ) +.O.+.w.U u 7   ",
"  X 2 Y j K ) i.` +.q.+.8 8 p  .e.` :.` ( y.w.+.w...q.Y >.>.| ~ 3 d.3XZXZX.X8 ;.Z.7.Z.7.N.6.3.9.3.4.9.@XXXXXXX XN.6.6.N.6.| 9.3.V G G G F 8.4.XXXXXX}.}.}.}.}.XXXXXXXXXX}.}.@X@XXXXX}.XX*X-.< *X*X*X%X%X%X%XXX}.}.}.}.}.}.}.}. X X7.@X&X&X&X&X=X3 3 &X*X*XXXXXXX.Xs.s.*X*X.X X X.Xs.Z.s.Z.7.5.f.7.5.5..X;.3 1.5.-.5.5.4.3.4.4.3.4.5.5.,.<.<.<.1.5.5.5.s..Xs.;.f.( J C.a.S.e.f.d.,.;.>.<.<.<.~ <.~ -.<.<.-.1.<.<.<.Z. X<.f.3 -.9.9.4.4.4.4.8.<.5.5.1.<.5.s.s.5.5.5.f.&.;.,.j.L t # : U j k h h x > x b b z u : o * X 5 ) i.i.+.+.@.( . . S.5.1.f.5.;.;.~ ^ | | ....>.>...>.>.~ ~ ( 5 * X U @.U @.{ U E U * U 7   ",
"  , q _ R / P 0.j.0.' w $ w C P a.T f.y.( y.O.j P C L ^ ^ | | f.3XSXmXfXnXwXq ;.oXoX7.5.6.N.6.N.6.N.Z.N.Z.N.N.N.N.N.N.N.}.8.9.G V G V N 3 V F }.}.}.}.N.3.3.9.8.6.].6.6.N.}.@X}.}.XXXXXXXX6.< }.}.XXXX}.}.}.].3.6.].6.6.6.7.}.}.}.7.}.}.}.}. X*Xq q MX&X*X*XXXXX*X X7.XX*XXX.X.X.X.Xs.s.5.5.5.4.5.s.5.f.5.S oXs.s.<.8.7.4.4.3.3.3.8.<.5.9.4.4.9.2.4.5.5.8.s.5.d.` ! y.e.>.~ ~ L e.>.| | ~ <.5.;.<.~ | <.5.<.-.-.<.<.s.<.5.3 4.7.5.9.5.5.8.8.8.4.<.5.4.4.<.<.2.<.1.<.-.;.! ! P ' X . . = l l b v.b b b x u . . X . . ` i.q.q.q.@.p.!.9 p S.f.>.,.>.>.>...| | ~ | >.>.;.>. .| | ( / w # o U #.[ { E U k 9 7 u 7   ",
"  q q ! Q ` R r.h.h.k.1 X 2 e M _ L P ( ) A.W.w.e._ ;.&.^ ;.~ .XmXZX3XoX.Xs.q ,.#X.X5.<.6.4.4.6.8.N.N.N.4.8.7.6.6.6.}.N.N.}.|.}.N V H.H.V.| G |.%X%X}.6.3.3.9.8.6.3.9.9.9.8.6.6.}.XXXXXX}.XX3 ].XXXX}.XXXX].6.3.6.6.4.4.4.6.6.].].].].6.].].]. XA q bX*X*XXX X XN.7.5.5.s. XXX X X X Xs.8.8.4.4.8.8.4.s.<.Z f.s.s.5.9.8.4.4.9.9.-.9.1.1.9.4.4.4.4.<.4.5.s.f.f.k.! L e.f.u.:.( ( ~ ;.,.<.;.W ^ .XeX#X5.S | 1.| 5.1.<.<.<.s.S ^ 5.8.4.4.4.4.4.4.4.<.2.<.-.<.<.-.<.4.-.<.<.^ ! ! J 9 %.Y.Y.Y.v L.K.P.v v v %.l s z o.o.h E 8 ) Q.O.@.w.K q.>.| | >.>.....| ..;.;.;.| | | ;...>.e.>.` 6 o o r { y 7 y y t U y y *   ",
"  M 2 ! ! ' w y.j.k.0.6 & , ~ 0 ^ Z 6 +.y.R (  .e.| ~ | ~ ~ ;.<.-.<.A -.-.-.C f.oXZ.1.9.9.-.8.N.6.6.4.4.6.4.4.4.8.3.3.N.3.B.|.@X| Z H.(.^.FX3 < F 3.3.A F -.-.3.-.A F -.9.-.4.8.N.XXXX6.6. X3 8.}.].6.6.6.].6.6.6.6.6.4.4.4.4.4.3.4.6.6.6.6.6.].&.3 &Xs.XX X7.7. XZ.s.5.5.7. X X7.7.s.7.8.8.4.4.4.4.8.].3 + Z [.s.8.8.3.8.4.3.-.-.5.5.<.1.4.4.4.4.9.5.5.f.5.f.e.P C f.f.u.:.~ ..! W W ^ C Z +X+XeXs.1.1.q S f.f.1.1.3 <.7.M M 5.-.-.2.4.4.4.9.9.2.<.<.<.<.<.<.2.2.-.<.A *.y.J E M.Y.Y.L.g v P.K.K.K.K.b.f c c b o.%.b b b l : 9 * o . r f.>.;.>...| | | >.>.;.| | | | ..^ | ..( ' K # # 4 o . o o o 7 E 7 u =   ",
"  S 2 Q ' *.r r.h.i.j.t + % q L *.0 r u.i.q. .q.q.;.| | | ;.;.-.-.-.-.-.5.<.q f.1.1.7.Z.7.5.5.7.4.4.9.9.4.4.9.8.8.9.-.1.Z.H.(./.(.c d M.; X.M.V.H.a A A -.3.4.9.S -.9.6.4.9.-.9.3.4.7.7.}.XX3 8.}.].].].6.6.6.6.6.6.6.6.6.6.4.4.3.4.4.4.6.].].8..X3 *X7. X7.7.Z. XZ.7.7.4.7. X8.4.4.4.8.4.8.6.4.4.4.4.8.-.2 A [.7.8.8.4.4.4.4.9.4.7.5.2.<.4.5.4.4.<.f.1.1.1.e.a.T C D.>.>.` e._ T Z p 2 p a.+XOXa.a.a.<.| A ! ^ | | A ~ 2.A M s.-.<.2.9.2.2.2.<.<.<.2.<.<.<.<.<.<.2.<.A e P p %.b v v v L.K.b.K.K.v v v v v n b v.v v P.Y.Y.x o O # : j f.| | ;.| ~ ;.~ ;...;.| ^ T ^ | | | C J P w # o y * 7 7 = o 7 y 7 7 *   ",
"  S 2 *._ *.r y.p.h.h.r & & m +X[.L q ..q.u.q.q.e.>.| | -.-.-.-.<.1.5.5.5.<.8 ,.u.1.s.1.1.H.C.5.<.1.N.1.A -.5.Z.-.| ..X.^.T.T.T.R.R.T./.T.M.M.(.(.V.a Z 7.].8.9.9.].@X6.4.4.9.-.&.-.4.8.6.7.3 <.7.6.6.6.6.6.6.6.4.6.6.6.].].].6.6.6.6.].].].6.8.XX@  X].7.6.7. XZ.7.8.8.5.8.4.<.9.9.9.4.9.4.8.6.6.8.4.4.-.3 &.7.8.3.9.4.4.3.3.3.9.4.4.4.4.<.2.5.5.1.1.1.u.a.y.g.R J q.( T C ..e.q.( q - >.3XOXu.C.d.a.;.+XZ q | W ^ <.W 5.&.q .X5.5.2.<.<.<.<.-.<.<.<.<.<.<.<.<.<.;.~ Z Z Y a c b b.L.v K.K.K.K.K.P.P.K.T.P.T.L.P.v g g g v %.= . . $ 6 X J | | T ^ ! ..| ( T T T T T T T C J Y r X . . * 6 * = * u y 7 y 9 7   ",
"  S 6 ` ! _ r h.A.p.p.j & % w / C C ( L a.:.0.u.q...| | ;.;.-.-.-.<.5.,.<.;.8 5.f.5.f.1.| u.>.u.f.Z.1.5.1.~ f.oXa.V.^.T.n.R.).R.T.)._.n.b.n.b.n.n.T.T.%.a ^ A &.-.8.4.A -.-.-.-.A -.-.9.7.s.3 1.7.7.6.4.4.4.4.4.6.6.6.8.6.8.8.8.6.8.6.6.6.6.8.8.5.3 A .X.X7.s. X].7.8.3.8.4.4.4.4.3.3.3.4.8.7.7.6.8.8.4.2.C 2.8.4.9.9.3.8.4.9.9.9.9.9.4.4.2.s.,.! p @ 9 E ) U P 5 8 /  .J 5 p P ..... r OXS.( ..>.| | ~ q @ q _ q C OX<.2.;.q s.<.-.<.<.<.<.-.-.<.;.;.;.<.;.<.-.<.<.;.e ^ q.%.M.Y.P.P.b.v g b.P.P.K.K.b.P.P.T.K.g K.g Y.L.b v Y.o.> j # . X T ( ( T p p T J p p p p Z Z p T T p p r 8 : k k u > u 7 u k 7 7 1   ",
"  M 6 / L Q J g.A.p.+.5 + % , X p T >.Z @ q.w.w.u...~ | ~ ~ | | | -.<.<.<.;.2 >.s..XZ.Z.u.u.T | ..1.1.s.1.| oXC.Z.u.!.M.b M././.T././.Y.g b.b.n.P.R.T.(.: r y.^ -.^ A -.&.-.-.~ -.A A s.5.5.q | 5.4.8.3.8.4.8.8.8.8.8.8.8.8.8.8.8.8.8.8.6.4.5.5.].S < s.2.5.8.7.8.4.4.4.4.9.9.3.4.4.4.9.4.7.].7.6.6.8.4.-.3 -.8.4.9.9.9.6.4.9.9.9.9.9.9.2.2.<.0 . * : U [ 7 o o o $ R Y C r C Y ( ( q...S.f.! ~ ..| C q L | | Z Z 8 e.^ &.;.0 f.~ -.-.;.<.<.;.;.;.;.;.;.<.<.<.-.-.&.W Z Q y.V.b Y.L.P.P.v f g m.K.K.g v K.K.I.P.v g v L.v R.Y.L.Y.l > ; K Y % R  .w.T ....T T T T T ^ | Y ......Y Y / a 9 U E l u O : k 9 7 *   ",
"  0 , 0 w 2 w H K R H 5 # , , 4 J .. .T J p ) q...| | ..;.;.;.| | | 5.5.f.1.2 ;.s.8.f.Z.G.u.T 1.1.;.1.1.1.C.Z.1.>.T 1.V.X.c %.%.%.M.b Y.M.n.Y.b.T.T.f M.X.- Y 2 C ^ -.&.~ | -.-.<.1.-.-.2.f.2 ~ 5.4.4.9.4.8.8.8.8.8.8.8.6.8.8.8.8.8.8.8.8.8.5.s.[.A Z 2.M <.s.5.7.7.7.7.8.8.4.4.4.4.4.4.6.8.4.3.3.3.3.3.-.N -.8.3.9.9.9.6.8.4.9.9.9.9.9.2.2.2 @ % 5 y 9 7 7 9 9 : O . 4 J  .( p Y q.q...:. .! T ~ ..:.>.u.>.f.~ f.f.2 ;.&.&.0 <.-.-.-.;.<.;.;.;.;.;.;.;.;.;.-.-.;.;.;.! ! ` : = Y.K.P.P.g K.P.K.P.P.g K.K.b.g v v b g v L.P.L.v v c h a (  .# o R ( ....Y Y ..>.( ..C J T ( ..q...T Y 9 6 : 7 7 : : w { k { *   ",
"  , W _  .H C p r 5 5 + , 1 , $ L y.q.Y y.( p u.( q.>.,.,.>.>.>.>.>.,.,.f.;.- ..1.1.Z.u.u...g.u.+X! u.OXu.u.>.C.H.H.1.T a a u.M.c c b b M.b b n.n.c c c a k ; 2 | <.-.~ -.-.<.5.<.-.~ S C ,.8 ,.5.5.2.4.4.8.7.8.8.8.8.5.8.8.8.8.8.8.8.8.8.5.5.[.[.&.^ ,.Z Z ~ <.2.7.s.6.8.7.4.4.6.6.6.6.8.3.3.9.9.3.3.3.3.G 3.7.3.9.9.9.4.8.4.4.9.9.9.9.4.2.0 @ $ 6 9 % : u u u k 9 7 j  .D. .8 :.( J T ( _ C L _ ....:.| ..~ ^ ;.~ Z Z ;.;.q ,.-.-.-.-.;.;.;.;.;.;.;.;.;.;.-.-.<.*.^ L 6 . O $.Y.Y.K.b.K.K.K.K.P.P.g K.g v v v n n g g g g g d = 9 : 9 % . . 8 9 8 Y a J ( ../ K T K Y Y ( ( +. ...J : r ) k 9 k E k k 9 U *   ",
"  + 3XrXD.j.W.W.i.:./ *., # , % X $ 5 w , r . 8 r r r C w 8 q q C L P C p e 2 Y ^ ^ | ( g.g. .Y g.A.q.q.@.k p ^ W ,.| a >.T @.M.M.M.c d c c z M.c d z h %.V.9 - _ f.~ Z ~ ;.1.5.,.<.| ^ <.*.0 *.,.2.<.-.<.-.-.<.2.5.8.7.7.s.8.7.8.7.7.7.[.s.7.5.f.q Z <.Z Z W ~ A A 9.8.8.s.s.7.}.7.7.7.6.6.3.3.9.9.-.9.F G F 8.4.4.6.3.-.-.A A -.A &.&.-.&.0 4 $ & 8 : : k y k k k y R R K j J ( ( Y ! _ L L `  .` ( / T L L ! ~ ~ Z 0 C q q ;.~ ~ ^ ^ ^ ^ ^ ^ ~ ^ ^ ^ ! W ^ ~ ! + 8 z E.b b L.b.L.b L.b.b.b.L.g v b v b b z l h h t.#.p.Q.p.@.o . # X & j j j T j j Y R (  .+./ R e e r r w 4 r 7 & . 9 k 9 h k u 9 : * o #   ",
"  + +X3Xq.y. .w.h.Q.j.UX' # # + P H 5 4 L W ' ] e C H C P :.OX4XOX1Xg.y.f.e.- y.a.S.F.4X,Xg.- ..g.A.q.p.q.u.~ ,.3Xd.5.s.>.>.X.o.M.M.s a a h X.$.k : l o.o.k 9 R H k.p 8 e 0 q q q q Z Z L e q q 6 Z ! C q C Z ! <.,.5.,.;.;.<.;.;.<.;.-.<.,.;.Z 0 % + 5 0 Z ~ ~ S A -.-.~ <.5.5.9.-.-.-.9.9.9.9.-.F G F F G G 3.-.S &.4.A S A N S A &.A &.&.A &.e 6 5 : r : 7 U k 9 7 = : 6 j ) J R / ! L Y _ ! P R H w r e C C m C 0 e 6 2 , q 0 0 q C C C Z Z Z Z Z Z Z m M e - E E.Y.T.v b v d n n f g g b b M.%.k K 4XtX4XD.i.g.<X4X<XNXW.W.( { y p.O U O.@.t.w.@.@. . .) E l E ) O.R U K j r 7 4 # 4 $ : : 4 * 4 1 5 # #   ",
"  + q f.Y r 4  .,Xj.yXj.` + + # j.j.q.:.d.+X+Xf.f.u.r e.f.d.S.F.G.G.G.a.a.>.8 y.a.a.f.,.,._ ,.>...^ 1Xu.<.,.,.;.5. X4.5.Z.+Xk > k a a > : k k 6 4 4 4 6 O 9 r j p . 5 e.y.y.y.u.:.! q . H & 6 j.y. .( :.g.j.y.e.e.d.+X+Xe.~ ! ~ ! ~ ! T p ! m m 2 5 C ! Z ^ e..X.X+X#X+X5.A A ~ ;.5.s.s.s.7.7.-.A S F G G G V G F &.&.&.-.-.-.9.-.-.-.-.-.-.-.^ L P 6 : 9 > u : # * * 6 y 9 k K H j H P H K P / H r H t C C C C L W C P H H # e L ! L m C ^ <.:.:.;.~ _ ~ *.H 6 : Q.E.^.Y.n.b c c b n c b d l $.p.( ! *.0.! ( .. . . ._ C ! `  .q.+.5 K K k k k T R E Y R Y J H J R )  .( ) ` ) P / H & r K K y k K I H e & X   ",
"  @ L W 0 C m L e._ >._ *.& + C :.a.0.u.e.f.,.,.;.~ e.a.a.u.>.u.u.u.C.V.f...2 u.f.1.,.,.5.f.,.f.,.>.>.>.;.-.<.4.<.5.s.,.e.( . 9 E : 9 > > a > %.^.E.$.$.U . . . 4 - H j.:.u.>.>.e.,.e...8 2 5 e._ ! L T ..:.*.:._ _ ! _ :.:.>.>.:.,.>.e.e.( ~ ! # C <.,.2.<.,.<.-.-.~ &.-.^ -.2.5.s..X.X].].5.-.4.8.-.-.F G V A -.9.9.-.-.-.-.-.-.A -.A -.&.C r r K : z %.M.n.b n z 9 * 7 % . O r : j K K e K H L :.C q L ! ! ~ ~ ^ ~ ;._ :.5 Q ;.<.:._ ! ^ ~ _ ! W W Z i.4 t + . # 9 #.^.E.n c b c b z O % 4 e.! ` ~ :.~ _ ` :.*.0.k.y.j.:.>.` _ ' + H ( +.@.)  .+.+. . .:...( / ! L Y Y / Y ( / P H X H y r K U U U I e & X   ",
"  % e ,.;.^ ^ ;.k.0 e.e.Q % + ~ :._ ~ >.>.,.>.e._ q.j.y.a.e.,.>.>.1.1.1.>.~ 2 u.,.<.5.,.<.<.<.| >.| ^ ~ ! <.f.<.k.;.m y.X : u.p.X.> > > h z b Y.n.Y.b $.E.%.z K j 4 . C <.<.~ | ;.~ d.g.L 2 2 +Xk.:.:.~ ~ ;.;._ _ _ | ;.| ..>.>.>.<.<.<.;._ ~ ^ , Z &.5.2.-.2.2.<.<.5.7.4.4.-.-.-.A -.4.-.-.S S 9.4.<.<.-.V V 5.~ -.2.2.<.&.^ A -.<.~ ~ &.W H q.k h h b L.P.b.L.L.b b %.z 9 o.z 9 h l w.) P w 4 L C m W Z Z W ! ^ _ ~ _ W ~ C C ,.f.,.,.:.Z q T 9 b b M.M.b n b %.b h h [ $.z x c d = : o X - y.e.q...>.;.:._ *._ _ :.k.0.! *.:.( ! 2 L *.d.,./ P ! _ ` `  . .` Y ! ! Y T P L P P I B X I K e K I I K e y # X   ",
"  @ . ! W ^ ;.>.f.,.j.k.e # % ;.<.^ ;.;...:.:.>.:._ q r C  ...| ..>.;.>.<.~ 8 e.;.;.,.;.5.<.5.<.f.f.s.~ ;.,.f.>.! y.Q . # y.@.@.l > s h > c n.Y.T.n.Y.g v b c l ) ) O.. :.>.;.~ _ _ g.OXOX% 5 e.:.;.:.;._ _ ! | _ | ;.:...( _ ;.:.>.<.<.*.;.&.,.2 :.f.2.5.&.&.<.7.5.<.2.9.-.-.-.-.-.9.-.9.-.p q A 2.[.[. Xq 3 | Z q M S C q q 0 q q m W H / @.O.o.Y.Y.L.P.T.I.K.K.K.L.L.b b Y.b d l %.$.{ r % e Q *.*.! Z Z L Z L Z m Z Z ^ ^ 2 ,.<.*.:.a %.M.Y.n.v P.P.P.I.K.K.K.P.Y.Y.v v h > o.@.E ) y I P `  ._ _ :.0.` _ _ ! _ / ! L ! _ / P ! q _ ,.k.2.*.*.Z W ! _ ` ' I L L Q L Z Z W H e H t # ` / P H H j y t r , +   ",
"  + @ :.~ ^ ;.~ ~ _ _ *.4 # 6 *.Z ^ ~ ~ ~ ;.>.:.:.q # # 5 ` ..~ ^ ;.~ ~ | ! - a.5.<.;.,.f.~ ;.f.,.<.;.<.;.;.;.f.>.k.d.! 2 W.R @.l > z l > h c b /.T.Y.Y.d d h h > ~.zXU : R H H J J  .:.! $ L e.*._ _ _ _ ~ ~ _ _ ..;.>.e. .( _ _ ..<.<.*.~ ^ *.% ~ 2.&.2.2.<.^ &.-.^ A -.-.-.-.-.-.-.&.&.-.q S 1.5.-.<.| 8 a X.%.b c b c c z c c o.c %.h z E h b Y.R.T.K.P.I.P.P.P.K.P.P.P.g K.v b n l : . . r P _ Q m C W Q Q L L W ^ ^ L L , *.Z 0 X $./.T.I.b.f g v b.K.b.m.g f v f K.P.b d y i.e._ *.0.0.0.*.*.:._ *._ _ ` ! ! ` / _ _ _ ! ! _ w C Z *.k.+X,Xa.p r / ' / I H e H m m W L q m H % % ` Y I I y y j y e 1 X   ",
"  + @ :.^ Z ^ ~ Z ! L ! % % w ,.^ ^ ^ ~ ! ~ ~ ( ( T q 5 w 6 J .._ ..| ~ _ Z - S.f.f.,.;.<.;.;.<.~ ;.<.,.5.;.;.,.>.^ ,.f.>.D.@.p.l > d h > 9 > z %.%.> > > h > : h p.E l z.: X . . . . . . 4 _ 0.:.:.*.*._ _ _ ~ ! ~ ~ >.` R ` :.:._ ^ *.*.&.W ~ @ _ *.;.2.<.<.2.-.^ &.-.&.-.-.9.-.-.-.-.~ -.-.q ~ A A Z < - X.%.b Y.Y.n.n.P.b.n.n.Y.b.Y.n.n.z %.Y.T.R.T.K.v K.P.K.P.P.K.I.I.I.I.K.v v b n > 9 . # 6 5 t m W W ^ ! Q Q C L I H m 6 . # E M.b.R.n.c d b v f g f v g v v v m.g v n O 0.*.*.,.:.0.0.r.:._ *.:._ ! _ ! ! ! _ _ ` ` _ / _ 2 m L ! ;.f.e.` Y K H K P P L I L m e C Q P e I X % P J e H I K K B y 4 .   ",
"  + % C W Z ^ ^ W ! Q ' & # m f._ ~ W ~ T T Y ( Y ..! ( j . . $ w >.>._ _ Z 8 S.,.f.e.:.:.,.;.~ <.,.,.<.<.~ <.;.;.<.~ :.;...+.@.z s d d h ; > z o.z > z h h E = y 9 * 9 y y k k U E j U P 5 Q :.:.e.e.0..._ _ _ L ! :._ Y Y P J P C ! _ _ _ :.d.2 d.,.f.,.&.&.<.&.A A &.-.&.-.2.2.4.2.-.&.4.5.^ + @ q 8 8 V.M.f b n.n.n.g b.n.b.g f b.P.P.Y.b b Y.L.Y.T.T.L.b.v v g K.K.P.K.I.U.I.K.K.K.v L.Y.b n l 9 O 6 m q C C C m q e e e 5 e O.[ l c c b c d z c c c f v g b.b.f m.g f g n > h.` ;.:.:.*.:.*._ _ *._ _ _ _ _ _ / _ ! _ / _ _ / q q W ~ Q *.:.` ! / H ' P H H I H H Q P P H H H # 7 P C H m r r B w r 4 .   ",
"  @ % / ! W ^ ~ _ *. .` + & r k.H ! ! ~ C p u.>.~ ..>.y.y.Y & . 8 g.| ! ! q q u.<.,.>.>.:.:.~ _ e.,.>.:.<.;.<.~ ~ <.;.~ p ( T X.l > d d d h > ; 9 9 > 9 : : O.: . o o . j E [ o.%.@.O.+.r., e q._ :.e.:._ _ ! P Z L Z L P Y ! ! J q C ! a._ _ <X2 d.,.,.;.&.&.&.^ A &.-.<.^ S ;.5.<.;.&.-.~ -.<.2 , Z C a X.c c b c c b b b b n.M.v b b b c z s c b n.Y.L.v v v v g v g K.v K.K.P.v P.P.K.K.P.P.L.Y.b d d d l > : r 5 j j % 5  .+.O.l h d > . . . = ; ; z > c f n b n.g f f v Y.9 +.:._ _ :._ *._ ^ ~ ~ ^ ! _ *.*.:.! / ^ / _ _ ! ^ q q ! W W ~ / / / e e L L C H C C H J P P w w % o 7 P P w r H I I H H 6 X   ",
"  + + H ^ ^ W :.:.W _ 0.X + 4 ' L ! T ! ! & j. ._ y.0.` H 8 5 p ! ~ ~ W ! % q ,.~ ~ >.;.;.;.~ ;.;.;.;.<.<.;.;.;.| ^ | T T | ..X.o.s c c d z h l > O O * R 9 l h j @.t.#.%.h > h h l o.k P 6 H :.! _ ` ! _ _ ~ T W C C P ! _ _ ! e e Z L C ! / :., _ _ ~ ;.&.&.~ ^ ^ &.&.<.-.W ~ ~ ^ ~ -.&.-.-.-.W 2 . 2 l X.l z z h a 8 l h s a l z z %.b Y.Y.Y.T.v L.L.n.L.v v v b.f v Y.T.L.Y.v v v g v L.P.v L.g n n n b v c h = u U e w p j 9 X.w.$.%.%.z o.%.V.M.E.E.c O > . = z n > d c.b = P :.^ ^ *.*._ _ _ ^ ^ ^ _ _ ^ ! *./ ! ! ! ^ ! W ! m q f.*.Q W W e % w 0._ e H C H H C P C 6 4 X . . 7 H / y e w P K e e 6 X   ",
"  @ @ P ! ^ Z _ ! W W ! + & 4 Q P ! P _ _ m / 2 P P 5 . . ` >.~ ! ;.~ L L @ C ;.~ ;.~ _ ;._ <.;.~ _ ;.<.;.>.| <.| ^ ~ T ^ ..@.p.E > E.l E +.$.$.X.X.X.@.R r V.Q.O.O.%.E o.l 9 9 k z z l K 5 6 e.:._ _ ! ! ! L ! P P _ _ / P C Q ! Z m q L Q / ' 5 ! ~ ~ ;.&.&.&.&.~ &.A ^ ;.,.;.q S ^ ;.&.2.-.<.*.6 @.!.^.Y.M.M.Y.Y.E.^.E.%.%.%.o.M.(.T.L.Y.P.P.K.b.n.P.Y.b.L.g L.v v L.K.v f n b n n n b b b v.b d c i i h i > > h 9 y P :./ @.p.!.Q.V.!.V.V.^.E.^.^.^.^.^.$.> O & : o.l o.z h 6 r._ ^ _ :./ ^ *.*.~ ^ _ _ / / _ / ! ! ! ! ! ! ! _ Z 2 e.*.! :.0.2 & 6 0./ r P P P P P Y L 5 r 4 X X K U ) U r K K 6 6 e 4 .   ",
"  % % H Z q q ~ Z C L e + & & H P ' Q P _ k.0.$ . . . 6 ( q.~ Z ! ~ ! W ! % ~ ;.| | ~ ~ ~ ^ ^ ^ ~ W L ^ ! _ ^ ~ _ ! ~ ! ..>...y.K : T ...._ ..^ ..q.@.w.q.w T V.k ; a 9 h k U r 9 z E k K w , :.Y P Y ( L L L C L L C e r e e C L L L Z w C H e q ! ! ! ~ _ ~ &.~ ~ ^ S A ^ &.~ C Z A &.-.&.2.f.W w 7XV.c c n.n.n.n.M.n.v Y.Y.Y.Y.n.L.n.n.b.b.L.b.P.v v L.b.f v n g L.v L.v v b c c d d d z z i O = o > 9 u % % R w.e.0.,.*.T ..p.u.%.u.u.q.t.w.O.@.X.o.@.[ @.> O O X @.) E E E r ' *.~ _ *.~ ! *.*._ _ ! _ ! ~ / ! Q ! ! _ ^ _ _ Q ! + _ W L W C 0 . . + % r H C C C C 5 H ` H % X X ' K I y y I I 6 5 4 $ $   ",
"  @ X w 6 t L ! W P ! e + # # # r / ` 6 L ! m X % + . w ! P ! T Z L L L P % ~ ;.W ^ ~ ! ~ ~ ~ ~ W W _ _ *._ ;.;.:.! _ ! ~ :.:._ K 4 ( _ J ! .._ ( ( ....! Y J J H - o X 4 : j k O k E k R I 6 m m C H J P Q / ' / L I L H H L L C J C ! H B Q H 8 e H P L W ^ W ! ^ ^ A W S A ^ A M ^ &.~ ~ &.5.q r p ; k %.%.o.o.o.c d b b c b b c d f f d f v v v Y.v Y.Y.g b.g L.P.v g v g Y.d s h > : > X & . . O 7 l [ 7 w ! Z ^ ^ ~ ^ _ Z P Y J / Y Y r r r T / ( H ` q.) / ` r . T j y K w P C L Z ^ ~ W _ _ _ ~ ! _ *.Q Q ! ^ ^ ! ^ Q ^ W L :.2 ! Q L C m m 0 X . r ! L 5 , 6 e H P P e % X X # % . . . . . . & $ % ,   ",
"  + % t t t r t w r w 6 # # + 4 6 w e ` r 5 q e r r 6 # X w r w w C L q r 2 C L C e e C Z L W Z W L W _ ^ ! W ! ~ ! ~ _ w L L w 5 & C Y T T | ..( ( / ( ( ( ` e.y.y.P & . $ o ) l 9 h l R K e P ! ! p e H I Q / / Q L H C C r C e P ! P r m H 8 r m t 5 w r 0 q Z Z L L Z L L Z L P q Z T Z M 2 Z q.q...V.V.$.p.E O.K p E E l o.o.l c c d d d c b n d d b v n c v g v v n.b n b z h 7 # . & % o 9 O o * . 4 Q *.*.A S A W A ~ q k.e.*.^ ! _ :.:.~ ( ..:.:.q.e.0.y.j.i. .5 $ U r : K ! ! ^ W Q Z L W W _ L / L Z L C W Q L W Q L ! H e , m L Q 0.0.0.I & X r.I . 5 I ] P e w e w * X X . . 5 e e m C m L w , !   ",
"  # % 5 q w 6 w 8 e H r # # X t I C e e.L / :.L L ! ! _ P w w w w 0.*._ ` % 5 L W L L L W ! ^ ~ ;.! W ! _ _ _ _ ! ~ e.e. .` _ ` H . Y u.i.i.i.g.g.g.g.y.u.( ..a.e.+XOXS.Y 4 * 9 j h h k R Y 8 ` :.Q C m H Q / ` ! P H C H 4 4 e L ` _ / ! w H e m H H H C w 2 w w w w r C r H ! ! r $ e P  .+.@.w.E %.%.@.X.T E ) t.@.......E O.[ [ o.o.o.%.o.l z h s > d d > d z d d d d > c d > > : : k y y = U [ [ E 7 w :.W &.A S A ^ Q ^ 2 *.*.*._ _ / ~ _ :._ T C _ _ ! ! ! _  .e.` ` ) 9 7 R / ! _ :.^ *.*.W Q ~ ^ *._ *.*.L Q ! P Z ! / / e H . L :.*.k.0.` % . . $ # ] ` I y w w t $ % & & X . 5 _ _ _ *.*.^ ^ 4 % <.  ",
"  + % % ' e , :.0.! L H , 4 , 6 / C C L C L P Z W L P C P _ _ :._ e._ _ ` . q ~ T W W ! ! ! ^ ^ ~ ^ ~ ! ! ~ _ ! ! _ ! ` ( 0.:.` H . (  . ....... . ...) ....T ( Y ^ ~ >.y.<XT O . 7 9 k R 6 w *._ Q ! L I L P L H H H L P H H L ! / P P _ / _ e P H r P P p P P / ` 0.0.0.P r w 6 r ` 0.q.+. .@.@.$.$.o.+.@.k T @.O.( ( ( R T E R R E E E O.O.E l l h > h s h > > > > > O > 9 = = : : O.U y U r X * e L ^ ^ W A ^ W W A A A ^ < <.:._ ^ _ _ ^ L ! ! W Z Z L P ! ! ! _ _ ` y.0.6 4 +.P ! L ! W ! ! L Q Z *.~ ^ ^ W ~ ! ! *.W ^ ^ ! W :.X L q e $ . . $ 6 # . w i.) I K U U U U I o & & . m / ! ! ! ! W L 4 #     ",
"  , , % r w 2 *.*.0 q e $ 4 t 4 _ C q C q M M Z Z Z L Z Z W L Z Z M Z M w X 8 L C C C C H I H C r r C Z Z L W Z ^ ! . p J Y Y J H . J Y / ( Y J T J T Y T T Y Y Y ( Y Y _  .j 9 * o r { U : ! / L L C m m H Q L H H H H Q ] ' W ! Q C C ! _ ! C C ' 5 ! ' ` ) )  .+. .)  ./ % X . ` w.) / J : r q. .P Y ( K j / ( ( ( R R R K K K R R R R R R ) )  ...E R : 9 8 O : 6 9 : O 6 y r . : {  .P W W W q Z ^ &.2.&.^ W ^ =.=.A W ^ 0 >.<.~ _ *._ ! Q Q L L L L L L P ! ! ! / ^ _ ] % $ ) C ! Q W ! ! W ! W W Q W W Q W W Q ^ W W Z ^ _ C _ X _ + w H U U U / { U y { U t U U U y U y & # # . L ! W ! ! Q Q B , #     ",
"  2 & # X 6 2 % 0 W C q 2 $ 6 % Q q w m q q Z m C L W W L Z Z Z Z C Z C H # 5 H m 0 m C P H C e C Z Z Z Z Z Z C P e Y C C J H H e X q Y p p J J T J Y J Y T T Y J Y p Y ( U : k 7 # r i.r r / L W L C L L Q Q P H I H H Q / Q Q Q H P L ! ! / L C ` C 6 H ) ` ) ) R R P H K P w w H R J e e H Y P / ( ( H H ) / R R P J H K P P R Y Y R K Y Y R R R R ) ( / w & . % 6 5 O # k K { U . 6 P P ~ ~ ^ ^ Z S ^ &.&.S A W ^ ^ ^ W *.0 :.:.! ! ! ! L L ! Q L C Z C L L L L P L ^ L L w & 7 C L Z W Q W W ! ^ W W L W W Q Q ! Q ^ W W W ! L 6 . *.0 P B I k K K K U U / U y E y y H t X X * * . H ! W W Q W Q m % &     ",
"  0 # & % e e 2 C ! L m , # , 4 Q C m P ! m e L W ! W Z C Z Z C Z Z Z L Q # w Q L L Z m H m L P W P Z Z A W C ! ` P _ L J P J J K X J ` p J J J J T Y T / Y T T T T p k l k [ [ 9 o X H # e L Z C C C C H L Q P I I w H R / R P P m L / ! ! / P e / / r H / R R Y P P Y P ' R /  ./ Y J e H P P P / / Y w 4 P I K Y Y K K R ` { +./ ' ' Y ( R R P P P / / / Q H t . + & . X 5 I k K o . % ! W W Z Z A A &.&.&.M A ^ ^ &.^ ~ *.% Q L e C W W W Q ! ! ! Q W ! ! Q H C C L L H / I . H P Z L W W _ ! W ! ^ ^ Q W Q ! W W ^ ^ W W ! ! q w , *.M e B y y k K U U U U U U U j I 4 X t 5 t 7 X w ! Q W Q Q Q m $ @     ",
"  @ + & 6 H H 8 5 C C q % . % 6 w e r C P C 0 m Z C Z Z L L Z Z Z W S W Q % 0 ^ S W S Z L m _ Q L Z Z Z Z Z C P e 6 ! Z p r H P r & / Y Y J J T ( Y Y T T / ( / p j p a > x z z u O & X * e L L m e m e m B e r 6 2 $ 4 : : * * 4 4 6 6 5 5 w w 5 5 t 6 5 5 5 7 5 5 7 r w e r r e e w w 6 w w w w w t 6 6 $ 1 5 6 6 6 5 w w w 5 t w r w w r w w e e m P P P Q Q e # % & & 1 1 t # X o # P ! m m m m C Z S ^ ^ Z Z Z S W W Q H % m r C H H L W L m m L P ! ! P L L C C L L ! ` / & / Y L Q L ^ *.Q W Q ^ ^ Q Q ! Q W W W W Z L C m , 5 , q L H y y y y y K K K y y r u r 1 $ m B t r 7 o 6 / L L W W Q m , %     ",
"  3 + # 4 H H w L m q 0 $ 4 w # H C L Z Z 2 q q m q m W W W ^ ^ Q W Z Z Q @ , ^ W L S W ! _ / m I m C C Z Z C C # 4 Y Y r w e 6 5 5 R ( ( 8 p T T C J T T T Y ( P R l > z x h u k * # % * 6 e H H 5 6 X t r $ 1 r e r e r H H H e r w H C e w w r e e r w w w w 8 5 5 % % % 6 4 $ $ & % . $ . & + + . X . # . . . . . . . . . . . . . . . . . . . . . . . . . . . . . . . . . . . % . . # 6 1 1 , $ # % + + X 4 + & & % 1 $ # $ . . $ $ 1 , , , , 4 , 1 1 1 6 6 6 4 6 0 q 0 0 $ & X w H L W C Q Q Q W W ^ L Z W Z Z Z L W C L H 4 , e X m C m I P P I K e B I B I I y t 7 B w . $ 4 5 6 5 w P H H I I 0 t % ^   ",
"    + & , I 0 , L C 6 $ P m & + m Q L Q W q ^ W m 0 C Z Z Z Z S Z Z S Z C + + L Z C Z Z Z W H t 5 H L ! ~ ~ _ e.6 $ e w X & * 6 7 * 7 r Y r J p p J C P J p C P P j k . h z h 7 = o . . . o o % # # P 0.i.l.y U <X<X<XeX<X<X,X<X+X+Xj.+XS.g.f.e.k.d.d.d.j.j.j.+Xj.j.OXOXj.j.j.j.j.j.OXD.OXg.j.a.j.[.+X<X+Xd.e.3XOXf.f.OX4X4X,Xj.j.y.j.j.j.j.k.j.k.j.j.j.[.j.6 + # I k.H # <Xr.] H I ' ' / / P P P P I H y H P y H r r $ 4 , $ 6 m C m r w e e m m w H H m m m e r r r e t w $ . . . . t Q Q m r m m I L ^ L L L L C C H C 4 w 0 4 . X $ Z S 0 M W ^ Z M m S Z m m r 0 r m Z Z W Q Q *.*.Q m 0 e m m m 0 r & W   ",
"    + & 6 w 0 e C q m e 0 0 4 % % Q C W C 6 W m m r L q M Z Z Z M M M m C 2 X C C M Z m m C m Q 0 m :.^ Q / ' r # * 7 6 * y U U k y . . 4 5 6 - w H P K K K j 5 & O = > > d h 9 o # j.yXj.. . o # 7 i.j.' B t t 0.j.,Xj.j.d.k.k.k.k.d.[.+X,X,X+X[.a.e.k.f.[.[.+X[.<Xj.j.OX<Xj.j.j.j.OXeXyX0.,.e.f.[.<XyXtXk.L AX+Xf.s.[.+X<X<X3XeX3X3X[.+X<X<X3X4XeX4X4X4XtX, . . <X<X% & tXj.i.i.j.i.j.i.t.r.0.r.i.y.i.r.h.h.i.i.j.i.` 8 e.2 k.j.a.y.y.i.i.j.j.i.0.h.i.y.k.j.j.k.g.g.j.k.k.` B # 5 / r._ C W L H m _ 6 q P L e H e r 4 6 6 e H r m 1 . , *.W &.&.=.W A S S S A A W W Q W W ^ &.^ Q Q Q W L , H H H m W I + :.  ",
"    X @ 2 w e C e 0 m m 0 w m q 0 4 6 , # & . . 6 ' C q M M C Z Z Z Z C C 6 . m e q m m Z C e L e % 8 t B t . . # U / E u l E k u K R k & . . . . X : : $ 5 . O d x = b Y.v x = % * yXtX<X,X6 X X % 0.H r B t t r / ' I Q L L H H H L ! ' ' ` ` *.P H r H Q Q ! Q / e . H P P e Y Y / :.P Q m C M Z L Q j.L # m 0 q 0 < . . q W &.*.*.=.=.W ~ *.:.q.q.u.k.y.e % 0.<Xj.e . 0Xj.t.p.+.w.w.@.+.w.{ R y ` w.i.x.i.h.t.t.i./ t <Xt <Xj.k.e.r.y.r.r.0.0.y.0.r.0.0.{ i. . .0.+.' ` *.Q , *.P *._ L L ! ,.:./ C P *.P L P H / L H L H Q m ' *.e . 0.' m W Z m m m M M m Z Z Z Z Z L Q ! W L m m m w 0 m m m H P 5 X +X  ",
"      + o & 6 q m m e q t r m 0 m m 4 # X & + . % q 0 q q M M M M M M Z C 5 . 6 M Z Z m C C q q q m 4 o . . . % 7 r 6 r y k E k 9 E { ) k 6 * o . . o % = o.c n g g n > n n i = o o o K ' k.w.o X X Q m t r t t t B I I I P I I B e r t r r t 7 e H ` ' ' ' ' ' R ] B 6 o B _ W L Z *.*.Q Q I I e r B 6 % @ , _ W m M M M M M N 3 3 0 M 0 0 2 0 2 0 M M M 0 m 0 / / ` w 6 { y y K u K y K / U U 7 w r B k y P U U r 9 r 5 R e / ' P H R ] P P P / ' H I ] / ' l.{ ` ` ' ] B ] l./ H I U L m r Q ] H L L m m H Q L C Q I m t m w 0 e P 6 . t 6 t m w 0 t t t t t m m m m m m I Q H m e w t t e t r e y 6 t k.*X  ",
"        3 & & % 6 w m w 0 q q 0 0 q w 0 # X + 0 m I m m m m m Z m m M M e $ X % m C C C m q q m 0 e r e 4 & r H / / U y * : 9 u y U E { E U U y # # t # : l x n d n v.n d d i > . # & * t.{ { o # . H 1 # , t 5 r B I I I U ' ' / ' ' / ] P r # 5 H P ' ` *.:.0.*.*.*.Q + I e.^ ^ *.*.*.:.e.0.l.] Q ] 0 + & # 0.:.:.&.&.*.2.2.<.*.*.' Q Q W ! &.*.*.*.*.*.^ W 0 Q ' P 1 t I P *.` B ` ] P / ] { ' U K 9 r B y U K y r X 6 P 1 . 7 r H ` ` ` / R I I w 5 m e B B w e r r r y r t t o X 4 H Q Q Q e 0 q w 0 0 w e w m C r m , t r m t . . % H e e w t t t t t t t t t t t r r r r r r t t y r t r t 6 4 Z ].      ",
"            N % o & 1 4 6 0 t 0 w t 5 4 . o X r t t 0 0 w w t 0 5 4 6 $ o X X o 6 w w w 0 0 q m e H e 9 : * r : 7 7 7 7 % . . . o = * t 7 6 : 4 # * e o O O . = = O d n > = o . H 6 o o U U . X . K eXk.0 . * * t y y y t y y y y 9 y y 7 * o o o X o # * 5 w e m m m w X 4 7 % 1 1 $ 4 6 4 * * o o . . . . . . 5 m m L L I I I P K H r e m m m B I H H m w 0 o 6 * o = o 1 * o o o o # * o k U U K y t y r y K y r r o 4 r . o . 6 y y I U P I w t t r 6 # 5 7 y 5 : w r y y y 7 o . * r p H H B m m r r w e e H I e w 4 7 r 5 5 # . X . # $ $ 1 1 6 6 7 t t t 6 1 1 7 t y 7 7 t 7 7 7 7 7 * * 6 G             ",
"                G 3 < # o o . X # % * $ $ 2 2 < @ < < @ @ @ @ @ < < < < q 0 3 3 < 2 2 < < 3 < 3 0 < < < < 3 < < 3 S S S A S q 3 3 < < @ < < < @ < < < 2 r 8 2 < 2 2 2 @ < 2 0 C e._ 0 5 @ + 2 0 :.&X      D 3 3 0 0 0 6 6 w t 0 6 2 , @ < 2 6 0 0 0 6 2 , % % # . . . o 1 1 , 2 3 3 3 3 3 3 M S S S A &.-.<.5.*.3 @ + + X @ X + . + @ < < 3 3 3 3 3 3 3 3 3 3 3 S A &.&.^ S 3 3 0 0 3 3 3 3 3 @ @ @ @ < < @ < < < @ @ 3 3 < < < 2 < < @ @ @ + + o o o X . . % < 2 @ @ @ @ + @ @ 3 M Z Z M < @ @ < < < < < @ < < < < @ @ 2 2 , , @ 6 m Z L q 6 5 1 o o . . . o o o o o * = * = * * = 7 1 5 q S ~                 ",
"                        F -.2.9.3.F ].                                                                                                                                                                                                                              {.F ].].|.                                                                                                                                                                      F 9.d.].                                              :X                                  %X].9.<.:.,.,.:.,.:.e.e.k.k.k.k.k.e.e.2.                          ",
"                                                                                                                                                                                                                                                                                                                                                                                                                                                        %X:X                                                                                                                                                    "
};
