/* XPM */
static char *eb0b6915cdb54f75b219b12f327865235tdKpTBIkKhlc0z4[] = {
/* columns rows colors chars-per-pixel */
"296 150 256 2 ",
"   c None",
".  c #010001",
"X  c #090808",
"o  c #140A08",
"O  c #171509",
"+  c #080C12",
"@  c #0A1516",
"#  c #141314",
"$  c #1C1B1B",
"%  c #181817",
"&  c #100F0F",
"*  c #231B19",
"=  c #24180A",
"-  c #1A2317",
";  c #28251B",
":  c #302E10",
">  c #1A1D22",
",  c #05152B",
"<  c #241D23",
"1  c #1A2526",
"2  c #122F33",
"3  c #242323",
"4  c #2C2C2B",
"5  c #282827",
"6  c #342C29",
"7  c #2B332B",
"8  c #37352A",
"9  c #292C34",
"0  c #2B3537",
"q  c #333433",
"w  c #3C3B34",
"e  c #3B3C3B",
"r  c #363738",
"t  c #342D34",
"y  c #433B2A",
"u  c #433C37",
"i  c #4B352E",
"p  c #463A19",
"a  c #3B433B",
"s  c #3A4428",
"d  c #35441C",
"f  c #4D5015",
"g  c #5A6310",
"h  c #6C7217",
"j  c #474728",
"k  c #565827",
"l  c #44433C",
"z  c #494739",
"x  c #544A3B",
"c  c #575738",
"v  c #4D512E",
"b  c #655436",
"n  c #5A652F",
"m  c #676928",
"M  c #757927",
"N  c #6E7234",
"B  c #635A1A",
"V  c #383D43",
"C  c #2C3B47",
"Z  c #073945",
"A  c #443E43",
"S  c #0C4950",
"D  c #3C4344",
"F  c #3B4749",
"G  c #334F51",
"H  c #385F63",
"J  c #434443",
"K  c #444B44",
"L  c #4C4B44",
"P  c #444B4C",
"I  c #4B4C4B",
"U  c #474548",
"Y  c #534C47",
"T  c #4C534C",
"R  c #475449",
"E  c #53534C",
"W  c #595749",
"Q  c #444C52",
"!  c #4A4D53",
"~  c #4C5354",
"^  c #4C5C5B",
"/  c #485657",
"(  c #535553",
")  c #545B54",
"_  c #5B5B54",
"`  c #535B5B",
"'  c #5B5D5B",
"]  c #565557",
"[  c #534E53",
"{  c #645949",
"}  c #625D55",
"|  c #6D5645",
" . c #4B625C",
".. c #5C635C",
"X. c #57645A",
"o. c #5A654B",
"O. c #66664A",
"+. c #646254",
"@. c #63645B",
"#. c #6B6B5C",
"$. c #686859",
"%. c #736C5A",
"&. c #6A735B",
"*. c #767659",
"=. c #727548",
"-. c #4B5C63",
";. c #565D63",
":. c #464A62",
">. c #4B6667",
",. c #536363",
"<. c #5B6463",
"1. c #5C6B64",
"2. c #546C6C",
"3. c #5B6C6B",
"4. c #566768",
"5. c #5A736B",
"6. c #576D72",
"7. c #5B7474",
"8. c #597677",
"9. c #4D7071",
"0. c #636563",
"q. c #646B64",
"w. c #6B6C64",
"e. c #636C6B",
"r. c #696A69",
"t. c #726D65",
"y. c #63736C",
"u. c #6C736C",
"i. c #697567",
"p. c #73746C",
"a. c #777868",
"s. c #637473",
"d. c #6B7473",
"f. c #637A75",
"g. c #6B7B74",
"h. c #637C7B",
"j. c #6B7D7B",
"k. c #67757A",
"l. c #747C73",
"z. c #7B7C74",
"x. c #737C7A",
"c. c #777877",
"v. c #686D72",
"b. c #635E62",
"n. c #847B69",
"m. c #847D74",
"M. c #857454",
"N. c #817B35",
"B. c #7B8528",
"V. c #7A8637",
"C. c #798517",
"Z. c #7A844E",
"A. c #7A836A",
"S. c #6C837C",
"D. c #68837A",
"F. c #7C8374",
"G. c #73847C",
"H. c #7C847B",
"J. c #7C8A7D",
"K. c #758779",
"L. c #789078",
"P. c #5D827C",
"I. c #84892A",
"U. c #858937",
"Y. c #8A9537",
"T. c #8F9731",
"R. c #99A535",
"E. c #9CA52F",
"W. c #8C914E",
"Q. c #9AA54C",
"!. c #A9B350",
"~. c #87856A",
"^. c #83857B",
"/. c #838B7C",
"(. c #8B8C7C",
"). c #868675",
"_. c #89937B",
"`. c #96967A",
"'. c #91906E",
"]. c #ABB26D",
"[. c #9CA572",
"{. c #B8C556",
"}. c #BAC66B",
"|. c #C8D370",
" X c #CAD664",
".X c #6B7D82",
"XX c #5D7D81",
"oX c #6C8483",
"OX c #698785",
"+X c #758B83",
"@X c #7B8C83",
"#X c #778886",
"$X c #7D9385",
"%X c #7C938B",
"&X c #789589",
"*X c #7B9693",
"=X c #728E8F",
"-X c #6E9490",
";X c #838C83",
":X c #888B86",
">X c #849384",
",X c #8C9384",
"<X c #84948B",
"1X c #8B948B",
"2X c #849B8C",
"3X c #8C9B8C",
"4X c #879A84",
"5X c #939484",
"6X c #949B8C",
"7X c #9B9D8B",
"8X c #959887",
"9X c #8C9C92",
"0X c #879994",
"qX c #939C93",
"wX c #979C96",
"eX c #8F8D89",
"rX c #A39D8C",
"tX c #9DA28D",
"yX c #96A28B",
"uX c #8CA394",
"iX c #8AA59A",
"pX c #94A394",
"aX c #9CA394",
"sX c #93A49B",
"dX c #9CA49A",
"fX c #9CAB9C",
"gX c #95AA9A",
"hX c #8FA790",
"jX c #A4A58C",
"kX c #A3A493",
"lX c #A4AB9C",
"zX c #AAAC9C",
"xX c #A5A797",
"cX c #A9B29C",
"vX c #B2B398",
"bX c #98AAA3",
"nX c #9AB3A6",
"mX c #8DA9A6",
"MX c #A6ACA3",
"NX c #ABB2A3",
"BX c #A8B4A8",
"VX c #B4B8A8",
"CX c #B7BBB4",
"ZX c #AAB6B2",
"AX c #949BA2",
"SX c #BAC4B7",
"DX c #B5C1B0",
"FX c #BDC688",
"GX c #C5C7B9",
"HX c #C6C9B0",
"JX c #CDD888",
"KX c #B8C9C4",
"LX c #CDD3CA",
"PX c #DEE4DF",
"IX c #BFBDB1",
"UX c #837F83",
/* pixels */
"                                                                                                                                                                                                                                                                                                                                                                        gXnXBXy.G S 2 /  .S                                                                                                                                                                                                                     ",
"                          G S F 2 0 0 F Q Q F F F F Q Q ~ / Q P D 1 ` e ....p.i.t...w.@.F.^.#.a...a.t.a./.^.1.G         , G G F &.i.0 i.A.A.A._...) 1.y.s.G.3.g.,.                                                          S S S S S S S S S S H H S S S G H H H H H H H G G G G S S H H S S S S S S Z XX9.H G , Z Z Z G G G G C C C C C G C C G -.-.Z C K A._.[.~.Z.].}.JX}.].}.].].JX].].Q.}.].].A.].[.n n n                                                   S , , S S S S S Z Z , Z 2 Z 2 2 , , , , , , , , 2 , , , , , , , , , G >.H S S Z Z Z Z S S Z Z Z 2 , 2 Z Z , , 2 Z G Z                         ",
"                2 0 $ xX5X: z 8 ^.wX0X0XsXBXZXBXMXxXxXMXzXMXMX,X7Xp.6 (.cXtX_.'.'.'.'.'.vXjX'.[.[.[.[.jX[.jXzX5X. . 8 ~.~.FXFXJXFX|.}.JXFXFX}.JXFXvXz u.kXkXkXrXkX,XJ.>X>X9Xx.e > , Q C . v.x.l.u.p.v.l.l.H.x.H.H.H.H.H.z.c.c.z.z.H.H.#X;X;X:X.X] 5 3 p.6XxXxXxXxXlXxXxX,X,X;X/././.H.1X;Xz.l.c.H.:X:X.X9 9 > 5 x.%XiXmXnXnXbXbXbXbXAXAXAXZXbXAX=X9 o '.].}.|.|.}.|.JXJX{. X{. X|.|.|.|.|.|.|.|.|.JXJXJXJX}.}.}.{.}.[.o.F.    G 0 0 0 0 5 5 7 4 l W r.z.l 5 4 4 ; $.^.F.;X(.5X(.m.(.(.5Xm.eX5X(.,X8X8XaX(.5X6X6X7X,XaXkXjXkXzXzXVXVXVX} E l t.m.z.^.).(.a.a.^.^.(.5X).^.^.:X5XwX^.w.e ] @.r.J 2                 ",
"          . 4 q.:Xg.r xX`.: x : 5XwX9X#XK.H.l./.dXMXxXzXxXNX6X6X:XxXL t.aX$.&.~.'.~.=.=.[.[.'.W.W.W.W.'.~.O.Y 3 $ ).'.JX].!.!.|.|.|.|.!.}.}.!.{.JXJX=.; z w a.$.+.7X,XyXF./.qX` X ] r % c.LXCXNXCXNXCXSXCXSXCXCXCXVXVXCXVXDXCXDXCXSXSXCXDXSXCXCX^.e _ E NXtX(.7XzXxXVXVX(.5X/.(./.(.(./.,XwXwX8X,X8X7X7X( . . MXbX9XmXmXbXbXbX1X0X1X1XxX6XMXMXBXCXI 8 LX|. X!.{. X}.}.}.{.{. X X|.{.R.!. X X X!.|.|.|.}.|.|. X X X X XQ.v * w.8 z.x.$.X.#.$.v *.A._.aXxXY O o . 5XcXcXjXjXvXHXHXjXvXvXjXa.`.a.(.jX5X7XvXHXHXVXjXcXxXvXHXjXvXGXLXHXLXLX4 X 6X8Xa.vXvXGXHXjXVXxX`.`.8XkXtXjXcXcX7XxXt.l NX).(.^.^.' F             ",
"      . P :XwXdX@Xy.1XxX7Xy x 5X$.@.a e ] ' q ;.:XMXMXxXeXq.l K I q # + e $ 8 +.+.t.wX_ E +.+.#.*.: $.W +.6 . a.`.jX!.!.h Q.!.{.Q.!.}.|.!.!.}.|.].FXFXjXv $.~.a.(.tXpXNX5X5Xc.* u m.u O MXCXxXNXNXzXGXVXNXVXVXBXCXVXMXZXVXCXVXDXCXCXSXDXDXCXVXLXGXz.w.O tX(._.xXkX5X).%.p.p.p.p.t.a.A./.(.5X/.).(.(.).).wX4 E xX(.5X5X,XwXwX1XeX;X^.:X;X8X,X6X;XwXr.8 W.Y.R.|.}.}.|.|.}.!.|.|.|.|.|.R.Q.!.{. X{.T.{.|.}.{.{. X!.{.!.Q.!.}.[.$.1 a bX6X/./.F.a.A.o.o.i.aXz ; o *.jXjX[.[.jX].vX[.[.`.W ; z /.@.zXa.a.&.j { +.m.5X:X5Xu : . z a.(.7XxXwXO 8XGXzX5XkXkXjXzXkXNXxXjX_.&.A.(.(.5X5XF.a.F./.(.a.(.t.).(.a.w D         ",
"    . <.qX9X~ ) a X dXkX(.y z @.8 . w I t ' 9 A ZXLXPXMXZXMX] PXPXLXAX+ X 3 1XwXc.dXPXLXCXSXLXCXCXMX+ 5 q.7 8 ~.'.[.JX|.Q.Y.!.Q.!.|.JX|.}.}.|.|.|.}.].].*.v y +.%.#.z.n.m.M.= x n.n.6 = W SXkX(.8X7X7X7X`.`.5X_.(.,X(.;XF.H.^.;X/._.(._.(.`.kXkXz.VXO 6 +.xXCXVXVXNX7X5X6X8XaXkXxXxXjXxXtXjXjXrXjXjXjXkXNX} t.IXkXvXjXjXrX`.(.).n.n.n.~.~.).).a.z.6 ; n M I.{.!.!.{.{. X!.!.!.{.|.|.|.{.}.{. XR.R.{.!.|.{.R.!.!.h M Y.Q.=.=._.- 1 ZX(.(.(.(._.F.A./.A.(.t.* * $.'.~.~.=.=.b O.c +.E % @ 5 _ @._ ,X1Xt...E z.eX7X5Xz.m.v.v.v.r.d.v.;XeX# xXVX/.xXqX0.J [ 0.) T ..) _ ' ] ] ;.I P ~ q r p.a.a.$.$.} } t.' $ G     ",
"    . bX<X1X,XqXbX@ p.kX:Xw z 7 r.wXLXCXNXCXVXMXeXNXGX..:XBXp.GXLXPXPX9 X qXPXLXCXBXSXGX1XMXCXMXdXCXtXa.8 8X*.N =.].JX}.Q.g Q.!.!.|.|.|.!.Q.].|.}.Q.].].].[.'.'.%.{ 6 = x p x { n.n.i = ; a.(.`.5XjX8X8X8X7XrX7X7X8X7X7X5X5X5X5X5X7X).xXxX).7XkXwXVX; * X @.^.:X(.m.:Xp.w.H.p.t.A.F.)./.A.)./.).)._.5X5XxX$.z vX7X5X7X7XjXxXxXcXjXjXjXjXkXaX7X7Xc.6 . f W.T.h R.!.{.!.{. X X{.{.R.!.}.|.{.|.|.T.R.{.!.!.R.!.Q.I.B.W.m Z.j j F.3 7 q.= y : y y v v o.O.j _ . . . v c c p y x z 8 Y X U KXZXbX;.. CXCXZXCXNXNXxXNXNXNXVXSXGXCXCXGXNXCX:XO zXVX6XaX3Xq.u.z.q.z.p.u.p.p.z.z.c.H.c.UXc.e 3 dXeXa.n.a.p.z.+.w.J #     ",
"  , G 0X<X1XH.) k.F ' 8X(.w ; ,XVXMX,XMXNXlXNXxXlXkX(.7X5X6X1X;XeXwXCXCXX xXCXNXSXCXNXVXMXMXCXCXlXcX[.].].FXFXvX].].].Q.M M W.}.JXJX}.JX!.!.}.|.Q.!.!.Q.W.[.'.vXvXjX'.n.~.} * 6 n.} x 8 * . 5 W t.p.w.} #.+.+.w.$.+.( E L @.@.@.$.+.#.^.(.+.* z.:XUX% % 3 . . o 5 E ( qXwX3Xi.$.&.X.....e.i.l.u.p.q.' q.p.u % e e 3 q - 4 _ p.w.w.w.w.w.p.w.@._ o ; O.b m f M R. XE.{. X X!. X X X!.!. X{.!.!.h {.R.C.R.!.R.M Y.!.Q.m : j 8 7 $ X r.} 0.c.r.v.#XqXAX:Xx.d.c.e.F . X x a.a.&.#.8XE # ..LXCXBXMX0.BXMXfXMXfXlXaXtXtX8X7XxXzXkXlXlXaXNXw.O 7XzXtXxX7X7XlXkX6XkXlX7XkX6X(.tXjXxXaXlXqXe # 0.#.*.$.$.$.#.$.#.w @     ",
"  @ 0 <X<X1X,X^.E a lX5Xa.; 5 aXMX3Xi.fX6XwX,X;XCXMXJ.lXdXlXMXaXZXH.;XLXX MXl.6XBXNXcXlXMXxXCXdX,X_.'.[.}.!.W.U.!.!.!.W.g Y.!.}.|.JX|.|.].}.|.}.Q.!.Y.!.Q.Q.[.].[.[.'.~.`.jX'.%.. = 3 w $ % 5 < t o * 6 6 6 6 < * * ; 6 6 u 8 8 6 ; ; * = 6 u Y u . % * * t u t L L Y w.w...( ) ( E T ( _ ' ] U [ r 4 5 X < 4 t < # % r U w < * 3 6 6 * 6 x y y ; W %.: o N !.!. X{. X X{.E. X{.{. X{.{.h R.R.{.!.T.!.T.B.h B.Y.W.U.Z.p O ; q $ 0.MXdXwXMXNXNXGXGXLXGXGXLXLXGXGXNXz.).(.z 5XGXLXl - / KXfXdXNXMXMXBXqXfXlXaXlXaXyXtXpXpX3XqXlXdXkXlXH.X MX6X,X,X6X6XaX,X,X6X,X/.,XNX_.tXtXcXjXtXMXK % l.t.a.#.%.%.%.+.L * %     ",
"  + . #X%X#XwXdX^.H.8XaX5X6 a VXMXdXdX1X,X3X6X1XfXH.;XqXqXpX1XdXMXMX1XZXX dX;XMXfXpXpXfXaX1XdXdX;XyXVXjXJX}.M !.!.!.}.!.Q.].|.].}.|.].W.Q.].JXFXJXJXJX}.!.V.].].W.].W.'.=.W.[.[.~.Y # # % u 6 o 6 6 Y _ Y W } E Y Y Y Y { $.{ { } { { { } L u E u 5 o % # u 5 * . . . 5 * < 3 5 w q w t 6 t t 9 < < $ $ 5 5 $ 4 < 3 U [ Y L z Y z Y z y x { 8 6 * * . . M Y.R.T.!.!.{.{.{. X!.!.!.R.T.R.h M T.!.T.!.{.g T.g M M Q.W.N n ; E 4 % :XwX;X,X5X8X5X7X`._.5X7X8XjXkXVXVXVXVXcXkXVXVXwX3 1  .KXfXfXMXaXfXaXdXlXaXaXdXwXaXaX6XqXqXqX3XdXNXaXMX# CX7X6X3X6X,X,X8X>X,X/.>XA.A./.yX5XA._.).6XK 5 _ (.F.*.%.#.+.} w % 3     ",
"  + 0 0 V x.%X0X#XwXl.(.:X5 7 1X,XpXqX,X6X>X>XJ.u.J.MXBXdX6X3XlXMX3XdXMX5 G.qX3XlXdX6X6X1XwXwX1X/.5XVX`.].W.!.Q.!.Q.Q.!.}.Q.!.}.}.!.!.!.Q.].].!.].].].}.!.!.!.Q.].].W.[.W.[.'.'.'.`.} 6 } L #.} o % w L W } Y z u u z z x W %.t.} 8 u = * o * . X 6 6 w 6 8 u 8 8 8 6 = = 3 ; 6 Y 3 8 6 w z < A A t & * * O = y x y ; 6 u u u z z z W z 6 . . j m B m h T.T.T.R.R.h C.!.R.R.Q.h I.Q.I.T.C.I.R.h R.!.I.B.I.Y.B.M W.h : n x @.# X bX1X/.6XaX8XtX7XtXtXxXxX5XjXcXtX`.tXjXvXVXxXtXkX# 1 T SXpXdXpXpXdX,XpXdXpXdXdXdXaXdXpXpXqXqXpXlXlX1XBX# NX1X^.6X6X/././.^././.,X/.F.J.,X^.l.a.z.H.1 & ; ).a.%.O.%.%.Y * # 0     ",
"  @ @ ~ P D . D V #Xp.z.p.8 5 qXwXpXaX1X6XdX3X>X1XH.;XpX>XqXpXfXfXJ.3XfXu...qXpXNXNXaXlXlXVXVXNXNXVXaX`.: n Q.].V.V.!.!.JX].Q.W.Q.!.!.}.!.|.!.T.T.R.R.!.{.!.].Q.].Q.[.[.'.[.].[.Z.Z.).Y * w.(.} o . W (.(.(.n.p.a.a.m.n.a.~.n.a.%.t.a.a.W o O u { { { { { | | | | b | | i * o Y t.~.n.*.*.a.n.'.{ W 3 . . ; a.a.%.%.*.~.n.*.*.%.O.%.*.*.W o k N.T.T.E.R.T.!.!.E.I.T.h C.T.!.Y.g T.{.!.T.!.R.C.T.T.T.B.Q.Q.V.f M N k j 8 ; * - e wXqXwX6X7X7X7X7X7X7XjXkXvXkX7XtXxXjXtXcXNXtX_.,XX % ..ZXsXpXpXpXfXdXpX3XpXdXpXfXaXaXdXpXdXfXdXfXaXqXVX- VX,X,X/./././.J./._./.,X>XJ.^.,XF./.z.l.H.5 # 8 n.n.%.%.*.W ; Y % P     ",
"  + ^ <XdXqX;Xu.. a ,X(.w.8 5 dX7XaX7X6XdX3X1X>X>X9X3XpXpXqXpXfXpXpXfXMX1X) ZXBXNXNXNXlXNXNXNXlXNX6XlXcX_.c W.[.f Z.W.].Q.!.{.{.{.!.!.!.!.!.Q.h !.]. X{.R.!.!.].].W.W.[.W.[.].W.W.~.'.*.l t.).z * #.(.`.a.).).(.(.).(.).'.~.*.~.'.`.`.jXvX* x | | | b b b b b b b b | | L % % ; ).8X%.O.=.N *.~.O.y m.L l 5 W $.8XjX~.~.~.~.M.~.~.~.'.`.j = Q.T.E.E.!.E.E.E.!.E.E.E.E.E.E.!.T.R.!.E.E.R.T.R.C.!.B.I.C.Y.B.B.!.V.O 8 : - 7 T 5 wXaXxXaX,X,X5X7XtX7XtXaXtXkXlXlX7XkXzXxXxXaXaXlXMX% % ..BXbXfXfXfXfXMXfXpX3X3XcXaXyXaXpXpXfXBXlXMXaX6XNX- xX/.8X6X,X/./._._././.,X/.,X/.).^.;X/./.<X1 # q ).a.a.{ 8 ; x 8 % Q     ",
"  > oX@X,X,X6X;X# l.8Xa.@.; # 8X7X7XaXfXpXH.>X1X9XfXdXaXpXwX>XMXCXMXNXBXwXa SXNXNXlXlXlXlXfXdXlXdXkXlXzXzXtX=.: : k ].!.Q.!.Q.!. X!.Q.U.Q. X|.!.!.!.Y.Q.].|.].Q.W.W.Q.W.W.'.[.=.*.~.~.7Xz @.5X`.m.m.5X).n.n.).m.`.).n.).~.~.`.rX'.'.~.'.rX= | b | b b b b b b b b b | Y u % O ; ,X#.O.*.*.O.%.$.rX{ (.xX'.*.d $.vXvXO.c *.*.*.M.*.*.~.'.8 : ].T.R.T.I.E.E.E.E.!.E.E.T.E.E.R.R.R.I.h h B.C.T.T.R.h h B.B.m g N B d : o.q.X.y.X wX6X6X8X/.5X`.8X8XtXxX7XtXaX7XzXaXxXzXtX5XyXtXaXCX> % a MXgXgXuXfXMXBXMXbXMXpXpXpXfXgXpXpXsXfXdXlX3X6XlXO 8XaX,XtXcX,X/./.8X5X,X5X,X/./.,X3X,XF.a.q.5 # q.@.Y u . 8 L l - & /     ",
"  > e.;X,X/./.a.8 aXaX$._ # X wX,X/.aX,X6X,X,X;XdXwX6XlXaXaX6XNXNXVXNXBX1X0 SXfXdXfXlXyXdXfXlXfXaXlXlXaXlXcX_ Y n =.Q.h U.}.W.W.W.W.g U.].|.W.!.].I.Y.W.W.W.M h W.W.=.m =.=.b =.c b %.O.o m.n.*.m.n.n.).'.~.~.n.`.~.n.n.n.'.~.'.'.~.'.`.xXz W { | | b b b b b b x x x x i ; & q +._ a.$.+.#.%.).).y O.jX=.=.W.'.*.v c x c { W %.#.t.W t.Y y f m U.I.R.Q.T.T.R.R.I.g h R.!.R.T.h T.B.B.I.h R.C.Q.g h M k O 8 6 y : ; w.u.>X<XX qX,X/.,X,X,X8X5X,XlXkX5X7XaXtX,X6X7X7X8X6XxXyXaXMXr > qXMXsX$XuXpXfXnXMXbXgXgX<X2X3XpX9X2XpX3X3X6X,X3XlXl.H.aX6XpXaX/.,X6X,X/.F.^.J./.^.6X,X/.a.).G.0 $ 1 @ O z O.{ { 5 * X /     ",
"  @ Q g./.).F.o.q H.l.i.X.3 & :X6XpX6X,X6X8X6XaXVXaXaXlXlXaXMXlXaXMXlXBXmXG KXMXfXNXfXlXfXlXlXfXdXdX6X8X6Xa.).7X~.'.Q.U.Y.U.B.h U.U.m m V.U.U.U.B.I.I.Y.M U.Q.!.Q.W.[.=.j y v j y z 6 o ; +.n.'.n.~.).).~.~.'.~.'.'.~.n.n.~.n.n.'.~.~.).8X%.; z { | | b b | | b b x i x 6 < # 5 &.$.c O.*.*.=.*.~.x o '.=.N N n '.~.=.c c c c $.+.a.@.@.6 ; . O f f B.Y.M Y.M h B.I.h T.T.R.h B.M M B.h Y.Y.B.B.M f : . O O * * % . P l.@Xe.5 aX/.,X,X_.5X8X7XkXkX8XtX7X6X6X8X6X8X8X6XtXlXlXlXVXF 0 LXbXsX2X$X$X3X3X9XpX>X3X9X<X3X<X1.e.g.J.>X6X/.,XMX;Xa CX3X6X>X,X/./.F.l.H.F./.,X^.F.^.6X7X).d.4 1 3 { %.n.M.O.{ * # . ^     ",
"  @ / #X1X,Xz.7 l l.q._ ..3 & p.,X,X,X)._.7X7X,X_.8X_._.a.F.^.^.J.J./.<XD.G ZXaXaXcXNXfXaX6X6XaXaX6X8X6X/.(.^.).jX=.N Q.Y.M Q.Q.Q.!.f : Q.!.Y.M g M m m Q.W.Q.Q.M U.W.=.: ; . % . . . . . } 8X8X).m.).'.'.~.~.'.'.n.~.~.~.~.).n.~.n.n.~.`.5X% o x W { b | | | | | { W { 4 4 5 L ).'.~.*.~.~.W.N n.rXO 6 ~.N N N V.V.W.Z.N W.=.~.c 8 y 6 O * 6 y : m N M M M M M I.!.B f g h h I.B.U.M M g B.W.V.Z.: k j % % 6 . . R l.pX<XX.a ,X5X5X8X_.6X7X8X6XaX6XaX3X,X6XyXfX6X3XpXdXyXaXpXaX~ 7 pX>XpXuXuX2X3X2X>X$XdXbXK.9XsXsX3XJ.gXsX9XpX4Xi.&.a 2 fXi._.J./.F.4X/.>XpX<X<X;Xl.H./.i.F.q.l.$ # % $.{ { x y o . X # ,.    ",
"  > / ;X1XeXz.8 E p.l 8 q 4 # p.a.t.t.).^.^.z.#.&.$.#.$._ E E o.@.......0 0 <.} t.^./.^.H.(.z.z.z.a.F.)./.(.7X/.O.. f N N f g U.!.!.M Q.W.].!.g f m m m N W.N m =.N X . 8 s *.c n O.'.'.%.6 t.a.} m.eX).n.n.~.`.`.`.`.~.n.*.n.%.n.n.n.m.(.8X} o . % z { A i i : : . . . . . . = x W 7X'.~.*.=.*.O.).8 8 (.O.n Z.W.[.'.[.W.W.N *.~.{ L u . X Y o = : n M.W.N Y.U.I.Q.B f h T.R.M B.h h U.U.V.m j d d c n ; * 8 @.u...e.G.j.- ) aX(.(.(.8X8X8X8X;XF.H.1X;X6X6X8X/.1X>X3X>X4X,X1X1XT e 9X@XG.uXgXgXsXbXnXZXSXZX9XgXnXnXuXLXZX2X$X2XJ./.K.G G 4XA.K._.L.i.i.K.J.K.G.u.e.K.<Xq.1.u.1.9Xe % # . . . . + e U 3 3 ;.    ",
"  > 9 ;Xt._ O Y ,X6X1Xz.~ % % l L z.(.(.(.(.(.5X7XtXkXxX7X7XkXlXkXkXlXBXa 2 J.,X5X,X6XlX1Xl.^.6XaXcXVXvXVXNXlXzXkX7X(.a.c f M B.U.M V.M f f m f k : : k = . y j y = ; O.'.W.Q.!.Y.!.!.[.].'.= u . #.).).%.%.n.%.n.a.#.a.$.a.a.).).n.n.m.%.a.%.#.U . o t . > ! AXMXZXZXCXCXCXCXVXVXlX(.rX*.c O.v O.%.8 O ; z +.+.j O.W t.t.a.).^.p.UXp.r.} t.w.t.Y l + O . : N M Y.M g U.h {.M g M f f m m N N . f k n *.j = ; E _ e 0 Q Q 0 7 i.i.p.i.u.x.:Xc.1XwX<X0.0.l.z.H.d.u.<.P P R D K T P F 2 G R y.) X.~ ~ s.@X<XS.@XK.u...e.@X5.f.7.f.7.G G / 2 2 / ^ ,.f.K K e.a a K J @ ~ R 7 a ~ ' 0.4 # . L w.w.t.p.8Xc.* % F     ",
"  > 1 x.E z 8 #.(.xXaX^.a 4 a wX,X(.5X).5X5XtX7X5X7X5XtXtXjXxXVXVXVXVXCX/ F SXDXNXcXkXcXlXaXDXDXNXDXHXHXVXVX7XzXzXNXzXxX7X`.=.N Q.h h g f n f k N : : c O ; z y o O *.'.Q.C.C.I.E.R.I.Y.m ~.. c jX`.n.*.(.(.(.5X7X,X5XaX8XcXkXVXvXvXjXjXzXvXrXrXxXwXX . wXLXPXPXLXLXLXPXLXPXLXPXPXPXLXLXIX`.. 8 ~.W : 8 . . 5 u m.eX8XIXGXGXGXGXCXVXCXGXGXGXHXIXVXIXzX8Xc.% j m M g h M g U.m k n = s = O '.f N m k O 8 8 8 o . # H.3X0X> X . z.cXfXcXfXdXZXBXBXBXBXsXZXZXCXSXSXZXDX$XMXnX2XbXD.2 0XbXbXiXiXbXbXsXbXSXKXDXBX3X<X. X.3X4XhXhX2X2XuXuX/ 2 *X$Xg.y.D.3.X.3XBXKXCXqXMXl.q.q...;Xq.( 4 % # ^.(.(.).a.a.%.{ 8 # 2     ",
"  0 % 7 E E ; ) p.^.).w.7 w _ ,X7X5X/.(.(.).a.(.(.5X(.(._.`._._.`.5X7XtXF.G BXxX6X7XA./.dXMXaXtX,X5X)._.8X8X`.8X(.(.`.).(.kXjXO.n n f k f f j O.: = . 3 r . 5 8 ; o v =.Q.Q.B.R.R.R.|.!.!.U.W.W.vXW.f `.n.(.5Xn.&.,X5X_.).5X).8X~.~.A._.`.7X7X7X;XMX. #XPXLXZXAXeX1X1X7X5XjX).).(.7X5X7XkXzXz.L +.l 7X,X8 MXaXaXNXxX7XkXNXkXkX7XxXxXkXkXcXNX7XcX7X7XxXxXCXNX} . = f N M g h m '.O X # % : =.m W.k . . @ & % 7 P  .y.@Xd.$ # & p._.L.L.hX_.L.4X_.A._.L.A._.L.L.L.L.4XL.4XhX4XuX7.G iX>XgXnXZXnXnXBXSXSXuXL.A.1.X.y.uXL.P.L.D.D.$XL.4XK.G 2XgXuXuX<X2X4X$XK.BXKXy.G.S.+Xf.K.sXMXdXK o X a.).~.%.{ %.%.W 8 # 2     ",
"  / + 3 ( E l _ w.l.z.^.q 5 #.(.,X,X).(.(.(.(.(.(.eX(.,X(./.(./.).(._.6X,XF uXaX6X,XF.aXfXfXpX6XaXpXaX7X6X7X7X6X8X5X7X5X7X5X7X7X: j j p : : . . . % #X.XbX;.# $ . w X =.M h !.!.R. X|.].!.U.!.!.R.M : *.`.jX7X7X8X5X(.5X5X/.).,XtX6X6X8X`.7XjXaXwXx.1 PXPXZXqXBXMXMXMXlXlXNXlXlXkXlXlXkX,XwXVXSX;Xz SX8X8 lXaX6X6X,X;X8X1X;X/.^.7X7X6XaX6X3X,X7XkX5XxX7X5XzXVXz.. . : j c j : . X # . . . . p v v O.o # 7 r f.S. .y.<Xc.% # # ;XuX2XhX4XhX4X4XhX4X_.3XhXgXhX4X3X_.4X4X4X1.J.sX5.G uXK.$XnX2X3XL.L.J.K.&XK.4X$XL.uX$XD.D.&XL.&XD.L.$X1.G +X+XS.+XoXj.+X+XG.%XG.f.D.h.f.5.5.+X,.j.x.& . ;Xp.(.m.*.$.} E 6 #       ",
"  6.@ r ...._ _ ^.;Xz.@.7 7 w.5X^.)./.(.(.(.(.(.(.eX(.,X(.)./.(./.,X,X>XH./ gX6XlXi.,X6XfXpXyXpXlXaX6X6X6XtX7X8X7XtXjX7XtX5XkXzXz = c j = ; % % ..@XbXAX0XAXt < _ } O j k W.W.I.U.U.g g m N M Y.V.V.A.(.tXkX5X`.7X`.5XtXzXvXzXtXtX7XkXxX5X5X_.yXMX/ F PXLXbXbXZXBXBXMXMXlXxXVXNXcXzXVXVXlXlXzXVXGXw.cXVX; l.6XaXdXlXxXxXxXwXaXaXwXaXaXaXpXfXlX7XxX(.5XxX5XaXkXkXl . & . . . 3 } zXMXeXq.p.E : O.z o.X 0 1.,.f.D.S.4.9Xd.# $ # x.$X+XhX2XgX3XuXhX_.hXnXgXL.L.3XhX2XL.hXfXK.D.uX>.H DXnX4XL._.L.4X$X$X&X$X&XuX$XK.J.J.2X&XD.&X$X2XK.K.G 2 8.D.&X+X+XoXoXoXD.h.f.#XS.S.7.S.5.5. .G.q.X X c.F.).n.$._ _ I % $       ",
"  k.+ J H.z.#.w.(.,X6X;X4 q w.,X/.(.(.(.5X5X5X5X,X,X(.5X,X,X6Xl.l.l.w...T F $XaXNX6X6XaXdXyXfXdXaXdX,X8XtXlX7XtXtX8X7X8XtXtX`.zX+.O 8 5 z 5 7 P 9XbXAXnX.X.Xt < } ; . . : f N k : : . ; = : : Z.f Z.jXjXkX7X8XjXtX5XtX7XjXcXjXxXvXxX7XvXcXxXjXtXZX9 0XPXCXMXMXNXMXMXNXVXzXzXzXNXzXVXzXzXNXNXlXkXVXaX_ 8X% F.aXaXdXaX7XaXxXaX6X6X7XaX6XdXaXaX7XaXxXzXlX8XkX7Xp.W L E . $ t.NXlXNXNXlXeX;X5X^.w X # 5 - 1.3.2. .2.D.f.<X[ + V & wX2X%XsX9X2XuX2XJ.hXhX4XgXnXgX4XhX_.4X4XfXpX3XiXH 8.BXgXuXL.$X$XL.&XL.+X&X%XuX2X$X<X$X+X&X&X&XK.i.4XK.G 2 5.D.=X&X=X=XoX+X+XS.D.oXh.f.f.5.5.5.5.R ;XX + . a.~.O.b W z w A $       ",
"  6.+ 0 u.F.a.).6X7X7X:X5 7 t.eX,X(.(.(.5X5X5X5X5X,X,X,X6XzX/.K R F 1 7 ( T F.aXMXlXpXaXaXyXpXlXlX3X3X6X_.tX7XkX8X8X7X7X`.yX8XzXL - . E z . 4 + F 4.#X<X;.4 $ # T qX1X;X' ] O . ; o x v f b : b : O.jX8X7X7XkXxX7XtXkX7XcXzXtXjXjXxXcXjX7XxXtXtXaX5 KXPXVXzXkXcXNXlXlXzXcXVXVXzXzXxXxXxXzXaXlXkXvXzX. qX% i.aXkXxXaX7XaX7X6X7X8XxX7XaXaX6XaXaX6X7XNXNXa.Y Y O u 4 wX$.).VX5X^.^.#Xc.l.l.,X,X@.; . @ 1  .h.>.9. .7.#XV . 5 4 % 9X2XuXnXpX>X$X2XK.4X2X2XgXnXnXgXgX4XL.4XhXhX4XuXG D.BXfXuX2X$X%X&X-X-X&X&X+X$X2X%X2X%X=X*X*XS.&XD.2XL.G 0 &X+X+XOX*X%X&X&XiX+X7.7.7.h.7. .5.5.R y.MXX & J ).%.c c O.{ z } %       ",
"  >.X r F.^.t.$.,X7X6X:X5 6 w.^.(.(.(.5X5X(.(.(._._.)./.aX,X7 - ) <XbXMXwX% a.8XaX,X6X6X6X,X6X6XyXaX6XaXtX8XxXjXtXtXtX8X8X7X7XzXW ; w.q.u.p.l.p._ J . . u _ $ . 1XwX9X9XsXbX;X^.O = N f b f k '.O z $.5XkXkXtXzXxXkXaXxXzXjX5XtX7X7X`.tXtX8X5XaXwXq PXLXVXlXzXNXNXzXzXNXzXxXxXcXlXkXxXzXNXxXzXxXNXVXo.a.- t.lXkX7X6X7XaX1XwX6XpX6X6X6XaXaX6X7XxXrXkXNX7X. ; 6 Y z.L ).xXGXm.z.,XqX1XH.G.p.,Xp.. ( d.G.+X>.P.&XS.1.I W %.rX7X# u.3X4XhXgX9X3XpX2X>XgXfX3X_.3XgXnX4XL.L.gXL._.fXG 0XnX>XnX9X2X$X&X&X=X=X*XuX$X$X%XoXOX=X*X+X&X2XuX%X2 G 2 %X%XL.L.&X%X&X&XD.D.+XD.7.2.>.2.2.f./ G.eXo & # u w L z } { 8 8 *       ",
"  2.X a 1X/.#.Y ,X,X5X^.; 5 $.).).5X(.5X5X(.).`._.(.^.,X3XF.w _ VXDXlXNXxX# (.,X,X,XyXpX6X6X6X6XaXaX5X6X6XtXtXxXtX8XtXxXtX5X7XNX7 L GXGXVXNXxXMXdX7XwXp.. 6 5 _ H.0Xj.#X0XqXwXCX).: c y . ; W = X q.q.t.VXcX6XkXkXxXxXkX`.tX7XtXtX8XtXtXtXjX5XlX;Xa PXSXNXlXNXVXVXNXNXNXNXzXzXzXlXlXkXzXzXzXxXkXvXVX`.#.% K MXwX1XqXqX1XwXdX6XwXlXfXdXNXaX7XxX7X7X7X7XxXl % $ $ 3 # z.MX7X).5X7X8X6XqXqX1X5XE w xXZXBXBX%X2XZXZXR x jXjX`.vX; ) uX2X3XuX>XpX3XpXfXcXfX3XhXhX4X3XL.L.3XL.4X4XL.G &XpX>X4X3X2X%X+XD.+X&X%XiX%XD.S.=X*X+X*XOXOX0X+X+X6.G 2 D.D.D.&X*X=XoXoX7.S.D.5.7.f.7. .,.4. .0.@.. X # . # # . . . q L 4       ",
"  >.X a H.F.#.+.,XaX7X8X5 6 p.5X5X7X8X(.(.5X7X_.5X)._.,X/.F.aX6XVXVXxXzXwX& ;X(.,XpX6XyXaXdXdXaXtX7X6XaXxXcXtXtXtXxXtXyXtXtXkXzXO /.NXaX^.l.F.^./.^.8XMXm._ m.MXbX0X#X#X#X<X1XqXt.8 : i ; O $.@.w H.qXu.w.8XzXxX7XlXVXxXkXtXjXjXjX7XjXDXjXcXvXVX] q PXNXaXkXNXVXzXlXlXNXVXNXzXzXzXzXxXzXzXvXvXxX5X+.7XaXa K MX6X6XwX6X6XdXaXdXxX3XaXaXdX6X6X6X,X,X6XaXaX1X3 . . @ r IXzXzXzXa.`.tXlXpX7XkXxXW 8 6 l T ) ~ D ~ I O $.~.'.n.`.z ) sX%X2XgXbXuX3XgXgXpXhXgXhXhXhX4X4XA.hX4XfX_.- a g.aXpX4X$XK.%X&X+X%X*X&X$XuX2X*X*X+X=XOXOX+XiXD.=X*XH G D.D.+X&X&X=XoXS.h.oX7.5.f.5.2.5.5./ v.;.L W % . o o 6 Y W L ).@.e       ",
"  >.X T ;X/.t.t.5X6X,X,X6 q z.).).$.(.7X(.z.z.a.t.`._.8X)._.VXNX8XcXNX6XwX# _.(.aXaX6XdXaXaXkXaXaX7XaXtXtX_.7XtXaX6XtX7X6X6X8XkX; ^.F.p.p.F.H.H./.^.6X7Xz.:X6XwX@X@X#X@X<X;XwX1X8 = y x = 8 p.c.e.:XwXH.. ; a.NXxXzXzX7XNX7XxXzXjXtXxXcXvXxXkXxX0.3 LXGXaXkXlXNXNXlXlXzXNXzXzXzXlXxXzXkXzXxXt.).+.W GX(.8 7 aX6XpXdXyX6X6XaXdXaX6XwX6XwX6X3X3XpX6X6X,X,X1X;X_ _ % 4 cX`.vXVX(.(.6X5X/._.^.c.0.3 4 l.0XeXeX4 . . ; %.b M.%.| w.) +XS.L.iXgX9XuX2XuX3XL.4XL.4X3XJ.4XL.4X_.yXL.7 % ; lX3X2XK.$XK.2XuX%X+X&X%X&X%X*XoXoX=X*X+XOXOX&X&XiXG C &XD.D.$X%X%X#XoXf.D.f.h.7.2.2.2.,./ F ' l Y * (.(.a.n.).rX8Xy z *       ",
"  >.X ( ;Xz.w._ F./.H.F.q 8 #.$.j W 8 ).$.z o.+.z $.W w.a./.6X,X_ l.6XF.;Xq F.kXaXlXaXdXaX6XtX6XtXtX7X7XtX_.tXlX7Xt.p.#.F.(./.lX% l q.K @.q.u.i.F./.(.z.^.wX0X@X#X#X#X#X;XeX6X_ % L 6 = 8 8 7 ,.4.@X1X' - ; . ) 7XkXzXxXcXjXtXtXtXjXjXxXtXxX7XxX;.> v.PXxXwXxXNXzXzXzXzXlXlXlXlXxXkXxXxXjXxX7X7XzX7Xa.o.L X lX6X6X6X6X,X6XaXaXaX7X,X,X1X1X>X3X6X3X,X_.3X3X6XkXVXq w IXvXvXjX7X7X6X_.(.5Xz.:XqX..1.bXBXMXZXc.# O y | | '.rX8Xl 7 / h.5.&X0X+XD.2XD.K.K.J.$X2X$XK.4X/.4X4X4X/.w.a @ 3X>X@X>X2X$XuXK.&X%X&X+X&X%X0X0X%X=X=X+X=X+X=X+X0XG 0 L.L.+X+X+XoXoXj.5.8.D.7.5.2.2.G / ~ a ,Xl o * 5Xa.a.a.%.a.t.8 u 3       ",
"  -.+ a q.p.$.o.W F.H.z.8 5 z W W x z +.j o.#._ W x Y +.+.W +.$.W _ a l T a _ 6Xa.(.aXlXdXaXdXpX6X6XaXaXaXaXxX7X5XF.;X^.z t.7XaX. ,XeX^.l.l.H./.p.(.t.7XNXMX0X<X1X:XqX1X:Xc.J w W #.+.$.y Y I ,.~ x.c.q * 3 ; . _ VXNXkXtX`.yXtXjX7X7XtXjXjXyXkX0.> . LXNXzXVXNXVXVXVXVXzXzXzXzXzXzXxXxXtXkXzXxXzXzX).@.T & ;XdXdXxXdXxXMXxXMXMXNXdXdXlXlXdXdXdXdXaXdXfXpXfXaXNXu.l GXzXkXxXkX7XaX5X`.5X_.lXVXK.i.bXpXqXMXBX. o %.M.M.n.`.`.O e d.#XF a %XbXAX0X<X$XL.1.2XnX2X$X9XK.L.aXpXJ.7 o.W o.4X3X3XuX$XK.+XD.+XD.+XiX%X%X*X=X+X+X=X+XOXOX=X*XG 2 D.D.P.D.D.8.8.8.5.5.>.>.2.>.>.>.3.,.0 5 X * . } (.%.t.%.#.@.Y r *       ",
"  -.% ;X,XeX^.^.p.w.c.z.l 5 _ #.+.a.z.a.a.A.F.).a.a.).).F.+.t.F.F.F.a.w.K 3 l 8 : z ../.J.H./.>Xu.i.F.F.F.l.q.q.... $.z.l w _ L O u l t.$.#.u.:Xz.$.5 E 1X1X;XqXqX;XwX:X( . . z y . z t.. o 0.bXc.:X< . . . ; . l VX7XNXzXVXNXcXNXkX7X7X_.`.(.5X1X. . . 7X7X7X5XrXxXxXxX7X7X5X5X5X5X).(.^.^.^.t.F./.z.@.4 ; e wXwX:XeX:X:X:X;Xx.l.c.c.u.u.0.r.u.u.r.d.d.u.u.d.e.~ 5 MX5Xz.7XdXdX9X9X3X,XF.kXSXpXJ.9X9X9XwXZX} 6 n.M.n.M.M.n.6 E d.s.^ 1.1XdXd.d.;X3X,X,X3X3XK.pXfX6X_.tXyX&.W v c '.=.A.i.g.K.g.y.f.D.D.&X*X=X+X+XOX&X+XD.D.8.5.7.OXG S  . ./ G  .^ / G F H >.>.G  . .5.3.1 1 + % . Y m.z.W +.+.} } U A *       ",
"  F K BXCXGXVXxXNXxX,X6XJ * t.+.$.a.$.W +.W +.E #.+.$.+.8 z z z z o.a.o._ % . L t.~.^.p.; 5 7 L t.p.p.t.t.z.^.).:Xp.w._ E p.T z.+.O.a.*.a.).z.w.#.8 . 3 8 E _ t.l & Y _ } @.$.^.VXVXVXzXVXCX# ( CXCXVXVXMXMXxXxXkX5X(.VXGXCXGXGXGXkX^.MXVX^.eXMXc.0.xXGXGXHXCXVXNXrXm.8X,XkXaXeXxXkXNXNXxXNXxX/.aX7X} Y w 4 * . J eXwXwXdXdXdXdXdXpXqX3XMXBX6X,X1X3XeX1XeX1X;Xz.o . Y } w.p.r.l.x.d.l.l.w.z.J.wX1X;XJ.;X<XqXwXt.} | | | x 6 o ' a 8 E z o.O.8 j = 8 L @.) z q l +.8 8 x y p =.m m V.Y.B.B.N f v s v F G F R R  .R F F  .X. .s R G G D 0 R ~ F F R / / g.j.k.#XS. .G.X.u.;Xu.. @ & q.eX).).).+._ } ] [ r 3       ",
"  0 e ;X5XNXVXtX7X5X5X/._ 5 u 8 w 8 7 W y W x l O - ; a a z ..@.$.,X,X,X^.l O $.).kXjX7Xp.. o NXGXDXVXNXNXDXDXNXNXVXcXcX6X6XdX^.L #.xX+.+.x 8 ; ; 6 ; . ] . J E zX(.xXVXHXVXHXHXGXGXDXVXLXGXo W HXVXvXxXxXzXtXzXkX5X7X7XxX_._.6X5X5XaXlXlXxXlXBX. 1XPXLXLXLXGXGXHXVXzXGXDXkXcXGXGXVXNXGXGXGXGXGXGXCXVXwX$ J $ H.CXKXCXSXSXDXGXSXVXBXpXfXVXMXpXpXfXfXfXZXBXMX7XxX5 } ;Xa.5XkXaX,X1Xl.1X,XtXkXjXVXVXVXvXVXNXzXzXNXNXMX8Xm.L . a.HX8XA.A.&.A._.`.yX5X7X_.)._._.).z.. o z p : =.W.V.M g h C.B.V.Y.V.B.Y.V.V.n v i.S.5.y.@XgXMXfXpXpX9X@X@ 7 2X$XS.&X%X<X%X$X%X%Xg.K.@XG.0 X.1XqXu.& % eXw.W ).).a.+.} w.0.L 5       ",
"  9 - $.#.).5Xa.t.F.5X/.w.; ; w o $ 8 %.O.v = E ......g.K.J.J.J.K.G.K.q.w.a $ 6XlXaXaX6X7XL o ..NXaXkXtX6X).,X,X,X,X,X,X,X1X3Xq.l _ l * . . ; ; . X o w } aXaXzXVXjXjXjX7XjXkXcXkXxXkXNXVX/.O 7XvXxX7XjXcX7X7XtXtX5X8XxXaXzXkXkX7XaX6X7XkXkXtXCXq r GXaX7XDXlX6XwXlXaXaX8X,XaXkXlXaXVX6XlX7XkX8XlXaXaXdXD 0 $ sXSXDXSXCXVXMXbX+X$X9X0X0X@XS.uXuX2X2XuXbX9X9XqXxX4 MX5X).t.).tX5X@.p.xXzXvXvXvXvXvXvXxXxXjXjXxXzXzXzXxXlXeX% q.BXD.$XhX4XL.A.~.`.8XcXkX_._.A.A.yXa.8 8 y : v N m m W.Q.Y.C.B.Q.R.T.Q.!.Q.N d R / g.+X@XgX9X9X>XF.>X>X1 ^ f. .f.h.S.D.D.D.S.S.S.D.@Xg.R G.G.@Xg.% # E ( $.%.} +.$.@.c.} Y 6       ",
"  1 % z #.a.a.a.(.).5Xa.a.O l Y X o 5 l %.: p.^.H.u.g.G.G.G.G.G.+X@X$X@X;X$ % LXdXqX6X6X6XlX/./.tXaX,X8X8X5X6X6X8X5X,X,XpXwX3XdXK ; - O % 6 X x x (.z.kXxXxXjXkXxXjXkXkXrXjXjXjX7XkXkXlXkXE o LXvXxXjXcXkXzXxX7X7X7XxXxX7X7XxXlX5X7XaXlXcXkX6XaXq ) VXzXNXlXMXBXBXMXdXaXlXlXlXaXlXNXNXNXzXlXlXNXlXaX7XdX( > 1 BXZXBXnX2X$Xg.,. .gXBX0X0X%XsXsXuXpX2XgXgX%X0XqXqXX 1XkXcX(._ t.p.z.).5XjX7XkXxXxXkXkXjX7X7X7XkXxXrX7XtXxXwXq ^ LX#X2XiXL._.`.`.~.'._.A._.A.o./._.tX).; ; 8 j n Z.m m Q.!.Q.R.I.R.R.R.T.Y.V.Z.c R y.@Xg.0X0X0X>X9XH.H.7 sX%X#XoXs.h.D.oXoXj.D.oXoXh.h.7.%Xg.g.g.# & ( w.#.w.W $.@.0.} l Y 6       ",
"  0 7 W W *.a.a.a.a.F.&.t.y ; O X # o ; l w.r.e.G.u.D.D.G.G.G.G.+X+X+X@X0XT 3 CX1X6X6X,X6X/.6X,X6X6X6X,X6X1X,X1X,X,X,X,X8X,X1XlXl l +.= o . a.`.).vXkXrX7X8X7XjXkXrXkXjXtX7X7XxXjXkXkXkXzX5X; GXvXvXjXvXjXjXzXtXtXvXzXkXzXlXkXtX6X8XaXzXtX8XtXaX5 q.NXNXlXxXlXlXlXNXxXxXlXlXlXMXNXNXNXMXlXxXxXlXxXaX7XkX' 3 K LXDX*X*X-XD.iXiXBXfXcX3XK.K.fXgXsXpXfXfXfXsXsX<X^ J 1X5X8X5Xz.z.z.a.).).~.(.).(.5X7X7X7X7X7XwXwXwX7XrXkXrX8XL ) LXBX2XK.K.A.A.'.~.A.)./.J.A.A.L._.o.'.z X : n W.W.V.V.V.Y.Q.Q.R.R.R.B.Y.Q.N n s R g.@X@X0X9XbX@Xx.@XG.- %XS.+X%XoXS.g.h.j.h.S.oXj.f.f.+XD.y.G.#XX + ] w.$.@.) ) @.] ' Y L 6       ",
"  0 l.F.*.W a.).&.#.A.~.t.#.8 ; . O o q #XG.g.G.G.G.g.g.G.G.G.G.G.@X@X@X@Xu.r VX1X,X,X;X;X,X,X,X,X5X8X5XaX6X,X,X,X/.,X6X;X,X1XpXl % 7 6 O `.rXjXkXkXrX7XkX7XjXjXxXtX7X7X7XkXaXkX7X7XkXkXNXz.l VXkXjXxXxXtXjXzXxX7XxXzXkXkXvX7X7X5X(.7XkXkX5X6XdXe <XSXNXaXMXNXlXlXNXVXNXzXlXlXlXNXNXNXNXlXlXlXlXzXzXkXkXu.$ F KXqX .2XgXD.5 fXLXDXDXfXL.>XBXZXZXH.( p.MXpXsXsXg.dXpX).'.5XeX^.eXw.a.^.(.).(._.a.8X(.eX5X5X5X5X5X7XaXjX7XlXz.3 CXF.K./.F._._._.A.F._./.)./.A._._.A.=.8 z O : k k V.W.W.V.W.W.Q.Q.Y.h V.Z.d d X.1.1X@X>X1X<X@X#XG.G.g.F +XoXD.oXoXG.S.j.s.s.s.S.oXj.s.#X<XG.u.g.X.+ r p.p.a.p.} } } } Y ( 4       ",
"  0 ) /.).a.W W z y %.a.p.p.6 . % E J ' x.1.R g.G.x.g.g.S.g.g.G.G.@X+Xg.G.` e BX,X/.1X;X,X/.,X6X,X/.;X,X1X;X,X,X/.H.;X;X:X,X1XwX7 % l W y vX`.rXrXrXrX7XkX7XkXjXkXjXtX7X6XaXkXkXkXxXkXlXNXeXx VXkX7XkX7X7XtXzX7X7XzXxXtXxXkX7X7X7X7X7XtXtXaX7XaXr c.BX>XlXBXMXBXBXCXVXNXNXNXlXaXNXNXMXNXNXlXlXNXkXzXzXNX;X1 1XSX9XT / 4. .D.2XfXSXDXgXgXZXZXCXMX3 3 . _ MXdXbX@X@XMX).~.`.(.,X,X+.#.F.).(.(.(.a.^.xX7X;X,X,X,X;X,X5X5X7XxXp.% NXeX5X5X7XfX4X/.F.A.A.A.A.A.Z.Z.Z.c b = Y 8 W d k k g m N N N m m N g k s : a K.S.G.G.G.g.j.#X@X#Xj.D F 0XoXS.oXG.f.f.g.g.y.y.f.#X#Xj.j.G.G.y.y.d.@ X @.$.a.#.$.$.$.+.Y Y 4       ",
"  F T _ L u w 8 8 l y 6 6 w . e c.H.x.d.l.u.i.u.G.G.g.g.@XG.g.g.g.g.G.g.x.q.I MX,X,X;X;X>X>X;X>X;XJ.;X,XH.;X/.;X/./.;X/.;X,X;X;X5 % w . = jXjX`.rXrXkXkX7X7X7XtXtX7XkXxXaX6XaXtXkXzXjXxXzXxX8 VX7XjXtXtXtX7XkXxXlXxXzXkXzXkX7X7XtXxXaX).8X3X/.wX' 0.MXNXdXZXCX1Xl.1XSXBXlXlXNXNXNXNXlXNXMXMXfXfXaXkXtXlXc.1 LXSXsXnXuX$X2XZXiXG 5.9XbXqXqXH.qX< . 4 8 . qXbXMXpX1X1Xa.a.;X7X^.z.^.F.z.qX7X,X,X@.z.xX:X5X5X5X5X5X8X5X5X8X6Xw.; NXMXwXqXNX_.F.A./.F.J.A.A.A.~.'.Z.O O z m.u.wXR o.f n d d f d f d : O : c z K.G.1.d.:X#XG.G.S.@X@XG.5 D <Xg.j.G.S.j.j.g.g.g.s.s.g.s.s.s.j.g.y.u.u.# $ @.W L _ +.} } _ } J %       ",
"  G e u z W { } } $.+.W * . l c.l.e.s.j.g.d.d.g.G.G.#Xy.e.G.#X+XG.G.G.G.#Xq.w MX6XwX;X;X;X>X<X@XJ.>X;XJ.;X,X;X;X;X;X;X;X/.;X>X;X- - O o 8 jXrX`.rX7X7X7X7X7X5X7XkXxX8XkXkXaX7XaXtX7XkX7XwXw.8 GXtX7XjXNXzXjX7XzXzXxXNXzXxXxX5X7XkX7XtXF./././.dXr.J VXVXCXZX) % . . r.CXlXlXlXMXNXMXlXMXBXMXfXfXfXpXaXNX1X7 SXCXMXBXZXMXVXCXbXbXbXZXbX9XqXdX1XH.<.K aXH.l.g.sXi.0 e qXdX6XaXxXxXkXaXaXxX7XMXkX5XkX7XkXkX7X7X6X8X5X5X,X,X1Xq.; MXe.#X0X<XCXVXMXqXH.1XJ./.).tX~.=.).5X_.F.9XbXD q a.~.o.7 X.a.o.o.o.d s o.l.x.d.<.x.x.x.g.G.<X@Xg.y.- a G.j.g.s.g.g.S.j.S.j.f.s.s.3.3.3.s.f.g.g.w.# 3 # ; ; * * 4 4 q t $ 1       ",
"  6.@ $ O o X . . . . o * * ;X@Xj.s.g.G.x.x.j.g.G.oXg.g.x.oXG.G.G.G.#XG.H...) wX,X,X,X;X>X>X;X;X;XH././.,X/.;X>X/.;X/.,X;XF.>XF.# . O X n.jX`.rXjXrX7X5X7X7X7X7X7X8X7X6XaXtX7X7X7X6X7XqXqXq.q SXkX7XxXVXzXtX5XkXNXlXxXzXxXxX7X7X8X,X/.,X5X+._.xXe.a VXNXwX$ . 5 5 5 . SXBXNXMXlXNXlXNXNXlXlXNXMXdXfXfXNX0.q LXSXMXBXfXfXMXdXsXbXsXfXfXpXsX2XsXbXfX>XfXBXbX@X<XD + 0 LXMX:X8X1X1X,X8X6XqX3X1XaXjX5X5XkXaX7X8X6X6X5X6X7X6XqX0.3 wX%X,.v.v..X:Xk..X=X0X0X@Xi.&.F.aXDXpXF.i.9XG.- X K F.l._ E l.J.F._ T ) ..y.g.#Xx.j.g.x.g.g.@X1Xg.y.1 5 #XS.s.g.s.j.G.j.j.g.s.s.h.6.3.7.f.j.v.d.I # 3 q a q q r < 3 $ 5 5 >.      ",
"  6.@ X I ' q.r.u.c.x.~ # # c.l.j.g.s.j.G.x.g.g.g.d.s.x.j.3.g.G.S.G.G.x.x.q.@.5X;X/./.^.,X/.J./.>X/./.,XH././././.J.H.;XJ.J./.) . J * o rX`.`.rXjXrXkXkXkXkXxXkX8X8X7X7X8X7X7X5X7X6XaX7X6X6Xa NXkX7XzXjX7X7X7XaXzXxXaXaXkXkXkX7X7X5X(.6XyXyXkXNXl.r CXMXqX' X . . . a VXNXMXlXlXMXMXlXMXlXMXlXMXaXaXdXMXe.a PXSXMXfXgXfXbXsXsXsXsXdXnXBXbX3.9XsXgX<X>XgX$X@XbXqXe 1 MXMX1XaX,X1X6X6X1XeX;Xl.^.7X5X5X5X8X8X,X5X6X6X7X7X7XtX$.8 wX#X:XqX9XZXbX.X;.-.V C 0 1 R 3X3XdXd.l.;X#Xv.J % . T q.E O K ) ~ ) ` 1.` y.s.s.#X@Xg.x.#XS.u.e.y.d.D @ <Xj.s.d.g.j.f.f.s.h.s.s.k.4.-.2.s.s.e.~ % # $ J e l r 4 e A 5 5 3         ",
"  6.X 5 wXzXVXVXNXCXCXq.X # c.x.oXs.s.d.x.#X;Xx.l.H.;X>X@Xu.g.G.g.@X+XG.@XH.7 xX,X/.^.;X/././.J.F./.;X;XH.J.;X/./.H.H.H.H.F.l.7 L ^.* . `.`.jXjXjXrX7XkXxXkXkXkXrXrX7X7XaXaX7XaXaXaXaX6XlXMX- VX7XtXjX7XxXtXaXzX7XaXkXkX6XtX7XkXaX(.aXkX8XcXtX6XH.5 MX6XaXqXdXBXI r.CXMXdXlXMXlXlXMXlXMXMXlXdXlXfXdXdXMX<.1 BXZXMXMXsXsXgXsXsXsXsXBXnXbXZXsX%XnXiX+X0X9X+X<XbXZXdX- . MX;XH.,X/./.F.z.;X1X1XF.w.a.F.^.).F.,X,X;X>X6XjXrX7XW ; CXqX@X#X#X<X#Xv.d.e.e.e a # 5 /.>XH.@XH.z.v.eX0.# % X q.e.e.d.q.D e.<.X.g.@Xy.^ x.:X@XoXx. .1.3.y.d.Q % y.g.g.g.g.j.g.f.s.s.7.6.3.6./ F G Q > + + . * w l J L ' ' q 5 * <         ",
"  8.+ 4 ).jX7X8X7X7X7X..# > K.1. .G.x.p.z.^.,XF.a.@.z.t.w.t.^.;XH.G.J...G.) $ 6X8X/./.,X/./.,X/.F.1X,X;X/./.F.J.l.i.H...K q.t.^.^.l 6 } n.`.`.`.jXkXkXlXzXlXkXaXaX7XkXlXNXxXxXlXlXaXaXyXfXsX- DXpXaXkXcXcXNXNXlX6XxXkXkXkXzXlXkXtXaXkXlXcXcXlXxXH.> . p.o.tXlXSXMXMXlXlXlXMXMXlXNXMXBXBXMXMXNXMXdXMXlXMX) # . KXZXBXBXbXnXbXbXbXbXBXZXnXnXnXnX,.D.%X*X%X%X<XdX1X6Xw.# @.:Xl.H.z.:XxXCXMXdXdXwX,X/.xXdXfXfXJ.;X<X$XG.t.z.m.l q 0XG.OX6.2.;.4.4.s.) <.u.u.w = Y 3Xi.1.i.D.i.l.l.$ X + 4 ( <.1...7 ) ..q.;X;Xx.x.x.#Xx.x.d.3.S.@XK.d.e.@ 1 G.x.y.x.x.x.g.s.3.3.7.s.3.,.^ ,.` ~ P # # 4 w q 4 q 5 . . . . q         ",
"  6.X 5 $.$.O.'.'.(./.0.@ D F.a.c W A.A.=.O.O.o.8 . . . . ; p.^._ $.F.z.% O . . w L &.a.).a.a.w.@.q.q.E 8 5 ; w 6 6 * ; _ ^.p.w.J % 5 y . W x a.a.F.a.a.z.F.)././.z.).^.^.^.5X;X;X:X:Xz.x.K 7 BX1X@XJ.,X6X7X8X).(.A.a.t.a.F.F.F.).F.a.a.F.i.z.@.q > 3 E ,XkXlXNX6Xa.cXaXaXwX6X6XwX6XwX6X1X3X3X3X3X3XqX1XT - . eX1X;X;XdXfXbXMXbXsXsXsXsXbXnXpXF.T G.sX9XS.sXBXbXwXd.w R R p.u.0.E ) p.q.@.r.eX1X<.wX0XbX<Xe.v.d.j.G.~ . r 3 7 <. .-.:.-.3.<.<.3.;.e..XX._ 7 8 A.J.i.X.1.a.R a & % w @ 3 D T T a ~ T ~ I ! ~ ! ` P V ! ! / ,.,.~ ~ ` 5 9 Q Q F P ~ ~ P D 0 D V C > 0 ,.d.<.;.' ( % # X . . 7 U U I U J 0.        ",
"  -.. a H.J.&.&.~.).,Xu.X J ).~.'.Z.n Z.Z.V.m k k O.W $ o . . . . 8 l l % . q $.u * w.A.a.a.(.(.t.a.jX7X).~.#.z.#.t.^.8 #.u z Y 6 o . } z.t.zXVXNXVXVXSXCXCXlX6X6XNXCXVXNXNX,X7XNXVXSXGXSX> . H.7XkXdX6X1XwXxX7Xp.eXkXxX7X7X(.(.7X7XxXxXzXlX5X^.' % _ z.l _ @.E . . q H.CXNXwX6XaXlXMXaX1X;X;X>X1X3X;Xv.( # z.MXqX;XdXMXxXaX1XwXpXMXpXfX8X7XCXVX5X,XSXxXpXpX:Xj.P 5 . ( lXVXVXVXNXlXxXCXCXVXVXNX).m.xXkX8X8X5X(.(.6X:X(.p.% - g.G.l.l.q.' 0.) ;.~ ;.4.;.Q R o.X.X.K.qXbXA.c $.O.c { x ; w E 6 ; w L L I T J I K e r e e r 0 + 3 4 3 3 > @ 3 e P q 4 4 3 r % . X + # ` d.p.p.#Xd.X X . r.0.w.z.z.z.m.p.^.e       ",
"  -.X _ aX_.'.`.'.'._.q.. # t.A.[.Z.=.n f k f Z.n O.8 X % Y @.} u . . . o _ n.5Xz.;X1XF.o.o.o.F.,X^.,XcXxXNXtXaX_.5XGXF.p.aX7X8X:X6 L LXGX(.7XvXcXNXVXNXSXSXcXtX6XlXDXGXDXVXaXaXfXpXMXqXMX% q.lXVXCXLXLXSXZXBXZX3XVXCXLXCXDXCXlXMXdXlXCXVXGXCXVXwXX MXCXwX;Xl.l.l.l.l.GXSXSXCXZXSXSXVXDXCXZXCXSXSXSXZXSXH.& qXLXZXZXfXfXfXMXMXBXNXZXBXfXNXSXa.kXxX`.7XjXDXvXE 4 # # qXLXGXSXVXVXVXCXNXSXVXlXpXdX6X(.5XrXkX(.5XrXkXzXkXvXrX+.F.lX6XF.(.(.(.5X1XqX<X<X,.S...W A.A.z a $.J.v c Z.n c 8 y i y = . ; W %.$.p.w.@.( _ T @.w.@._ w.^.:Xl.@.K - ; E ) ..q...' 0.] 7 1 1 @ 5 ` r.@._ ) z.$ & # ^.w.$.#.#.t.p.$.t.L       ",
"  -.@ _ aXaX~.a.*.*.^.l.# ;XkX*.W.g m Z.f c o.c c O . ; t.).~.n.`.%.o o o Y n.n.p.( J u.(./.w.l.l.H.u.i.J./.,X/.l.F.F.>X3XpXH.3XMXe ( LXVX_.kX7XlXtXcXtXtXcX_.tXcX5X5XtXyXgXnXgXgXiX9X0X0X7 LXDX2X2XsXsXuX%X+X&X%XuX2X%X2X2X2XuX2X2X2XgX4XpXJ.BXKX1 ZXSXCXCXSXSXSXDXSXBXnXnXgXgXuXuX0XuXsXsXgXgXuXgXsXsX<X- X <X2X2X<X;X>X2X2X9X2X9X2XuXsXdXa ^.(.(.`.~.'.jXp.5 7 1 PXSXMXMXMXxXMXMXdXqX3XwXwXqX7XxX8XwXqXeX8X8X8X(.`.rXrX*.(.GXzXt.$.} n.8X,X6X:Xp.u.i.i.&.a.a T T o.c d c j y ; O o = : = j &.O.O.A.A.*.O.&.$.v c 8 v W *.*.$.%.+.} x 8 $.#.+.o.W z J 5 e 4 5 $ 5 <...z z (.5X5 # $ z.+.$.#.#.$.$.+.+.I 1     ",
"  G > E _._._.(.a.eX5X..# eX7Xj Z.W.k = n N *.a.L * o } n.M.M.=.~.`.8 . X z a.*.z._ # ^.wX^.H.;Xz.^.H.H.H.H.>X;X;X;Xl.;XG.<X3X6XZXe l PXLX5XaXkXdXfXlXpXdX6XpXpXpXdX,XaXfX9XsXuXsXiX<XiXnXG mXnX2XnX2XgXuXuXiXmXmXmX2XiXgXhXuXgXuXhXgXnX$XfXZXbXZX@ DXuXpXbXfXfXpXuXsXgXbXgXsXsXbXgXiXiXiXiXiXiXiXiXiXiXnX1 SXpXbX2X3XpXpX9XpXqX9X9XsXdXMXH.# w.z.5XrX8X5X).$.w 7 # wXMXZXMXMXMXbXwXqXwXwXwXwXqXqXqXqXqXwXwXqX6X7X7XkXkXxXa.$.aXxXeX8Xz.:XwXz.z.6Xz._ @.z O.M.=.b b M.N n b { x ; * $ % = O.*.&.o.&.&.$.*.O.#.$.W c W %.$.*.c v a.%.%.+.w L $.w.@._ E E ' A U ! 9 V <.q.t.a.).(.q # O m.t.t.#.$.+.$.} +.Y 5     ",
"  2 3 J ).5X).(.5X5X^.q X _ 7XO.=.Z.O j v v O.`.$.= l ).n.~.M.~.[.jX6 o X 5Xa.a.(.a.% } p.5X^.z.p.G.l.l.G.H.H.H.H.J.J.J.J.;X,X8XVXw e PXGX/.F.,X3XdXfX3X3X9X3XsX3XfXMX3X2X2XgXbXsXgXgXiXmXG *XbXmX&XiX2XuXbXnXiXuXgXgXnXiXuXuXhXgXgXfXuXnXgXMXpXZX1 LXbXbXbXbXnXsXsXsXgXsXuXsXsXbXiXiXiXiXiXiXiXiXiXiXmX=X1 $XBXfXsX<X3XuX3X9X9XpX3XpX1XdX6X& 5 ^.(.).n.(.(.z._ % 3 T KXBXdXdXdXqXwXqX9XqXqXqXqXqXqXqXqXqXqXqX3XwXxXwXMXMX( T qX<.#XAXAXU [ 1Xz.u.^.i.i.&.c c b p p M.=.c c j o * 8 k f f k v s W a.t.).).o.Y +.+.W +.$.%.W +.+.z W #.a.% l 0.' @.p.@.' r.0.' ( q U I ( F.eX(.(.a X * ^.t.#.$.@.+.$.#.@.L 5     ",
"  9 @ L p.(.`.`.`.(.^.) & % @.W : c j %.x z l z = = 6 $.%.%.%.{ %.W . . % 5Xt.n.).m.% c.8X8XF.F.l.l.d.g.H.H.H.H.;X;X/.J.F.H.6XqXVXr q PXCX).^.,XdXaXpXpXpXfX3XpXuX3XfXgXiXiXiXiXiXbXmXiX*XS OXZXiX&X%XuXiXiXuXuXuXgXgXuXgXuXgXhXuXuXgXnXBXgX>X@X:X1 ZXBXgXbXbXbXbXsXsXgXsXsXsXbXbXbXiXbXgXiXmXbXiXmXiXmXiXC nXgXfXsXuXpXsXpXsXpXsXfXpXfXlXBX% - a p.#.#.$.$.w.q.7 4 5 LXMXqXqXwXwXqXwXqXqXqXqXqXqXqXqXqXqX9XqXwXdXwXdXxXNXw.T CX( :XZXMX} 6 L z.z.^.1X6X_.'.Q.Q.W.n j O.c = 8 N W.U.Y.T.B.h g f n n Z.~.c O.O.W +.W %.~.$.#.x W W W t._ . w w.@._ @.( @.@.' E w w J l p.F.5Xm.(.E X & c.@.$.#.@.#.#.$.t.Y 1     ",
"  -.X ) z.vXjX`.`.8X5XwX% # . 8 W *.).a.%.%.} #.w O . . . . . . . . 6 u ; $.p.a.z.p.@.m.,X8XF.F.H.p...q.H.H.H.;X;X/.>X1Xl.G.6X:XMXJ 3 LXVX8X/.wXlXlX3XpX6XfX>XfXgXgXuXsXmXmXiXiXiXiXiXiX*XG 8.SXnXnXiXuXiX2XuXgXgXuXiX%X&X2XnXgXhXhXuXuXnXnXy.qXAX> BXgXsXsXgXgXbXbXnXbXbXsXiXiXiXbXiXbXbXbXmXgXsXmXiXbX0XG ZXfXsXfXsXsXgXgXgXgXfXsXfXdXfXMX. - 5 4 T E ) E @.w.e ' 6 dX1XwXwXqXqXqXwXwXqXqXqXdXsXpXwXwXqXqXwXAXdXxXxXzXVX$.$.HXzXkXa.W t.t.L 0.z.r.^.).=.Z.Y.Y.W.'.a.#.; = W.Q.R.T.T.T.C.C.I.E.R.R.I.B.f 8 x 8 Y O.*.*.x Y W } Y W E ; % L _ _ I l l ( L _ _ ( I L L @.$.t.#.a.E X o z.$.$.+.@.+._ t.} Y 5     ",
"  -.X H.;XxX8X`.`.7XwXwX5 % r.@.+.+.n.a.a.*.a.(.@.# X # . ; 8 l W n.~.a.O y (.a.a.a.p.z.H.F.z.H.l.l.i.H.;XH.1X;X,X;X,X4XK.F./.,XMXI 4 LXVX:Xp.l.1XZX3X;X6XaX3Xi.uXbXgXgXmXmXiX*XiX0X*XiX*XH 8.ZXnXnXmXuXiXmXbXiXuX2XuXuXiXiXiXuXuXuXuXuXuXgXsXbXwX9 KXgXbXsXbXbXsXiXsXbXbXsXiXiXsXbXsXiXbXbXgXnXnXnXnXnX0XS bXfXMXfXMXMXMXbXbXbXfXbXdXdXpXqXu.% - $ 5 a a a 4 w ; ; # . 4 q.wXbXbXwXsXwXwXwXdXbXbXdXwXwXwXwXwXAXwXMXxXkXvXO.a.VX8X^.eXc.wXeX[ r u ( +.A.=.W.].W.Z.=.W z ; k Y.T.C.C.I.I.E.E.C.I.E.T.T.Y.N f f = : j p : ; x O.O.x y ; * 8 _ @._ 0.' _ @._ _ ' ( I E L _ w.p.p.p.( X % :X} } W Y L E } Y u 5     ",
"  C % R ;Xa.A.~._.(.^.p.5 1 ..@.x $.$.*.a.n.a.m.E # X X L +.a.%.%.*.=.n.z ; (.n.#.a.p.^.^.z.l.z.p.l.l.1X;Xz.H.H.;X,X/./.A.L.yXlXVX( 5 LXVX7X$.i.dXZX>XF.3XfXMXfX2XuX%XuXmXiX*X*X*X*XiXiX*XOX>.DXmX0X*XuXmXiXiXiXuXiXiXgXgXiXuXgXiXuXuXgXuXsXpX1XAX7 ZXnXsXsXbXsXiXsXqXbXiXbXsXsXsXsXsXsXgXsXiXbXbXbXbXnX7.G LXfXlXfXfXaXfXfXfXfXsXdXfXfXdXdXSX1 @ # # K E a 3 X . q ( U e . 4 1XZXwXwXqXdXwXdXbXwXwXwXwXAXwXqXwXqXqXwXaX7X8 8 kX6Xz.z.:Xz.J I [ ( z.^.a.A.[.[.N k k O.A.n [.Q.T.I.h E.!.!.!.I.I.R.R.T.C.g M B.M M U.U.m B =.N =.%.W O ; } @._ w.w.t._ w._ E @.E _ } E E a.a.a.a.0.X X _ E W Y E E E W Y ; 0     ",
"  9 1 % - ..A.A.&.&.A.,Xq % 7 o.W O.$.%.*.n.'.).Y & & u L 8 6 8 : y x y _ ; ).).a.t.z.z.H.F.F.F.l.p.i.H.;Xz.- q./.,XJ.F.L._.aX6XlXL 5 LXNX7X6X,XpX9X;XJ.>XpXbXsX<X0X2XuXiX*X*XiXiXiXiXiXmXOXG KXiX&XiXiXiXiXmXiXmXnXnX*X%XuXuXuX2XuXuXiX2XbX3XqXbX@ BXfX<XbXbXsXqXsXiXbXBXbXsXiXsXsXnXbXsXiXiXsXgXbXgXnX8.H LXgXsXfXfXfXfXfXfXfXdXfXfXfXlXlXCX7 # 1 $ # . . 5 E wXBXVXkXwXI @ 1 0XBXwXqXwXwXwXwXwXwXwXdXqXAXwXqXqXdXdX7XzX6 } xX7X7XeXeXz.H.z.w.$.w.:XE W *.k k n N W.'.n Z.B.h R.R.T.I.C.E.!.!.T.T.Y.B.Y.B.C.h h C.C.Y.M f v 8 ; o O 8 E Y l J _ q.@.} _ E E E @.w._ 4 z.^.^.z.u.& X } _ } W W W _ W y O ~     ",
"  9 1 H.i.7 o.&.$.F.5X6Xa > ..a W %.a.a.~.'.`.jXw & . 3 3 u u 5 4 5 # . o O E (.z.^.^.^.H.;XH.F.H.^.p.l.,Xw.# a ;Xw...l.4XyX6X1XMX~ 5 LXNXzX8XaXqXqXpXpXfXbXsX<X0XiXiXiXiX&XiXmXiXiXmXiX*X-XS KX*XiXiXiXiXiX*XiXiXiXuXuXiX2XuXiXiXiX2XnXiXuXgXqXBX1 LXfX9XbXsXsXsXsXbXBXnXsXiXbXbXbXbXbXiXiXiXiXbXmXbXKXG S iXgXgXnXfXnXfXfXfXfXfXfXpXdXfXNX#X5 5 5 $ % # p.6X7XkX7X5X^.eX1X7 # . CX9XwXwXbXwXdXwXwXwXwXAXwXqXwXMXqX;XeX:X* _ MX8XxXxXkX7XaXtX5X7X8X:X^.a.).~.~.=.=.=.O.v X g B.I.T.R.I.T.T.T.I.h M h h g g h h M M M B.m j . X o < 4 & 5 4 8 4 6 6 w l w l u w w w u E z.^.z.z.z.X X p.#.+.$.$.$.} } %.5 e.    ",
"  @ T ,X^.F.A.O.~.a.~.).J 5 I 3 ; W m.a.O.%.*.#.o # & 4 } $.w.$.} } z w * * 6 ).m.#.eX(.;X/.;XH.H./.H.F.l.E o . ) ..l.1XG.;X;XH.<XD a KXNXlX,XaXpXwX6XpXfXsX<X<X9XsXiX0XiXmXiXiXiXiXiXiXmXOXH PXiXmXiXiXnXnXbXnXbX%XiXnXgXiXiXgXuX2XgXgXnXBX<Xe.d.1 l.BXiXbXiXiXbXnXgXbXgXsXuXbXbXbXiXmXiXmXiXuXnXmXmXnX2 2 %XuXnXfXgXgXfXfXfXBXcXMXbXMXMX:X. . . . X $ 8 dXdXdX1X7XkX^.eX8XeX; & r.MXdXMXbXwXwXwXwXqXwXdXwXqX;XdX<X0.E ; * X ..W $.&.#.a.a.).a.z.^.8X7XrX7X).~.a.*.*.*.O.d V.Q.T.I.I.I.T.T.C.h I.B.g f h h h M g I.I.g k 8 ; ; L W L l E _ E +._ _ E E E _ L u 6 l 6 c.p.l.^.p.;X. . m.@.#.#.#.#.} L ^.L d.    ",
"  @ ) ,X/.7X`.~.'.*.O.).r < < o X . $ 5 8 8 ; % # # % q 8 = O : 8 z y W J * * u x ; a.(.^.(./.^.^.^.F.H.z.w.a K L 1XqX;X<X1XeXq.~ 1 r 1X;XH.c.l.x.x.x.@X<X1XsX0X+XmXZXnXbXiX*X*X*X*X*X=X*XS 9.KX*X*XOXP.OX=XOXOX*X%X2XD.5.f.D.K.K.G.>XH.G.i.8 q . $ . bX@XG.>X9X>X1X>XH.>X3X3X3X<X%X9X9XpXgXbXbXiXsXbXmXG G f.y.y.u.1.X...X...X.....i.i._ r z.eXwXeX3 . . . d.H.;XeXkX5Xm.).p.. 5 l eX;X1X;X;X;XH.c.1XwX;XH.eXqX1X1X1X:X(.O $.w.W +.#._ W W W W +.$.%.*.*.O.*.O.&.O.W c O.n n Q.Q.T.M R.R.!.!.I.I.M g B m m m m M Y.U.m j j W l E _ +.$.#.+._ E _ _ W $.+._ z E 6 6 4 wXr.c.c.z.r.. & :X@.+.E L e K e K w (     ",
"  @ r ;XF._._.`.(.).`.7Xr 5 q 5Xw.@.p.p.a.t.t.w.% # * u l l z a.$.+.W W u & w p.^./././.^.(.(.(.^.m.^.:X:X,X:XqXdX7XaXdXqXwXMXMXwX. . #X;X1X<X<X>X<X9XqXqXqXbXbX*XiXbXnXbXiXiX0XiXmXmXmXiX>., G D.$XnXZXBXfXJ.i.&.4XcXfXpX3X1X3X6X^.p.O O X 8 Y @.; % 5 $.).).^.aXlXaX1X^.a.$.z.H.r.0.@...X.....@.u.d.9X2.G <XqXqXwXaXdXqXqXdXaX1XaXNXVXLXPXPXPXLXPXLXLXxX).; . Y W { W x o = 5XGXGX7X7XNXMXMXMXxXBXBXNXxXdXdXdX7X8X5X5X7X6 xXVXrXrX`.5X`.8X7XkX8X`.'.~.~.~.~.Z.*.*.A.A.~.j . W.M W.h B I.E.T.h h g W.k : : : f N k f : = 8 Y 6 ; w w w z l L E W @.#.p.$.} $...u * 3 1Xp.c.z.w.I & # U 3 O * X * q w 8 q 3     ",
"  > % J K a K T E E w.^.q 4 l ;X@.p.z.(.a.t.z.w.% # ; 6 ; z $.$.W W z z 6 & Y m.z./.a.t.p.p.p.p.p.a.z.z.^.(.F.l.F.H.(.;XJ.;XqX^.>X) 5 SXMXfXgXpXfXuXgXuXuXuX$X2X2X2X2X2X$X2XuX2XuXuX2X2XuX&XG gXgXhXSXSXSXcX/.4XF.F.F.6XpXpX3X6X3X,XaX8 X Y y Y u * X 1XxXvXVXVXGXLXLXLXLXGXaXlXLXPXLXLXGXLXSXqXdXaXZXLXH G LXLXSXSXSXSXLXGXGXGXVXBXdXcXcXVXcXcXxXtXVXHXLXLXLX7X6 o #.#.; xXIXCXzXcXcXNXzXaXaX6X,XxX6X1XqX9X1X1X1X1X1X5X5Xu 5XkXrXrXrX8XrX7XrX7X).*.~.`.'.~.=.*.O.O.&.&.&.X O W.M f m I.Y.T.M M m B k : O O . : 8 : o - q J J q <.u.@.@.$.} o O z w z W +.$.u.@.w O @.;Xu.q.p.t.J X & . L ).5X(.8XrXkXrXrXl     ",
"  9 1 J I T ..@.0.0.8 p.5 5 ' a @.w.$.p.$.t.w.} % $ 4 L Y z #.+.W $.} } q 3 $.z.^.z.a.a.l.z.F.p.i.p.l.F./.(.^.,XH.^.H.H.x.g.H.g.K.u.a pX,X>X>X>X>XJ.J.2X2X2X2X2XuX2X2X2X2XuX2X2X2X2X%XuX2X9.*XSXBXfXhXgXpXyX>XpXfX9X>XH.J.>XH.;XJ.>X>X;Xq.a 8 6 6 3 & :XaX6X,X/.A.).).5XyXlXNXNXCXDXNXcXlXVXDXfXBX9XD.BXG G mXpX9X3X>XJ.3X3X3X3X3X>X>X>X4XyX,X4X_.6XtXyX_.4X6XSXNXE . . NXNX7X1XqXdXqXqXqX9X3X1X0XqX3X0X1X0X0X:X@X;XJ././.7 rXzXxXxXrXkXjXrXrX(.x - c O.v f v c j : O X . & n W.h B.g B g g N W.f j = w.' w $ # q 7 - 4 e D 0 D F e.u.q._ W W 6 O 8 l 8 * 5 ; 6 . 5 xX6Xp.c.p.p.U X X o (.`.'.`.`.`.rX~.n.8     ",
"  9 $ E u.H.,X;X>Xz.p.w.X % ' r q.q.@.+.+._ _ } 3 $ J w.t.W %.a.a.%.} } 5 4 } ^.z.F.^.F.H.F.F.z.l.l.F.^.).F.F.F./.F.^.^.;XH.@Xg.e.G.q.VXF.4X4X@X$X<X2X$X2X2X2X2X2X2X2X2X2X%X%X2X2X2X2X%XmX5.=XBXfX9X9XqXbXDX3X3XpX3X1X;X<X>X;X>XJ.J.g.3XpX;Xq . 4 3 # CXlXyX,X,X,X3X6X,X6XpXfXDXLXVXyX6XyXgXfXgXbXgX$X$XH G mX0X2XuXuXuXuXuXuX9XuX9XpXpXuXpXpX3X4X4X_.3X3X,XyXyXaXNXu p.VX1X1XwXqXqX9X9XqX9X9X1X1X>X<X>X<X<X<X>X<X>X@X/.,X; 5XzXkX5XrX7XrXrXrXz.a s O c v O.j xXw.w...T r . : =.M M h f f : k k : * L p.0.! U V 5 > q P ) / / / F D ;.e._ @.E u 8 W a.@.u } } @.* E xX7Xp.^.z.m.[ + & X rX~.n.*.*.%.%.W l 3     ",
"  9 7 3 K I l L T @.z.c.# X q ~ 0 r.0.@._ W @.r.3 $ ( p.W z $.a.a.#.z.m.4 6 q m.).).).^.H.F.F.F.p.l.F././.H.^.H.H.H.H.H.;X;X;Xu.g.sXT NX/._.>X>X>X<X2X$X2X2X4X4X2X2X2X2X2X%X%X%X2X%X2X2XiX .iXnXgX3X9XpXqX>X;X1XpX3X1X<X<X>XH.>X;X1XJ./.J.qX;Xr.. 4 X xX,X,X3X,X6X6X3X>XpXpX3X8XaXdXaX6X4XuXgXgXsXsX<XiX>.G 9.#XiXiXuXuXuXuX9XuX9X9X9X9XuXpXpXpXyXyX4X4X4X3XpX3X6XMXy VXxXwXqXwX0X9XqX1X0X1X1X1X1X1X1X1X<X>X:X1X>X>X>X;X,X; (.xX7X(.(.eX(./.z.w.l a . a ; 8 kXSXlXlXNXwX7XNX@.O v k M m f b ; ; 3 o /.t.@.r.' 0.] J e r ~ `  . .,.F ,.<.' l O u W w w.w.w L @.; % t.7Xa.p.w.p.p.' X % . n.*.%.O.{ { W Y L 4 2   ",
"  9 7 ' 0._ t.o.$.H.l.w.% # <.r.q.r.@.@.#.#.@.} 5 $ Y $.l z t.%.$.+.#.t.e 6 w (.5XeX/./.^.F.a.l.l.l.F.H.;XH.z.z.z.H.H.;X<X;X;XG.y.g.1 H.J.4X>X>X<X3X2X$X>X>X<X<X<X2X2X2X%X$X$X2X%X%X2X2XuX2 8.nXfX9X3X3X3X3X>X1X,X1X1X3X3X1X>X>XJ.>XJ./.>X>X0XbX<.. X NX5X)./.,X,X3X6X4X>XyXpXfXfXcXcXcXBXBXgXuX9XuX@XmXH G OX<XnXsX2XuXsXuX9X9X9X9X9XpXpXpXpX3X3XyX8X4X,X3X3X1X:X,Xl zX6XqX6XwXqXqX9X1X1X1X<X1X1X0X1X1X0X1X1X0X;X;X:X1XaXl 5XxX7X5X5X5X5Xa.^.#.8 l z ; w _ wX@.l.^.,X/./.lXNXaX% y c k p . . . 5X= z $.W p.t.t.q.w.@.L K ) 1.X.e.T E w . * u u Y z L L w - $ 5 O q p.p.c.p.q.@.( X # . O Y W { { { W +.Y 5 1   ",
"  9 5 0.' _ @.) ) ..p.z.r # P c.H.p.w.$.#.w.@.( 4 # L a.+.6 t.*.{ { } } u * E m.^./.(.^.F.F.F.F.F.F.z.z.z.z.z.l.z.z.z.;XH.H.u.G.<X;X..p.,X,X>X<X3X>X>X3X2X2X2X<X$X%X$X2X$X%X2X2X$X2X2X2XuXR X.BXfX9XqXqXpX3X3X@X>X>X>X1X3X3X;X>X/./.F.6X1X>XG.H.sXMX$ LXaXaX6XaXNXVXfXpXpXpXpX1XfXfXfXfXfX2XK.K.$X$X2XnXP.G nXnXgXsXiXuXgXpX9X2X9XuXpXpXuXpXpXpX3X3X4X4X,X1X3X1X:X;X).kX7XqX1X3X9X1X1X<X1X9X1X1X9X1X<X1X1X0X1X0X<X1X;X:X6X; a.zX6XxX7X5XeXa.p.$.z #.).^.aXF.^.p.,XF.).F./.).@.:Xw % # X . ..l.^.5Xa.W E w.p.w.t.p.a.a.a.t.a.F.+.w z u O z t.t.{ } } } _ Y l q 5 # % <.l...' ' } ;.# % & @.$.x Y } O.*.{ +.6 %   ",
"  0 > # ; 4 5 4 7 q e e P % 7 0.J q.w.$.$.$.@.q.q % m.eX$.+.%.%.$.} +.p.} 5 z p.} z +.F.F.H.H.l.l.l.l.l.c.c.l.l.z.l.F.F.l.H.l.#Xd.@X) ..6X3X4X4X>X>X3X3X>X$X$X$X$X$X$X>X2X$X$X$X%X%X%X%XiX5. .nX3X9XfXfXlX,XpX3X3X>X4X3XpXpX>X1X1X;XF.6X>XJ./.@.MX0.- DXaXaXpXpXdX6X3X6XaXlXfX<XG >.7.>.2.&XuXiXgXgXiXbXXXS ZXnXgXgXgXsXsXsXpX9XpXgXgXpXyXyX9XpX3X3XJ.J.3X1X3X;X1XdXa.zXwXqX9X9X9X1X0X0X<X1X1X<X<X<X<X<X<X<X<X<X<X<XeXeX;X7 x vXA.a./.^.u._ E t.w.t.F.6X1XfX3X/.F.F.l.F.F.l.u.l.) $ X W ).kXCXVXaXa.T u.z.c.q...i.a.a.a.a.).8X6Xm.@.o w } @.Y L } W } W Y _ ] [ % 5 z.;Xz.m.m.v.b.> < & z.+.l +.z.t.a.%.{ 8 %   ",
"  9 1 ' @.u.p.u.p.c.v.r.0 @ r q.) T w.p.$.$.r.p.7 ; eXt.L a.%.} %.a.t.@._ ; u p.p.p.. W ^.z.z.p.u.l.l.l.x.z.z.z.H.H.F.H.H.l.G.G.x...R w fX,X4XJ.4X4X>X/.K.J.$X$XL.L.$X4X>X>X4X$X%X%X%X%X0XH G bXK.4XaXBXVXlXfXpXpX3X>X>X3X,X1X1X1X;X/.1XJ./.F.qXMXMXa SXaX,X/.J.J././.3XaXaX6XpX5.uXuX$XgXgXnXnXnXbXgX9XoXZ nXiXsX9X2XuX9X9XuXsXuXpXpXpXyXpX9X3X4X4X$Xi.J./.,X,X:X7Xx zX6X1X<X1X1X1X0X0X9X9X9X<X<X<X<X<X<X<X<X<X:X<X;XH.MX8 o.HX_._.p.#...q.q.u.F.l./.F.i.>XF.F.J.F.K.K.F.u.z.:XI % E 6X7Xt.).VXl.l.p.u.u.z.p.i.p.l.w.A.A.a.A.a.z.6X6 5 Y u Y Y z 8 6 x $.E J ] $ 4 ;X6X1XeXm.[ v.> < X 3 e _ } @.W L 6 y 8 $   ",
"  9 5 q.q.) ..;X;X:X^.z.3 + 1 ` q l.F.$.w.p.0.' 4 * +.+._ t.p.#.p.#.t.$.t.y } t.p._ % } ;Xz.c.l.l.l.c.c.x.x.H.z.l.l.F./.G.u.A.K.;XpX..a lXJ./.>X>X>X>XJ.J.J.$X$X4X4X>X$X$X$X>X<X$X$X$X2X*X8.>.nX3X3XlXyX@.T a dXaX,X>X3X3X,X,X1X,X6X,X1X1X;X;XqXwX( 5 VXJ.^./.,X,X6XdXMXNXlX3XK.2XnXnXuXuX$X$X$X%X2X$X9X*XC mX@XuXuX2X2XuXiXsXuX3X2X4X3X3X3X9XpX4XL.4XJ.A.A./.>X;X).W 7X6X1X1X1X1X<X0X0X9X1X1X1X<X<X1X<X<X<X:X9X>X>X1X6XVX8 5XtX/.6X&.i.F.J.J.H.;X/.F.J.F.H.>XK.H./.F.4X/.qX3XqX7 4 7X6X/.F.@.H.g.u.g.x.;XF.l.u.i.q.i.l.l.i.i.l.q.:XL * _ +._ +.} W W +.{ x Y Y % 5 eXeXp.v.p.' d.% % # :X+.W Y Y L #.a.$.8 #   ",
"  9 5 ) ` e.l.0.) @.w.q.$ + ..<.( u.$._ L E ' ( 5 * L +._ +.$.W W t.$.#.W z z W w o U 0.( w.l.l.p.c.l.l.z.z.z.z.l.l.l.l.F.F.F.yX&.,XK R 6XJ.3X3X3X>X>XJ.K.S.@X>X2X$XJ.$XJ.>X>X4X4X4X2X%XuX1.R LXdXp.F.W W T O ,XfX;X,X1XaX6X1X>XaX1XH.H.;X>X>XH.wX. . lX6XtXtXaXdXaXaXwX;XJ.e.S.uXuXuX%X&X+X&X&X&X$X+X+X=XS KXiXsXuXuXgXgXsX3X9XuX3X2X3X2X3X3X3X2X4X>XJ.K.A.aXyX/.5Xa.)./.;X1X1X1X1X<X0X<X<X<X<X<X<X<X<X<X<X:X<X1X1X>X>XeXK /.a.l.q...F.H.H.<X<XG.@XJ.J.1XqXl.H.>XJ.F.>X/.>XJ.H.5 q w.l.H.i. .1.y.y.y.g.u.i.u.u.i.w.i.i.w.i.q.u.u.;X] & (.%.y Y _ W } } a.} l 6 X ; 6X:Xp.c.:X[ d.3 % # ,X_ z W } +.%.#.$.6 &   ",
"  0 % ~ <.~ a r a ( ( 0.5 # P e.) q.u.w.@._ ' ] 3 % * w u +.+.+.p.t.z +.} Y 4 l 3 ( 4 q . . a _ r.;Xz.z.H.H.H.z.l.l.l.l.l.l.u.>XqXMXT z pX3X>X6X9X>XK.D.K.+XL.J.L.L.L.L.$X>X$X%X2X2X%X%XbX .F bX6X,X^.W A.&.a wXdX3XqX6X,X6XlXMX3X,X;X;X;X3XaXqXMX4 ;XVX/.)./.F.l.u.g.j.@X9X9XuXuXiXiXiXiX*XiX*XiXmXiX&X=XC mX<X@X<X+XG.9XbXsX3X9X@X$X3X<XsX1XsX1XbX>X>XMXpXF.F.z.p.w o.z _.1X:X@X:X:X#X:X<X<X1X<X<X<X<X:X:X#X#X;X1X@XwXu.3 w.z.i.u.G.l.#Xx.G.@XG.G.g.g.1X1Xu.g.G.g.l.u.i.K.G.g.r q u.1.g.y.X.G. .1.y.1.1.i.i.u.d.g.l.u.u.u.u.u.u.p.) # E z w Y W _ _ _ Y L u J % 5 6X:X0.v.;X.Xe.3 $ # l w W #._ l z 6 ; 5 $   ",
"  0 1 e.1.v.' ~ 3 r r.c.3 # e <.<...q.z.z.r.' <.3 # r u u } t.a.#.W @.w.J l 5 X . J u ' I l . . # ( H.^.z.H.l.c.l.l.l.l.d.u.u.l.1.r.& ..;X>XK.J.J.J.K.K.K.J.J././.J.$XJ.J.4X>X@X+XK.+X+X<X3.X.o.&.$.Y z 8 i.s q.MXwXwXdXlXMXCXwX1X,X;X/.l.dXi.@.u.3 1Xz...i.i.l.@X0XiXAXiX2XuXgXsXuX*X%X%XoXD.oX%X%X#X-.8.C G 7.4.0X%XoXiXmXbXqX<XG.%X0XbX@XBXLXCXMXMXCXSXBXl.l.i.' 6 $ i.&.a.a.F.F._ ..w.l.l.g.>X;Xl.l.q.l.#XqX3X1X1X;X( X K q.T ..u.i.g.H.g.u.i.i.e.i.i.i.i.i.i.w.1.i...) ` ~ 5 % l q.e.g.1.u.) Q ..1.....e...q.q.) ) X.X...q...q.) % 3 * 4 6 u J w u 6 3 q w O 8 ^.T 0.p.:Xc.P > # 4 I E W z W @.E 4 L 6 4   ",
"  C 1 <.y.d...;X0.r d.H.# & e e./ ` d.c.@.E 0.r.3 $ ' p.p.+.$.+.} } _ @.Y 6 5 q.z.eX7XeX,Xz.p.Y K . . E L @.p.q.i.u.u.l.d.u.u.l.x.#X& ) H.i.H.>XH.K.K.A.A.H.J.H.H.G.K.>Xg.g.u.pXqXqX;Xq.) w E #.+.8 8 $.i.o.T l.l.qXwXdXdX,XlX,XH.;Xl.l.u.H.H.;Xr.% BXNXkXkXVXlXlXfXfXfXNXdXF.H.<X9XsXgXpXfX3X<X<X;X#X<X8.S iX0X0X0XiXiX0X9X<X3X2X3X3X4XpX4X>X>XJ.K.@XK.i.G./.u.i.T 5 _ a.%.v jX8X_.F._.5X_._.tX5X_.`.`._.yXaXyXyXyXJ.,Xi.T ,X/./.6XpXqXaX6X6X,X6X6XaXxX,X8X/.6X6XkXaX6XyX1XH.T X } F.F.J.l.y.u...X.T 1.g.q.q.w.X.q.i.i.i...q.u.u.u.w.q 3 l 5 5 w 5 5 6 5 * * % % 4 ^.l.p.r.v.v.P > # 3 Y l 6 z } W l 8 u 5 4   ",
"  F % ..1.q.) d.q.q 0.u.o o r v.^ 3.s.d...w.0.d.< # q L #.t.} $.} } } @.} 8 w.7X7X(.).).).(.7X^.$.^.w.8 . o E ^.z.l.G.K.K.H.F.F.eXMX. w z.i.>X3X3X>X$X2X2X>X@X#X#XG.G.@X@Xg.@XLXLXGXaXu.] q 7 T q X - ..r CXBX6XlX6XqX1XF.F.aXaX6X6XH.;XqXqXqXwX~ # ^.xXlXaXH.wX6X6XyXyXpXdXqX0XsX%X+X2XuXaX3X3XpXfXBXZXH S iXnXbXgXsXsXnXnXgXgXhXfXcXfXBXNXaXcXfXyXdXcXpXpXaX6XA.o.O #.).).8 A.v `.).~.'.'.A.A.A.'._.`.yX`.yX_.yXyX_.cXi._ aXpX4X>X>X3X9X3X>X>XJ.K.g.K.K.>XJ.H.H.>X/.>X>X<X<XX.% ;X;Xu.g.S.i.y.y.K.J.g.y.....i.i.i.i.i.i.q.p.i.l.i.t.E O l @.@.Y E Y Y Y Y J * # $ $.u.c.;Xc.c.U # & r U l Y u 6 w l l 6 ; 4   ",
"  G + I ` q.<.x.I 0 0.d.% X 7 d.v.e.q.u.p.p.U c.$ # r _ +.$.#.+.$.$.+.} Y = #.7X(.7X$._ e E p.zXp.#.F.H.$.4 . L ^.p.1.i.H.H.F.l.c.H.& E ).).^.H.@X%X2X2X9X0X0X<X<X<X%X=X=X%X%Xf.D.D.>.,.1.V + ;.l.q.q . w.SXdX,X6X3X,X;XwXVXBXdXwXaXaX3XqXpXdXwX' + l.aXwX0XqXpX;X@X9XqX@X3X<X<X9XsX<X9X9X<X>XnXsXbXnXKXF 0 oXiXuXuXuXuX9X2X9XgXuX$X2X3X>X>X2X3X3X>X3XdX4XJ.3X/.i._ 8 w.F./.a.w.,X(.F.8XkXtXjX_.>X6X,X6X3XaX,XaXlXw.w.xXX.T <X$X+X@XJ.K.G.G.G.@XG.@X@XK.G.G.K.S.S.G.K.K.G.@XG.1.7 G.y.5.y.f.5.y.f.S.D. .X.X.K u.H...~ ....q.q.#.i.w...E X E $.$.} } #.t.p.E u 4 & q l.;Xp.p.c.c.! > $ e _ z l z Y Y E W _ w 5   ",
"  G @ ( e.q.' r.r 4 0.v.$ # q v.q.q.d.u.r.p.0.e.> # e L Y #.t.a.+.t.).a.+.; a.5X(.5XO . ( I . w.kX).^.L p.p.w . L l.@.i.i.i.u.l.^.1X4 w 7Xt.z.H.G.G.%XG.@X<X0X9X<X#X+X=X=X+X%X0X%XuX*X4.d.r 5 ;X;XH.1X5 3XPXlX^.aX/./.^.,XF.l.p.F./.xXwX1X>XH.1X0.# :XNX,X6X>XqX>X<X9X9X@X1X9X9X9X9X2X3X>X<XsXsX<X@Xj.bXV 0 #X<X%X2X2X%X2X0X9X9X<X2X$X2X3XuX>X>X3X2X>X<X$X2Xl./.F.$.8 BX/./.F.,XlX6XfXlXdXyXyXyX3XpXaX3X6XpX6X6XaXaXq.dXq.a <X$XG.+X@X@X@XG.G.G.+X$X@X+XG.K.K.G.S.K.G.K.@Xg.G.R 7 l.y.3.g.2.3.5.5.f.y.5.1.1./ ) ^ <.q.0.` ` ..q.....~ q.X I @.( W Y #.} } W J r o 7 eXp.c.m.m.m.;.% $ $ l ; z Y z L W _ a.w >   ",
"  -.@ K ' ) <.I ] J c.v.% & $ ( a D c.l.0.0.;.` # # J ( _ @.@.w._ W w.w.p.w m.5X).7XE 5 ( u ( p.zX7Xw.eXp.p.t.* 8 t.T i.F.l.;X^.H.1XI l CXa.l.l.X.s.G.@XG.G.G.x.%X%X+X%X%X=X%X<X%X0X9Xj.^ 7 1 9X;Xl.H.J.lXSXlX,X,X,X,X,X^.^.,X8XaXaX6XwX;X1X;XwXv.X ..6X^.6X1X3X3XqX9X;X9XbX<X<X9X3XJ.BX>XpXfXsX0XqX#X9XC D ^ <X2X@X+X$X<X0X<X2X<X>X$X<X$X$X>X@X@X@X>X>X>XH./.4XJ.@.7 MX,X,X>X3X>X1X3X3X3X>X,X6XqX9X3X3X3X3X4X3XpXpX>XqXl.7 2X$X+X@X@X@X@XK.K.K.K.L.G.K.$X$X+XL.+XK.S.@XK.G.l.K a F.l.g.y.f.5.3.f.f.1.i.y.y.i.1.u.i.z.u.q.e...X.) q.q.<.# 7 Y z u u z y z L e 7 # 5 H.u._ z.t.p.] % # 4 L l W z Y E @.z 6 O #   ",
"  4.+ ~ ` ` l.( c.' V I $ % % <.<.<.d.d.q.r.` ~ @ # ; 4 4 q 3 4 4 u E u L 5 p.).a.(.(.eXz.r.aX5X^.p.....@.w.W O z F.p.u.H.F.H.H.c.c.r 7 1Xw.l.l.y.i.o.g.@X<X@X+Xj.oXD.D.%X0X0X0X#X%X#X3.@ e 0 bX#Xq.:XxX;X/.6XaX6X6X3X3X6X6X6X6XdXlXwX1X3XqXwXdX0.X dX6X,X1X>XMXdXpXfXfXfXfXpXsXgXuX<XpX<X>XsXbXsXsXsX0XC G G mX2X%X%X$X<X9X2X<X$X<X3X9X3X2X<X>X>X$XJ.>X>X>X3X/.J.q q 1X>X3X;X>X>X<X<X1X9X1X>X>X>X<X>X>X3X3XuX3X3X3X4X1XH.a <X$X&X$X@X@X@X@XK.K.K.G.@XK.+X+X@X$X$X@XK.K.G.K.H.F K 3Xi.D.i.D.5.f.3.1.4XA.i./.X.&.&.&.&.w.i.p.i.w.p.i.q.' $ ; . O 6 8 8 6 = X . q % r u.p.@.p.t.p.` % < r ( z W x W Y 6 w 6 5 3   ",
"  / . J <.r.q.I ) w ..' 5 # 4 r.<.e.d.u.u.u.0.;.@ X q E _ _ _ +.W W W } ( % +.a.#.p.a.p.$.W t.$.$.@.' @.} _ 5 * 6 w.J w l E E l ..@.$ 4 p.q.u.#X#XG.e.H.;Xp.H.<X<X<X#XG.+X#X#X#X%X0XZXBXBXZXQ BXK r.z.0.] 0.T _ $.&.i.H.aX7X3X1XwXq.u.;X1XqXwXwX0.X MXdXH.;XdX1XNXZXCXfX;XJ.3XpXpX9X9Xg.r qXnXbXsXsX0Xj.C H H 0X<X%X%X0X<X0X0X%X+X$X2X>X2X2X$X<X@X<X<X>X<X>X>XH.H.X.l.>X>X@X>X@X<X<X<X>X<X<X2XL.K.$X$X$X%X@X<X$X2X2X>X2XpXa 9X$X+X$X@X@XG.+X+XG.+X+X+X+XK.$X+X$XG.+X+XL.D.S.J.1 T 1Xl.H.l.u.H.l.&.i.A.i.i.,Xi.a.&.$.$.#.i.r...q.u.w.q.' % 5 ( L 6 * 8 q u l I r # I d.0.0.z.p.c.[ # 4 U L Y W z u u w ; 5 ; 5   ",
"  -.0 a e.<.3 q c.r d.<.> # 4 r.P e.v.d.d.~ r.( # & ( @.+.+.#.t.$.+.W +.z X +.F.@.q.@.#.$.#.$.+.$.@.@...r._ X . ' @.w w.;X0._ e J _ $ p.#X' ~ x.x.v.x.d.v.<.<.q.e.y.y.g.g.x.e.d.#X<XKXMXbXKXr 0X:X0X:X:XeX1XqXqXwXqX<Xx.1XH.c.qXLXZXZXZXsXdXdXMXr.# GXSXz.F.^.aX6X1X^.;X;Xl.x.u.l.;X1XH.d.P g.@X@Xj.j.,.F C + j.j.+X%X%X%X@X@X$X<X3X3X3X@X@X@Xy.T g.K.@XJ.H.H.;XH.J.3X;XJ.K.>X>X>X>X;XJ.J./.J.J.>X3X>X3X2X$X$X$X$X2X$X$XsX7 %X@X+XL.@X+X@X+X#X%X@X#X+X+XK.+XG.+XK.G.G.@Xy.f.G.K % L w @.l K z.^.8XtXa.&.p.p.@.i.p.u.i.q.q.@.) q.' ..' ' & q p.w._ J _ r.0.' @.p.X J c.~ :X;Xp.p.[ > 4 J 6 * . . . o # % % X X   ",
"  F r 4 r + D <..X1 0.( 5 # 0 e.Q y.v.v.d.d.d.;.+ # _ _ +.} _ _ _ W +.W ... L F./.t.#.w.#.#.p.w.w.p.p.H.1X' . ..q.E L ) 1X3XH...I e % L z.l.l.x.1X0XdXpX>X,XH.H.;X3XqXqXqXqXqXdXdXpX3X;XwXbX5 LXDXNXCXVXVXxXdXxXMXdXqXwXA.F.aXzXxXLXLXCXMXdXxXMXr.# dX;X(.xXkX).5XVXLXGXcX6Xi.6XVXSXlXMXSXpX/.J.X.BXCXBX;.1 e.1.y.g.S.G.x.@X@XH.1XqX>X>XpXqX9XqX0X3X;Xl.i.q.../.l.u.1XH.u.K.J.J.1X:XH.H.z.z.l.l.;XH.H.H.D.K.D.i.u.G.@X@XsXa 2X+XG.S.+X$X$X+X+X$X@X+X+XL.G.G.S.G.+XG.G.+X@X+Xe.q ..@._ - . E U . z t.E 4 u.p.T q.w...0.........) <.) ..@.X 4 w.c.p.p.p.z.' ( J ( o ' eX' z.c.r.H.] > 4 * o q Y _ w.a.p.p.z.J X   ",
"  @ 1 q.e.s.( ;.e.0 e.] 3 % q 0.e.d.d.r.v.0.v.` + # J E _ Y Y W x x W w b.q w 8X#.p.a.n.#.%.$.#.#.$.@.p.I q J wXu.3 R T a R 1.c.wXe X . 7X7X1X,X>XqXpX3X3X3XdX>X,X1X1X>X3X9X9XfXuXuXpX3XfX1.a NXtXxXkXxXzX7X,X/.;X;XH./.J.,X6X,X,X@.i.q.1.R ..e r % GXaXqX3XdXqX>X>X>X>X@XdX#XsX9X9X1X9X@X9XgXfXgXSXZXCXP 0 KXbXuX2XuXgXgXiXuX2X2X>X@XK.pXsX>XfXsXpX1X3XqXwXF._ l.l.z.H.H.:Xl.q.;XqXdX3XdX3X>X;XqX1X>X<X9XqX9X1X%X<Xd.<.@Xa +XG.K.&XG.L.L.G.L.K.+X@XK.G.K.K.G.G.S.G.+X$XK.@Xu.a a.E W @.8 w.z.w $.F.t.@.w.p._ w.q......._ .._ ..0.q.0.T X 3 c.c.z.r.0.0...I T J & E ^.J w.z.p.c.] $ 3 3 % t.z.t.p.z.a.p.z.u X   ",
"  1 5 u.x.#Xx.c.c.D ~ ] 3 % r d.d.y.e.d.d.<.e.;.X # ' @.$.} _ W W W W E @.} 6 5Xy W %.t.p.p.p.w.t.w.@.p.E X w.q._ T @.@...1.#X..H.% & I ,X/.H.H.G.#Xx.@X%X%X0X<X%X%X@X#X%X<X%X%X%X2X2X<X%XF i.lX;X(.,X/.8XNXVXMXqX1X1X1X;X>X;Xx.;X;XF.H.^.H.p.;X_ $ CX,X@X%X#X%XS.oXj.#X#X%X0X0X%X%X%X%X%X#XoXoX#X3.h.mX-.C ZX%XG.$X+X$X%X%X%X%X%X+X+X$X$X$XL.2X@X$X$X$X<XqX/./.dX..,X>X;XdX6X>X3X3X9X3X3X3XdX3XD.pX<X2X0X0X0X9X0X0X0X7.@XR  .L.D.D.S.S.G.G.+XG.S.G.G.G.G.G.G.S.G.G.@X+XK.K.) R p.z z L E ; % @.@.t.@.w...w @.t.@.@._ ..@.@.@.w.0._ ] J & 5 0._ q.' 0.] ' ( u q o w a.w ..c.p.c.( % 3 ; 6 $._ @.$.w.p.w.t.e &   ",
"  1 1 q.e.d.c.u.d.J ' ' $ # q d.1.<.e.e.e.e.<.<.X $ Y E _ $.$.#.t.t.+.x 8 _ L +.#.t.} } @.@.} $.@.w.w.@.w.@.. 5 z.F.F.;X;Xx.:X<.5 a - l.;XH.G.@XoXoXS.@XoX+XD.=X@X#X#X@X+XoX+X%X%X=X%X%X0XF 9XdXH.;X1X1X1XJ.@X;X;X3X1X1X;X1X<Xx.G.l.1XlXMXMXpXBXx.3 dX@Xf.+X#XG.oX@X%XoXoXS.D.+X%X%X%X%X0XoXS.oX+XD.7.7.4.0 LX0X$XG.+XK.K.$X%X$X%X%X2X2X<X$X$X<X<X3X2X2X<X>XJ.6X;XJ >X3X>X>X1X1XqX>X;X<X1X>X>X<X#X%X<X%X<X%X=X%X*X=X*X=XS.F a 4XL.L.S.K.G.G.G.G.G.S.S.G.G.G.G.G.@X+XX.S.g.1.w T +.7 6 E L L z.m.@.' @.q.W W w.@.L l E _ W +.#.w.q.( ( u X % ' L ' E ( ] L l r Y * 8 ;X@.E q.r.H.K $ $ $ 6 #.$.w.w.$.#.} } q X   ",
"  0 % K ~ P J ( c.] ~ ] $ # r e.^ ,.s.e.<.v.d.0.& 3 w.$.$.+.+.+.+.+.+.E L w.@.$.W p.t.@.u.r.@.w.w.$.w.t.$.p.p.E . E p.q.p.c.c.r . u o p.F.g.G.#XS.S.D.S.oX=X+X=X#X@X@X+X#X+X+X+X+X+X=X=X0Xr CXqX@X<X<X:X;X;X1X,X1X1X1X1X;X1X1X;X<XqX<X1X@X1XdX1XoX<.X.3XG.#X%X%X%X+X%X#X%X%X%X+X+X%X%X%X%X%X<XbXbXZXbX9Xs.9 ZX+X@X$X+X&X%X$X%X<X<X>X2X<X>X<X<X<X<X<X<X>X9X<X>X3XwX1X1X9X>X>X/.;X1X;X:X@X:X>X;X<X0X=X0X<X%X%X%X*X=XOX*X=X2Xa - 3XK.K.K.K.S.g.D.+X$X+XG.S.5.5.f.G.K.S.g.+Xy.^ 4 I l ; * L J u r.E l T @._ _ w.@.E _ L _ Y Y } } ( Y L Y q o 5 E U L ' ( _ } 0._ Y * 6 ^.w.w.p.p.c.l % # & ; _ @.#.$.@._ _ E q #   ",
"  C @ ) <.<.' <.x.` a ..$ # r d.F ` k.e.<.' r.0.# $ W $.+.W W W W W W W W #.+.a.+.$.q.@.@.p.u.w.l.z.z.p.a.i.u.H.w.o . 8 l L e UX( t o 5Xu.f.G.j.oXoXD.D.S.h.D.S.S.oX#X%X+X+X+X+X=X0X=X#X9Xe SX1X3XpX1X;X3X3X1X1X,X3X;X1X,X6X1X1XdX<.. . q ( * . <Xs.1 u.@X+X%X+X%X%X@X%X2X0X0X0X2X+XS.%X%X$XK.9XKXKXnX%Xk.9 ZX<X0XK.+X$X2XuX9X9X9X<X>X@X;X<X3X3X9X<X>X<X>X>X4X4XwX@.pXpX3X,XJ.H.;X;X#X@X@X>X<X1X0X+X%X0X%X%X=X*X=X*X*X2.7./ @ u.e.J.K.>Xg.$X<X%X+X+XG.%Xg.S.+XS.S.S.%X+X%X<Xr > 7 O 7 q 6 6 . 3 w L .._ +.w.@.W _ _ _ l Y _ _ _ L J L L O 4 0.0.Y J _ ' 0.' J E * X @.p.w.w.0.p.e # # & ; Y _ @.} _ @.E J 5 %   ",
"  C @ ..e.0.( ..l.~ e 0.$ $ a d.,.1.e.<.r.r.0.] & * #.%.+.} W W W Y W W W #.+.t.w.$.q.@.q.q.@.@.@.0.@.0.q.q.q.q.u.u.& X J 7 c.MX1X..L H.S.D.h.G.j.+XD.+X&XoXD.oX+X+X#XoX+X+X%X%X%X0X0X%X0X0 BX@X3XpX3X3XdX9X>X;X;X1X1X1X,X>X;XpXT . 1 0 nXZX1Xv.. e 4 . x.<X0X+X%X+X<X9X@X+X+X%X0X@XoX+XG.@X@X%X+X@XsXbXbX0 0X0X@X@X%X<X0X<X2X<X<X<X>X>X>XuX3X>X3X3X3X3X2XJ.4X>X3XH.dX3X,X3XdXJ.<X>X@X@X>X>X>X<X<X9X0X=XOX=X=X=X*X*X*X.XH G % ` <X9Xy.<XS.h.%X5.%X+XK.@X@X<XS.D.+X$X%X+X<X0XV 1 ; T L E l J 8 w L L l E _ w.@.Y L E l Y } t.Y l L Y L L 5 J 0.q.r.E _ ' _ J J r % * } @.) @.p.eXe # r & 5 _ $.@._ @._ w.U q 3   ",
"  D @ ' e.q.0...;X' ~ 0.3 ; r e.1.e.1.e.e.( ] ( & * l z _ $.$.+.} W W z W +.#.#.p...X._ @.....q.@.0...0.q.r.v.e.e.d.I X w w._ w.z.z +.6XK.f.g.S.#XoXD.=X%XD.f.j.oXoXD.j.#X%X%X%X%X@X#X#X0X, ZX@X3X,X3X3X;X>X;X;X;X/./././.3XdXu.1 y.G S.nXbX0Xx.> < 4 J J bX<X+XoX+X@X%X+XoX+XoXG.+X+X#X@X@XG.+XG.@X#XbXLX0 9X9X<X<X%X<X<X@X<X<X>X>X$X9X>X>X<X>X$X<X>X2X9X>X>X1X0Xd.1X,XJ.J.@XG.@X@X@X@X;X9X;X<X%X0X*X*X=X=X=X=X*X=X=X*X0X2 + R 0XsX2XG.+X,.S.h.S.%XG.$X@X$X@Xf.+X%X%X%X@X@X` 9 r @.E l L L l 8 l w $ 6 ( E l l L w u W @._ w E E L I ( J l 0.r.0...q.0.I 4 E E u ; 5 _ q._ z.:Xq & r & u _ _ E _ } } } u J *   ",
"  0 @ ~ <.e.e.q.H...~ 0.3 - r e.<.<.<.<.0.e.r.I X % E E Y } W } _ +.} _ x Y +.+.w._ ) ..@.@._ @...q.w.q.@.q.p.p.q.#Xz.o L xX} Y } z +.(.;Xg.j.j.oXh.D.oXoXh.h.h.oXh.oX+X+X+X%X%X+XoX#X#XmX9 ZX9X>X>X1X3X>X1X1X1X;XJ.@XG.;XpXg.y.sXbX .BXKXBX,.. . . ' bXJ u.:X%XoX%X+X+X+X+X+XS.#X+X+X+X%X@X@X<X2X+X<X0XsXa qX9X2X<X2X$X$X@X$X%X$XJ.J.S.K.J.$XJ.G.J.@XJ.$XG.;X;X#X~ J.J.J.;X>X$X@XJ.J.@X;X@X;X>X%X%X+X=X=X=X=XOX=X=X=X=X=X>.@  .iXiX9X2X0XS.f.0X@ ~ <X%XG.$X$XD.&X%XS.D.h.j.7.F 1 r w 6 6 3 6 u W E O * l w J Y L 8 ; u Y J l E l q I ' l e ' q.q._ E @.0.0.r.( L * 6 ^.z.@.E ' e # 4 $ 6 l 6 5 q q J e % % $   ",
"  0 $ <.e.e.` @.p.T ! ;.5 1 r e.<.` <.e.<.' ] P & # u u z W _ W } W W Y z W +.#.w.@...@.w.q.@....._ q.$.#.w.w.p.u.H.W ; z t.p.} 6 5 . 7 L G.G.7.D.7.8.h.D.h.f.h.oXh.oX=XoXD.&X&X+X%X%X=XAX9 #X@Xq.K.K.u.x.#X@X#X@Xe.#X) e.5 . BXbXbXZXoX<.@ . %XAXqXr...L . G.@X#X%X&X&XoXS.+X+X+XS.+X+X+X+X+X2X&X%X&X+Xg.Q ^ 0X<X@X<X$X%X<X<X9X>X3X3X$XpX3XJ.>X@X@XK.H.K.K./.,X3Xp./.J.K.<X3X3X@X@X@X>X;X@XJ.>X@X+X#X=X=X=X=X=XOX=X-X=X=X8.2 8.mXiX2X0X9X,.+Xs.1.@X2X$XG.G.+X&XoXD.D.D.2.f.k.9 D ` q # 6 8 E _ L 6 ; l l Y Y Y Y w L * u E Y _ E l ( _ _ e @.7 w w _ 0.' I e E ( y 6 w.l ( ^.p.r & 3 3 ' 5 o & . . . X X 5 4   ",
"  9 1 e.<.q.) ..q.q ) ..5 $ q <.~ <.<.e.<.;.;.[ & % w l _ } } _ Y L u u z W } t.z.w.$.t.t.w.#.+._ ) E _ $.$._ @.w.W . ; O ; 5 * % & % O 3 ^.g.5.f.8.8.2.7.h.7.oX#Xh.oXoXD.oX+X=X+X%X+X%X3.1 . @ @ e.1.R F G G G Q / P D . # # 7 e.g.9Xr . ^ ZX#X#Xv.CXwX0.x.G.@XS.+X&X&X&X+XS.+X&X+XD.+X+XS.S.D.h.D.S.S.#XF r #X@X@X$XL.+XK.@X@X<XpX3X9XpX3XG.2X>XMX>XJ.,X1X/.>X,X_ lX>XH.<X@X@X@X@X@X$X@X@X@X@X@X%XoXOXOXOXOXOXOX-X-XOX=XOX2 -X2X2X2X%X%X, 0 G sX0X2X<X%XL.$X0X%Xf.7.f.7.=X.XF / ,.` K % 6 l * o r _ w.t.} z W t.( W E . . 6 u q _ ( _ ' I _ ( K q.@._ _ ( @.( w Y 6 X w p.eX@.q # 6 5 } 8 6 q $ & & . o # e   ",
"  2 + P ` <...q.p.a ' q.5 1 r <.` <.` <.` ( ;.! & % J E W W W Y z z Y y w z L } p.w.o.o.+.+.t.w._ ..L l l l 6 } l 3 % z z 5 . . . X * L E L L q.e.g.j.f.g.g.s.f.G.g.1.D y.j.oXoXG.S.G.,.Q 1 $ <.<.^ 1.g.f.f.g.D.D.S.j.#X0.X I # . * 5 9 V x.g.. . + 0 d.KXbX0XD.S.+XoX#X+X+XG.%X%X%XG.oXG.h.S.f.g.S.+XG.v.1 r bX>X>X>X$X$X$X@XS.S.y.y.y.y.g.G.D.u.l.l.fX3X,XJ.J.H.T dX>X>X$X@XK.G.G.G.@X+X+X#X#X=X0X2.F -.H H H H H >.8.*X=X2 mX9X2X2X2X5. .f.0X*X+X+X%X@XG.@X0X0X4.,.#X%X0X#XG G / P T 5 3 ; % % J w.p.p.@.w L W W 5 6 * 7 e e l _ ( T E _ q _ E ) _ T _ J E L l z 6 6 @.p.v.b.6 # 6 * 6 < 4 8 * & 5 r 4 % e   ",
"  2 @ ~ ` q.) l.l.K ....4 > 0 ` / Q ` <.<.0.' ( % * Y z 8 x O.%.O.+.W W W } } W L 7 E z.a.$.p._ z z `.rX7X8 5 w = { { z z W W L w % X & ; 8 8 8 l a a J a R ) e.u.T i.X.X.) ) / )  .1.X.1.4 % ` y.y. . .5.f.D.f.f.h.f.#Xc.4 t . . . t 4 e F ~ 9 % # 4 <.G.qX0X%X+X+X@X@XG.G.x.g.G.#XG.x.y.y.y.y.y.x.@X:X@X4 D bX+XG.@X;XpX<X>X>XH.J.H.J.J.J.G.G.<Xl.3X9XF.J.K.H.s.a J.H.@XG.G.g.@X+Xg.G.G.@X+X+X+X*Xs.2 0 G G C >.OXH G 2.G S mX<X$X$X+X+XoX%X0X&X=X+XD.oXS.+XS.,.S.S.1.g.@XS.F G / ~ a 6 ; w L w o e E E W Y } W } @.K ..@.q.' ' ( ' ( K K 5 ' p.0.0.q._ ' E L w u ; 5 ) p.r.' t % 5 * u #.#.Y w.w.p.t.w.6 0   ",
"  2 % q.d.u.' T E J q.q.4 $ 7 <.,.<.,.~ ..r.v.' # * E W { z z Y W z y x y x { a.%.8 Y t.%.{ W E Y rXjX~.zX5X; ; x W i p = y x a.m.6 . w * . . = 5 # q ~ ) g.@X@X@XF.9XJ.>X . .X.3.y.1.K.@Xa a G.@Xl.G.g.g.y.y.g.@XG.y.sXe.1 d.<Xd.0.e $ . q @X( U # V Q ` S.G.S.y.1.q.) T 5 r r 5 r ~ ( T J J ~ X.<...( ( I 4 x.u.e.g.l.G.F.H.l.l.g.G.J.K.H.H.@X>Xg.<XJ.F.H.l.G.d.D @Xg.g.g.<Xg.<X%X$XG.G.S.@X@XG.%X+X/ G >.S G S.%X>.H 9.G G mX2X$X+XL.2X+X+XD.oXoXoXoXD.D.f.5.g.s.g.g.y.#X,.F G ^ ` 7 o u @.p.@.L X . . l } #.} u E @.$...0..._ ..` ( K ) r I ) a K ' ] E _ _ Y Y 8 ; w.;X:X:X5 % 4 o y Y W #.$.#.t.W E 5 3   ",
"  0 @ r.` ` ' ' q.) r.u.5 > r e.y.<.e.q.<.) ;.~ % $ l W x y x m.).).#.6 x { { %.%.%.{ %.x y z 6 t.GX(.(.).7X(.= : %.i x { { m.8 t.t.z @.H.#X#Xd.) x.x.G.x.#XG.+XG.@Xq.9X<X%X5.5.5.f.5./ H.r D LXCXMXNXNXVXNXpX/.>X;X@X9X4.. bXZXBXbXwX0X@X` . r ] u * I K _ ) ) D 4 . . . d.H.@X@X) 3.y.1.S.@X9XH.G.<.0.0.5 J #X#X@X#Xx.#XH.H.g.u.y.d.e.e.g.g.g.g.y.1.g.i.d.d.) e.0 u.1.<.1.y.g.y.3.1.3.s.3.3.1.y.f.f.j.h.7.>.G / ....y.8.H 9.OXf.5.h.oXoXoXoXD.f.h.h.7.oX+Xh.h.j.f.f.s.j.k.4.1 F G r > X * _ @._ %.#.+.n.#.+.+.W 8 W _ ' ( ) ^ ~ ] ( ' ' c.a 0.) q...' 0.} _ } Y @.y w eX:Xv.:X4 % 5 O u +.#.$.W _ W } Y 3 1   ",
"  F X K <.<.q.p.' ) u.p.- % a r...( ~ <.( J ! V 3 3 L L z z = z #.{ y W { x W W E y Y t.{ x a.z x VX8X7XxXkXm.{ %.n.%.n.%.} zXu . z $._ F.9XqX#Xj.G.y.1.s.j.G.~ @ @ 5 q.9X9Xg.f.D.+XmXAXnXP Q LXlX6X;X,XaXlX,X>X@X%XoX+X0Xs.4 <.<XsXnXnXnXZX#X% . J e r.@.8 w 5 . X 5 $ G.bXuX2X%X&XiXmX0X2X2X0X<X<XBX0X1X5 y.bXiX0X0X0XsX9XsXbX<XsX0XqX<X<XqXsXqXqX0X0X9X<Xx.x.3.Q qX%X%X<X<X9X#XoXs.+X%X+X%X#X#X%X0X0XmXmXmX*XS G H.d.g.G G ^ R  .2.7.h.h.s.7.5.5.2.4.j.h.s.7.f.5.3.j.3.v.e.1 0 V 5 e % . w * Y W $.a.%.$.+.Y * $.+._ ' ( P I Q ( ] 0.) ' J e _ T ] ' ( ( @.Y 8 x ; 5 ;.c.x..Xq % J * } w.W Y _ } } @.} 5 #   ",
"  G X K ....u.r.) K ' @.$ % r I P ( P K 1 5 3 4 q 5 L Y x x 8 } %.$.{ W x { z q a ) z.^.;XaX;X^./.pX3X1XpXfX3XfXSXGXGXSXGXLXCXMX<X7 . MXsX%X+X+XG.S.g.S.G.@X%Xd.~ 7 . . K 3XK.G.%X0XAX.XbXG a bX+XoX+Xj.oX.Xj.oX+XoX+X+XD.<XqXd.r 0 i.G.f.x.@X5 1 5 ` ) p.Y 8 % & w 7 @ <XbX2X0X%XiXZXnXiX0XsXbXsXG.qXx.x.D f.+XoXS.S.+XoXj.j.j.G.G.@XG.g.g.D.g.S.S.+XoX=XoXg.0X1.1.%XoX+X%X+XoX+XoX+X+X#X=X*X=XOX=X=XOXXXOXXX=XOXD.9XG.1.0 G mXAX0X%XoX%X=X%X%X=X0X0X<Xj.g.3.s.f.y.y.j.d.Q D 4 4 4 D ( ; W '.y * 6 i z 6 x . . @.u.E I ' T K r 0 K D a 8 5 l q L ( I U r J u y y y ; 8 r.d.c.c.r % w o Y t.+.+.} } +.} L < $   ",
"  -.X q ..) ....I 0.( e # & 3 w e 4 $ $ q 7 q 6 < * _ t.O.%.x n.%.%.O.{ x w K ;X>X#X1X9X3X$XS.G.+XS.@X%X+XS.S.S.y.g.J.K.K.+X+Xh.DXbX1 ZX+X5.h.f.D.D.%XoX0XqXbXqXqXqXd.` # 5 q.y.G.j.s.3.3./ 0 +XoX+X%X=X%X%X=XoXoXoX=X+Xh.7.#X0X@X+XD.+X+X+Xs.Q @ 1 a q l l % o r 0.) @ K nXiX*XiXZXLXKXbX9X9X<X#Xd.. 5 x.F 0Xj.D.oX@X%Xj.@XG.G.G.@X@XG.@XG.D.S.G.S.G.+XS.S.j.0Xe.X.%X+XoX+X#XoX.X.Xh.h.oXOXOXOXOX.XOXOXOXOXOXOXOXOXS.f.P 1 G =XOXOXOXOXD.7.8.8.8.D.f.D.f.D.f.D.S.S.+X%X+XqX<X. % 0.0.t.u W $.x } } { y w 6 . @.l.u.q.` ' ] ~ ^ ` ;.~ ) ( E I ( 4 I @.@.E L L z y y 8 l E } t.w.u * 6 o W n.$.$.%.$.+.} Y t 1   ",
"  4.@ & 4 q J ~ 4 4 q X # # & % % % 4 J r w E @.O 6 #.%.c O.z $.{ { { } L 8 X.g.5.7.3.2.5.f.D.7.5.5.,.2.f.g.s.d.y.e.y.g.h.S.+XD.%X,.1 bX+XD.D.5.5.7.h.%X0XbXqX%X0X9XbXBXsXg.F 0 y.#X#Xg.g.3.7 sX+X%X=X=X%X=XOX8.OX+Xh.h.XX8.7.OXoXD.OX+X+X=X%XAX1 @ 1 r w 7 5 E @.( u.;XD ~ 0X=XD.%X9X1Xl.e.F 1 . P ) ' c.r #XoXD.oX#X#XS.G.S.j.oXj.f.j.oXS.D.D.D.S.D.S.oXoXf.s.` F %Xh.OXoXh.OXh.h.h.XX.X.XoXoXOXOXXXXXOXOXOXOXP.OX,.G.) 0 2 *XXXOXXXOXXXOX8.8.8.8.7.7.8.7.7.7.7.7.7.f.5.j.0X! + 0.p._ ; E L _ +.+.c x o . J u...<.` ~ ` ~ 1.e.e.` ) ( I I ~ r P _ .._ @.@.y 8 x y y y z x W L w z w O +.a.$.%.*.$.a.W t.J #   ",
"  2.@ # & . # % % # & # # & > < > # % > 3 a @._ 5 8 W %.{ { v O.; z W l E l  .g.5.5.7.4.2.2.,. .5.S.D.+Xg.s.s.y.s.s.h.f.f.h.h.f.oXH F S.oX7.f.f.5.s.3.s.S.#X@XoX0X9X<X%X%X0X0XoX^ %XbXS.#Xs.1 bX=X+XoXoX.XOXOX8.OXh.h.oX=X=XOXOXD.D.7.D.OXOXj.0X,.@ . . . . . w 5 E 6 :XUXU X ~ X.<.r . X ; u.MXLXLXSXdX] e 9X#X=X#XoXg.S.oXS.+XoXh.h.oXj.h.h.D.S.D.D.j.oXoXg.j.v.P %Xs.oXh.j.8.OXOX8.h..X.XXXOXOXXXXXXXXXOXXXXXOXoX7.k.) e.2 mXOXOXXXXX8.8.8.8.8.8.8.7.7.7.7.7.7.7.7.h.7.7.k.%X# % ..K & _ Y W c z Y x o # p.) ` ^ / -.^ ) ) d.( P J K J J J r r.T w l z z x c O.{ j y z y 8 l z } ; * #.$.{ +.%.%.a.$.#.E $   ",
"  6.% @ $ $ # & & & # X # $ $ 4 < $ 4 5 4 5 # ; 5 6 Y +.$.+.} +.6 u } L _ T ) S.2.7.h.f.f.5.D.D.D.+XD.f.7.D.D.D.D.D.D.D.8.D.h.f.7.G G D.>. .,. .f.f./ @ h.#X#Xj.=X%X+XoXj.f.7.oX=X%X=X>..X.X+ %X7.D.+XoX=X=XOXOXOX8.oXoXoXoX=X=X8.7.7.D.7.h.+X*XF 1 y.j.#XG.<X@Xg.G.d.7 @.( @.I A 4 + q e.q.l.lXVXVXSXLXBXR KXS.+XD.j.S.oXD.S.f.j.h.f.f.h.g.j.g.j.j.j.oXj.h.j.j.v.F #Xj.j.j.h..XoX7.h.oXoXoXj.j..XOXXXOX8.8.8.h.oX.X7.,.G 0 2 8.h.8.XXOX8.8.8.8.8.8.8.8.7.7.7.7.7.7.7.7.7.s.7.k.# ! x.) 6 x v x b { %.8 # # v.[ ^ / / / / ` ( 4 % J I E l l 4 ( I a D e l l z j : z y 6 ; 3 ; ; ; w 6 8 w 6 = ; ; ; = ; 6 ; 1   ",
"  6.F 1 % . . . X & X X # 3 4 5 # 3 5 3 5 3 X . . # $ . . ; 8 7 l E ; E ' ..^ j.s.f.D.D.h.D.D.f.D.f.f.5.8.D.D.f.D.D.D.D.oXoXoX>.9.G G iX*X=X&X%X*XoXG 1 @ s.#Xj.oXj.h.oXj.h.8.8.8.8.OX7.6.h.@ %Xh.8.+XOXOXOXOXOXOX8.D.h.j.OXOXOX8.7.7.2.h.=XoX0X, >.mXmXiXiXiXiX0XmXnXnXu.q z.w.8 w e.J.S.y.R a a X.pXl.BX1 #XoXj.7.j.j.D.f.S.j.oXoXh.g.j.G.x.oX#XG.j.#XoXg.s.g.3.F j.g.j.oX.XoXj.h.j.oXD.2.f.j.j.oXP.OX8.OX8.8.7.7.9.OXOX9.2 OX8.7.8.8.OX8.8.8.8.8.8.8.7.7.7.7.7.7.7.7.5.s.j.v.+ V x.r.e E W z z x ; . * # 0.P Q Q / / / <.' ~ ] ] J r U d.( ~ ' ) $.W 8 z s s : ; . . . o * ; 5 w 5 O ; $.W Y { +.} t.p._ #   ",
"  6.0 q u U J J r q 6 3 $ * % u _ J 3 4 r e l L e w 4 E p.^.z._ t.z.K l ( ~ r @X#XD.D.oXD.oXh.h.f.h.h.h.h.S.S.D.D.S.h.D.oXoXf.>.OXG G =X=XD.D.h.oXh.oXf.@ 1 ,.0X+X=X%X+XD.OX8.8.8.8.8.8.8.8.2 +Xh.D.OXoXOXOXOXOXOXh.OXOXOXD.8.8.h.h.h.h.D.oX=XiX0 oXOXOX8.8.XX8.OXOX*XnX/ X $ $ 7 K 1.f.y.D.y.y.7.,.0 1.#X0 oXoXD.#XoXS.+X%X%X#XS.+XoXoX3.@X#XG.j.s.j.x.j.j.s.s.3.0 oXs.oX.Xh.h.h..X.Xh.h.f.h.f.f.h.8.8.OX8.7.8.8.8.8.8.9.6.S =Xh.8.P.8.h.8.8.7.7.8.8.8.h.h.h.h.7.7.7.7.7.7.j.0 @ K T ( J Y t.$.W z 6 ; 5 & r.c.e./ / ^ / ^ / ;.` ] ' ..0.e.~ <.0.p.+.x *.a.&.&.o.W +.} z 4 . . o % O X m.5Xn.n.n.~.a.%.m.I #   ",
"  G % X 6 L I I I ] ( L ' 3 * +.$.p.$.E q.w.p.a.w.#.l p.^.a.i.w.@.q.) r D ` 0 d.j.j.oXoXoXoXoXD.h.8.h.7.h.+XS.f.f.2.3.f.4.7.f.2.8.H G 8.2.2.7.>.5.7.oX0Xs.. . h.%X*X%XS.h.8.8.8.8.8.7.8.oX0XF 0Xh.h.7.7.8.OXOXOXOX=X=X+XOXOXOX+XOXOX8.7.8.oXOXoX0 3..XOX=X=X=X=XOXOX%X+X#XwXd.# 5 4 @ ` s.1. .,.D.8.2..X%Xg.d.<Xg.+Xf.3.j.j.g.oXoXS.oX@X#XG.oXj.j.j.j.#X+Xh.s.x.v.r <X.X.X.Xh.f.k.k..Xh.7.h.3.F 2.j.h.h.8.8.8.8.8.8.8.6.8.6.2 ZX8.XX8.XX8.8.7.8.8.h.h.h.h.h.h.h.7.7.7.7.7.7.g.% z a.A.Z.N k f c v v . = O.j X z.x.<.` / ^ / / ~ Q Q Q Q Q D ! ;.] L = #.#.).A.A.$.o.a.).).t.L * o % % o _ p.+.%.{ } _ L I 4 &   ",
"  @ + @.(.`.`.`.(.(.).7X5X; % Y s +.i.$.#.i.&.&.a.F.a w.#.o.o.$.) ~ <.V 0 g./ ` g.g.s.f.h.h.oXoXh.7.7.7.S.D./ 7 1 1 0 1 D 7.5.^ >.S G h.2.>.8.5.7.7.7.f.f.,./ F  .0X+X*XOX2.>.9.2.7.8.h.8.0XG iX=XOXOX7.>.>.OXOXOX+X+XOX8.D.=XD.OXOX7.6.OX8..X7.@ ,.OX=X*XOXOXOXOX=X=X=XnXnXZXMX1 [ <.@ u.q ) 1X=XD.h.s.:Xe...BXd.Q F / ^ ^ ,.,.7.7.g.#Xj.j.g.oXj.S.g.G.oXj.j.j.e.r oXg.j.7.f.k.7.7.6.s.7.7.f.F ^ =X7.7.7.8.7.7.7.7.7.6.6.*XD mXXX7.8.8.7.7.8.8.8.7.7.7.7.7.7.7.7.7.7.7.5.s.#Xa z =.W.V.V.V.W.Z.N N N '.W.n = W e.~ Q / / / Q Q Q Q Q Q P P P I L % } #.8 +.$.$.+.+.#.t.t.$.z 8 5 * 5 . _ a.$.$.#.} @.L Y 7 $   ",
"  + 7 F.).`.[.`.'.`.'.`.t.5 ; Y a./.F...a.F.F.i.6XaXw ..1.X.X...i.e.d.<.0 P ^ D s.5.s.S.h.f.f.f.f.7.5.7.7.5.5.2.2.2.,./ F  .,.,.8.S H +XD.OXoXoX=X=X*X%X+X%X*X*X*X*X*XiXOX>.9.2.8.8.OXOX2.7.0 h.h.OX8.8.D.OX8.P.OXOXOXOX=X*XOX8.OXOXOXh.OXoX.X.XX j.*X0XOXOX+Xj.+X=XnXDX9X%XbXbXd.+ ' I * ' eXqX#X#X;Xp.;Xw T <X) H.g.oX#X+Xj.S.5.3. .^ d.s.3.g.G.s.j.#Xg.S.S.S.s.a j.f.5.f.7.f.h.h.7.f.5.7.,.3.7.7.8.7.7.7.6.6.6.6.7.7.8.6.G +X6.8.8.8.8.OXh.h.h.8.7.7.7.7.7.7.7.7.7.7.2.j.D r ; 8 c c v k k n =.f m ~.f O.; X U ! ~ / / ~ Q Q P F F I I L ( I E w 5 O u 6 ; ; 8 8 6 6 6 6 = 6 . . = X +.a.} } $.@.} W z 6 *   ",
"  @ 0 T W #.*.~.~.'.'.'.(.Y 8 #.W &.$.....@.@.E E q a r V 0 r K T X.R / 5 7 D K  .y.,.5.f.f.5.,. . . .>.>.>.>.8.8.D.P.7.7.5.2.2.OXS G =X+Xh.OXoX+X+X+X+XS.D.8.D.D.OXOX8.8.8.OX8.8.7.2.7.7.7.2 7.8.>.7.8.D.P.8.8.8.OXOXOXOXOXOXOXOXOXOXD.2.7..X7.@ *X8.*XiX0X7.j.f.g.bX9Xj.#X<Xd.#Xd.X [ 0.O z.;X@X<X:X0.I 5 . . >XqX9XG.<X@XS.S.y.g.g.S.0X@Xy.s.3.e.v.g.s.5.,.3.T 0 G.f.s.f.s.s.f.j.j.f.7.2./ 3.,.2.>.^ G / / / / ^ >.H >.@ D f.2.7.7.8.8.8.7.7.7.f.7.7.7.7.7.7.7.7.s.7.j.%X+ . ; j c *.O.c v c f f m f m k x $ # d.] ) ~ T P I I F D l q ; 5 8 l w 8 O ; ; ; ; % ; 6 8 8 8 L ( } u O . a.#.$.@.@._ W l ; y *   ",
"  % e a E E $.a.~.'.'.`.(.z 5 $._ 5 ; L ......t.u.q.3 # . . J ) ) ..1.` 1.~ 5 K ^ ,.^ ^ / ;.,.2.>.>.H G H >.>.2.>.>.>.2.8.OX>.>.H 2 S 8.>.H H H >.>.>.>.>.>.>.>.H >.>.>.>.9.9.>.>.>.2.G >.2.2 >.>.>.8.OX8.2.8.2.>.2.2.8.8.8.8.8.D.h.8.8.8.8.8.2.1 3.=X=X*XoX7.j.h.7.oX=XoX#X#X#Xh.%X#XR 1 T R G.#Xk.;.D + + e ,.1.` y.j.s.3.3.3.1.3.s.s.y.s.s.3.;.1.<.3.g.1.^ V J 4 y.3.<.y.s.<./ K F /  .3.3.s.3.5.s.3.,./ / / / / / Q F $ 0 3.,.,.,.,.^  .,. .,.4.^ / ^ / / <.s.s.v.v.s.V 1 6 ; c *.=.m N W.N N m g M N k c O % x.( K l l l I q 8 l a l I e r ) 0.] q.q.q.q.0.) ) ) ~ )  .1.q.@.8 * o w.#.$._ E ) E _ Y 6 6   ",
"  > ] J J W t.#.$.a.A.A.@.q 5 I ( T 7 w./.(.7X7X6Xz.X.7 T K K ) ) e.<XqXbX<X@ ,.D.S.%X%X*XiX*X*X*XOXOX=X*X*XiXiXiX0X+X&XD.&XoX,.2 2 2 2 H 8.OXXX8.8.P.P.OXOXOXOXOXOX-X-XOX8.7.>.2.7.7.>.-.D 1 4.j..XoXj..XoX.XoX+X7..Xj.7.7.>.2.7.7.h.oXD.h.,.,.9 0 .Xh.+XoX.Xh.f.h.j.=XoXoXoXj.oXoXoXj. .1.G.oX#X=X#X#X,.@ @X<Xg.j.S.0X%XoX+X+XD.f.G.x.G.G.g.g.g.G.j.oX#XoXd.<.( q g.g.g.@X0X@Xy.1.X.1.s.s.#X%X%X#X#X#XoX%X%X%X+X#X#Xj.#X%  .0X%XG.G.G.@X<X<XK.y./ F ,.1.e.e.e.g.x.d.q.q.( 4 q O _ %.=.N m W.W.W.m N =.m c 8 * # I q % 8 l e e w ; 3 # @XoXs.3.4.3.1.g.f.y.5.y.1.1.3.1. .1.) R I % % . W +.z _ @.+.@.w.Y i 6   ",
"  X 1 T l L _ p._ @.w.@.7 7 e ..q.] <.) E i.#.+.t...q.T 1.1.X.) @ l.<XZXZXG.1  .g.f.h.7.8.8.9.>.2.5.>.+XD.D.D.D.f.5.5.7.5./ 1.2.2 2 2 2  .7.2.oXoXOXOX8.OXOXD.OXOXOXOXOXOXD.+XOXOXOX8.oX=X/ @ =X=X=X=XOX=X=XOXOX8.8.OXXXh.h.h.D.j.8.OX*X*X*X*X0X1 > %X=X=XOXoXoXoXh.h.+X#XoXD.oXD.h.j.f.h.s.5.f.s.7.7.oX,.1 3.7.,.7.7.2.2.6.8.9.2.7.7.3.4.2.2.2.7.5.7.h.D.f.,.s.~ K x.d.G.e.d.j.1.,.1.<.,.1.^ 1./  .,.4. .1.,.,.,.f.j.4.s.1 ^ 2.2.2.2.2.2.3.2.3.7.2.4.5.s.s.3.3.3.s.^ ,.q.x.K 4 & ; Y l z j p k : n N N c y ; & * X 4 _ p.p.@.$.#._ . . S.5.5.s.5.1.1. ./  . .X.X.1.1.X.1.1.) ) ) 6 * . Y #.Y $.} L W Y * Y 6   ",
"  > 0 ] E ( L 0.c.0.] r $ r D P d.P d.u._ t.@.l L e K ) R ^ ) y.<XSXMXwXMXqX0 ` @X#Xy.5.7.8.5.8.5.D.D.f.D.D.f.f.D.8.8.8.D.5.>.G 2 2 . X + , G 8.8.8.P.8.>.>.>.9.8.8.8.8.8.8.OXD.D.D.OXOXOX7.@ h.OXOXOXOXOX8.8.9.8.8.8.8.7.8.8.h.h.8.h.h.8.XX.X=X0 9 mX*X=X+XOX+XOXj.7.oX%XoXoXoXj.oXh.h.7.7.3.3.7.f.5.s.3.F @Xf.f.2.7.8.6.8.6.9.9.7.2.3.2.6.6.2.6.6.7.7.7.h.7.k.` T u.e.1.^ ^ K e.1.` ` / ,.3.^ ,./ ^ 4.5.,. . .,.,.f.,.3.1 3.s.5.2.5.5.3.3.6.2.4.7.3.3.,.4.4.2.2.2.,.,.~ ! P ] . . . = c c N N.N m N b y . . X . . ' p.q.i.i.$.a._.q a G.y.1.5.1.1.1.X. . .)  .1.1.1.1.X. .X.) ( q o o L %.} } W Y z w 6 u 6   ",
"  0 0 ~ ! ] E r.z.z.v.< X 3 e V ` P I E _ ).^.w.q.) ` ^ Q ,./ G.BXCX1XH.x.g.0 1.<XG.5.,.7.2.2.7.5.5.7.5.5.5.5.5.5.8.8.8.8.8.OX8., , L.A.A.R D 9.=XOXOX9.>.9.>.9.7.2.>.>.>.5.7.7.h.D.oXD.h..X1 8.OXOXOXOXOX8.6.6.6.6.6.6.6.7.8.8.8.8.8.8.8.8.8..XG 2 mX=X=X+XOXD.8.8.7.7.h.j.oXj.j.j.j.h.7.7.6.2.7.7.2.h.<.D s.s.f.5.2.7.7.8.9.9.>.2.5.2.5.2.9.9.6.2.7.7.s.k.v.e.I I e.u.y.<.) ) ^  .3.<.,.P / G.9X%Xy.F ^ 1.^ 5.4.4.4.4.k.C Q 3.3.3.3.3.2.3.2.3.4.,.,.,.>.,.>.,.3.,.,.4.Q ! ~ l 8 =.W.W.W.M U.I.Y.M M N N c d v O.O.j Y 7 _ ).$.#.&.L q.1. . .1.1.1.X. . .1.1. .X. . .,.X.1.e.1.' 5 o o w } u 6 u u 6 Y u u *   ",
"  C 1 ~ ~ ] q r.c.p.0.5 & > ^ 9 ~ J 3 @.w.E E @.q.` /  ./ / ^ ,.^ ,.G ^ ,.,.0 y.@Xg.1.,.2. .5.8.7.5.5.2.5.2.2.2.2.2.2.7.9.P.P.&XR v A.'.W.vX- . H 6.2.H ^ >.>.2.^ H H -.>.>.2.5.8.oXOX7.7..X, 6.h.8.8.7.8.8.8.7.7.7.7.6.6.6.6.6.6.6.6.7.8.8.8.h.-.2 *Xh.D.h.7.7.h.h.h.7.7.7.j.j.f.f.h.7.7.7.7.2.6.7.7.h.1 . V j.h.7.7.2.7.6.9.>.>.7.7.,.5.7.7.7.7.2.5.5.s.y.y.e.I D u.u.e...^ ` ~ P Q / a F #X#X0Xg.3.3.7 a y.y.3.3.1 ,.s.0 0 3. .,.2.6.2.2.2.4.4.2.4.2.4.4.4.4.4.,.,.G ;.v.l W Z.W.W.U.h M T.I.I.I.I.B.g m m N O.=.N m N c ; 8 * O . q d.1.1.1.X. . . .1.1.,. . . . .X.T X.X.) ] U # # 5 o . o . X 6 { 6 u =   ",
"  G 1 ! ] ;.r r.z.p.c.4 + % 0 Q ;.5 r w.p.q...@.q... . . . . .,.,.>.>.>.3.,.0 e.y.X.f.D.f.5.5.7.2.5.2.>.5.5.>.7.5.4. .5.&.A.[.].].k f =.= n *.Z.~.8 F G -.2.6.>.C / >.8.2.>.>.,.2.2.7.7.h.oX> 7.h.8.8.8.8.8.8.7.7.8.8.8.8.7.6.6.6.6.6.6.8.8.8.8.oX1 =Xh.h.8.8.h.j.h.h.7.5.h.j.7.2.2.5.7.6.7.7.7.7.6.7.7.,.> P j.h.7.7.7.7.8.8.>.6.8.7.2.2.7.7.2.2.2.f.5.y.5.y.u.I a H.1.q.] e.` P D r 1 a g.H.:Xg.g.g.<.` K R ~ ^ ^ F / 3.F 0 s.^ 4.3.4.,.,.,.,.,.,.2.4.4.4.4.4.4.3.4.P r I a O.N M M h I.I.B.I.I.M M M M M m N N.M M U.W.W.c o O & ; l d. . .,. . .,.) 1.X.1. ./ / /  . .X.F K I q # o u * 6 6 = o 6 u t 6 *   ",
"  G 1 ;.` ;.r t.a.a.z.w & @ V #Xx.J 0 X.q.i.q.q.q... . .,.>. .,.2.5.7.5.3.,.5 q.y.5.f.5.5.K.K.y.1.5.f.2.F  .5.f. .R X.o.'.Q.Q.Q.!.!.Q.!.Q.Y.Z.W.[.W.7 a 5.h.7.,.>.h.OX8.2.2.,. ./  .5.7.8.f.1 ,.7.7.8.7.8.8.8.7.7.7.8.8.8.8.8.8.7.8.8.8.8.XX8.8.#X@ .Xh.8.7.h.j.h.h.7.7.7.7.2.>.2.>.2.2.>.2.7.7.7.7.7.6.,.1 ^ s.7.2.>.9.9.9.9.9.2.7.6.6.6.2.2.7.s.1.1.y.u.l.u.c.E L q.) R J ..q.e.) 7 - ..<XH.y.x.g.g...H.D 7 ` K Q <.Q v.^ 9 x.3.7.4.,.4.4.,.,.,.,.4.4.4.4.4.4.4.,./ F D T 8 n M B.U.M I.I.I.I.I.T.Y.I.Q.Y.Q.Y.Y.M h h h M =.= . . $ 5 X K  . .R / T  .X.) R R R R F R R F K T r X . . * 6 * = * i i 6 u w 5   ",
"  G 5 ' ~ ] r z.F.a.a.e @ # 0 ( D a ) K g.<.@.t.q.X. . . .,.,.,.,.2.3.3.4.,.5 e.f.f.f.1. .y.X.i.i.f.y.y.3.~ s.K.i.a.'.Q.I.!.!.!.Q.{.{.T.B.Y.M Y.T.Q.Q.O.7 / G / >.7.2.H >.>.^ ,.G ^ >.2.s.g.1 3.f.8.8.7.7.7.7.7.8.8.8.8.7.7.7.7.8.8.8.8.8.8.8.8.7.9 F .X.X7.f.j.h.8.7.2.7.5.2.2.2.2.2.2.2.7.h.8.7.7.7.2.,.0 4.7.6.2.>.6.6.6.2.>.2.2.2.2.6.6.s.3.T a @ 8 W } Y L 4 7 E ..K 5 a K .._ . r #XH.) X.1.` X.) 7 @ 7 ` 7 a #X<.3.,.0 s.,.,.,.,.,.,.,.,.,.,.,.,.,.,.,.,.,.,.,.r Q q.&.Z.W.Y.Y.B.h h M T.T.I.I.I.T.R.Q.I.h I.h W.U.m N W.O.; l # . X I ) ) R a a R K a a a a F F a R R a a w 7 ; z z y ; y 6 y z 6 6 <   ",
"  C 5 ( P ! K l.H.a.@.4 X % > + e R 1.F @ q.w.w.i.X./ ^ ^ ^ ^ ^ ^ ,.4.4.,.,.1 1.f.S.D.f.y.y.R ) X.y.1.y.1. .K.K.g.i._.Z.m V.].].Q.].].Q.h M M B.T.!.Q.Q.: q v.~ -./ G ^ / ^ ^ / ^ G G h.7.3.0 ^ 6.6.7.9.6.6.6.6.8.8.8.7.7.7.7.7.7.7.7.7.8.7.6.6.k.C @ s.3.3.7.f.7.2.2.2.5.2.>.2.2.5.2.>.7.8.h.8.7.7.7.2.,.1 ^ 6.6.>.>.2.6.6.2.>.>.>.2.>.,.4.<.4 . * ; L { ; o o o % E T l w J R ) ) e...H.d.T ) X.` a 0 K X.` F D 5 e./ ^ ;.1 v./ ,.,.,.,.,.,.,.,.,.,.,.,.,.,.,.,.-.Q P ! u.a.N W.U.Y.Y.M g M C.I.I.h M I.I.R.U.M h M U.M Q.Q.U.W.k : = L T % E ..w.R X.X.R R R R R T  .T X.X.X.R R T s 8 Y W Y i O 6 z w 6 *   ",
"  9 > 9 0 1 q J I ( J 4 & > > 3 K ' ..I K a _ $.X.)  . .,.,. . . . .5.5.f.y.- X.f.f.y.D.K.y.R q.3. .3.1.1.S.g.1.1.R &.A.n v =.=.N W.N W.W.V.Y.B.Q.Q.g Z.o.$ I $ V Q ,./ / ^  .,.4.3.,.^ 3.s.1 ^ 7.6.6.2.6.7.7.7.7.7.7.7.8.7.7.7.7.7.7.7.8.8.6.k..XF D 3.0 4.s.6.7.7.f.8.7.7.5.2.2.2.9.7.8.7.9.2.9.2.2.2.>.2 -.7.2.2.>.>.6.6.6.>.>.>.>.>.6.4.1 & # 6 y 8 6 6 6 8 ; O . ; J ..) a R q.e.X.<...T P ^ X.<.1.y.1.d.^ y.y.1 X.` ^ 9 ,.,.^ ,.,.,.,.,.,.,.,.,.,.,.,.,.,.,.,.,.~ [ _ * = W.I.T.T.h I.T.I.T.T.h I.I.M h M M m h M U.Y.U.M N k j j _ ..# X E ) X.X.T T X.1.) X.F K R  .X.q.X.T T 8 5 ; 6 6 ; ; 8 } z } *   ",
"  > Q ) ..K D a r 4 4 o > < > > K u.0.T d.) a u._ q.1.5.1.1.1.1.1.1.1.1.y.X.- X.e.1.D.i.i...l.w.G.R i.J.i.w.e.K.L.A.&.R d s &.=.n g N m Z.N m V.V.m k n s j O 1 ^ ,.>./ ^  .4.5.4.,./ D r 1.5 1.7.7.6.6.6.8.8.7.7.7.7.7.8.7.7.7.7.7.7.7.8.6.7.k..X/ ~ e.D D / ,.3.f.h.7.7.7.2.2.8.7.7.8.9.9.9.>.>.9.9.9.9.2 2.7.2.2.>.>.6.6.6.6.2.2.2.2.6.4.1 @ # 5 8 O ; y y y z 6 6 l ..H.@.7 <.) K I ( ) D P ) ` ....` ` ^ ~ X.~ P D ;.;.9 3.,.^ ,.,.,.,.;.;.;.;.;.;.;.,.-.-.,.;.Q P 4 . O =.W.Q.I.B.I.I.I.I.T.T.h I.h M M N B B h h h h h f = 8 ; 8 % . . 7 7 7 T a K ) X.) L L L T T ) ) @...X.l ; w _ x 8 x W z z 8 Y *   ",
"  @ <XqXH.z././.p.<.( ;.$ # > % X $ 4 q > r . 7 r r r a q 7 0 0 D P K a e e 1 R T T X.) l.l...L l.F.q.&.$.z a ~ P e.) w q.R &.Z.Z.Z.n f n n v =.n f v j =.A.8 - ` d.) F ^ ,.3.s.3.,.^ / <.` 3 ` 3.3.,.,.4.,.,.4.2.6.7.8.f.h.7.7.7.8.f.8.k.k.7.3.k.0 D <.D V Q / G G >.7.7.h.h.h.h.h.8.8.8.7.6.9.>.>.>.>.H 2 / 7.2.6.6.2.>.,.G G / H -.-.-./ 9 > % o 4 * = z i z z z u E W L l l ) ) R ~ ] J K ' ..' ) ~ I K P T ~ ^ F 4 D r 9 ;.^ / / Q / / Q ~ / / / / / Q / / ~ + ; v ~.N m U.N.U.M U.B.B.I.I.h M m M m N k c j j a.*.a.(.a.$.O . # X & l l l R l l T E ) ..@.) E e w w w 8 3 w 7 X . 6 z 8 j z y 8 ; * o #   ",
"  + #X<Xq.t...w.z.^.x.UX] # & & I J 4 3 P P ] [ e V J V P <.@X1X@X>Xl.u.d.e.$ u.g.g.H.1X;Xl.- X.l.F.&.a.&.i.) 1.<Xj.y.f.1.q.o.O.Z.Z.8 d 8 j c *.v ; x O.O.v 8 E J r.a 7 r 7 0 r 0 r D D P 0 0 0 5 D ! D 0 V D ~ <.3.3.3.,.,.,.,.,.,.,.,.,.3.<.P 5 # . 5 3 F / ^ F G ^ ,.^ 4.3.3.4.,.,.>.>.>.>.>.>.H G G G 2 G -./ F -.4.G F G 2 G G -.H -.-.G ` 0 3 5 ; w * 6 Y z 8 ; = * 6 l _ L E E ( P T ) E L E u 6 r r D D e D 4 e 5 1 $ 7 9 9 0 V D D F F D D D D F V r e % Y ~.W.Q.M M m f B B g h m N N Z.=.z L 1XwX1XH.p.l.eX1X;XMX^.^._ } u p.O Y +.$.i.w.#.$....._ W x W o.+.E Y L l r 6 3 # 3 $ ; ; 5 * 3 < 4 # #   ",
"  + 0 s.T w 3 ..;Xz.eXd.' + + # x.x.q.<.x.#X#Xd.d.y.r e.s.j.G.K.K.K.K.g.g.1.7 u.g.f.y.1.1.) 1.1.X./ ;Xy.1.3.3. .s.oX9.7.j.H.z : j s s : ; z z ; ; 3 ; ; O 8 w l a . 5 q.u.u.v.e.<.~ 7 . J o 3 z.u...) ..p.c.d.e.e.x.H.H.e.~ ~ ) ~ ^ T Q e ~ e e > 5 V ~ D ~ e.x.G.#X<X@Xy.F R / ,.3.s.s.s.s.s.^ G F G G G 2 2 G / / -.-.-.-.>.>.-.-.-.>.-.-.;.Q P K 5 * 8 : y = # * = ; y 8 z L l l l L J L L ( A r A 6 D D D D P P D P J J & e P ~ P V D ~ <.<.<.;.) ) ( ;.J 4 ; (.~.'.W.V.m m m N B k m j k *.a.) ~ ;.0.~ ) ......' ) D ~ ` ..q.@.4 J L z l z T E W T E T K J K E ....) _ ' _ I ( J & w U J u l L J J e & o   ",
"  @ P Q 0 D D P e.` 1.) ;.& + D <.d.q.y.y.s.5.3.1.) e.g.g.y.1.y.y.y.A.K.u.X.1 y.f.y.3.3.7.s.3.y.1.1.1.1. .>.>.6.>.7.f.3.y.) . q W - 8 : : j : =.'.~.*.*.L . . . ; $ J l.<.y.1.1.e.1.e.X.4 $ 4 e.) ~ K T ` ' ` ' ) ` ~ ` <.<.1.1.<.e.1.e.e.~ ( [ & V <.3.3.,.3.,.,.-./ ^ ^ / ^ ,.3.s..XoXh.g.3.^ 2.3.^ ^ H 2 2 G >.>.2.-.-.-.-.-./ / / / ^ / r r w x ; j N Z.V.N k k 8 * 6 O . O w ; l J L w L J U <.J 0 K Q Q / / / ^ ,.) <.5 I ;.<.<.` ~ ~ ( ` ~ Q Q F p.3 t + . # 8 *.'.W.k n m m N k O % 3 r.~ ` ^ <.) ` ' <.;.0.v.d.x.1.1.` ) ] + J ) @.$._ ..@.@.....<...) ( ~ P T R ) R ) ~ I J o J u w L Y Y Y U e & o   ",
"  # e <.,./ / ,.v.7 e.e.! % + ^ <.` ^ 1.1.e.1.e.` 1.x.u.g.e.3.1.1.3.5.3.1.) 1 i.3.4.3.3.4.3.1.,.4. ./ / ~ 3.s.3.v.,.V u.X ; i.i.o.: : : j k N W.V.W.N *.~.=.v x l 3 . J ,.,./ ^ ,.` x.l.I > 1 oXe.<.<.( ^ X.X.` ` `  .,.` X.1.<.1.,.,.,.,.` ^ / > F ^ 7.4.>.2.3.,.4.6.f.6.6.>.>.-./ -.2.>.>.G 0 4.3.,.,./ 2 2 5./ -.>.4.,./ Q P ;.,.Q Q ^ P J $.z p j N U.Y.I.U.U.N N N k p O.v 8 j x w._ L 6 3 P D e Q P F Q ~ / ` ^ ` P ) D D 3.s.4.3.<.F 0 R d N N =.Z.N g m =.N j j { *.k k m f = ; o X - u.e.e...1.,.<.` ;.` ^ <.v.0.~ <.<.) ~ 1 P ;.j.<.) P ~ ] ' ` ....` T ~ ~ T Q I P I I J A o L L e J J J L e u # X   ",
"  @ . ~ Q Q ,.1.d.<.x.v.r # % ,.4./ ,.,.X.<.<.1.<.` 7 r D .... .X.2.X.2.4.^ 5 e.,.,.3. .3.1.3.3.s.s.g.^ ` e.s.<.~ v.! . # i.&.$.c : s j : n V.Q.Q.V.W.h M N k c _ _ } . <.<.X.^ ` ` l.#XUX# 5 e.<.<.<.;.` ` ~ ` ` ` ,.<...) ` <.<.1.3.4.;.,.-.3.1 <.k.3.s.-.^ ,.7.7.,.2.2.,.,.>.,.-.2.-.>.,.0 2 F ,.k.j.j.9 1 ) r 9 9 V r 7 7 5 9 9 r U J E @.W b W.W.Y.T.Q.R.I.I.I.U.U.m m W.N f c =.*.} w % e ! ;.;.~ F F P F F F V D V ~ / 1 3.4.;.<.w =.Z.W.U.M Y.Y.T.R.I.I.I.Y.W.W.M N f : O.$.W _ u U I ' ..` ` <.0.;.` ` ~ ) ( ~ I ~ ] ( I ~ 0 ` 3.k.6.-.-.P ! ~ ] ' ] J P P ! P F F Q P e J t # ' ( L J J l u t q $ X   ",
"  + @ <.^ / ,.^ ` ` ^ ;.3 # 5 ;.F / ^ ^ ^ ,.1.<.<.0 # # 4 ' ..) / 1./ /  .R - g.y.4.,.3.s.^ ,.s.3.1.,.,. .,.,.s.1.v.k.~ 1 /.E &.c : v k : j m N ].Q.Q.W.f f j j : `.kXY ; E J K K K ..<.[ $ U r.` ` ` ` ` ^ ^ ` ` ` ,.q.r...) ) ) X.4.<.;.^ / ;.% ^ 3.^ 3.6.,./ -.-./ G -.>.>.>.>.,.-./ / ^ 0 0 4.3.;.,.^ 1 7 o.=.N n N n k f k n N n =.j v c j N W.!.R.I.T.R.T.T.T.I.Y.T.T.h I.M m B c ; . . r I ` ! V D P ! ! Q P Q Q ~ P P > ;.F 9 . *.].Q.R.B.g h M B.I.B.C.h g M g I.Y.N j y p.r.` ;.0.0.0.;.;.<.;.;.` ` ` ~ ~ ` ( ) ] ) ~ ~ ] r D F ;.v.#X:Xd.a r ( ] ( U P e J V V Q P 0 V J % % ' T U U u u l u u < X   ",
"  + @ <.Q F / / F ~ Q ~ % % 0 3./ / / / ~ ^ ^ ) ) R 0 4 r 5 K ..` X. .) ` F - G.s.f.3.1.4. .,.3.^ ,.4.3.7.,.,.3.1./ e.d.1.H.$.a.c : j v : 8 : v =.=.: : : j : ; l a.W c n.; . . . . X . . 3 ` e.<.<.;.;.` ` ` ` / / ^ <.' E ' <.<.) Q ;.;.-.Q / @ / ;.,.3.3.,.3.,./ / -.-.-.>.2.,.-.,.,./ ,.,.2 ~ G F r @ # n N m Y.Q.Y.U.Y.B.B.U.U.M U.U.N k M.W.Q.!.Q.I.M I.T.I.T.T.I.R.R.R.R.I.M M M k : 8 . # 5 4 4 V P ! / ! ! Q D P U P V 5 . o W Z.B.!.U.m f M M g M g M h M M M C.h M k O 0.;.;.<.<.0.0.v.<.` ;.<.) ~ ` ~ ~ ~ ) ) ' ' ) ( ) 1 V P / ,.s.e.' T L J L I I P P P V e D ! I e U o # I K e J U J L A e 3 .   ",
"  + # D Q F Q / Q / ! ] & # V d.` ^ Q ^ Q R T ) T X.~ ) l . . % r 1.1.` ) F 7 G.3.s.y.1.<.3.,.^ ,.3.1.3.,.^ ,.,.,.,.^ <.X...$.#.v d f f v = : v O.v : c j j W % u 6 * 8 u y x x L W l Y I 4 ! <.<.e.e.0.` ` ` ` P ~ <.` T T I K I D ~ ) ` ` ;.x.1 x.1.v.4.-.-.,.-./ G -.-.^ -.3.4.6.3.,.^ 3.3.R . & 5 5 - &.Z.g h B.Y.I.h B.I.M h h B.T.Y.Y.m N W.N.Q.Q.Q.Y.I.M M M I.I.T.I.R.R.E.I.I.I.M U.W.N k k 8 O 5 V 0 D D D V 0 e e e 4 a +.o.c m k N n f k k n m g M h B.B.g C.h g h B : z.` ,.<.<.;.<.;.` ) ` ` ) ) ` ` ) ( ) / ) ( ` ` ( 0 0 Q / Q ;.<.' ~ ( J ] I J U U J J I I I J J J # 6 I D J V e r A q r 3 .   ",
"  @ # ( ~ Q / ^ ` ;.<.' X & r v.J ~ ~ ^ D a y.1.^ X.q.u.u.T X . 7 l. .~ ~ 0 0 y.4.3.1.1.<.<.^ ` e.3.1.<.,.,.3.^ ^ 4.,.^ a ) R o.c : f f f j : = 8 8 : 8 ; 6 +.; . o o . l W { O.%.$.+.+.r.$ e q.` <.e.<.` ` / P D P F P I T ~ ~ K 0 D ~ d.` ] ;X1 x.1.3.,.;.-.-.Q F -.,.,.Q F ,.7.,.-.^ ,./ ,.4.1 % a a 7 o.n f m n n m m m M V.V.M m N m k k p B m V.W.U.M M M M h M h T.M I.I.R.C.T.T.I.I.T.U.U.W.m k f f k : ; w 4 l l % 4 ..@.+.c j f : . . . = = = v : k k k N V.h g g M W.8 @.<.` ` <.` ;.` / ^ ^ / / ` ;.;.<.~ ( / ( ` ` ~ / 0 e / Q Q ^ ( ( ( e e P P D J D D J K I I q q % o 6 I I r r J U U J J 4 X   ",
"  + + J ~ / Q <.<.Q ) 0.X X 3 ] P ~ Q ~ ~ @ x...' u.0.' J 7 5 a ~ ^ ^ Q ~ $ 0 3./ ^ 1.,.,.,.^ ,.,.,.,.3.,.,.,.,. ./  .R R X...O.O.d n k f k j c : O O * W 8 x j l $.a.%.%.j : j j c O.v I 5 P <.~ ) ' ~ ` ` ^ Q Q F D P ~ ) ( ~ e e D P D ~ ( 0.$ ) ` ^ ,.-.-./ / / -.-.,.;.Q / / / / ^ ^ -.-.;.! > . $ z c c v v v j 5 c j : d c v v =.N W.W.Q.Q.M U.U.U.U.M M M M g M Y.Q.Y.W.M M M m M I.Y.M U.m B B B N N m j = 8 L w q a l 8 o.&.*.&.&.v O.*.Z.Z.W.~.n O : X = k k : f =.N = I <./ / ;.;.` ` ` / / / ` ` / ~ ;.( ~ ~ ~ / ~ Q ~ V 0 s.;.Q P Q e $ r 0.] r P D J J D I D 5 3 X . . 6 J ( u e q I L e e 5 X   ",
"  @ @ P / / G ` / Q Q ~ + & 3 ~ P ~ I ] ` V ( 3 I I 4 . . ` 1.^ ~ ,.^ P P @ D ,.^ ,.^ ` ,.` ,.,.^ ` ,.,.,.1. .,. ./ ^ R / X.$.a.W : ~.c W +.&.&.o.o.o.&.W s A.).+.$.&.W O.c 8 8 v x v x L 4 5 e.<.) ) ~ ~ ~ P Q P P ) ) ( Q D Q ! D V 0 P ! ( ] 4 ~ ^ ^ ,.-.;.-.-.^ -.G / ,.3.,.0 F Q ^ ^ 4.>.;.;.3 #.~.'.W.Z.Z.W.W.'.'.~.=.=.=.=.=.Q.Q.U.Y.T.Y.I.M I.Y.W.B.U.h U.M M U.U.M B m N B B B m m m N.N f k p p f p : : y 8 u ! 0.) $.a._.).A._.A.A.'.~.'.'.'.'.'.*.: % O ; O.c O.v j 5 r.` / ` <.( / ;.;.^ / ` ` ( ( ` ( ~ ~ ~ ~ ~ ~ ~ ` F 1 e.;.~ <.0.> @ 5 0.( r I I I I I T P 4 r 3 X X L Y _ Y w J L 5 5 e 5 .   ",
"  # $ J F 0 r ^ F D P e X & & U I ] ! I ` v.0.$ . . . 5 ) q.^ F ~ ^ ~ Q ~ % ^ ,. . .^ ^ ^ / / / ^ Q P / / ` ^ ` ` / / ~ X.1...i.L 3 R o.X.` X./ X.q.&.i.q.q R A.z - s 8 j z L w 8 x W z L q > <.T I T ) P P P D P P D e r e e D P P P D 0 D J e q ~ ~ / ^ ` ^ ^ ^ ^ Q F G / ^ ^ C D G ^ -.^ 4.s.P q _.Z.n m N V.V.M U.V.M W.W.W.W.U.Y.U.B.B.B.U.B.U.M M I.B.g M m m U.M I.M M N m m f k f k c p O = o : 8 y % % E w.e.0.3.;.Q X.i.&.&.&.i.i.i.&.+.$.o.O.#.o.$.; O O o %._ W W W q ] ;.^ ^ ;.^ ~ ;.;.` ` ~ ` / ^ ( ~ ! ~ ~ ` / ` ` ! ~ + ` Q P P D 9 . . X % r P D D D D 4 J ' J % X X ] L J u u U U 5 6 3 $ %   ",
"  @ + q 5 4 P / Q I ~ e X & # # r ( ' 5 P ( V X % X . 7 ~ P ~ Q F K K P P % ^ ,.R / / / ^ ` ^ ^ Q Q ` ` ;.` ;.,.<./ ` / ^ <.<.] L 3 ) ` K ~ ..` ~ ) X.X.~ T K K J $ o X 3 ; l z O z W z E U 5 V V D J K I [ ( ] ( I U P J J P P D K D I J A [ U 7 e J P P Q ~ Q ~ / Q Q Q F G Q F C / ^ ^ ^ -.v.0 r l - j O.=.N =.N n f N N m N N n f g f f g M M M Y.M W.W.h B.h U.W.B.h M h W.f : j : : ; X & . . O 6 x { 8 q ~ F / / ^ / ` F P T K ) R T r r r R ) ) J ' q._ ( ' w . L l u Y q I F P F / ^ Q ` ` ` ) ~ ^ ;.! ! ~ / / ~ / ! / Q P <.1 ~ ! P D V V 9 X . e ~ P 4 > 5 e J I I e % X o # % . . . . . . & $ % >   ",
"  + # 7 4 4 r 4 r r r 4 # # X 5 5 q e ' r 4 0 e r r 5 @ X q r q 0 D P 0 r 1 D P D e e D P P Q F Q P Q ` / / Q / ^ / ^ ` r P P q 4 & K T R R X.X.) ) T ) ) ) ` e.u.d.P & . % o _ Y 8 j x E L e I ~ ~ a e J U [ ( ( [ P J D D r D e I ~ I r V J 7 r e 4 4 0 r 9 0 D P P P D P P F P P r D I D r 1 J q.q.o.A.A.*.*.W O.Y w W c c O.n k k k f j f k m k f f N N B m M m M M M m B m k j ; & . & O o 8 O o * . 3 ! ;.4.F G F / G ^ 0 v.e.;./ ~ ` <.<.^ ^ X.<.<.q.r.0.u.z.p...4 $ Y q ; L ~ ~ / Q ! F P Q Q ` P ( P F P D Q ! P Q ! P ~ P e > V P Q 0.0.0.I o X v.I . 4 U [ I e q e r * X X . . 4 e e V D V I q > ~   ",
"  # % 4 0 q 5 q 7 e J r # # X t U D e r.P ( <.P P ~ ~ ] I q q q r 0.;.` ' % 4 P Q P P P Q / ~ ^ ,./ Q / ` ` ` ) / ^ e.e...` ] ..J . T y.l.u.u.l.l.l.p.i.i.) ..g.e.G.@XG.T 5 * 8 z j j z E T 7 ' <.! D V J [ ( ' ~ I J J J 3 3 e P ' ] ( ~ 0 P e V U J J a r 1 0 q q r r V r J T ~ r % e K ..@.$.w.W $.$.$.W c W _ w.$.o._ o.W +.o.o.O.O.O.=.O.k v f p : f f p f k f f f f : k j : : ; ; x z u o Y { { W 6 r <.Q -.G F G / Q ^ 1 ;.;.;.` ` ( ^ ` <.` P D ) ` ~ ~ ~ ) ..e.' ' _ 6 6 E ( ~ ) <./ ;.;.Q Q ^ Q ;.^ ;.;.P ! ~ P F ~ ( ( e P . P <.;.v.0.] % . . $ & [ ' U u q q t $ % & o X . 4 ] ` ` ;.;./ / 3 % ;.  ",
"  @ % % ] e > <.0.~ P J > 3 > 5 ( D D P F P P F Q P Q D I ) ` <.` e.` ` ' X 0 ^ Q R R ~ / / / / ^ / / / / ^ ` / / ` ~ ` ) q.<.' J . ) ....X.X.X.....X._ X.X.T ) T / ) 1.d.<XL O . 8 8 z E 5 r ;.` ! ~ P U P I P J J J P I U P P ~ ( I I ;.( ) e I J r I I a I I ( ' 0.0.0.I r q 3 r ' 0.q.@.+.#.$.t.*.O.$.&.z Y $.+.W E E W Y W W W W W W +.+.W c c j : j : j : : : : : O : 8 = = ; ; +.L l Y q X * e P / / Q G / / Q G G G / > 4.<.` / ` ` / P ~ / Q F F P P ~ / ~ ` ) ' d.0.5 5 @.I ~ P ~ P ~ ~ P Q F ;.^ / Q Q ^ ~ ~ ;.Q / / ~ Q <.+ P 0 e $ . . $ 5 # . q p._ J L Y Y Y Y J o & & . V ( ~ ~ ~ ~ Q P 3 #     ",
"  > > % q q 1 ;.;.9 0 e $ 3 4 3 ` D 0 D r V V F F F P F F Q P F F V F V q X 7 P D D F F P P P D r r D F F P P F / ~ . a K T R K J . K T ) ) T K R K R R R R T T T ) T T ` ..l w % o w @.Y 3 ~ ( P P D V V P Q P J J J J ! [ ~ Q ~ ! D D ~ ] ~ D D ] 4 ~ ] ' _ _ ..@.@._ ' ( % X . ' q._ E l ; w 0...I L _ L l E _ ) E E E E L L L E W E E E E _ _ o.o.W W ; 8 8 O ; ; 8 ; O 5 u w . ; } ..P Q Q Q 0 F / -.6.-./ / :.:.:.G Q / 9 1.1.^ ` ;.( ~ ! ! P P P P P P P ~ ~ ~ ( / ` ~ % % _ D ~ ! Q ~ ~ Q ~ Q Q Q Q Q Q Q Q Q / Q Q F ~ ^ D ` + ^ X q J Y Y Y ( } Y u } Y 6 Y Y Y u Y u # # # . P ~ Q ~ ~ ! ! J > #     ",
"  1 & # X 4 1 $ 9 Q D 0 1 $ 5 $ ! 0 0 V 0 0 F V D P Q Q P F F F F D F D U & 5 P V 9 V D I P V e D F F F F G G D I e T D D K J J e X 0 T a a K K R K R K T R R T K T a T ) E 6 x 6 & q p.q r ( P Q P D P P ! ! I J U J J [ ( ! [ ! P I P ~ ~ ( P D ' D 4 J _ _ _ ) E E I J L I q r J E K e a J I L ( _ _ J J _ ( E E I J J L I I E Y Y E L I E E E T E _ ) ( q o . % 5 6 O # z L } Y . 5 I P ^ ^ / / F F / -.-.G G Q / / / Q ;.9 <.<.~ ~ ~ ~ P P ~ ! P D F D P P P P P P / P I q & 7 D P F Q Q Q Q ~ / Q Q P Q Q Q Q ~ Q Q Q Q ! ~ P 5 . ;.9 I A J z L L L Y E ( Y u W u u J t X X * * . J ~ Q Q ! Q ! V % &     ",
"  9 # & % e e 1 D ~ P V > # > 3 ! D V P Q V r P Q ~ Q F D F F D F F F F Q # 0 ~ F F F V P V P P Q P P F G Q F ~ ' I ` K K I K K L X K ` a K K K K T T T T T T T R R a z x z { { 8 o X J # u P F D D D D U P ! I U U r J E ( E I I V P ( ~ ~ ( I e ( ( r J ( E E T I I I I ] E ( ' ( I K e J I I L E ( E q 3 I U L I I L L E _ } } ( ] ] T ( E E I I I [ ( ( I J q . X X . X 6 J l L o . $ ~ Q Q F F G G -.-.-.C G / / -.^ ^ ;.% ! P e D Q Q Q ! ~ ~ ~ ! P ~ ~ ! J D D P F P ( U . J I F P Q Q ` ~ Q ~ / / Q Q Q ~ Q Q / Q Q Q ~ ~ 0 0 > ;.V e A u u l L Y Y Y Y Y Y Y l U 3 X 9 4 t t . t ~ ! Q ! ! ! V % @     ",
"  @ X & 4 J J 7 4 D D 0 % . % 5 0 e r D P D 9 V F D F F P P F F F Q F Q ! % 9 / F F F F Q V ` ! P F F F F F D I e 4 ~ F a r J I r & ) T T K K R ) T R R T T ) T a l a s : c v x y O o X * e P P V e V e V A e r 5 1 $ 3 ; ; * * 3 3 5 5 4 4 q q 4 4 7 5 4 4 4 7 4 4 7 w r e w w w e r r 4 q r q q q 4 5 5 $ < 4 4 5 5 4 q q q 6 t q r q q r r r e e V ! ! I ! [ e # % & & < < t # X o # I ~ V V V V D F F / Q F F F F Q Q ! U % V r D J P P Q P V V P I ~ ~ ! Q P D D P P ~ ` [ & ( I P Q Q / ;./ Q Q Q / Q Q ~ Q Q Q Q Q P P D V > 9 > 0 P J u u u u u L L L u u w y w < $ V A t w 6 o 4 ( P P Q P ! V > %     ",
"  1 + # 3 J J 0 P V 0 9 % 3 q # J D K F F 1 0 0 V 0 V Q Q Q / / Q Q F F ! @ > ~ Q P F Q ~ ` ] V U V D D F F D D # 3 T R r q e 5 4 4 E ) ) 7 a R R D K P R R T ) I E x : v b j y x * # % * 5 e J J 6 5 X t q % < r e r e r J J J e r r J D e r q r e e r q q q q 7 4 4 $ % % 5 3 % $ & % . $ . @ X + . X . & . . . . . . . . . . . . . . . . . . . . . . . . . . . . . . X . . . . % . . # 5 < < > % # % + + X 3 & & & % < $ # $ . . % $ < > > > > 3 > < < < 5 5 5 3 5 9 0 9 9 $ & X q J P Q D ! ! ! Q Q ~ P F Q F F F P Q D P P 3 > e X V D V I I U U L r A U A L L u t 4 A q . % 3 4 5 4 r I J P U U 9 t % /   ",
"    + @ > U 9 > P D 5 $ I V & + V ! P Q Q 0 / Q V 9 D F F F F F F F F F D + + P F D F F F Q J 4 4 J P ~ ^ ^ ] r.5 $ e q X o * 5 6 * 7 w T w K a a K D I K a D I I l x . j v j 6 = o . . . X o % # # U r.p.b.u Y :X:X:X1X;X:X:X;X#X#X.X#XG.l.d.e.d.k.x.x.c.x.x..Xx.x.#X#Xx.c.c.c.c.c.#XH.#Xl.c.d.c..X#X:X#Xk.e.<X@Xs.d.@X0XeX:Xx.x.d.c.x.c.c.d.d.d.c.c.c..Xc.5 X # U v.J & :Xr.[ J I ] ] ( ( I I I I U J u J I u J r r $ 3 > $ 5 V D V r r e e V V q J J V V V e r r r e t q % . . . . t [ ! V r V V U P / P P P P D D P D 3 q 4 3 . X % F G C C Q / F C C F F V V V 9 r V F F P ! ! ;.;.! V 9 e V V V 9 r & Q   ",
"    + & 5 q 9 e D 0 V e 9 9 3 $ > ! D Q D 5 Q V V 0 P 0 V F F F V V V V D 1 X D D V F V V D V ! 4 V <./ ! ] ] r # * 6 5 * w Y Y z l . . 3 4 5 - 8 J I L L L l 4 & O = : : f j 8 o % c.eXc.. . o # 4 p.c.] A t t 0.c..Xx.c.x.d.d.d.d.k.x.@X;X:X@X.Xd.e.v.d..X.X#X.X:Xc.c.#X;Xc.c.c.c.#X1XeX0.<.v.k..X:XeXwXv.P AX#Xs.k..X#X:X:X<X0X<X<X.X#X:X:X<X0X1X1X1XeXwX> . . :X:X# o wXc.p.p.c.p.c.p.t.r.0.r.p.v.p.r.z.z.p.p.c.p.' 4 r.1 d.x.d.d.d.p.p.c.c.p.0.c.p.u.v.p.c.v.l.l.d.p.p.' A & 4 ( v.` D P P P V ` 5 0 I P e J e r 3 5 5 e J r e < . $ ;.Q -.-.:.Q F G G G G G / Q / / Q / -./ ! ! ! Q Q > P P P V P U X <.  ",
"    . @ $ q e D r 9 V V 9 r V 0 9 3 5 > # & . . 5 ] D 0 V V D F F F F D D 5 . V r 0 V V F F e P e % 7 4 A t . . % Y ( E y x W x y Y W z o . . . . o ; ; $ 4 . O k k = N W.M b = % * eXwX:XUX4 X X % 0.J r A t q r ( ( U ! P P U U U P ~ ] ] ' ' ;.I J r U ! ! ~ ! ( e . J I I e T T ( <.I ! V D V F Q ! c.P # V 9 0 9 > . . 0 Q -.-.;.:.:.Q ^ ;.<.0.q.u.v.d.e # 0.;Xc.e . wXc.t.p.@.w.w.$.@.w.} W u ' w.a.^.p.c.t.t.p.( t :X4 :Xc.v.r.r.v.r.r.0.0.v.0.r.q.0.} p.....0.@.] ' ;.[ > ;.I ;.` P P ~ <.<.( D I ;.I P I J ( P P P P ! V ( ' r . 0.] V Q F V V V C C V F F F F F Q ! ~ P P V V V q 9 V V V J I 5 + #X  ",
"      + & & 5 0 V V r 0 t r V 9 V V 3 # X o + . % 0 9 0 0 C C C C C C F D 4 . 5 V F F V D D 0 0 0 V 3 o . . . % 6 w 5 u u x W x 8 W } } z 5 * X . . o % = O.n B h h B : B B p = o o X I ] p.w.o X X ! V t r t t q A U U U I I I A e r t r w t 4 e J ' ] ] ] ] ' E [ A 5 o A ` Q F F ;.;.! ! U U e r A 5 # @ > ` / C C C C C C 2 2 2 9 C 9 9 1 9 1 9 C C C 9 V 9 ( ( ' q 5 } u u L u Y u J ( Y Y 6 q r A u u L Y Y q w w 4 E e ( ] I J E [ I I I ( ] J U [ ] ] b.b.' ' ] [ A [ b.( J U [ P V r ! [ P P P V V U ! P D ! U V 9 V r 9 e I 5 . t 5 9 V r 9 t t t t r V V V V r V I ! U V r q t t e t r e u 6 q v.=X  ",
"        2 # # $ 5 q V r 9 0 0 9 9 0 q 9 # X + 9 V U F V V V V F V V C C e $ X % V D V V V 0 0 V 9 e r w 3 & r J ( W Y u * ; 8 u y Y W } W Y Y u # # t % ; c k B f B N.B f f p : . % o * t.} } o & . J < # > t 4 q A A L U Y ] ] ( ] ] ( [ Y w % 4 J I ] ' ;.<.0.;.;.;.! + U e./ / -.;.;.;.r.0.;.[ ! [ 4 X & # <.<.4.-.-.;.6.6.4.;.;.] ! ! ! / / ;.;.;.;.;./ P 9 ! ] U < t I I ' ' A ' [ U ( [ } ] Y L w w A u Y L u w X 4 I < . 4 r J ' ' ' ( E U U q 4 V V A A q e q q q u w t t o o 3 J ! [ ! e 9 q q 9 9 0 e q V V r V > t r V 4 . . $ J e e q t t t t t t t t t t t q r r r w q t t u u t w t 5 3 D XX      ",
"            2 $ & # < 1 5 4 4 9 4 4 4 3 . o X r t 9 9 9 q q 4 9 4 3 5 > # . X & 4 q r 0 9 9 q V e J e w 5 * q 5 6 6 t t % . . . o % * q 6 5 5 5 % * V o O O . = : O f k : = X . J 5 o o Y Y . . . U 1Xv.5 . * < w u u u w u u u u w u u 6 * o o o . o # < 4 q e A V V q X 3 7 % 3 < > 5 4 5 3 * # o . . . . . . 4 V D P P P I I I I J r V V V V A U U U V q 4 & 5 < * * % < < o o # # % * O l Y Y U A q u r u U u r r o 5 r . & . 5 A u U Y I J q t 6 r 5 # 4 6 u 6 5 8 w u u u t o . * q a J J J V V r r r e V J U e q 5 t r 4 4 # . X . # % % * < 5 5 4 t t t 5 < < 6 6 i 6 t 6 6 6 6 6 6 * * 5 G             ",
"                S , @ % # o . X % > < > > 1 > @ @ @ + + + + + + + @ @ @ 9 1 1 1 @ % > @ @ > @ 1 1 @ @ @ @ @ + @ , C G G G 0 2 1 , @ @ + + + + + @ @ @ 1 r 4 % @ % $ 1 + > 1 5 D r.) 7 4 @ + 1 3 <.%X      S , 1 3 5 3 3 3 t 4 4 5 > # @ @ > 3 5 4 3 3 > $ $ # # . . . # 3 3 > 1 @ > > 1 1 2 9 9 0 D F / -.;.v.;.1 . . . . . . . . . . + @ @ , > 1 2 2 , @ , , 2 2 G / Q ! V 1 1 1 1 1 1 > 1 > . X + X @ + + @ + + + + $ $ + @ @ $ @ @ + + X . + & % % X . . # @ % + + X . . . X 1 V F F 0 @ X X @ @ @ @ @ . @ @ @ @ @ + % > > $ @ 3 V U P 0 4 9 4 & X . . . X o X o o < = * * * * * 6 < 3 4 D /                 ",
"                        H >.2.>.>.>.                                                                                                                                                                                                                                  H 9.9.                                                                                                                                                                        H >..X8.                                                                                    8.-.;.<.<.<.<.<.<.e.e.v.v.v.v.v.e.e.3.                          ",
"                                                                                                                                                                                                                                                                                                                                                                                                                                                        =X                                                                                                                                                      "
};
