/* XPM */
static char *c16c6f6352554dd88f3dafaeb82a94e0AKwWSVOkekVSPxaF[] = {
/* columns rows colors chars-per-pixel */
"296 150 256 2 ",
"   c None",
".  c #010101",
"X  c #0B0B0C",
"o  c #080606",
"O  c #140B08",
"+  c #17150A",
"@  c #0A0B12",
"#  c #140D13",
"$  c #0B1315",
"%  c #141314",
"&  c #1C1B1B",
"*  c #181717",
"=  c #0A120A",
"-  c #231B19",
";  c #25190A",
":  c #1C221B",
">  c #182309",
",  c #28251B",
"<  c #312F11",
"1  c #1A1C22",
"2  c #111927",
"3  c #231D23",
"4  c #341F22",
"5  c #1C2325",
"6  c #1C2934",
"7  c #242323",
"8  c #2C2B2B",
"9  c #282827",
"0  c #342C28",
"q  c #2C332B",
"w  c #37352A",
"e  c #2A2C33",
"r  c #342D33",
"t  c #2C3436",
"y  c #333433",
"u  c #3C3B34",
"i  c #3B3C3B",
"p  c #363738",
"a  c #443A2A",
"s  c #433C37",
"d  c #4D372E",
"f  c #453A18",
"g  c #3B433B",
"h  c #3C422A",
"j  c #3B4316",
"k  c #4E5015",
"l  c #5A630F",
"z  c #6C7216",
"x  c #484729",
"c  c #575828",
"v  c #44433C",
"b  c #494639",
"n  c #54493B",
"m  c #575638",
"M  c #4E512C",
"N  c #645537",
"B  c #5B642F",
"V  c #676928",
"C  c #757927",
"Z  c #777837",
"A  c #6A6E33",
"S  c #635A1B",
"D  c #393C43",
"F  c #2C3747",
"G  c #162F46",
"H  c #443E43",
"J  c #3C4343",
"K  c #3C4649",
"L  c #3C4C52",
"P  c #3F5363",
"I  c #434443",
"U  c #444B44",
"Y  c #4C4B44",
"T  c #444B4C",
"R  c #4B4C4B",
"E  c #474547",
"W  c #534C47",
"Q  c #4C534C",
"!  c #485449",
"~  c #53534C",
"^  c #595749",
"/  c #444C52",
"(  c #4A4D53",
")  c #4C5354",
"_  c #4C555A",
"`  c #4D5B5B",
"'  c #485655",
"]  c #535453",
"[  c #545A54",
"{  c #5B5B54",
"}  c #535B5B",
"|  c #5B5D5B",
" . c #565557",
".. c #534E53",
"X. c #645949",
"o. c #635D55",
"O. c #6D5645",
"+. c #53625D",
"@. c #5C625C",
"#. c #5A6558",
"$. c #546353",
"%. c #66654A",
"&. c #646355",
"*. c #63645B",
"=. c #6B6B5C",
"-. c #686759",
";. c #736B5A",
":. c #6B735A",
">. c #76755A",
",. c #747448",
"<. c #545D62",
"1. c #595D64",
"2. c #4C5A63",
"3. c #546363",
"4. c #5B6463",
"5. c #5C6A64",
"6. c #5B6C6B",
"7. c #576869",
"8. c #5D716D",
"9. c #5C7266",
"0. c #5A6D71",
"q. c #5D7273",
"w. c #5A7475",
"e. c #4D6466",
"r. c #636563",
"t. c #646B64",
"y. c #6B6C63",
"u. c #636C6B",
"i. c #6B6D6B",
"p. c #666567",
"a. c #726D65",
"s. c #64736C",
"d. c #6B736C",
"f. c #697568",
"g. c #73746B",
"h. c #777868",
"j. c #637473",
"k. c #6B7472",
"l. c #6C7B74",
"z. c #6B7C7B",
"x. c #657978",
"c. c #747B74",
"v. c #7B7C74",
"b. c #737C7A",
"n. c #777876",
"m. c #676D72",
"M. c #635E63",
"N. c #837B69",
"B. c #847D74",
"V. c #857453",
"C. c #827B33",
"Z. c #7B842E",
"A. c #798417",
"S. c #7A844F",
"D. c #7A846A",
"F. c #6C827C",
"G. c #6B8276",
"H. c #7C8374",
"J. c #74837C",
"K. c #7C847B",
"L. c #7C8A7D",
"P. c #758678",
"I. c #798D77",
"U. c #848829",
"Y. c #868936",
"T. c #949838",
"R. c #8B9530",
"E. c #99A534",
"W. c #9BA32F",
"Q. c #8D914F",
"!. c #9BA54B",
"~. c #AAB250",
"^. c #87856A",
"/. c #838374",
"(. c #83847B",
"). c #838B7C",
"_. c #8B8C7B",
"`. c #898876",
"'. c #938C78",
"]. c #88937B",
"[. c #96957B",
"{. c #919468",
"}. c #ACB26D",
"|. c #9EA170",
" X c #B8C556",
".X c #BAC66B",
"XX c #C8D370",
"oX c #CAD664",
"OX c #707D82",
"+X c #6D8482",
"@X c #738483",
"#X c #7B8582",
"$X c #758A84",
"%X c #7B8B83",
"&X c #798B8A",
"*X c #7C9188",
"=X c #7C9091",
"-X c #7EA092",
";X c #848C83",
":X c #8B8D83",
">X c #858A88",
",X c #849384",
"<X c #8B9384",
"1X c #84938B",
"2X c #8C948B",
"3X c #8C9A8B",
"4X c #899A87",
"5X c #939484",
"6X c #93958B",
"7X c #949B8C",
"8X c #9B9C8B",
"9X c #989985",
"0X c #8C9B93",
"qX c #899793",
"wX c #949C93",
"eX c #9B9D93",
"rX c #969B98",
"tX c #908D88",
"yX c #A29C89",
"uX c #A39E93",
"iX c #9DA18D",
"pX c #96A28A",
"aX c #8DA395",
"sX c #94A294",
"dX c #9CA394",
"fX c #95A49B",
"gX c #9CA49B",
"hX c #9AAA9A",
"jX c #8FA592",
"kX c #A2A38D",
"lX c #A7A78A",
"zX c #A3A493",
"xX c #A3A59A",
"cX c #A4AB9B",
"vX c #ABAC9C",
"bX c #A7A995",
"nX c #AAB29C",
"mX c #B3B29A",
"MX c #9AA8A3",
"NX c #9BAFA7",
"BX c #A7ACA3",
"VX c #AAB3A6",
"CX c #B5B7A8",
"ZX c #B8BBB4",
"AX c #ACB3AF",
"SX c #959BA2",
"DX c #BBC3B5",
"FX c #BDC689",
"GX c #C5C7B8",
"HX c #C8C8B0",
"JX c #CDD789",
"KX c #BCC6C3",
"LX c #D0D3CA",
"PX c #E1E4DE",
"IX c #C1BCAB",
"UX c #837F82",
/* pixels */
"                                                                                                                                                                                                                                                                                                                                                                            nX:.g : .                                                                                                                                                                                                                           ",
"                              9 . : 7 i T T I i J J T T R ) T T J 2  .p @.@.g.y.f.| y.*.H.).-.h.{ h.h.h.`.`.#.            i t g -.:.q :.D.D.D.].#.[ 4.s.j.b.5.k.}                                                                                                                                                         F F F F F F F F F F F F 2.2.G F v D.].|.{.S.}..XJX.X}..X}..XJX.X}.!..X}.      {.B B B                                                                                                                                                                                                 ",
"                $ q & xX9X0 b w _.gX0X0XfXVXCXCXBXBXxXBXvXBXBX5XeXh.0 _.nXiX].{.{.{.{.{.mXlX{.|.|.|.|.lX|.lXbX5XX . y `.^.FXFXJXFXXX.XJXJXFX.XJXFXmXb d.xXzXzXuXzX<XL.,X,XwXb.i 1 2 / D . d.b.c.k.n.k.c.b.K.K.K.#XK.K.K.v.b.b.v.K.L.#X#X>X>X>XOX_ e 9 c.wXxXxXcXcXBXcXxX2X2X<X).;X).K.2X;XK.b.n.#X>X>XOXt t 5 e b.=XSXNXNXNXNXMXMXMXSXSXSXAXMXSX=XF # [.}..XXXXX.XXXJXJX XoX XoXXXXXXXXXXXJXXXXXXXJXJXJXJX.X.X.X X.X|.B D.    7 7 q q q , 9 0 9 v ~ i.B.v 9 q q 9 =.).H.:X:XtX_.B.`._.5XB.5X5X:X5X6X6XdX_.5X7X8X8X<XxXbXzXzXmXmXCXCXCXo.~ v g.(.B._./._.h.g.)./._.5X)./.(.:X6XeX(.i.i | r.i.I 2                 ",
"          . 8 t.1Xl.y xX[.; m < 5XeX0X#XK.H.c._.xXBXxXvXxXvX7X6X<XxXY a.8X%.>.{.{.Q.,.,.|.|.{.Q.Q.Q.Q.{.^.%.n , * /.{.JX}.~.~.XXXXXXXX~..X.X~. XJXFX,.; b u h.;.&.iX<XpXH.).wX} o  .p % n.LXZXVXZXVXZXDXZXDXZXZXCXCXZXZXCXDXZXDXDXDXDXZXDXGXZXZX(.u ^ W VXkX_.8XbXbXCXCX_.7X_._.).:X_.).<XeXeX7X<X5XuXeX .. . BXMXrXfXNXMXMXMXqX0X2X6XxXwXxXcXVXZXR < LXXXoX~. XoX.X.X.X X XoXoXXX XE.~.oXoXoX~.XXXXXX.XXXXXoXoXoXoXoX!.M - y.p K.J.=.#.-.-.M :.D._.zXzXW O o . 9XbXnXbXlXmXIXHXlXmXmXkXh.'.h.'.lX9X9XmXHXGXCXkXbXbXnXHXlXmXGXLXHXLXLX0 o 8X8Xh.mXmXHXHXkXCXbX[.[.9XzXkXkXnXnX8XbXa.v VX`._.(.(.*.i             ",
"      . T 1XrXgX%Xs.6XxX8Xa n 5X-.*.u i [ { y | >XBXBXxXtXr.v U E y O @ p & w &.%.;.eX{ W o.o.=.>.< %.m -.0 . h.[.}.~.~.z !.~. X!.~..XXX~.}..XXX}.FXFXlXx -.^.h.'.iXsXVX9X5Xv.- s B.s + BXZXxXVXVXBXGXZXVXCXCXVXZXCXBXAXCXZXCXZXZXZXDXDXDXZXCXLXGXv.y.+ iX_._.bXlX5X/.;.a.n.g.g.g.h.H.`._.5X).`._.'.`./.rX8 ~ xX_.5X7X<XgXwX6X2X;X(.:X:X6X<X6X:XrXt.w Q.T.E.oX.X.XXXXX X~.XXXXXXXXXXE.!.~. XoX XR. XXX.X X XoX~. X~.E.~..X|.-.: g MX7X`.).D.h.D.$.$.f.iXb , O >.lXlX|.|.lX}.FX}.|.[.^ , b ).*.vXh.h.;.x X.&.B.5X:X5Xa ; . b h._.8XxXeX+ 5XGXmX5XbXzXkXvXkXCXbXkX_.:./.]._.5X5XH.v.H.)._.D.'.a./._.v.u y         ",
"    o 4.rX0X) [ g o gXzX_.a b *.y . u Y r | 8 H AXLXPXBXAXBX .PXPXLXSXX o 7 6XrXn.gXPXLXZXDXLXZXZXBX@ 7 t.8 w ^.{.|.XXXX!.Y.~.!.~.XXJXXX.X.XXXXXXX.X}.}.>.M a &.;.=.h.N.B.V.; n N.N.0 ; [ DXzX_.9X9X9X9X'.[.5X_._.<X_.:XH.H.(.:X)._._.]._.'.zXzXv.CX+ w &.xXZXCXCXmX8X5X8X6XdXxXbXbXkXbXiXkXkXyXkXkXkXzXmXo.a.HXlXbXlXlXyX'.'.`.N.N.N.^.^.`.`.h.v.8 , B V U. X~.~. X XoX~.~.~..XXXoXXX X.X X XE.E. X~.XX XE.~.~.z z T.!.,.%.].: 5 AX)._.'.`.].I.D.`.D._.;.- - %.{.^.V.,.,.A A m %.W * @ 8 { *.{ :X6Xf.#.~ v.:X8X6Xv.B.i.m.i.i.n.i.;X2X% xXCX).xXwXr.I R r.[ Q @.] { |  . .1.R I ) y p g.v.h.-.-.o.o.a.| 1 J     ",
"    . NX1X2X<XwXMX$ g.zX:Xu b 0 i.rXLXZXCXZXCXBX6XCXGXo.>XVXg.GXLXPXPXe o wXPXLXZXCXDXGX6XBXZXBXgXZXkXh.w 9X>.A ,.}.JX.X!.l !.~.~.XXXXXX~.!.}.XX.X!.}.}.}.|.{.`.;.X.0 ; n f n X.N.N.d ; , v._.[.5XkX9X9X9X8XyX8X9X9X8X8X6X5X5X5X5X8X`.zXbX/.8XxXeXCX, - o *.(.:X:XB.:Xg.y.K.g.g.D.I.I.).D.`.`././._.[.5XbX-.b nX8X5XiX8XkXbXbXbXzXzXkXkXzXdX8X8Xn.0 . x Q.T.z E.~. X~. XoXoX X XE.~.oXXX XXXXXR.E. X~.~.E.~.!.U.Z.Q.V S.M x H.7 q r.; a < a a x b %.%.x o.. . . M m M f a n b a W o E KXZXBX| . ZXZXAXZXvXCXxXBXBXVXCXZXHXIXZXGXCXZX:X+ vXCX9XxX6Xr.d.v.t.v.g.d.g.g.v.v.b.K.n.UXn.i 7 gX:Xh.B.a.a.v.&.y.I %     ",
"  $ L 0X1X1XK.[ z.K | 6X_.u , :XCXBX:XcXVXcXVXxXcXzX_.8X5X6X6X:X:XrXZXZXo cXZXvXGXIXCXCXBXBXZXZXcXbX[.}.}.FXFXmX}.}.}.!.C C Q..XJXJX.XJX~.~..XXX!.~.~.~.Q.|.{.lXmXlX^.N.^.o.- w N.o.n w - . 9 ^ a.g.y.o.=.&.-.y.*.&. .~ Y &.*.*.*.&.=./._.&.- v.>XB.* * 7 . . O 9 ~ ] wXwX4Xf.-.:.#.@.@.u.s.c.d.g.r.| t.g.s * i i , y : 8 { g.y.y.y.y.y.g.p.*.{ O , %.A V k C T.oXE. XoXoX~.oXoXoX~.~.oX X~.~.z  XE.A.E.~.E.C T.~.!.V < x w 0 & X i.o.p.B.i.i.#XwXrX>Xn.k.n.i.K . . n h.h.=.;.8X~ # | LXAXAXBX*.VXVXcXcXxXcXdXiXiX9X9XbXvXzXvXbXiXCX:.= 8XbX8XbX8XeXcXxX7XxXvX8XxX8X_.iXkXbXdXcXwXi % r.=.>.-.&.-.=.-.=.u $     ",
"  $ t 1X1X2X<X/.W g cX5Xh., 9 dXBX3Xf.cX7XwX<X:XZXBX(.cXxXvXBXeXCX(.;XGX. BXv.7XCXVXvXvXBXcXZXxX<X].{.}..X~.Q.Y.~.~.!.Q.l T.~..XXXJXXXXX}..XXX.X!.~.T.~.!.!.|.}.|.|.{.^.[.lX'.;.. ; , u & * 9 3 r # - 0 0 0 0 3 - - , 0 0 s w w 0 4 4 - ; 0 s W s o * - - r s r Y Y W y.y.@.] { ] ~ Q ] { |  .E ..p 8 9 o 3 9 r 3 # # p E u 4 - 9 9 9 - 0 n a a , m ;.< O Z ~.~.oX XoXoX XE.oX X X X X Xz E.E. X~.R.~.R.Z.z Z.R.Q.Y.S.j + , y & r.VXgXeXBXCXBXGXGXLXGXGXLXLXGXGXmXv.`._.x 9XGXLXv * Q KXgXgXVXBXcXVX7XgXcXdXcXdXiXiXiXeX6XeXcXxXxXvX/.o vX7X5X5X7X7XdX<X<X6X_.`.<XnX].iXiXbXlXiXBXU * b.a.h.=.;.;.;.&.Y - *     ",
"  @ . #X&X#XfXxX(.K.6XzX5X0 u CXcXdXgX2X<X7X7X2XxXK.;XwX7XdX<XgXBXBX2XCXo gX;XBXcXdXiXdXdX2XrXxX).iXmX}.JX.XC ~.~.~..X~.!.}.XX}..XXX}.Q.!.}.JXFXJXJXJX.X~.Z.}.}.Q.}.Q.{.,.Q.|.|.^.W # # * s 0 O 9 0 W { W ^ o.~ W W W W X.-.X.X.o.X.X.X.o.W s W s 9 X * # s 9 - . . . 9 - - 9 9 u y u r 0 r r 8 3 3 & & 9 9 & 8 3 7 E ..W Y b W b W b a n X.w 0 - - . o C T.E.R.~.~. X X XoX~.~.~.E.R.E.z C R.~.R.~. Xl R.l C C !.Q.Z B , ~ 9 * >XrX;X5X[.9X9X8X'.'.9X8X9XkXlXmXCXCXCXbXlXCXCXuX, 7 } LXgXcXBXdXcXdXdXcXxXdXxX8XxXdX7X7XwXwX6XxXBXdXcX+ ZX8X7X5X7X<X<X6X<X<X)._.D.D.`.pX[.D.].`.wXU 7 { _.H.>.;.=.&.o.u * 9     ",
"  $ t t D b.&XqX&XfXc._._.9 8 6X:XeX7X<X7X:X:X(.d.).BXVXdX7X<XcXcX7XgXBX7 b.wX6XcXxX7X7X5X8XeX5X).5XCX[.}.Q.~.!.~.!.!.~..X!.~..X.X~.~.~.!.}.}.~.}.~.}..X~.}.~.!.}.}.Q.|.{.|.{.{.{.[.{ 0 o.Y ;.o.O * u Y ^ o.W b s s b b n ^ ;.a.o.w b ; - O - . o 0 0 u 0 w s w w w 0 - - , , 0 W 9 w 0 u b 3 H H r # - - # - s n s , w s s s b b b ^ b 0 . . x V S V z T.W.R.E.E.z A.~.E.E.!.z Y.!.U.R.A.R.E.z E.~.U.Z.U.Y.Z.C Q.z < B n *.# o BX2X).8XiX9XkX9XyXkXbXbX9XlXbXkX[.lXlXmXmXbXyXzXO & ! DXdXdXdXdXdX<XeXdXdXdXdXdXdXdXdXeXwXwXwXcXvX6XCX+ BX5X(.7X7X).`.`.`.`._.<X).H./._.).h.h.h.K.5 X , /.N.;.%.;.;.W - % t     ",
"  $ $ ) T J . J D #Xg.N.g.w 9 wX7XeXeX<X7XdX7X:X<XK.).eX<X7XdXxXxX/.6XxXd.| eXeXVXCXxXvXvXCXCXvXnXCXzX[.< V !.}.Z.Z.~.~.XX}.!.Y.T.~.~..X~.XX~.R.T.E.E.~. X~.}.!.}.|.|.|.{.|.}.|.S.S./.W - y.'.o.O . ^ `._.'.v.g.h.h.B.B.h./.N.a.;.;.a.a.^ O + s X.X.X.X.X.O.O.O.O.N O.O.s - O W a.^.N.>.>.h.N.'.X.^ 9 . . , h.h.;.;.>.^.N.>.>.;.%.;.>.>.^ O c C.R.R.W.E.W.~.~.W.U.R.z A.R.~.T.l R. X~.R.~.E.A.T.R.R.Z.E.!.Z.k Z Z c x w , - & i rXwXwX7X8X8X8X8X8XyXkXzXvXzX8XyXlXkXkXbXmXiX_.5X. + | ZXdXdXdXdXgXgXdX6XdXdXiXxXdXdXdXdXdXgXdXxXeX8XCX* CX_.5X).`.`.).`.`.].`.<X_.).).<XH.).h.c.K.9 % 0 B.N.;.;.>.W < W * T     ",
"  @ ` 1XgXwX;Xd.. g <X_.y.w 9 xXeXzXeX7XdX7X<X<X:X7X6XeX8X7XdXcXdXdXcXBXtX] CXCXnXnXCXvXBXCXnXbXVX6XxXvX'.m Q.|.k S.Q.}.!.~. X X X~.~.~.~.~.!.z ~.}.oX XT.~.~.}.}.Q.Q.|.{.|.}.Q.Q.^.{.>.v a.`.b - =.'.'.h./.`.`.'.`.'.`.'.^.>.^.^.'.[.lXmX, n O.O.O.N N N N N N N N O.O.Y % * , `.9X>.%.,.A >.^.%.d B.Y v 9 ^ -.9XkX^.^.^.^.V.^.^.^.{.|.x ; !.R.W.W.~.W.W.W.~.W.E.W.W.E.W.~.R.E.~.W.W.E.W.W.A.~.Z.U.A.R.Z.Z.~.Z.+ < < > q ! 7 eXeXxXdX_.[.[.8X8X8XkXkXkXzXbXbX8XlXvXbXbXkXiXxXBX+ + | VXcXcXhXhXcXVXcXdX7X7XcXdX7XdX7XdXxXVXcXvXdX8XVX& bX_.5X8X5X_.`._._.`.`.].).5X_.`.).:X).).1X5 % p `.h.a.X.w , n w * T     ",
"  2 @X;X<X<X7X:X% g.7Xh.*., + 6XeX8XdXxXdXH.<X2X6XcXdX8X8X8X:XBXZXvXBXCXrXi GXBXVXbXvXvXcXxXbXvXxXxXvXvXbXkX,.; < c }.~.!.~.!.~.oX~.!.Y.!.oXXX~.~.~.T.!.}.XX}.!.Q.Q.{.Q.Q.{.|.,.>.^.^.9Xb &.9X'.B.B.9X`./.N.`.^.[.^.N.^.^.^.[.yX'.'.^.'.yX; O.N O.N N N N N N N N N O.W s * % , <X=.%.>.>.%.;.-.uXX.`.bX'.>.j -.mXbX%.m >.>.>.V.>.>.^.'.w < }.R.E.R.U.W.W.E.W.~.W.W.R.W.E.E.E.E.R.z z U.A.R.R.E.z z A.Z.V l Z S j , { =.+.i.. eX8X5X7X_.[.[.5X5XyXbX8X8XkX8XvXkXlXvXyX9XkXyXiXZX* X u VXgXdX7XcXvXVXvXcXnXiX7XdXzXdX7XdXdXzXzXvX5X5XvXO 5XkX[.iXnX]._._.9X5X].5X_.).`.<X7X<XH.c.t.9 % t.*.W s . w Y v : X )     ",
"  2 6.;X<X`.`.h.w dXdX-.{ + o eX<X`.dX<X7X<X<X).xX8X8XvXzX8X5XVXvXCXmXCX6X9 GXxXzXbXbX8XzXxXxXbXeXvXvX8XbXmXo.m N ,.!.z Y..XQ.Q.Q.Q.l Y.}.XXQ.~.}.U.T.Q.Q.Q.C z Q.Q.,.V ,.,.A ,.m N ;.%.O B.N.>.B.N.N.`.'.^.^.N.'.^.N.N.N.'.^.'.'.^.'.'.bXb W X.O.O.N N N N N N n n n n a , # p &.{ h.-.&.=.;.`.`.a %.lX,.,.Q.{.>.M m n m X.^ ;.=.a.^ a.W a k V Y.U.T.!.R.R.T.T.U.l z E.~.W.R.z R.A.A.R.z E.A.!.l z C c + w 0 a < , y.i.1X;Xo eX:X_.'.'.'.9X5X5XbXlX5X8XkX8X[.9X8XyX5X8XlXlXkXvXp * rXBXdX].7XdXzXcXvXcXdXcX<X<X<XdX6X<X7X6X7X9X_.5XxXv./.bX7XiXzX`._.9X<X)./.)./.`.).6X<X_.g./.K.t * : @ + b %.X.X., - X )     ",
"  2 / l.).`.D.{ y K.c.f.{ , X :X7XdX6X5X9X5X5XeXCXzXkXvXbXuXvXvXzXvXvXCXBXq LXnXbXCXbXbXcXcXcXxXbXzX5X5X9Xv./.9X^.{.!.Y.T.Y.Z.z Y.Y.V V Z.Y.Y.Y.Z.Y.U.T.C Y.!.~.!.Q.|.,.x f M x x b 0 O , &.N.^.N.^.'.`.^.^.'.^.'.'.^.N.N.^.N.N.'.^.^.`.9X;., b X.O.O.N N O.O.N N n d n 0 3 % 9 =.-.m %.>.>.,.>.^.n O '.,.Z A B {.^.,.m m m m -.&.a.&.&.0 , . ; k k Z.T.C Y.C z Z.U.z R.R.T.z Z.C z Z.z T.R.A.Z.C k < . + + - - * . E n.;Xt.9 eX_.5X_._.5X9X8XbXlX9X8X8X9X8X5X9X9X9X9XyXbXbXbXCXi 8 LXcXdX3X,X).<X6X7X8X<X6X7X<X2X<X@.=.g.).<X8X`.:XBX_.v CX5X7X_.<X).(.H.h.H.H.).<X(.H.).7X8X/.g.8 & , X.;.N.V.%.X.- % o )     ",
"  $ ) #X2X<Xv.q v g.=.[ *.7 = g.<X5X5X/._.8XyX'._.9X'.`.h./.`./.`.`.`.5Xg.7 CX8XzXnXnXbX8X5X7XzXuX8X5X8X_._.(.B.lX,.A !.Y.C !.!.!.~.k < !.}.R.C l C V V !.Q.!.!.C Y.Q.,.< , . # . . . . . o.8X9X/.B.`.'.'.^.^.'.'.N.^.^.^.^.`.N.^.N.N.^.[.5X* O n ^ X.N O.O.O.O.O.X.^ X.0 8 9 Y `.{.^.>.^.^.Q.A V.yXO w ^.A A Z Z.Z.Q.S.Z S.,.^.m w a 0 + - 0 a ; B C C Z Z C C U.~.S k l z z U.Z.Y.C C l Z.Q.Z.S.< c x + + 0 . . R c.wX1X@.g <X5X5X5X_.9X8X9X8XkX9XiX5X'.8X8XbX8X5XiXzXiXlXiXzXY 9 8X_.sX7X3X<X3X<X_.).xXcXH.7XdXdX7X).gXdX9XiX9X>.=.w + xXh.].).`.D.<X).].dX<X<X).c.H.).f./.r.n.* % * -.X.X.n d o . o * }     ",
"  2 ) ;X6X:Xv.w ~ c.v w 0 9 + g.h.;.;.B.B./.N.;.;.%.-.%.^ W ^ ^ &.&.o.o.- * o.o.;.B.`.`.B.`.h.h.N.h.B./.`.'.8X`.%.. k A Z k l Y.~.~.C !.Q.}.~.l k V A V Z Q.Z V ,.A o . w h >.m B %.{.{.;.0 a.h.o.B.tX/.N.B.^.'.[.'.[.^.N.>.N.;.N.N.N.B.'.9Xo.O . * b o.s d d < 4 o . . . . . ; m ^ 9X'.^.>.,.>.%.`.w w `.%.A S.{.|.{.|.{.Q.A >.^.X.W s . o W O ; < B V.Q.Z Y.Y.U.!.S k z R.E.z Z.z z Y.Y.Z.V x j j c B ; - 0 &.i.{ r.b.b.* [ zX_.`.'.5X5X5X5X_.v./.5X_.8X8X5X_.5X_.5X_._.5X5X6XY p 6X).c.7XcXdXdXcXBXCXZXAX7XgXcXcX7XLXZX2X).<X`._.H.u q _.h.D.].).f.f.c.K.H.b.d.*.K.<Xt.t.d.5.wXi % % . . . . @ i E 7 7  .    ",
"  2 e ;Xf.{ + W <X6XtXv.~ % * v b v.`.`.'.`.'.[.9XyXlXbXyXyXzXbXzXbXvXCX9 o (.5X5X5X9XxX5Xh.`.8XzXmXCXmXCXCXxXvXzX8X_.N.m k Z Z.Y.z Z.C k k V k c < < c ; . a x a ; , %.{.Q.!.~.R.~.~.|.}.[.; s . ;././.;.;.N.;.h.h.=.h.;.h.h.`./.N.N.B.;.a.;.a.E o O r . 1 ( SXBXAXAXZXZXZXZXAXCXcX`.yX>.m %.M %.;.0 O , b &.%.x %.^ a.;.h.`.`.g.UXg.p.o.y.y.a.^ v @ O . < Z C T.C l Y.z  XC l C k k V V Z A . x c B >.x ; , W { p y ( ( q q g.a.h.=.g.v.>Xn.6XeX:X*.r.g.v.B.g.i.*.E I b u v Y s u # v b =.W { Y W i.;X>Xn.(.H.a.o.-.(.*.y.y.y.=.s 9 b # % Y ~ { f.v v r.u u I I X Q U q g ! | r.9 # . Y y.a.a.g.6Xv.- * p     ",
"  2 5 b.W b w =._.xXdX(.g 9 i eX:X_.5X`.9X[.yXyX[.yX[.lXyXlXlXIXmXmXIXIXb 0 HXIXmXmXlXmXvXkXZXHXmXHXHXHXCXCX8XbXvXCXvXbX8X[.,.Z !.l z l k V k c A < < m O , b s O + >.{.!.A.A.U.E.E.U.R.V ^.o m lX[.V.>.`.'.'.9X8X<X5XdX9XnXxXCXmXmXlXlXbXmXyXuXgXrXX . rXLXPXPXLXLXLXPXLXPXLXPXLXPXLXLXIX'.. w ^.^ < w . . 9 s B.tX6XZXGXGXGXGXZXVXZXGXGXGXHXIXCXIXvX6Xn.* x V Z l z z l Y.V c B > h > + {.k A V c + w w w o . % K.3X0X* . . v.vXxXcXcXgXCXAXVXAXVXdXCXZXZXGXGXZXDX;XVXvX_.zXg.O 6XvXzX7XwXcXBXxXcXGXLXDXCX6XtX. [ 9X].iXiX9X5XpX8Xb . 5X(.g.y.g.*.{ 7XVXGXZXwXBXg.r.*.@.;X=.^ 0 * X (._._.`.h.a.;.X.w +       ",
"  t $ q ~ ~ , [ g.(./.=.0 u { 5X8X5X`.'.`.B.h.`.'.'.'.'.'.[.'.'.[.[.[.yXh.x mXlXyXyXN.`.bXvXzX8X'.[.^.'.9X9X[.9X`.'.'.`.`.kXlXA B V k k k k x %.0 ; . , p . 9 0 , o M ,.!.!.Z.E.E.T.XX~.~.Y.Q.Q.mXQ.k [.N.'.5XH.:.<X5X]./.5X/.9X^.^.D.{.[.9X9X8X;XBX. &XPXLXAXrX1X2X2X7X5XkX`.`._.8X5X8XzXvXv.Y &.v 8X<Xw BXdXdXVXxX8XzXBXzXzX8XxXbXzXzXnXCXiXbX8XyXxXxXZXVXo.. > k A C l V A {.+ o + * < ,.V Q.c . o X X % q R [ s.L.c.* # O h.].).).pX].`.[.].D.].D.D.].I.D.D.].].I.].iX[.7Xy.9 7X<XzXVXCXcXVXVXGXDXpXD.D.-.{ =.7XI.:.D.D.D.].I.].D.b ].dXpX7X,X<X].].H.VXLXd.H.J.L.f.J.sXVXgXY o o c././.;.X.;.;.^ w #       ",
"  _ = 7 ~ ~ v { y.c.v.(.w 7 -._.5X'./.`.'.`.`.`.'.'._.'.`.`.'./.^.`.'.9X5Xs 8XkX8X'.h.kXbXbX8X8XxX8XdX8X9X8X8X9X9X[.8X9X8X5X8X8X< x x j < < . . . * #Xb.MX1.# & o u o ,.C z ~.~.E.XXXX}.~.Y.~.~.T.C < >.'.kX9X8X9X9X_.5X5X`./.<XiX7X7X7X_.9XkXiXrXb.5 PXLXZXwXBXBXBXBXcXcXVXbXcXzXcXcXcX<XwXZXDX:Xb DX9Xw cXdX7X7X<X:X6X<X;X).(.eXeX7XdX7X3X<X8XzX5XxX8X5XvXCXv.. . < x m M < . o # . . . . f M M %.= % 8 p j.F.` u.>Xn.% # + ).aX3XjX4XpX].4XpX].].[.pXhXpX].pX].].].4X&.`.dX#., 7Xh.].cX9X[.`.D.I.D.).D.].].D.9X].h.G.I.P.I.D.I.].{ w L.K.G.J.b.k.J.K.J.,XJ.s.G.l.s.9.8.J.+.c.b.X . (.g._.B.>.-.o.~ 0 %       ",
"  0.$ p @.*.[ { /.:Xv.*.0 0 y.5X/./.`.'.'.'.'.'.'.'.'.'.'./.`._.`.'.'._.B.b zX9XbX;.'.9XbX8X8XiXcXiX8X8X9X8X8X5X8XkXkX8XyX5XzXvXx > m x > ; + * | #XMXSXqXSXr 3 { o.+ x c Q.Q.U.Y.Y.l l V A C T.Z.Z.D._.iXzX5X[.8X[.9XiXvXnXvXiXiX9XbXbX9X5X].pXBX) K PXLXMXMXAXAXBXBXVXcXbXCXVXVXvXCXCXcXcXvXCXGXf.nXCX, c.6XdXgXcXxXcXxXwXdXdXwXgXdXdXsXhXcX8XxX_.5XxX5XuXxXuXv . @ . . . 7 o.vXBXtXt.g.~ ; %.n { o p 5.3.j.F.F.5.2Xg.% * # v.%XI.sX4XhX4X7XpX].pXnXhX).).4XpX4XD.pXcXD.h.8XY Y ZXcX_.).].D.].].].].).4XpX`.H.`.`.<X].G.L.].].H.H.u : f.J.%X@X@Xb.J.J.l.l.s.#XJ.z.s.F.5.6.[ J.r.o o v./.`.N.%.{ | R * *       ",
"  x.$ I K.v.=.y._.5X8X:X9 0 =.5X_.`._.`.'.9X5X5X'.'.'.5X5X'.9Xh.h.h.=.o.W u _.uXVX8X9XkXzX8XcXxXzXzX_.5X8XbX8XuXyX9X8X9XkXkX[.vX&.+ 0 9 v 0 0 E qXMXSXNXOXOXr 3 o., . . < k A c < < . < > < < S.k S.lXkXbX8X9XiXiX9XiX8XkXbXkXbXnXbX8XmXnXbXkXiXAXe qXPXZXMXcXVXBXBXBXCXvXvXvXVXVXCXmXvXVXVXcXzXCXdX$.6X* H.dXdXgXdXdXzXcXgX7X7XeXdX7XgXdXdX8XdXbXvXvX6XxX8Xg.^ Y ~ . & f.BXcXBXVXcXtX;X6X(.u o % 7 : 5.6.7.' 7.x.k.>XR @ i X rX0X,XsX3X4XpX<X).pXpX4XhXnXhX4XpX].4X].bXpX7X8Xv *.CXdX7XD.).].I.L.P.L.].4XpX<X).:X).L.,XL.I.D.:.].D., + @.G.%X*X%X#XJ.$X%XF.b.b.j.k.j.6.6.5.5.! ;X. X . h.N.%.N W b u H &       ",
"  0.X y d.H.h./.8X8XeX_.9 0 a.:X5X_.`._.5X5X9X'.5X'.'.'.5XvX`.b b v = 7 ~ W /.kXvXbX8XkXkX8X8XvXbX5X5X8X_.iX8XkX9X9X8X9X[.8X9XvXb : . W b . 8 @ K 7.$X1X<.8 & % Q wX1X;X|  .+ . , o n M k A < N < %.kX9X9X8XzXbX9XiXzX9XbXvXiXkXbXbXbXkX9XbXiXiXdX9 KXPXCXvXxXnXVXcXcXvXnXCXCXvXvXbXbXxXvXdXcXzXnXvX. wX* f.dXzXxXdXeXdXeX7XeX6XxXeXdXdX7XdXdX7XeXCXVXv.W W + s 9 wX-./.CX5X(.(.#Xb.b.c.<X5X*., . = : +.x.e.7.` q.#Xi . 9 9 * 0X3XsXhXsX,X,X3XP.,X4X4XhXnXnXcXhX].I.].pXpX].iXq g.VXzX7X<X).,X%XI.L.%XL.H.).4X;X2X>X#X1X1XP.;Xg.<Xh.0 > ).L.P.L.1X1X%X%XaXJ.s.u.j.j.j.` 8.5.! t.BXo X I B.;.m m O.X.b X.*       ",
"  e.o p H.).a.-.<X8X6X:X9 0 =.`._._.'.5X[.'.'.'.'.'.`.`.zX5X, * ~ 2XcXBXuXO h.9XzX5X9X9X8X'.9X8X8XuX9XkXiX9XzXkXiXiX9X9X9X9X9XvX~ , y.r.d.c.n.c.{ I . . s { & . 2XrX0X0XfXMX;X(.+ ; A x N k c {.* b -.5XzXzXiXvXbXzXdXbXvXkX9XiX8X8X[.iXpX9X5XdXeXy PXLXCXcXvXCXVXvXvXVXvXbXbXnXcXxXxXvXVXbXvXxXVXCX&.h.: f.cXxXeX6XeXdX<X7X7XsX7X7X7XdXdX7X8XxXeXzXBX8X. , w W v.Y /.bXGX/.v.:XwX<XL.H.c.2Xg.. ] d.b.@Xe.G.=XF.4.U ^ ;.yXyX+ d.3X,XpXdXpX3XsX4X,XdXhX4X].pXhXnX4XD.I.bXD.].bX0 6XvX_.cX7X<X).,X*X%X%X4X3X).).,XOXOX%X1XK.%X2X7X;X* v + ,X,XJ.P.%X1X%X%XG.k.%Xz.6.7.` 7.5.l.' b.tXO X % s w n n X.X.w w -       ",
"  e.o g 2X).=.W _.5X5X(.- 9 -././.5X_.5X[.'.`.[.'.'./.5X5Xh.u ^ CXIXvXmXxXO '.'._.5X8X8X9X5X9X8XkXkX5X9X9XkXiXzXkX9XiXzX8X9X8XCXq Y GXGXCXBXxXBXxXeXeXg.. 0 9 { K.qXz.@X1XrXrXZX/.< m a . , X.; o r.r.g.CXnX7XxXzXbXbXzX[.iX8XiXiX9XiXiXiXkX5XcX;Xg PXDXVXcXVXCXCXVXVXVXVXvXvXvXcXcXzXvXvXvXbXzXnXCX'.=.* U BXwX6XwXwX6XwXgX7X7XcXhXgXVXdX8XxX8X7X8XeXxXv * & & 7 # v.BXeX/.5X9X9X6XwXwX5X5X~ u xXAXAXVX%X4XAXAX! n lXlX[.mX, ~ sX3X3X3X,XwX3X7XhXnXcX7XpXpX].pX].D.pX].[.[.D.h /.dX].].6X<X,XP.P.I.*X1XhX,Xf.c.%X&XJ.>Xz.J.3XL.OX4.9 * l.P.s.%X*X%XJ.z.s.l.G.8.s.s.s.[ +.3.} r.o.. o % . # # . . . y R 8       ",
"  e.o g K.H.=.&.5XeX8X6X9 0 a.5X5X8X9X`.'.9X9X'.9X`.'.'._.B.yX9XIXCXlXbX8Xo _.'.'.8X8X8XkXzXzXkX8X8X9XkXbXnXiXkXkXbXiX8XkXiXzXvX+ ).CXdX).h.H.(.).(.6XBXB.{ v.BXMXqX#X&X%X1XqXwXa.w < d < O -.*.u #XwXd.y.6XvXxX8XcXCXbXzXiXkXkXkX9XbXDXkXbXmXCX[ y PXVXdXxXVXCXvXcXcXVXCXBXvXvXvXvXbXvXvXnXmXbX5X&.8XdXg U BX7X7XwX7X7XgXdXdXxX3XdXdXgX7X6X7X<X<X7XdXdX2X9 . . $ p DXvXvXvXh.'.iXcXsXeXzXxX^ w w v ! [ ) J ) E O &.^.{.N.[.b ] sX4X4XhXhX7X4XhXhXpXpXdXpXpXpX].].D.pXpXbX[.+ q h.zXiX<X).H.4XI.I.1X1X%X,X3X2X1X1X@X%XJ.J.J.3Xk.K.2XI 7 c.G.P.*X%X#XJ.z.k.F.s.s.s.s.+.9.5.) k.| n ^ O . o o 0 W ^ W /.*.u       ",
"  e.o Q ;X).f.a.5X7X5X:X0 w B././.-.`.yX'.N.h.h.>.[._.9X`.'.CXmX[.mXmX8XuXO '.'.zX8X8XzXzXzXbXzXkX8XkX8X8X'.9XkXkX9XkX8X8X9X9XzX, (.H.g.g.H.K.K.).(.7X8Xv.:XwXrX#X&X#X&X1X;XrX2Xw ; a n ; w g.b.u.>XrXK.. , c.BXxXvXvX8XCX8XbXvXiXiXbXnXmXbXzXxXp.7 LXDXdXxXcXVXVXcXcXvXVXvXvXvXcXbXvXzXvXxXg./.&.^ GX_.w q dX7XsXgXpX7X7XdXgXdX7XwX7XwX7X3X3XsX7X6X<X<X2X;X{ { * 8 nX[.mXCX_._.7X5X`._.(.n.r.3 8 n.qX1XqX8 . . , ;.N V.V.O.=.] J.J.I.aXhX3XsX4X3X4XI.4X).4X3XI.].).].].pX^., + , cX<X<XK.).P.4XaX,XL.,X,X;X1X1XJ.@X&X*XJ.L.L.,X;XdXw : ,Xc.c.L.;X%X#XJ.s.l.j.j.8.3.4.5.+.) J | d W - _./.h.B.`.yX9Xa b -       ",
"  e.o ] ;Xv.y.^ H.).H.v.y w =.-.a ^ w B.-.b ^ X.b -.^ =.h.`.9X'.^ h.6Xv.B.0 B.lXkXbXzXbXiX8XiX9XiXkX8X8XkX'.kXvX8Xa.g.-.v._._.bX* v t.U *.t.f.f.H.)._.v.(.rX0X%X#X@X#X#X>X6XwX{ * W 0 ; w w q 3.7.%X1X| : , . { 8XxXvXbXbXzXiXiXiXkXkXbXiXbX8XxX1.1 m.PXxXdXcXVXvXvXvXvXcXcXcXcXxXzXbXbXkXzX9X8XvX8Xh.{ W o cX6X7X7X6X<X7XdXdXdXeX<X<X2X2X,X3X7X3X<X].4X3X7XzXCXw u IXvXmXkX8X8X7X_._.9Xv.:XwX@.5.MXVXBXAXb.% # a O.O.N.yXyXs q ` x.9.*X0X%XF.1XG.I.P.I.].4X).P.7X].].5X5X`.=.u X 6X;XL.,X3X;X3XP.*X1X1XJ.%X>XqXqX*X&X&X&X%XL.%XK.3Xu * P.P.L.L.J.J.J.l.9.s.G.8.7.7.7.L ' ! u :Xb O - tXh.h.N.;.a.a.r s 7       ",
"  2.@ v t.g.=.#.^ H.H.v.w 9 b ^ ^ n b &.a X.=.^ ^ b b X.&.^ X.-.W ^ w v W u ^ 9Xh.`.zXbXzXdXdXiX5X7XiXzXzXzXxXeX5Xv.:X(.b a.8XeX. :XtX(.c.c.L.).g._.a.eXVXBX0X1X1X>XwX6X>Xv.Y w ^ =.%.-.s W R 3.) b.n.w - 7 , . { CXCXzXiX[.pXiXkXpX9XiXkXlXiXzX4.1 . LXCXvXCXCXCXCXCXCXvXvXvXvXvXvXbXbX8XzXvXbXvXvX`.-.Q = ;XgXgXxXgXcXBXxXBXBXVXgXgXcXcXgXgXdXgXdXgXhXsXhXdXBXd.v GXvXlXbXzX8XdX5X[.9X_.cXCXI.f.NXfXwXVXVX. o ;.V.V.N.|.[.O u k.&XJ t &XNXMXqX1X*XL.5.3XNX3X).pXP.).dXdX).q ^ m %.5X7X3X7X,XJ.$XF.J.F.L.0X1X1X*X%XJ.@X$XJ.L.J.K.1Xu = P.G.s.G.l.j.q.j.6.9.` e.3.e.` ` 4.} q 9 o - . o.'.;.;.;.;.=.W u -       ",
"  2.$ ;X:XtX/./.g.y.v.v.v , ^ =.%.h.N.h.h.h.B./.h.h.`.`.N.%.>.N.B./.h.=.v , s w < x X._./.H.).).g.f.H.H.H.c.y.r.*.. r.v.s u { Y + s v a.-.-.d.:Xv.-.9 ~ 2X3X,XwXwX;XwX>X .. . b a o b a.. o r.MXb.>X3 . . . , . v CX8XVXvXCXVXnXCXzX9X9X].[.'.5X2X. . . 8X9X8X5XuXbXbXbX8X9X5X5X5X5X`._.(.(.`.h.H.).v.*.8 , u wXeXtX2X>X>X>X>Xv.n.b.n.k.d.r.f.f.d.i.k.k.d.d.k.u.) 9 VX5Xv.eXgXhX0X0X3X<XH.zXDXsXL.0X0X0XrXAXo.w N.V.N.V.V.N.0 ~ k.j._ 5.0XgXc.g.;X<X<X<X7X3XH.dXzX7X].iXpX:.m M M {.,.S.:.g.h.f.f.s.l.l.%X1X%X$X$XI.I.I.G.G.s.#.u.K.J : Q ! ! K ' ) ' g t / ` ` K ' ` u.t.5 & X % . W B.N.^ X.-.o.o.E s -       ",
"  J U VXZXGXCXbXBXxX:X6Xb - a.&.-.h.-.^ X.^ X.W -.&.&.%.0 b b b b &.h.^ { + . b ;.N.`.a.; , 0 b a.a.g.a.a.v././.:Xa.y.| ~ g.W v.&.%.h.>.h./.v.p.=.w o 7 w W #.f.v # W { o.*.-.(.CXCXCXvXCXZX* ] ZXZXCXCXBXBXcXxXzX6X_.CXGXZXGXGXGXxX(.BXCX(.tXBXn.r.xXGXGXGXZXCXCXuXB.6X5XzXdX:XxXzXBXAXcXVXbX`.dX8Xo.W u 8 - . I 2XrXrXgXgXgXgXgXfXwX3XBXAX7X<X<X3X:X2X:X<X;Xv.O o W | y.g.i.n.b.l.c.b.y.v.L.sX2X;X).;X1XwXrXa.o.O.O.O.n 0 O | g y ~ b ^ %.w u ; w Y *.{ b w b o.w 0 n a f A V V C R.Z.Z.C k k j x g U U ! U [ ! g v Q $.! 9 U p p 9 7 U R v v Y Q Q c.b.k.#Xb.[ H.@.f.;Xi.. X X p.5X`././.X.X.o.] ..p 7       ",
"  t p :X6XCXCXkX8X5X5X). .9 s w w w 0 ^ a ^ b b + > , h g b #.&.-.5X_.<X(.s O &.`.lXkXyXg.. O CXGXHXCXmXCXDXDXnXCXCXnXnX7X7XxX(.Y =.bX&.&.n w , , 0 7 .  .. Y ~ vX_.bXCXHXCXHXHXGXGXDXCXLXGX= ^ GXCXnXbXbXvXiXvXxX5XiX8XbX_._.7X5X9XdXbXcXbXcXAX. 2XPXLXLXLXGXGXHXCXvXHXDXbXnXGXGXCXVXGXGXGXGXGXGXZXCXeX& s * K.ZXKXZXDXDXDXLXDXAXVXsXgXCXBXhXsXhXhXhXAXVXBXeXcX9 o.;Xc.5XbXiX<X2Xc.2X<XiXzXkXCXCXCXnXCXVXvXvXVXVXcX6XB.Y . v.GX9XD.D.:.D.].[.pX5X8X_./.[.[.^.B.. O x f < Z Q.Z.C l z A.Z.R.R.R.Z.R.Z.Z.B M :.c.5.f.(.gXBXbXdXzX6X(.o : 7X;XH.;X,X,X;X%X1X,Xl.K.;XK.q { :XrXd.X * :Xp.^ ^.^.N.o.o.a.r.Y 9       ",
"  e : -.=./.5Xh.a./.5X(.y., , u X * w ;.%.M ; W @.@.@.g.H.L.L.K.K.c.K.t.t.u * 6XvXzXkX9XeXY o { VXkXzXiX8X/.<X<X<X<X<X5X<X<X3Xr.g { v ; . . , , o o O u o.uXuXvXCXkXzXlX8XkXzXbXzXbXxXVXCX).+ 8XmXbXpXkXbX8X9XiXiX5X9XbXdXvXxXxX8XdX7X8XzXzXiXZXq p GXdX8XDXcX6XwXcXxXdX7X<XdXzXcXxXCX6XzX8XzX7XcXdXdXdXg y * rXDXDXDXZXCXVXhX$X%X0XqXqX%XF.aXaX4X1XaXMX0X0XwXxX8 BX6X/.a./.iX5X*.g.bXvXnXmXmXmXnXnXbXbXzXkXbXvXvXvXxXcXtX* r.VXG.*XjX,X).^.^.[.9XnXzX].].D.D.9Xh.w 0 f ; M A V V T.!.R.A.U.E.E.R.E.~.!.A j ! Q l.K.L.gX7X7X:Xv._._.& ] f.[ d.k.b.l.l.c.b.c.J.l.%Xl.U c.H.;Xc.% X W ~ &.;.X.&.&.*.n.o.W 0       ",
"  5 * b =.h.h.h.`.`.9Xh.v.+ v W O X 9 x ;.< h.(.(.d.l.J.J.J.J.J.%X%X%X;X;X* * GXdX7X7X9X8XxX).).8XiX_.5X9X5X7X6X5X5X<X<XdX7X3XgXU , * + * 0 o b m _.v.zXbXbXkXzXbXkXzXzXkXkXkXkX8XkXxXcXzX~ o LXmXbXkXbXzXvXbX8X8X8XzXzX8X8XbXcX5X8XdXcXnXzX7XdXy [ CXcXVXcXBXVXAXBXgXdXcXcXcXdXcXnXVXVXvXcXcXvXcXdX8XzX] 1 5 BXAXVXNX4X%Xl.3.` hXVXqXqX1XfXfXaXjX1XhXhX*XqXrXwXo 2XzXnX_.{ a.g.v./.5XkX8XzXbXbXzXzXkX8X8X8XzXbXuX8XiXbXeXp [ LX$X4XaXI.].[.{.{.{.].D.].D.^ ).`.iX`., < 0 x B S.V V !.~.!.E.U.E.E.W.R.T.Z.Z.m b f.K.g.2X2X6X:X6X/.B., rX;X#Xb.u.l.b.b.b.l.l.J.J.l.l.s.%Xl.d.c.X X ~ p.-.a.^ -.*.*.o.v W 0       ",
"  t q [ ^ >.h.h.h.>.D.:.a.a , + o + O , v y.y.i.H.d.l.l.J.J.J.J.%X%X%X%X2XR , ZX2X7X7X5X7X_.7X5X7X7X5X<X6X6X<X5X<X<X<X<X7X<X2XcXv v &.; o . h.[.`.mXzXuX9X9X8XkXzXuXkXkXiX8X8XbXkXzXzXxXvX<X, GXCXnXkXmXkXkXvXiXiXnXvXzXvXcXzXiX7X9XdXvXiX9XiXdX9 r.VXVXcXxXcXcXcXVXxXxXcXcXcXBXVXVXVXBXcXxXxXcXxXdXeXzX{ 7 U LXDX=X-X$XF.aXaXVXcXcX3XP.P.hXhXsXsXhXhXhXfXfX1X[ I 2X5X9X5Xv.v.v.v./.`.^.'.`._.5X8X8X8X8XeXeXeXeX8XuXzXuX8XY [ LXVX4XP.P.D.D.{.{.D.^.].L.G.f.I.].%.{.b o ; N Q.Q.Z.Z.Z.R.!.!.E.E.E.Z.R.!.A B j b g.(.;X2XwXgX(.v.(.v.+ ;Xc.K.%Xb.b.k.k.l.k.b.b.l.j.j.@Xz.t.c.L.. o ] y.*.*.{ ~ o.{ o.W Y 0       ",
"  t b.H.>.^ h./.:.:././.;.=.0 , . O O y L.J.k.J.K.J.l.l.J.J.J.J.J.%X%X%X;Xd.u CX<X<X<X;X_._._.<X5X5X5X5XdX7X<X<X<X;X<X7X;X<X2XsXv * 0 0 + '.yXlXzXzXyX8XzX8XzXkXbXkX8X8X8XzXdXzX8X8XzXxXBXv.v CXlXkXbXbXiXkXmXbX8XbXvXzXzXnX8X9X5X_.8XzXzX5X7XgXi 1XDXVXdXVXVXcXcXVXCXVXvXcXcXvXVXCXCXVXcXxXbXvXvXvXzXzXd.& J KXrX` 1XfXl.9 hXLXDXDXhXI.,XAXAXAXK.] g.BXfXfXfXk.gXdX^.`.5X:X(.:Xy.v./._./._._.h.6X_.:X5X6X6X6X5X8XiXkX8XcXv.7 ZXH.I.).H.].].].D.D.].)./.`.D.).].D.,.w b + < c l Z.T.Q.Z.Q.Q.!.!.R.z R.Z.j < $.=.2XL.:X2X2X>XK.n.b.d.J K.b.c.b.J.b.c.k.d.u.d.b.J.l.j.%X1Xc.d.c.[ X p a.a.h.a.X.X.X.o.W ] 8       ",
"  t [ )./.h.^ ^ b a ;.h.a.a.0 o * ~ v { b.5.! k.K.c.l.l.b.l.l.J.J.%X#Xl.J.[ u VX5X).<X;X<X).<X6X<X).).<X2X).<X<X).K.;X:X:X<X2XwXq * v ^ a mX[.yXyXuXuX8XzX8XzXkXzXkXiX8X8XzXxXxXzXbXzXcXBX:Xb CXzX8XzX8X8XkXvX8X8XvXbXiXbXzX8X8X8X8X8XiXiXdXeXdXp b.AX<XcXAXBXCXVXZXCXVXVXvXcXxXVXvXvXVXVXcXcXBXbXvXvXBX>X5 2XDXqXQ ! +.` G.1XhXDXDXhXhXAXAXZXBX7 - . | BXfXMX%X;XVX/.^._.).<X<X-.=.H.`._._._.g./.xX8X:X:X:X:X:X<X5X5X8XxXh.* BX:X5X5X7XcX<X).H.D.D.D.D.D.S.S.S.m N ; W w ~ j c l l V A Z A V V V l c k < h H.c.n.n.v.c.n.#X>XK.c.p U 2XJ.c.K.b.d.d.k.d.i.u.k.#XK.l.c.K.c.f.t.d.$ . *.-.a.;.&.&.=.-.W W 9       ",
"  L Q { Y s u w w v a w w u . i n.v.b.k.c.d.s.d.J.J.k.l.%XJ.l.l.l.l.J.l.b.t.Y BX5X<X;X;X;X,X;X<X).).;X<XK.;X).;X).).;X).).<X;X;X9 * u . ; lXlX[.yXyXzXzX8X9X8XkXkX8XzXbXdX7XdXiXzXvXkXbXvXxXw CX8XkXiXiXiX8XzXbXvXbXvXzXvXzX8X8XiXvXzX/.5X7X).wX| t.BXBXdXCXZX2Xv.2XDXAXcXvXVXVXVXvXcXVXVXBXcXdXdXxX8XcXv.& LXDXgXBXsX*X4XDXaXJ 8.0XMXwXwXL.wX- . 8 w . wXMXVXsX2X2Xh.h.:XeX(.v./.H.v.wXeX:X:X*.v.xX_.6X6X5X5X5X6X5X5X6X7Xy., VXBXeXwXBX_.I.D.`.H.I.G.D.D.^.{.S.+ O b /.d.eXY %.k A j j k j k j < > > m b c.c.@.d.;X(.K.b.c.).K.c., g ;Xd.c.J.c.l.c.k.k.k.d.s.k.d.u.k.l.l.d.d.d.% & *.^ W o.o.o.o.{ o.v %       ",
"  L i s b ^ X.o.o.-.-.~ * . v c.c.u.k.z.l.k.k.l.J.J.#Xs.u.J.J.#XJ.J.J.J.#Xt.u BX7XwX;X;X;X,X1X;XL.;X;XL.;X<X).).).:X:X:X).;X<X;X: : O O w lXyX[.yX8X8X8X8X8X9X8XzXbX9XzXxXdX8XdXiX8XzX8XeXy.w GX8X8XkXCXvXuX8XvXvXzXVXvXbXbX5X8XzX8XiXH.].).).gXi.I CXCXZXAX[ % . . i.ZXcXcXvXvXVXvXvXVXVXcXcXdXzXiXdXBXtX0 GXZXBXVXCXcXCXZXBXMXMXAXMXwXwXgX2XK.4.U dXH.H.l.fXi.t p wXgX7XdXxXxXxXdXdXxXeXVXzX5XzX8XzXzX8X8X7X6X5X5X<X2X2Xt., VXu.@XqX1XZXCXBXwXL.4XL.)./.lX^.,.`.5X].P.qXMXI w h.^.^ q #.h.$.^ m j h $.g.n.d.4.n.n.n.c.b.;XL.d.y.* u b.c.k.s.k.k.c.c.c.b.k.u.u.5.5.u.s.k.k.g.y.# - + , , - - 8 9 y r & &       ",
"  7.$ & + O o . . . . O - - ;X%Xz.j.l.J.b.z.z.z.J.J.l.l.b.@XJ.J.J.J.#XJ.K.@.[ eX<X<X<X;X,X,X;X;X;XK.).).<XL.;X;X).).).<X;XH.<Xv.+ . + o N.lX[.yXkXyX8X5X8X8X8X8X8X8X8X8XkXkX8X8X8X8XeX7XwXr.w GXbX8XbXCXvX8X5XzXnXbXbXbXbXbX8X8X6X<X_.<X5X&._.xXi.g CXBXrX* . 9 9 9 . ZXVXVXBXvXVXcXBXVXcXcXVXVXxXzXxXBX*.0 LXGXBXVXcXhXBXgXgXMXfXhXhXsXsX4XsXBXgX;XhXVXhX%X1XJ @ y LXBX:X6X6X6X<X6X6XwX3X<XdXkX5X5XzXzXeX6X7X7X5X7X8X7XwXr.7 rX&X7.m.k.OX>Xx.OX=XqXqX%Xf.:.H.dXDXsXH.f.0XJ.: o v H.g.^ Q g.`.H.[ ! ] @.i.n.#Xb.n.k.b.k.d.;X2Xc.i.& , K.c.s.k.d.l.b.l.l.k.u.j.k.6.6.6.k.z.u.d.Y * - 0 v p y u - 3 * 9 7         ",
"  0.$ X R | t.i.d.b.b...# % n.c.z.x.j.z.J.b.z.z.l.k.j.b.z.6.l.J.G.J.J.b.b.t.*.5X:X_.).).<X).L.).,X).).<XK.).).).).).K.).L.L.).[ . Y - O yX[.[.yXyXyXzXzXzXzXbXuX9X9X8X9X9X8X8X5X8X7X8XeX7X7Xg VXzX8XbXkX8X8X8XzXvXbXzXzXzXxXzX8X8X5X).7XpXpXzXVXc.p ZXBXwX| . . . . i CXVXBXvXcXBXcXcXBXcXvXcXnXdXxXdXBXr.p PXGXVXhXgXgXgXfXfXgXsXhXBXVXhX5.0XsXfX1X,XfX*X%XfX0Xi 5 BXVX2XdX<X2X7X7X2X:X;Xb.(.8X5X5X5X6X6X<X5X7X7X8X8X9XiX*.w eX#X>X0X0XAXNXOX<._ D F t : ! 3X3XgXk.c.;X#Xi.I * . Q r.~ = U [ Q [ [ 4.[ i.d.d.K.#Xc.b.K.c.d.r.i.i.p o :Xc.d.d.k.l.s.k.k.k.j.j.k.3.` 6.j.j.p.) % # & I i v u 8 i s 9 9 7         ",
"  7.o 9 eXvXCXCXCXZXZXt.X % n.b.@Xx.j.k.b.#X;Xb.c.K.;X<XL.f.d.J.l.%X$XJ.#XK.0 xX<X`.).;X).).).L.H.).;X;XK.).;X;X).H.K.K.K.H.c.9 Y (.- . [.[.yXlXlXuX8XzXbXzXzXzXuXuX8XuXuXzX8X8XdXiXdX7XcXcX: CX8XkXlX9XbXiXzXvX8XzXzXzX9XiX8XzXzX_.dXzX7XnXiX7XK.8 BX7XdXwXgXAXE t.ZXVXxXcXBXcXcXcXcXVXcXcXdXcXxXxXdXVX@.: VXZXVXcXsXsXgXhXgXhXsXVXVXMXAXfX1XVXaX$XqX0X$X1XMXAXgX* . BX;XL.<X).).H.v.;X<X<XH.y.h.H.)./.H.<X<X:X,X7XkXyX8X^ , ZXwX%X@X&X>X#Xm.k.u.u.i g % 9 ;X,XK.%XK.v.i.:Xp.% * o r.y.i.k.r.v r.@.{ c.#Xi.] b.>X>Xb.c.[ 5.t.f.d.R % i.d.d.k.c.c.k.d.j.j.u.6.7.6.' J T T $ @ X . - u v v E | | y 9 - 3         ",
"  w.@ q `.zX9X9X8X8XeX@.% : J.5.` J.J.g.v.).<XH.c.*.v.g.y.g.(.;XL.J.L.@.J.[ & 6X6X).).<X).).<X).H.2X<X:X).).H.L.c.f.K.@.U t.f.(.(.v 0 o.N.{.[.[.kXzXkXvXvXxXuXzXuXeXuXvXBXxXbXvXbXzXzX8XhXgX: ZXdXdXbXnXnXnXCXvX8XbXzXzXzXvXbXzXiXdXzXcXnXnXcXxXK.& . h.^ kXcXGXcXcXcXvXcXBXcXcXVXVXCXVXVXvXVXvXxXvXcXVX] X . GXZXVXVXcXBXMXgXhXMXAXAXVXNXVXNX+.G.=X=X=X1X1XgX6X7Xy.% @.:Xc.H.v.:XxXZXVXgXgXeX<X).xXgXhXgXL.;X1X*XP.g.v.B.v p qXF.+X0.7.2.7.7.j.} 4.i.d.u ; Y 4Xf.@.f.G.f.c.c.* X X 8 ] 4.4.@.q ] @.r.;X;Xn.n.n.v.n.b.k.5.b.L.H.d.t.$ 5 v.n.i.b.b.b.n.k.5.6.q.j.7.1.} } } ) T % # 9 u p 8 0 9 . . . . y         ",
"  0.o 8 -.&.%.`.`._.).r.$ J H.h.m ^ D.D.,.%.%.%.w . . . . , g.(.{ =.H.v.* + . . u Y :.h.D.h.h.y.*.r.r.[ u 0 , u 0 0 - - { /.g.y.Y # , a . X.m h.N.B.h.h.v.v./.)._.v./.`./._.5X_._._.:Xv.v.U 8 AX2X).K._.9X8X5X/._.h.h.h.h.v.v././.H.h.h.H.y.v.*.y & , [ 5XzXcXvX7Xh.vXiX8X8X6X6X8X8X8X7X5X6X6X6X5X6X7X:XR * . tX:X:X;XgXxXxXBXgXgXsXfXsXgXVXsXH.! J.fX0XF.fXAXMXrXk.p ! Y n.g.*.~ [ g.t.*.i.:X2X4.rX0XMX1Xu.u.k.z.J.) . p 7 0 4.` 2.P 2.0.4.4.6.<.u.OX+.[ q w G.L.f.#.9.h.! g X * u = 7 g Q Q g Q R Q R R ) R } T D ( ( ) 1.| ) ..} 7 7 R T J T ..( E D t J p p * 8 } k.4.| | ] * # o . . 8 E E Y E E p.        ",
"  e.. g K.H.:.:.^./.<Xd.X I /.^.[.S.B S.S.Z.V c c %.^ & X . . . . w v v * o w -.s - y.D.h.h._._.a.h.kX8X/./.>.v.=.a.(.w =.s b W 0 O o o.B.a.vXCXVXCXCXIXZXZXvX7X5XVXZXCXCXmX'.8XBXZXHXGXGX* . (.8XbXuX6X6XuXzXeXg.:XuXxX8X8X_._.8XeXxXzXvXvX6X(.| * { v.v | *.~ . . y (.ZXBXeX6XzXcXvXdX:X:X(.:X6X6X:Xa.W O v.VX8X:XxXcXxXuX6XeXdXcXdXcX8X8XZXCX5X<XDXbXdXgX>Xb.T 9 . ] cXCXZXZXBXcXxXZXZXCXCXVX/.B.xXzX9X9X5X_._.7X:X_.g.* : l.J.c.c.t.@.r.} <._ <.4.1.! ! $.#.#.P.wXMXD.m -.%.m X.n , u ~ 9 - u Y Y Y ~ E E E p u i p u y . 3 9 7 3 * X 7 p E r 9 9 3 p % . . o % } k.g.g.K.g.X o . i.p.y.v.h.v.B.g.(.i       ",
"  e.o { dX].{.[.[.{.].t.. % f.D.|.S.,.B k k j S.B %.w o * W o.o.s . . . O { N.5Xv.;X6XH.%.%.#.H._.).<XnXbXmXkXzX_.5XGXH.g.dX8X6X:X0 W LXGX'.8XvXbXCXCXCXHXHXnXiX9XbXZXGXDXCXiXdXcXdXVXwXBX% r.cXCXZXLXLXGXCXAXCX6XCXZXLXZXDXCXcXVXgXcXCXCXGXZXCXrXo BXZXeX(.v.c.v.c.g.GXDXDXZXCXZXDXZXZXZXCXZXGXGXGXCXGXB.o wXLXCXCXxXcXcXVXVXVXVXCXCXcXvXHXa.zXbX[.yXlXHXnXW 8 + + eXLXGXDXCXCXCXZXCXDXZXcXsXdX7X_.9XzXzX_.9XyXzXvXlXvXyX&.H.cX6XH._._._.6X6XwX1X1X3.J.@.^ D.D.b g =.H.M m S.B m w a d a ; . , ^ ;.-.g.y.*.~ | Y o.y.*.{ y.(._.h.*.v * , ~ ~ *.r.| | o. .8 & & @ 9 } i.*.{ ~ v.* X # (.y.-.-.=.a.a.*.a.Y       ",
"  _ $ { dXdX^.h.>.a.).c.* ;XxX>.Q.l V S.k c %.m m + . , a.`.^.N.'.;.O o O W N.N.v.] I d._.`.y.c.b.K.f.d.H.).<X).c.H.H.,X4XwXH.6XBXu ] LXCX'.lX8XbXpXbXiXkXnX[.kXnX[.[.iX7XdXcXhXhXsX3X0X0X9 LXDX<X2XgXsXaX*X$X*X1XaX1X4X4XaX4XaX3XaX4XjX,XsXL.AXKX5 ZXDXCXZXDXDXDXDXGXVXBXBXhXgXsX0X3XwXsXsXsXhXsXsXsXgX:X+ . ;X3X3X<X).;X<X2X7X2X3X4XwXgXdXu /.'.'.'.^.^.kXh.9 r 1 PXDXBXBXBXxXBXVXgXwX3XwXwXwXeXxX6XeXwX6X6X8X9X'.'.yXyX>.'.GXvXa.-.o.N.8X<X7X:Xg.d.f.f.:.h.g Q ! ^ m j m x a , ; O ; < ; x :.%.%.D.D.>.%.%.%.M m w x ^ >.;.-.;.X.X.n w -.-.-.{ W b v 9 p 9 9 * 9 4.@.b b _.tX9 % * v.&.-.=.=.-.-.&.&.R &     ",
"  L 1 ~ _.]._._.h.:X5X@.% tX8Xx S.Q.c > B A >.h.Y - X &.N.V.V.,.^.[.w o o b h.>.v.{ % (.eX(.H.;XH.L.K.K.L.L.,X;X;X;Xc.;XJ.,X2X7XAXu v PXLX5XdXbXxXzXcXdXdX7XiXiXiXzX[.zXcX3XsX3XfXsX<XwXAXt fXMX4XNX4XhX0XaXfXhXhXhX4XjXhXjXjXhXaXsXhXVX,XhXAXhXAX$ DXaXsXBXhXhXsXwXfXhXMXhXfXfXMXfXfXfXfXsXhXsXjXjXsXsXBX: GXdXcX2X6XeXdX7XwXwX3X7XdXgXBXH.# y.v.9XyXyX9X/.-.w 8 % rXBXZXBXBXBXMXrXwXwXwXrXrXwXwXwXwXwXwXwXwX6X8XeXxXzXxXv.*.zXxX6X6Xv.>X6Xv.v.6Xv.{ *.b %.V.,.N A V.A N N X.n - - * * > %.,.:.$.-.:.-.>.%.%.%.^ m ^ ;.%.;.m x >.;.-.%.w W -.=.*.{ ~ ~ { H E E e D 1.r.a.h.`._.p % + B.a.a.=.-.&.-.o.&.W 7     ",
"  6 7 I /.5X/._.5X5X(.p X { 8X%.,.S.+ x M M %.[.-.; x `.N.^.^.{.|.lX0 O o 9Xh.h._.v.* o.g.5X(.v.g.J.c.c.J.K.K.K.L.L.).K.L.;X:X6XCXu u PXGX(./.5X5XdXhX3X3X3X3XdX<XxXvX6X3X1XfXhXfXfXhXsXMXt <XgXhX%XhX4XaXhXhXjXaXhXhXNXjXjXaXjXhXjXhXjXNXsXBXfXAX5 LXhXMXMXhXNXfXfXfXfXfX0XfXfXhXfXfXfXsXaXfXsXfXfXfXfX#XX ).VXxXdX<X2X7X<X7X7XdX<X7X5XzX6Xo , /.`.^.N.'.'.h. .% , ! KXVXgXgXgXrXrXwX0XwXwXwXwXrXrXrXrXwXwXwX3XwXxXeXBXBX~ Q rX4.#XSXSXE ..2Xv.d.(.s.f.:.m m N f f V.,.m m x # ; w c k k c M h ^ h.h././.%.^ &.%.X.X.-.>.^ %.%.M ^ -.a.+ v -.| *.g.*.| y.p. .] r E Y ~ H.:X_._.g X - _.a.=.-.&.-.-.=.*.Y 7     ",
"  6 $ Y g._.[.[.'._.(.[ X * *.^ < m x ;.n b s b - * 0 -.;.;.;.X.;.^ . . * 5Xa.B./.B.* v.6X6XH.H.b.c.d.l.K.K.K.K.;X;X).).H.K.7X8XCXu 0 PXZX/.`.5XxXdX7X7XsXhX6XsX7X3XcXhXsXfXaXfXaXhXfX0XqX5 b.AX0X1X1XaXjXjXaX3XaXhXhXaXhXaXhXsXjXjXjXNXVXhX,X%X>X5 ZXVXhXMXhXhXhXfXfXfXfXfXfXhXMXfXfXfXhXsXhXhXfXhXfXMXwX: AXdXcXeX7XdXdXdXdXdXdXxXdXdXcXCX% * u g.;.;.=.*.a.p.0 9 7 LXBXwXwXrXrXwXwXwXwXwXwXwXrXrXrXrXrX0XwXrXgXrXgXxXVXy.Q ZX~ >XAXBXo.8 Y v.v.(.2X7X].{.|.!.Q.B x %.m ; w A Q.Y.R.R.Z.z l k V B S.^.m %.%.^ %.m >.^.-.;.n ^ ^ ^ a.X.o w y.*.{ *.~ *.*.o.~ u u I v g.H.5XB._.~ o # v.*.-.=.&.=.=.*.a.W &     ",
"  e.o [ v.nXlX[.[.9X5XeX* % o q ^ >.`.h.>.;.X.=.u + . . o . . . . . 0 s , -.a.h.v.h.*.v.<X6XH.H.K.c.@.t.K.K.K.;X;X).;X2Xc.J.6X:XBXv , LXCX5X).8XcXcX7XdX8XxX_.zXdXgXsXsXMXMXaX0X0X0XaXrXqXe s.DXNXNXjXjXaX4X0XhXhXsXsX4XL.4XVXhXjXjXsXjXNXNXd.wXrX$ AXhXfXfXhXhXMXhXBXhXhXfXsXfXsXhXfXhXhXMXhXfXsXhXfXMX2X8 CXcXdXxXdXdXdXdXdXdXgXdXcXdXcXBX. * , 9 W ~ { ~ *.p.u | 8 gX0XrXgXwXrXrXrXrXwXwXwXgXfXfXrXrXwXwXrXrXgXxXbXvXCX&.-.GXvXzXh.^ a.g.E r.v.i.(.^.,.S.R.Z.Q.{.h.=., > Q.!.E.W.W.R.A.A.U.W.E.E.U.Z.k w n w ^ %.>.>.m W ^ o.W ^ ^ , * Y { { Y s v ~ b ^ { ] R Y Y *.*.a.-.h.~ o X v.-.-.-.&.-.^ a.o.W 9     ",
"  2.o H.:XbX9X[.[.8XrXrX8 * i.*.&.&.B.h.h.>.a._.*.% o + . , 0 x ^ N.^.h.+ a `.h.h.h.g.v.H.H.v.H.c.b.t.L.;XK.2X;X<X:X<X<XH.H.).<XBXY 9 LXCX:Xa.h.:XCX7X).8XzX5Xy.7XcXgXgXMXMXaXqX0XqXqX0XqXK u.ZXVXVXhX0XfXhXMXfXaX4XaXjXjXfXjXaXaXaXaXaXaXhXsXBXrXe LXhXMXfXhXNXfX0XfXfXMXfXsXfXfXhXfXfXgXgXgXBXBXBXBXVX6X, xXvXvXvXvXvXvXcXcXcXcXcXdXdXdXeXg.+ & * 7 g i i 9 w , - % . 8 t.rXMXgXrXfXrXrXrXgXMXMXgXrXrXrXrXrXgXrXBXxXzXvX%.h.CX6X(.6Xn.wXtX..u s  .&.D.,.Q.}.Q.S.,.^ b < c Y.R.A.A.U.U.W.W.A.U.W.W.R.R.Z k k > < x f < < n %.%.n a , - w { *.{ p.| ^ *.| | | ] R ~ Y { y.g.g.g.] o * :Xo.o.^ W Y ~ o.W s 7     ",
"  F $ ! ;Xh.D.^.'._./.g.9 5 @.*.n -.-.>.h.N.h.B.~ % o o Y -.a.;.;.>.,.N.b , _.B.=.h.g.(.(.v.c.v.g.c.c.<X;Xv.H.H.:X<X).].h.I.pXbXCX~ 9 LXCX8X-.a.gXCX:Xv.9XbXnXzX<X7X,X3XhX0X1X4X4XqX0X0XqXz.) ZXMXqX4XaXNXaXfXaXaXjXjXhXhXhXaXfXjXaXaXhXaXsXsX3XrX9 AXBXfXfXMXfXrXfX0XfXfXMXgXfXgXgXfXfXgXgXwXgXBXgXMXBXr.0 LXvXvXbXbXzXcXcXcXxXdXdXcXcXxXxXGX: X % # I ~ i - o . y  .E u . 9 2XAXrXrX0XgXrXgXgXrXrXrXrXrXrXrXrXwXwXgXdX8Xw w dX8Xv.v.>Xv.I R R ] v.(.h.D.|.|.Z c c %.D.B |.!.R.U.z W.~.~.~.U.A.W.E.R.A.l C Z.C C Y.Y.z S ,.Z ,.;.^ + , o.*.| y.y.a.{ y.| ~ *.~ | o.~ ~ c.h.h.v.r.o X { ~ ~ W ~ ~ ~ ^ W , 9     ",
"  e 5 * : @.D.D.:.:.D.<Xy * q #.^ %.-.>.>.N.'.`.W # X s Y 0 0 w < a n a ^ , /./.h.a.v.v.H.H.H.H.c.g.d.(.;Xv.: y.).<XH.H.).].bX9XcXY 7 LXCXuX5X_.eX6X).(._.dXcXgX<X3X,X0XsX4X1X0XaXaXaXwXfXl.t KXqX*XaXsXaXfXMXfXhXNXhX4X4X3X0XaX0XjXaXsX3XhX3XwXBX$ AXgX1XhXhXwXwXfXwXMXVXBXfXsXsXfXBXhXfXfXwXsXgXgXgXAX4.g PXzXdXcXbXzXcXxXxXxXdXcXxXcXcXxXZX8 # & * + . . 9 ~ uXCXCXuXrXE X : qXAXrXrXrXgXrXrXrXrXrXgX0XrXrXrXwXgXgXeXvX0 X.bXeX6XtXtXv.H.v.=.=.y.;X~ ^ >.c c B Z ^.{.B S.Z.z E.!.R.U.A.W.~.~.R.R.R.Z.T.A.C z z C A.T.C k M w , o + w ~ W v v | y.*.o.| ~ ~ ~ *.y.{ 9 v.(./.v.d.X o o.{ o.^ ^ ^ ^ ^ a + Y     ",
"  6 5 K.f.q #.:.-.H.5XwXg 1 @.g ^ ;.h.h.^.`.[.kXu = o 7 7 s s 9 8 9 # . O + ~ `.B.B.(.(.H.;XK.H.H.(.d.c.:Xy.+ i :Xy.#.c.,X7X7X6XBXR 9 LXVXvX5XzX8X7X7XdXcXcXdX<X3XwXwXgXfX1X0XfXsXfXfXrX0XJ.9 LX2X0XsXsXaXfX1XaXfXaXjXjXaX0XaXjXjXjX4XNXjXjXhXwXAX5 LXgXwXfXfXfXhXhXMXVXBXsXsXMXhXhXMXMXfXfXfXsXhXhXMXDXJ 5 wXdXxXcXcXcXcXcXcXcXcXcXdXxXcXVX(.7 7 7 * * + g.8X8XzX8X6X(.tX6X8 % . ZXqXrXrXMXrXgXrXrXrXrXMXrXwXgXBXwX;X2X_.- { vX6XxXxXzXeXzXiX5X8X6X:X(.h./.^.^.,.,.,.%.M = l Z.U.R.T.U.R.W.R.R.z C z z l l z z C z C Z.V x . o X 3 8 X 9 0 y 8 0 0 u s u v s u u u s ~ v.(.v.v.b.o o g.=.-.-.%.-.o.o.;.9 p.    ",
"  2 Q <X).H.D.%.^.h.H./.I 9 R 7 , ^ B.h.%.;.>.=.= % # 8 o.-.y.-.o.o.b u - - 0 /.B.=.:X_.;X).;XK.K.).K.H.c.~ O . ~ @.c.2XK.;X;XK.1Xi i GXCXvX5XzX8X8X7XdXxXdX<X<X6XgXeX2XfXfXsXsX3XwXsXfXMXi.T PX0XhXhXjXhXNXNXNXhX,XjXNXhXhXjXhXjX3XhXhXVXVX,Xt.g.& c.AXwXhXsXsXMXVXhXhXhXsXsXhXMXfXfXfXsXhXfX0XNXhXMXAX$ * :X7XcXzXdXxXcXcXcXnXcXvXcXBXvX:X. . . . o * 0 zXxXgX6X8XzX`.tX6X:X- X y.VXgXBXMXrXrXrXrX0XrXgXrX0X;XgX1Xr.~ , - o #.{ -.-.:.h.h./.h.v.(.8X8XuX8X`.^.h.>.:.>.%.j Z.!.R.U.U.U.W.R.A.z U.Z.l k z z C C l U.R.l c w ; , Y ^ Y v ~ { ~ &.{ { ~ ~ ~ { Y s 0 s 8 n.g.c./.n.>X. o B.&.=.=.=.=.o.Y (.Y d.    ",
"  $ [ <X`.9X[.^.{.>.%./.p 3 , + o . & 9 w w , * # # * y w ; + < w b x ^ E - - s n , v._.(._.).(.(.(.H.H.v.y.i U Y :XwX;X2X:X:Xr.Q 5 y 2X:XB.n.n.v.v.b.;X2X2XeXtXH.gXZXVXgXwX2X1X;X1XqX#X1X$ ) KX0X,XG.l.J.L.J.J.,X,X<Xl.t.s.c.L.K.H.,XK.H.d.w 0 . * . BXL.K.<X7X:X<X:XH.).4X4X3X:X;X2X7XdXgXgXgXgXsXhXMXi 7 f.=.y.a.#.{ &.{ #.#.&.&.f.y.{ 0 v.tXeXtX3 . . . d.L.;XtXuX5XB.`.g.. 9 v 6X;X<X;X;X;XK.v.1XwX;XL.:XwX2X6X6X:X_.+ -.y.^ &.-.{ ^ ^ ^ ^ &.%.:.>.>.%.>.%.:.%.^ m %.B B !.!.R.C T.E.~.~.U.U.C l S V V V V C R.Y.V x x ^ v ~ { -.-.=.&.{ ~ { { { *.&.{ b W w 8 8 rXi.v.v.v.i.o @ >X*.&.~ Y i U i U u ]     ",
"  $ p ;XH.].].[._./.'.7Xp 9 p 6Xy.*.g.g.h.a.a.y.* % - s v v b h.-.&.^ ^ s # u g./.).).).(._._._.(./.(.:X:X:X:XwXgXeXdXxX7XeXBXBXwX. . (.;X:X:X<X:X:XwXwXwXwXxXxX:XwXBXVXgXwX3X2X3XgXBXgXrX~ . v g.`.bXCXVXcX`.:.:.[.nXbX8X5X5X5X6X(.a.O O o w W -.- % 9 -././._.zXcXdX6X`.h.-.v.B.y.*.-.&.&.{ o.-.a.g.rX{ 8 tXeX8X8XzXxXuXuXzXzX6XuXnXCXLXPXPXPXLXPXLXLXbX/., . W W X.X.n O ; 5XGXGX8X8XVXBXBXBXxXVXVXAXxXgXgXgXeX6X5X5XeX0 xXCXuXuX[.5X[.9X8XzX9X[.{.^.^.^.^.S.>.>.D.D.^.M . {.C Q.z S U.W.R.z C l Q.c < ; < k A c k < ; w W w , u u u b v W W ^ *.=.g.-.o.=.@.s - 7 2Xn.v.v.y.R X % E 7 + - o - y u w w 9     ",
"  1 * I U g U Q ~ ~ y.(.y 8 v :X*.g.v._.h.a.v.y.* % , w , b -.-.^ ^ b b 0 # W B.v.).c.f.g.g.g.g.g.c.v.v./._.H.v.H./._._.(.).7X(.:X~ 9 DXVXcXdXdXdX7XdXpX7X7X,X<X<X4X<X<X).<X7X<X7XsX4X<X7X).w dXzXiXHXHXHXmX`.[.H.h.H.8XiXiX5X7X5X<XzXw o n a W d - o 5XbXmXCXCXGXLXLXLXGXHXkXvXLXPXLXLXGXLXGX8XzXuXCXLXv s LXLXGXHXGXGXGXGXGXGXCXCXkXnXnXCXmXmXzXkXCXHXLXLXGXuX0 O =.=.< bXIXIXvXnXvXCXvXdXdX7X<XxX6X6XwX0X2X<X<X2X2X<X5Xs 9XzXyXyXyX9XyX9XuX8X/.:.^.[.{.^.,.,.%.%.:.:.:.= + Q.Z k V U.T.T.C C V S c < O + . , w < = : p E E y 4.d.*.*.=.o.o + b u b ^ &.-.d.*.u + *.;Xd.t.g.a.I X # . Y /.5X'.5XyXzXuXuXv     ",
"  e 5 I R Q @.*.p.r.w g.9 9 | g *.y.=.g.-.a.y.| * & 8 Y W b =.&.^ -.o.o.y 7 -.v./.v.c.c.c.v.v.g.f.g.c.H.`._.).<X(.(.H.H.b.c.K.g.K.d.g 8X<X)._.<X<XL.L.<X4X3X4X3XpX<X,X<X3X3X<X3X<X3X,X4X2X#.3XGXCXbX8XkXiX9X<X8XgX6X;XH.K.).H.).(.:X_.).y.u w 0 , , X :XdX7X].].D./.^.[.iXbXmXCXCXDXmXbXbXCXDXnXVX6Xh.VXs w xXdX7X7X<X`.5X9X9X7X5X_._.<X<X7X<X<X_.9XiXpX].5X7XGXVXW . . CXVX7X2XwXgXwXwXwX0X3X<XwXwX3X0X2X1X1X>X%X%XL.).).0 uXmXbXbXyXzXlXyXyX_.n > b %.M k M m x < + o . + B Q.z Z.l l l l A Q.k x ; y.| u & * y q : 8 i K t J K u.d.r.{ { ^ w + w v w - , , 0 . 9 xX7Xg.v.g.i.E o X O _.'.'.[.[.[.yX^.N.u     ",
"  6 & ~ d.H.<X,X,Xv.g.p.o * | p r.r.*.&.&.o.{ | 7 & I y.a.^ ;.h.h.;.o.o.9 8 o.(.v.H./.H.K.H.H.v.c.c.H.)./.H.H.(.(.v.(.(.;XK.).d.f.b.*.CXD._.<X).,X,X4X,X4X4X4X4X4X4X4X3X4X4X4X4X4X4X4X4XgX*.).VXcX7X7X8XvXZX7X6XdX5X<X).<X;X;X<X).H.g.7XwX;X0 . 9 , # ZXxX8X<X<X<X7X7X<X7XiXzXDXLXCX8X9X8XdXcXcXhXgX;X).v 0 gX6X4X3X7XwX7X7X7X7X7X7XwXsX7XwXpX6X<X5X].5X4X<XpX8XdXVXa g.CX6X2XeXwXwX0X0XrX0X0X2X1X1X1X1X1X1X1X1X1X,X%XL.<X, 5XmXzX5XuX8XyXuXuXB.g g + ^ M %.x bX=.y.@.Q p . > Z C C z k k < c c < ; Y i.r.( E D 9 1 y T } _ _ ' K J <.u.[ *.W s w ^ v.*.v o.o.&.- ~ xX8Xg.K.v.B.] @ @ o yX^.N.>.>.;.;.^ v 9     ",
"  e q 9 U R v Y Q *.v.v.% o y ) t i.r.*.| ^ *.p.7 & ] h.^ b -.h.h.=.v.B.8 0 w B./././.(.H.H.H.H.g.c.H.).).H.(.H.H.v.H.H.;X;X;Xd.d.fXQ VX].].].,X,X,X4X,X4X4X,X,X,X<X4X4X4X,X,X4X4X4X4X4XsXQ 7XcXdX5X7X8X8X_.).5XdX6X<X<X<X<XK.;X).<X`.).H.wX>Xu.. 8 o xX5X<X5X_.6X7X6X_.7XdX9X9XkXbXzX7X<XpXdXdXdXdX:XeXU 8 | (.sXhX3X7X7X7X7X7X6X7X6X7X7XsXdXpXpX9X].].4X4XdX5X7XBXu CXxXeXwXeX0X0XwXqXqXqXqXqX2XqXqX2X1X1X;X2X1X1X,X;X:X, _.bX8X_._.tX_.).v.f.v g . g , w zXDXcXcXBXwXeXVX*.+ M c C V k N , , 7 O ).f.*.i.| r. .I i p Q } +.` 3.K <.4.| v + s ^ u y.y.u Y *., * a.8Xc.d.y.g.g.| X * . B.>.;.%.X.X.^ W Y 8     ",
"  e q | r.{ f.#.*.H.c.y.* % 4.u.t.i.*.*.=.=.*.o.9 * W -.v b a.;.-.-.-.g.u 8 u _.5X:X).).).H.c.c.c.c.H.H.(.H.H.K.v.(.v.(.:X;X;XH.d.c.: (.H.].<X,X<X3X4X,X,X,X,X,X,X,X,X,X4X,X,X4X,X,X4X4X3X> -.VXbX9X5X9X7X5X_.<X<X<X5X6X7X<X;X;X(.;X`.).).,XqXMX@.. . BX5X`._._.<X5X9X].<X8XiXzXbXnXnXmXmXCXdXsX6XwX(.gXg , g.tXVXsX6X7XdX7X7X7X3X7X7XwXgXgXpX6X7XpX7X].<X6X7X<X:X:Xa vX8XwX7XeXwXwX0XqX2XqX1X2X1X0XqXqXqX2X2XqX;X;X:X2XdXv 5XbXiX5X5X5X5Xv.(.=.w v b , u { rX*.c.).<X).).vXVXuX* a m c f . . . 5X; b -.^ g.f.f.=.y.*.W U [ 5.$.u.! [ u o ; d s W b Y Y u : & 9 + w n.c.n.n.r.*.] o % . + ^ ^ ^ X.X.^ &.W 9 %   ",
"  6 9 r.| | *.[ [ @.c.v.p % U n.K.g.y.*.=.y.*.~ 8 % Y h.&.0 a.>.X.o.^ o.s - ~ B./.)._.(.H.H.H.H.H.H.v.v.v.v.v.c.v.v.v.;XL.H.f.K.1X;X{ g._.<X,X<X3X,X,X3X4X<X,X,X,X,X,X,X,X,X,X,X,X4X4X<XwX! #.VXxX7X7X7XiX5X5X).<X<X<X<X7X2X;X:X).).H.7X<X<Xc.K.rXVX* GXdXiX8XdXVXCXcXdXiX8X7X<XcXcXcXzXzX<Xc.G.).).<XBXi.q VXVXgXdXsXsXgXsX6X2X7X7XwXwX7XpXdXpX6X4X<X4X<X<X6X<X:X:X/.zXeXwX2X3X0X0XqX1X2X0X2XqX0XqX1XqXqXqXqX0X1X2X;X:X6X, h.vX7XzX8X5X<Xh.a.-.b y././.dXH.(.g.<XH./.H.`.`.*.:Xu * % o . @.c.(.5Xh.~ ~ y.g.y.f.h.h.h.h.g.h.H.&.u b s + b a.a.X.o.o.o.{ W v y 9 * * 4.c.@.| | o.1.% * % *.*.n ^ X.%.>.X.-.w %   ",
"  t : % , 8 8 8 q y i i T * q r.I r.y.-.*.*.*.r.w * B.:X-.&.;.;.=.X.&.a.o.9 b g.o.b *.H.H.K.L.b.b.c.c.c.n.b.b.b.v.b.v.c.b.v.c.#Xk.&X{ #.7X6X,X<X,X<X3X7X,X,X,X,X,X].).,X<X,X,X,X,X,X,X,XfX5.Q cX<X7XcXcXvX<XdX<X3X<X<X<X7X7X<X<X<X).H.7X;X).).*.BXr.* ZXxXiXiXdXdX7X7X7XzXvXxX,XK +.6.` +.I.jXsXhXgXsXgXi.7 ZXVXgXgXgXsXdXdXwX7XdXdXdXdXpXpX7XdX4X4XI.L.3X<X6X:X6XzXh.vXwXwX0X0X0XqXqX1X1X2XqX1X1X1X1X1X1X1X1X>X>X>X1X:X;Xq n CXD.h.).(.f.{ [ f.y.f.v.6X<XhX2X).H.H.c.P.H.c.d.n.[ & o ~ /.zXCXCXdXc.Q d.v.b.t.@.f.h.h.h.h./.9X9XB.*.O u o.o.W Y o.^ o.~ W {  ...* 9 v.;Xv.B.B.i.M.1 3 # v.&.v &.v.a.h.;.X.w #   ",
"  e 5 | *.d.c.d.g.n.i.u.t $ p t.[ Q y.g.=.=.i.g.0 , tXa.Y h.a.X.;.h.a.&.{ , s h.g.g.o ^ (.v.v.g.d.g.g.c.b.v.v.v.H.H.H.H.H.c.H.J.c.@.! u cX<X<X).,X<X,X).H.L.,X).I.).].,X].,X,X,X,X,X,X,XqXU p gXc.5XiXCXCXvXcX7XdX<X<X<X6X<X<X<X<X).).<X).).H.wXBXBXg DXdX<X`././.`.].5XiXzX7XsXt.3XsX*XhXhXVXVXBXhXgXwXb.1 AXwXdX6X3X7X7X7XwXdXpXdXpXiX7XpX7X4X,X4X].f.L.).<X<X_.8Xn vX7X2X1X2X0X2XqXqX0X0XqX1X1X1X1X1X1X1X1X1X>X1X;XK.VXw { HX_.<Xg.=.@.r.t.f.H.c.).H.d.,XH.H.L.H.P.G.H.d.v.>XR * ~ 7X8Xg./.CXc.c.c.d.d.v.c.d.g.c.f.c.D.h.D.h.v.6Xw 9 W s W Y b w 0 n -.~ Y  .& 8 ;XwX2XtXB...m.1 3 o 7 i | o.*.^ Y 0 a w *   ",
"  e 9 t.t.[ @.;X;X:XK.v.7 X 5 [ y c.H.-.y.g.p.| 9 - &.&.^ a.h.=.a.=.a.-.a.a o.a.h.{ * | ;Xv.n.c.c.c.n.n.b.b.v.v.c.c.H.).H.g.c.H.;XsX@.u cXH.).,X<X<X].L.L.L.).).4X4X].).).).,X,X,X,XL.4X1X@.! VX<X7XbX9X*.~ v dXdX<X_.5X6X<X<X<X<X6X<X<X<X;X;XwXrX] 9 CX/.`.).<X<X6XdXnXBXxX<XH.3XVXBXjXjX*X,X,X,X4X).wX1X& BX(.wX7X3X2XwXsXdXsX6X<X<X7X7X<X7XpX,XP.4X).h.h._._._./.^ 9X7X2X2X3XqX1XqXqX0X2X2X2X1X1X2X1X1X1X>X0X1X1X2X7XZXw 5XiX).6X:.f.H.L.L.K.;X).H.L.H.K.,XP.L.).P.,X).wX3XwXq 8 dX7X).H.*.L.l.d.l.b.;Xb.c.d.f.t.f.c.c.d.f.c.t.:XY - ^ -.^ &.o.^ ^ &.X.n W W * 9 :X2Xn.i.g.| n.* * % :X&.^ W ^ W =.a.-.w +   ",
"  e 9 [ [ t.c.r.[ *.y.t.& X @.4.] d.=.{ W ~ | ] 9 - Y o.{ &.-.^ ^ a.-.=.^ b b ^ u O E r.] y.c.c.c.n.b.c.v.b.v.v.c.c.c.c.H.H.H.pX:.<XU Y 7XL.4X3X4X].).L.G.J.L.,X,XL.I.L.L.,X,X,X,X,X4X,X0X@.! LXgXg./.^ ^ ^ + 5XxX).<X6XdX7X<X:XdX2XK.K.).<X<XH.rX. . vX8XiXiXzXzXdXdX8X(.(.t.c.sXjXjX,X,XI.*XL.L.).L.L.#X1 DXwXgX7XpXgXhXdX3X7X7X7X4X4X<X6X6X<X4X,X,X).P.D.dXiX`.5Xh./.).).2X2X2XqX1XqX1X1X1X2X1X1X1X1X1X1X>X1X2X2X<X<X<Xv _.h.c.=.#.H.K.K.1X1XJ.%XL.L.2XwXc.K.,XL.H.,X).,XL.L.8 y y.c.P.f.` 5.s.s.s.l.d.f.f.f.d.f.d.d.f.d.t.d.d.>X .# _.;.a W ^ ^ o.o.h.o.v 0 o , 6X:Xn.n.>X..k.7 & # :X{ b ^ X.&.;.=.=.w #   ",
"  t * ) 4.) g p g ] ] r.9 % T i.[ t.d.y.*.{ |  .7 * - u s &.&.&.a.a.b &.o.W 8 v 7 ] 8 y . o g { i.;Xv.v.K.(.H.v.b.c.c.c.c.c.l.<XwXBXQ v wX2X<X7X7X,XH.l.G.$XL.L.I.L.I.I.L.,X*X,X,X,X1X*XMX} g cX5X_./.^ D.:.h 7XdX6XwX7X<X7XcXBX6X<X;X;X;X3XdXeXBX9 _.CX_.`._.H.g.d.k.b.%X3X3X3XjXjXjXaXaXqXaX0XjXhXjX,X#X1 rX<X).<XK.c.7XhXdX2X3X).;X2X<XdX2XgX3XgX,X<XcXpXH.H.v.g.u $.b ].<X>X#X>X;X#X>X1X1X2X1X1X1X1X>X>X>X#X;X<X;XrXd.7 y.v.f.f.J.c.K.b.J.%XJ.J.l.l.qXqXd.l.J.l.c.d.f.J.J.l.p y d.5.l.s.+.J.+.5.s.5.4.s.s.d.k.c.c.f.f.f.i.d.d.c.[ + ~ b u Y ^ { { { W Y s E * 9 7X:Xr.i.UXOXp.7 & * v u ^ =.^ v b 0 , 9 &   ",
"  t 5 i.5.i.| ) 7 p u.n.7 * i 4.5.@.t.v.v.i.| 1.7 % p s s o.a.h.=.^ *.y.Y v 9 o . I s | R v . . + ] (.(.v.H.c.n.c.c.c.c.d.d.d.b.t.i.X #.;X).H.).).L.P.G.L.L.).).).).L.I.I.<X,X%XL.P.$X$X1Xt.#.{ =.-.n b w f.w =.cXwXeXdXcXVXZXwX<X<X;X(.c.gXd.*.g.7 tXv.@.f.f.c.%XqXrXfXwX1X0XsXsX0X4X4X*Xz.z.b.>X>XK.) 6.1 t u.@.2X1Xb.rXMXgXrX1Xb.;XwXgX;XVXLXZXVXcXZXDXVXc.c.y.o.0 * f.:.h.h.H.H.{ #.f.c.c.l.<X;Xc.c.t.c.#XwX3X2X2X;X] o v t.Q @.d.s.l.K.l.d.d.d.t.f.f.f.d.d.d.f.5.d.@.{ [ ) 9 * v t.t.l.5.d.[ ! @.5.@.@.t.@.r.t.[ { [ $.@.r.@.t.[ * 7 - 8 0 s E u s 0 7 y u + y (.Q r.g.>Xn.T 1 % 8 R ~ ^ b ^ *.~ 8 Y 0 8   ",
"  F 5 4.s.k.@.;Xr.p k.K.% # i i.) } l.n.*.~ r.i.7 & | n.g.&.-.&.o.o.{ *.W w 9 t.v.:XeX:X:Xv.g.W U . . ~ Y *.g.t.f.d.d.c.k.d.d.b.v.#XX { H.f.L.,XL.P.G.l.G.L.L.K.L.J.J.,Xd.d.d.dXwX7X).r.~ p Q -.&.w q &.f.{ W c.g.wXrXgXxX<XcX<XH.;Xv.b.d.K.H.;Xi.* VXBXzXbXCXvXcXcXhXcXCXdXv.K.<XwXsXgXdXcX6X<X<X(.(.>Xu.5 0XqX0X0XwXwX3X3X<X2X<X7X7X<XpX4X).].K.H.).G.d.c.).d.y.~ 9 { h.>.M kX9X].H._.5X].].iX5X[.].9X].pXdXpXpXpXH.<Xf.Q <X).).7XsXwXdXiX6X<X6X6XdXbX<X9X`.7X7XzXdX7XsX2XL.Q o o.H.H.%XJ.s.k.@.#.[ 5.l.t.t.f.#.t.d.f.d.@.t.d.f.f.y.p 7 v 9 9 u 9 9 0 9 - - * * 8 (.c.g.i.i.i.T 1 % 7 W v w b o.^ v w s 9 8   ",
"  L * @.5.t.[ k.t.y r.i.X X u i.) 6.s.k.@.y.p.k.3 % y Y =.a.o.-.o.o.o.*.o.0 y.8X8X'.`.`.`.(.8X(.*./.y.y . o [ (.v.c.H.K.J.K.H.H.<XBX. u v.f.,X3X3X,X*X4X4X,X%X#X&XJ.J.%X%Xl.#XLXLXGXzXg. .y q W w . : @.p ZXVX7XcX7XwX2XH.H.dXdX7X6XH.;XwXwXwXwX] % (.zXbXdX(.7X7X7XpX7XiXgXrX0XgX;XK.<X7XdX<X<X8XxXVXAXT 5 rXBXBXgXsXsXcXcXdXdXpXiXnXbXCXVXdXnXcXiXbXnXpXgXdX7Xc.$.+ =./.^.w h.M [.`.^.[.{.D.D.D.{.`.[.pX[.pX].pX[.[.nXf.{ dXpX4X,X,X3X0X4X,X;XL.J.l.P.J.,XL.L.L.).).,X,X1X1X+.* ;X;Xd.l.G.f.f.s.P.L.l.s.#.@.f.d.f.f.d.d.t.g.d.c.d.f.[ + v *.*.W ~ W W W W E - # & =.d.v.(.n.n.E % # p E v W s 0 u v s w , 8   ",
"  L = R } t.4.b.R t r.k.* X q k.i.u.t.d.c.g.E n.& * p { o.-.=.&.-.-.&.o.W ; =.9X_.8X*.| u ~ g.vXg.=.H.v.-.8 . Y (.g.@.f.K.K.H.c.c.K.X ~ `.`.).H.L.,X0X0X0XqXqX>X>X1X&X$X$X=X=Xj.G.G.3.+.p.i X | n.t.y . y.GXdX<X7X7X<X_.7XCXCXdX7XdXdX6XwXeXgXeX| X v.eXeX0XwXrX;X).7XwX).2X<X<XwXwX1XwX7X<X,XVXgXBXBXLXD 5 v.wX7X7X3X3X3X2X7XgX7X).<X3X].,X<X4X6X<X3XgX,XL.3X).h.^ 0 y./.`.h.y.<X_.H.9XbXiXlX].,X7X<X6X7XdX5XdXcX:.y.xX{ ! 1X*XL.%XK.J.J.J.J.%XJ.%X%XL.L.L.J.F.F.P.J.L.J.%XJ.5.q J.s.8.8.j.8.s.l.F.G.+.` +.U s.K.@.) @.@.r.t.=.f.f.@.~ O ~ -.-.o.o.=.a.a.~ s 8 # 0 b.;Xg.g.n.n.( 1 & i { b v b W W ~ { { u 9   ",
"  L $ ] i.t.| u.p e r.i.& % y i.t.t.k.d.i.c.r.u.1 * i Y Y :.a.h.&.a.`.h.&., h.5X_.5X+ .  .R . y.zX(.(.Y g.g.u . Y v.*.d.d.d.d.b.K.2X9 u 8Xa.v.K.K.J.*XJ.%X1XqX0X>X$X$X$X$X$X1XqX1XaX=X7.k.p 9 ;X;XK.<X, 7XPXcX).dX).).`.<XH.c.g.H.).xXwX<X<XH.2XM.# :XBX<X7X<XwX;X<XwXwX;X3XwX3X3X7X2X2X:X<XdXgX;X;Xk.MXy e #X<X,X3X3X,X<X3X3X7X,X2X;X2X3X7X,X,X3X<X,X<X).,Xc.).H.=.q CX_.).H._.cX6XhXcXdXpXpXpX7XsXdX7X7XiX7X7XdXdXr.gXt.p 1X%XJ.$X%X%X%XJ.J.J.L.%X%XL.L.G.G.P.G.P.P.P.L.l.J.! q c.s.6.x.7.6.8.8.j.s.8.5.4.' [ ) 4.t.r.} [ @.r.@.@.) r.O Y *. .^ W -.o.o.^ I p X 0 :Xg.v.B.B.B.1.1 & & v , b W b Y { { h.u 1   ",
"  2.$ U | [ 4.R  .I n.i.* @ & ] g J b.c.r.r.1.} % % I ] | *.*.y.{ ^ y.y.g.u /.9X`.8X~ 9 ] s  .g.vX8Xy.tXg.h.a.* w y.Q d.H.c.;X(.K.wXR i ZXh.c.c.@.k.J.%XJ.J.J.J.*X=X$X*X*X&X1X1X=XqXaXz.[ q : 0X(.c.(.(.vXGXcX<X<X<X<X<X(.(.<X6XdXdX7XwX;X<X;XrXi.o *.7X/.6X<X3X3XwX7X;XwXBX<X<X7X3XH.VX<X7XgXwXwXwX;XwXe 8 R <X2X).L.).<X2X<X2X,X,X;X,X).).,X).).).,X).,XL.).<XL.*.9 BX<X<X,X4X,X2X3X7X3X<X<X7XwX3X3X3X3X4X<X4XsXdX<XwXb.q 2X%X$X%X%X%X%XL.L.L.L.L.P.J.%X%XI.L.%XL.F.%XJ.J.c.! g H.l.l.s.s.j.6.j.s.5.9.s.s.d.@.d.d.v.d.t.t.@.#.{ t.t.4.% 0 W b s s b d b Y i 0 % 9 K.d.{ v.g.n._ * % 8 Y v ^ b W ~ *.b 0 + %   ",
"  7.= Q [ [ c.] b.| D E & * * 4.4.4.l.k.t.i.} ) @ % , 8 8 y 7 8 8 s R s Y 0 h./.h._._.:Xv.i.uX5X(.g.@.*.*.a.~ + b v.g.d.K.H.H.H.v.v.p 0 6Xt.b.c.f.f.$.l.%X>X%X$XF.@XF.F.=XqXqXqX&X&X$X7.$ p t MX#Xt.:XxX;X).6XdX6X6X6X3X6X7X7X7XgXcXwX6X3XwXeXgXp.X gX8X<X<X,XcXgXsXdXhXhXcXgXgXgXwX<XsX<X;XgXgXrXgXrXwX5 e i rX<X,X;X;X<X3X2X,X;X<X3X3X3X2X<X,X,X).L.,X,X,X3X).L.w w 2X,X3X;X,X,X1X2X2X0X2X,X;X,X,X,X<X3X4X7X3X3X7X<X2XH.g 1X*X*X%X;X%X%X%XL.P.P.P.L.L.$X$X%X%X*X%XP.P.J.P.L.g U 3Xf.G.f.G.9.s.9.9.,XD.f.].#.:.:.-.-.f.f.g.f.f.f.f.t.| & 7 . # 0 w w 0 - o . y * p d.c.*.g.a.g.} * 3 p  .b ^ n ^ W w u w 9 7   ",
"  ' . I 4.u.t.R [ u @.| 9 % 8 u.1.u.l.d.d.d.r.1.@ X p ~ { ^ { &.^ ^ ^ o.] * -.h.=.g.g.a.-.^ a.-.*.*.| *.o.{ 9 - 0 y.Y u v ~ ~ v *.*.& 9 c.t.d.#X%XJ.i.K.;Xk.K.1X1X1X@XJ.$X$X@X@X=XqXAXBXNXAX/ AXU i.v.r.[ r.~ ^ *.:.f.K.dXeX6X2XwXt.d.;X<XwXwXeXp.o BXdXK.;XgX2XVXCXZXcX).).2XwXwX3X3Xc.t eXBXgXgXeX0Xn.e T J 0X1X;X1X2X1X1X2X,XL.,X2X,X2X2X;X,XL.1X,X,X,X,X,XL.H.#.c.;X,XL.,XL.1X1X,X,X1X1X1XL.P.,X*X%X1X%X1X*X4X4X,X<XdXg 3X*XL.*X%X%XJ.J.J.J.J.$X%XL.J.%XL.%XJ.L.L.L.l.G.K.: R 6Xc.(.c.d.K.c.:.f.G.f.f.<Xf.h.:.-.-.=.f.i.@.r.d.t.t.| * 9 ] Y 0 - w w v v E p * R k.r.r.v.g.n...% 8 E Y W W b s s u , 9 , 9   ",
"  2.t g u.4.7 p n.p k.4.1 * 8 u.T u.i.k.k.) u.] % X ] *.-.-.=.a.-.X.^ -.b = &.H.*.r.*.=.-.;.-.-.*.*.*.@.d.{ X . | *.u y.;Xr.{ i I { & n.#X| _ b.b.m.b.k.i.4.4.t.i.s.u.l.l.b.i.k.@XqXKXBXMXKXF qX>X3X>X>X2X2XwXwXwXwX1Xb.<XK.n.wXLXAXAXAXfXgXgXBXi.# GXDXh.H.).dX7X2X(.(.;Xc.v.d.c.:X6Xv.d.U k.#XL.c.n.1.T t . n.c.L.;X1X;X%XL.;X<X3X3X7X).L.L.t.! c.H.L.L.K.K.).K.L.7X;XL.J.,X,X,X;X;XL.L.).).).,X4X<X3X4X*X,X,XL.4X,X,XsXq ,XL.I.L.L.L.%X%X$X%X%X$X$X$XL.$XP.$XL.P.J.%X8.x.b.U * Y u *.v v v.(.9XiXh.:.h.c.*.f.g.f.f.t.t.r.{ r.| @.| @.# y i.y.{ I { i.r.| *.g.X E b.) >X;Xg.n...1 8 I 8 - o . o o # * * o o   ",
"  J p 8 p @ J 4.OX5 r.] 9 % t u./ s.i.i.k.k.k.1.X * { | &.o.{ { ^ ^ -.{ @.. Y H.).f.=.y.=.=.a.y.y.g.g.H.6X{ . @.r.~ ! { <X3XK.@.E u * Y v.c.c.b.1X0XgXfX,X4XL.K.,X3XwX0XwXwXwXgXhXfX3X;XrXMX9 LXDXVXZXCXCXxXgXxXBXgXwXwXD.H.dXvXxXLXLXZXBXgXcXBXi.% eX:X_.bXzX`.5XCXLXGXnX7Xa.7XCXDXxXBXDXeX).).#.VXZXVX} 1 i.r.t.d.c.K.c.L.;XK.3XwX<X<XgXeXwXwX3X2X;Xv.y.t.#.).c.d.2XK.f.G.L.).<X:XK.H.v.v.g.v.).K.K.K.c.H.c.d.f.J.L.L.gXt 3XL.P.P.L.*X*XL.L.%X%XL.J.L.J.J.P.J.L.J.J.L.%X$Xt.y | *.{ & . W E . b h.{ 0 d.g.Q y.y.@.r.@.@.@.@.{ 4.[ @.@.X 8 y.n.g.d.g.v.| ] I ] X | 6X| v.v.i.K. .1 8 - X w W { p.h.g.g.v.Y X   ",
"  $ 5 t.u.j._ <.u.t u. .7 * y 4.u.k.k.u.i.p.m.} @ % I ~ ^ ^ ^ ^ n n ^ u M.y u 6X=.g.h.h.=.;.-.=.=.*.*.g.Y p I eXd.7 ! Q g ! 4.b.rXi o o 8XeX2X<X,XwXsX3X3X3XgX,X<X2X2X,X4X0X0XhXaXaXsX3XhX5.g VXiXbXxXcXvX8X<X).;X;XK.).H.<X7X<X<X*.f.t.@.! #.i w * GXdXwX7XdX7X,X;X<X;X%XgXK.hXwXwX3X3X;X7XdXdXgXDXAXZXT 8 KXBXwX4XsXgXhXwX0X3X2X,XL.H.wXgX<XgXgXsX2X3X7XeXv.{ c.c.v.H.H.:Xc.t.;XwXgX7XdX3X:X;XwX<X,X1XwXwXwX2X>X>Xk.@.#Xp L.J.L.%XJ.L.L.P.P.P.L.L.L.P.P.P.P.P.F.P.$X%XG.%Xd.g c.W ^ &.w y.v.u -.H.h.&.y.g.{ y.r.@.@.@.{ @.| @.r.t.r.Q X 7 n.v.v.i.r.r.4.R R E # ~ (.I y.v.g.v. .& 7 7 * a.v.a.a.v.h.a.v.s X   ",
"  5 9 d.b.#Xb.b.n.J )  .7 * p k.k.s.u.k.l.4.u.1.X % | *.-.X.{ ^ ^ ^ ^ W *.o.0 5Xa ^ ;.a.a.a.g.y.a.y.*.g.~ o y.r.| Q *.*.@.5.#X@.K.* X R <X).L.K.J.#Xb.%X*X=XqX=X*X*X%X@X*X1X*X*X*XqXqX1X1XK s.cX;X_.<X).6XVXCXBXwX<X3X<X;X1X;Xb.;X;XH.K.(.H.g.:X{ & ZX<X%X*X%X%XJ.J.l.$X%X*XqX1X=X*X*X>X&X#Xb.@X#X6.l.MX} t AX;XH.,XL.*X1X,X,X,X*XI.I.*X%X*XL.3X%X*X*X,X,XwX).).dX| <X<X).dX6X:X6X3XwX3X2X3XgX3XG.sX,X1XqX1XqXrXqXqXqXs.%XU $.L.G.F.P.G.J.J.L.J.J.J.P.P.J.L.J.G.P.P.%XL.G.J.[ ! g.b b W ~ , * *.*.d.*.y.#.u *.f.*.*.| #.*.*.*.y.r.{  .I # 9 r.{ p.| r. .| ] s w X u c.u @.n.g.n.] * 7 7 0 -.{ *.*.y.a.y.a.u X   ",
"  5 5 t.i.l.b.d.k.I | | & % y k.5.4.u.u.u.u.4.4.X & W W { -.-.=.a.;.&.n w { Y -.=.a.o.o.*.*.&.*.*.y.y.*.y.*.. 9 v.v.H.;X;Xb.>X4.7 g : c.;XK.#X*X@X@XF.%X+X$XF.$X$X$X@X$X$X+X$X*X*X$X&X=XqXK 0XhXK.;X<X<X<XL.L.;X;X3X<X<X;X2X1Xb.J.b.<XcXBXBXsXVXb.7 gX%Xl.@X$XJ.@X%X%XJ.J.F.z.$X%X1X1X1XqX@Xb.@X@Xz.u.u.4.t LXqX%XJ.L.L.L.*X,X%X*X,X0X4X1X,X,X,X1X3X3X3X1X,X).7X(.E <X3X,X;X2X6X7X<X;X1X2X;X,X2X%X1X1X1X1X&X&X&X=X&X=X%Xc.g w ,XL.P.P.P.J.J.J.H.J.l.l.J.P.P.P.P.%XL.#.l.l.5.p ~ &.0 0 ~ Y Y v.B.*.| *.r.~ { y.*.Y v ~ { { &.=.y.t.] ] s X * | Y | ~ ]  .Y v u W - w :X*.Q r.i.K.U & & & w =.*.y.=.*.=.o.| y o   ",
"  t $ U ) T I ] b. .)  .& * p u.` 3.j.u.4.i.k.r.X 7 y.*.-.&.&.&.-.&.-.W Y p.*.-.{ g.a.*.i.i.*.y.y.=.y.d.=.c.c.[ . ~ g.t.g.v.n.p . s X g.H.l.J.$XF.F.F.F.+X$X$X$X$X%X%X$X$X$X$X$X+X$X$X$XqXp ZXrX%X1X1X>X;X;X1X2X<X<X<X<X;X2X2X;X1XwX1XqX%X2XhX2X@X4.$.3XJ.$X*X*X&X%X%X$X*X&X*X%X%X%X*X%X1X*X1XMXfXAXMX0Xm.6 AXK.%X*XI.*X,X*X,X1X,X,X1X1X,X,X,X1X,X1X1X,X0X1X,X4XwX6X<XwX,X;X).;X2X;X;X%X>X;X;X1X1X&XqX1X1X&X&X1X&X$X=X$X1Xg > <XP.I.P.P.c.l.l.K.%XK.J.l.9.9.s.P.L.P.l.$Xu.[ 8 Y s , - Y E s p.~ v Y *.| { y.*.W | Y { W W o.o. .W Y R w X 9 ~ E Y | ] { | r.{ W - w (.y.r.g.d.v.v * % # , { *.=.*.*.{ { ~ y %   ",
"  F $ [ 4.4.| 4.b.[ g @.& * p k.K } z.u.4.| u.r.% & { *.&.^ ^ ^ ^ ^ ^ ^ ~ =.&.g.&.-.t.*.*.g.d.y.c.v.v.g.g.d.d.H.y.O . w v Y i UX] r O 6Xk.s.J.z.+X+XF.F.F.G.G.F.F.@X$X&X$X$X$X$X$X=X$X&X0Xi DX2X3XsX2X;X3X2X<X<X<X3X;X2X<XwX3X2XhX5.. . y ] - . >Xj.& d.%X$X%X$X*X&X%X&XqXqXqXqXqX$XF.%X*X%XJ.qXLXKXBX>Xz.6 AX1X3XL.I.%X1X0X3X3XwX2X,X%X;X1X3X3XwX<X,X1X,X,X,X,XeX*.sXsX4X<X).(.;X;X#X%X%X;X;X2XqX$X1XqX&X&X&X=X$X=XqX7.u.) = f.=.).H.,Xd.%X1X;XK.K.J.;Xl.J.L.J.P.G.1X%X1X1Xt : 8 + 0 0 0 0 . , y Y #.{ &.y.*.~ | { { v W { { { Y I Y Y + 8 r.r.W Y { | r.| Y W - o *.g.y.y.r.n.i * % # , W { *.o.{ *.~ I 9 *   ",
"  F $ 4.u.r.] @.c.) i 4.& * g l.3.5.u.4.u.u.p. .X - =.=.&.o.^ ^ ^ W ^ ^ ^ =.-.g.y.=.r.*.r.r.*.*.*.r.*.r.t.r.r.t.d.d.= = I q n.VX2X@.R K.G.G.x.F.F.$XF.$X*X+XF.+X$X$X$X$X$X$X*X=X*XqXqX=X0Xt AX%X3XsX3X3XgX0X,X;X;X<X<X3X<X,X;XsX! . 5 t NXAXqXi.. i 9 . b.qX1X$X*X%X1X0X%X$X$X%X1X%XJ.J.J.%X%X%XJ.%XfXMXNXt qXqX%X%X*X1X3X1X2X1X1X,X,X,X,XwX4X,X3X3X2X3X4XL.,X,X6XK.gX3X<X3XgXL.<X,X;X;X,X<X;X<X1XrXqX&X$X&X&X&X=X=XqXk./ T $ [ <X3Xf.,Xc.k.;X5.,XK.K.%XL.,Xc.l.L.%X*X%X1XqXp 5 , W W W s I w u I Y v ~ { y.*.W Y ~ v W o.a.W v Y W Y Y 9 Y r.t.i.~ { | [ I I u * - o.*.[ *.n.6Xi % p # 9 { -.*.{ *.{ y.E y 7   ",
"  J $ | u.t.r.@.;X| ) r.7 , p u.5.u.5.u.u._  .] X - v b ^ =.-.&.o.{ ^ b ^ -.=.=.g.@.#.{ *.@.@.*.*.r.@.r.r.i.i.u.u.k.R X u p.| y.v.b -.6XG.x.x.F.$X@XF.$X*XF.x.z.+X+XF.z.$X&X&X&X&X$X$X&XqX2 AX%X3X<X3X3X;X,X;XL.;X;X;X;X).3XgXd.5 s.L F.NXNXqXb.1 3 8 E I MX1X$XJ.$X%X1X@XJ.$X@XJ.%X@X$X%X%XJ.@XJ.%X%XfXLXq 0X0X1X,X*X1X1X%X1X1X,X,X*X3X,X,X,X,X,X1X,X1X3X,X;X3X0Xk.2X<XL.L.;XH.%X%X;X;X;X3X).;X;X1X=X=X&X&X&X&X&X&X&XqXqX$ o R wXgX2XH.K.$.c.k.c.;XH.,XL.;XL.k.%X1X1X*X%X&X` 7 p &.W v Y Y s w v u & 0  .~ v v Y u s ~ *.{ u W ~ Y R  .I v r.i.r.@.t.r.E 8 ~ ~ s , , | y.{ v.:Xp # p # s { { ~ { o.o.o.s E 3   ",
"  t $ ) 4.i.i.t.K.@.) p.7 : p u.4.4.4.4.u.u.u.R X * ~ ~ W o.^ X.^ -.o.^ n ^ &.&.y.{ [ @.*.*.| *.@.r.y.r.*.r.g.c.t.#Xv.O Y xX&.W o.b &._.;Xl.l.z.+Xz.F.+X+XG.x.z.+XG.+X$X$X$X&X=X$X@X$X&XMX6 ZX0X,X,X4X3X1X2X2X2X;XL.%XJ.;XsXl.s.fXMX` NXKXAX7.. . . | BXI d.>X&X@X&X$X$X$X$X$XF.$X$X$X$X%X%X%X1X4X$X1X1XfXg wX0X1X1X4X*X,X%X,X,X,XL.L.G.J.L.;XL.J.L.%XL.*XP.;X;X#XQ L.K.L.;X,X;X%XK.L.;X;XL.).<X;X%X$X&X&X&X$X$X$X&X&X=X&X} . ] wXwX7X2X2Xb.d.0X= ! 1X;XH.;XL.l.%X%XF.F.x.z.m.K 5 p u 0 w , 0 s ~ ~ + - v u Y W Y w , s W Y v ~ v w R | v i | t.t.{ ~ *.r.r.i.] Y - w (.v.*.~ | u % 9 & 0 v 0 9 p p I u * * &   ",
"  t & 4.u.i.[ *.c.Q ( 1.9 5 p u.4.} 4.u.4.1. .T X % s s b ^ ^ ^ o.^ ^ W b ^ &.=.y.*.@.*.y.=.*.*.@.{ =.=.=.y.y.g.d.H.~ , b a.g.o.0 9 . 8 Y K.J.8.G.w.w.x.F.z.x.G.+Xz.+X$X+XG.*X*X$X*X&X$XSXe %X%Xt.P.P.s.b.&X%X#X#Xu.#X) i.9 . AXNXMXAX@X4.$ . =XSXrXi.@.Y . J.%X$X=X*X*X$XF.$X$X$XF.$X$X$XJ.$XqX*X%X*X$Xl.T ) 1X1X%X1X*X;X1X1X3X,X3X3X,XsX4XL.,X%X%XP.L.P.I.).<X6Xg.).H.H.,X4X4X%XL.L.,X;XL.).;X;X@X$X$X&X&X$X$X+X+X&X&X$Xm.. *.dXwX3X2XwX} %Xs.@.%XqX%XJ.J.L.%XF.F.F.F.6.j.x.e J | 0 + 0 w ~ { Y 0 , v v W W W W u Y - s ~ W { ~ v ] { { i *.0 u u { r.| R i ~  .a 0 y.v  .(.g.p # 7 9 | 9 X # . . . o X 9 8   ",
"  6 5 u.4.t.[ @.r.y [ @.9 & y 4.) 4.4.u.4.1.1...# * u v { o.o.{ W Y s s b ^ o.a.v.y.=.y.y.y.=.&.{ [ [ | *.*.{ *.y.^ . , O , 9 - * # * + 7 (.l.8.x.w.w.7.w.x.w.+X$Xx.+X+XF.@X$X$X$X*X$X=X6.5 . = = u.@./ L L K L ' ' T J . # X q i.l.0Xp . ) AX&X#Xu.ZXrXr.v.J.%XF.$X*X*X*X$XF.J.*X$Xl.J.J.F.F.F.x.G.J.F.@XJ p #X%X%X*XI.$XJ.%X%X1XsX3X0XfX3XP.4X,XVX,XL.<X<X).<X:X[ cX].K.1X%XL.%X;X%X%X%XK.#X%X%X*XOXOX+X+X+Xz.+X$X&X+X&Xb.. ;X2X2X<X,X%X= 9 J sX0X1X1X,XL.%XqX%Xj.8.j.m.&Xz.K / +.} I * 0 s - o u { y.a.o.s ^ a.^ ~ ~ . . 0 s w { ] { | R { ] U t.*.{ { ] *.] u W 0 o u g.tX*.y % 8 9 o.w 8 w & # # . X % i   ",
"  6 @ ! } 4.@.t.g.g | t.9 5 p 4.} 4.} 4. ._ 1.( # * I ~ ^ ^ ^ ^ b b W a u b Y o.a.y.#.#.&.&.a.y.{ #.Y v b v 0 o.b , * b b 9 . . . O - Y [ Y U *.t.l.l.x.x.x.s.j.J.G.+.J j.F.@X@X@XF.J.7.T 5 & 4.4.[ 5.l.j.x.l.F.F.F.z.@Xp.o R % . - 9 8 p b.x.. . o q k.KXMXqXG.F.$X+X$X$X$XJ.*X1X*XJ.J.P.l.J.j.l.J.$XJ.u.5 p MX1X,X,X,X,X,X%XG.G.f.s.s.s.l.J.G.k.c.c.gX7X<XL.L.L.! gX,X,X,X%XK.J.J.J.%X#X@XJ.%X%XqX3.K ` / L L J K ' j.qXJ.= gX3X3X3X3X5.) s.qX1X%XK.;X%XJ.%XqXqX3.+.%X>X0X&XK L ' ! Q 9 9 - * * v p.g.h.&.u Y ~ ^ 9 0 - 0 i i v | ~ Q ~ [ y [ ~ [ { Q { I ~ Y v b 0 0 *.n.i.M.8 * 8 - 0 7 8 w - # 9 u 8 * i   ",
"  6 $ ) } t.[ c.b.U @.@.9 1 t } ) / } 4.@.r.| ] * - Y v w n %.;.%.&.^ ^ W o.X.^ b 8 ~ v.h.-.g.{ b x '.yX8Xw 9 u ; X.X.d b ^ ^ Y s * o = , w q w v u g I g R [ t.d.! f.$.$.[ [ ' [ +.5.@.5.8 * [ u.s.+.+.8.l.F.l.x.l.j.@Xn.8 r . . . r 8 p I ) 9 $ % e 4.J.rXqX*X$X$X%X%XJ.J.l.c.J.#XJ.c.s.s.s.s.s.c.%X>X#X8 J MX%XJ.L.;XsX1X;X,XL.L.L.L.L.L.P.J.1Xc.3X0XH.L.P.K.d.g L.K.%XJ.J.l.%XL.l.J.J.%XL.L.J.1Xs.5 e D 8 * ' l.J J 7.g * MX,X).,XL.J.P.1XqX%X%XJ.l.J.F.%XJ.+.J.z.@.d.%Xb.J L ' ! g 0 - u Y u O i ~ ~ ^ W o.^ o.*.U @.*.t.| | ~ | ] U U 9 | c.r.r.t.{ | ~ Y u s , 9 [ n.p.| r * 9 - s y.=.W y.y.g.a.p.8 p   ",
"  6 $ t.j.d.| Q [ I t.r.9 & q 4.3.4.3.) @.t.i.| # - ~ { X.b b W ^ b a n a n X.h.;.w W a.;.X.^ ~ W uXlX^.vX5X, , n W d f ; a n N.B.4 . u - . . ; 9 # r Q [ l.%XL.%XP.0XL.,X` ` +.9.u.5.J.%Xg g J.%Xc.J.l.l.s.s.l.%XK.s.rXu.: k.1Xn.r.i & . y #X] E * i R ` F.F.F.s.5.t.[ Q 8 p y 7 y ) ) Q I I Q +.4.@.] ) R 8 v.d.u.l.b.c.J.K.c.c.d.J.L.J.K.K.L.,Xl.1XL.J.L.c.J.l.J ;Xl.l.l.1Xl.1X%X;XJ.J.G.L.L.J.;X%X/ J _ 5 q c.,X[ U +.t p rX2X).L.I.,XL.J.l.J.b.z.b.x.l.k.s.l.s.l.d.f.J.3.J L ` } 8 O s &.a.*.Y o . . v o.=.o.s ~ *.=.@.r.@.{ @.[ ] U [ p R [ g U |  .~ { { W W w , y.;X>X>X9 * 0 O a ^ ^ =.-.=.a.^ ~ 9 9   ",
"  t $ u.} } | | r.[ i.d.9 : p i.s.4.i.t.4.[ 1...* * v ^ n a n B.B.`.;.0 n X.X.;.;.;.X.;.n a d 0 ;.GX_._./.8X`.; < ;.d n N X.B.w a.a.b o.v.K.#Xk._ n.b.b.b.@XJ.%XJ.L.5.0X1X*X8.9.s.l.8.' K.y g LXZXBXVXVXCXnXiX).;X;X%X0X7.. NXZXAXMXrXqX&X} . p  .s & R U { { ] J 8 . . . k.K.%X%X+.6.s.4.F.%XqXK.J.4.r.r.9 I ;X#X;X#Xb.L.K.K.c.d.s.s.i.u.l.l.l.l.s.5.l.s.k.k.[ t.t d.r.@.5.s.l.d.t.5.t.s.5.5.4.s.s.k.l.j.j.` y U &.X.y.u.K } c.f.@.k.J.J.J.P.l.s.l.k.j.F.@Xj.l.l.s.d.s.c.l.7.5 J L p 1 o - { *.^ ;.=.-.N.=.-.-.^ w ~ { | ] [ ) )  .] | | b.g r.[ r.@.| p.o.{ o.W &.a u :X>Xi.>X9 * 9 + s &.=.-.~ ^ ^ o.W 7 5   ",
"  J o U 4.4.t.c.| { d.c.: * g i.@.] ) 4.] I ( D 7 7 Y Y b b ; b -.X.d ^ O.n W ^ ^ a W a.N n >.b n CX9X8XbXuXB.X.;.N.;.N.;.o.vXs . b &.{ b.qX0X#Xl.b.s.5.k.z.J.! = = 9 r.0XwXl.s.l.$XfXfXNXT ! LXcX6X_.<XdXcX<X,X%X*X+X$XqXm.8 4.1XfXNXNXNXAX#X* . I p i.&.w u 9 . o 9 & @XNXaX=X=X*XaXfXqXqXqX0X1X1XAX0X1X8 s.MXaX0XqXqXfX0XfXMXqXfXqXrX1X1XrXfXrXrX0XqX0X1Xb.b.5./ rX&X&X1X1XrX&XJ.j.@X=X@X&X$X&X1XrX0XSXSXSX0X1 w B.g.n.p t Q U [ 4.u.k.k.s.u.5.5.4.3.l.l.j.6.k.6.5.z.6.k.4.5 p p 7 p % . u - W ^ -.>.;.-.-.W - *.&.{ | _ T R / _  .r.[ | I i { Q  .| ] ] *.W w n , 9 1.n.n.OXy * E - | y.^ W { { o.*.o.9 %   ",
"  L o U @.@.d.i.[ U | *.* * p R U ] U I 5 9 7 8 y 9 Y W n n w o.;.-.X.n n X.b y i [ v.(.:XzX_.(.).wX3X2XsXhX3XdXGXGXGXGXGXLXZXBX1X9 . BXfX%X@X$XJ.J.l.z.J.%X>Xk.) q . . U 3XK.J.%XqXrXz.MX/ g MXJ.J.@Xz.OXOXx.+X$X+X+X@Xz.1XrXk.y q s.J.l.b.;X7 5 9 } [ g.W w * # u 8 X >XMXqXqX*XaXAXNXaXqXfXMXfXK.rXb.b.J x.$X+XF.F.$X+Xz.z.z.J.P.%XJ.x.l.F.G.F.F.$X@X$X@Xl.qX5.5.&X+X$X=X$X+X$X+X&X$X$X&X=X&X$X$X&X$Xx.z.x.$Xz.l.wXv.*.7 8 rXrX2X>Xb.;X#X;X%X#X0X0X1Xl.l.u.s.k.s.i.z.k./ i 9 8 9 i ] , ^ '.a - 0 d b 0 n . . *.d.~ R | Q U p t U J g w 0 v y E ] E E p I u s a a , w p.k.n.n.p % u O W a.&.&.o.o.&.o.Y 3 &   ",
"  2.o y @.{ @.@.R r.] i % X , p i 9 & & p 8 y 8 - - ^ ;.%.;.n N.;.;.O.X.n u U ;X1XK.2X3X3X,Xl.J.L.J.%X*X%XF.J.J.s.k.L.K.L.$XL.l.ZXMX: AX%X5.x.j.F.z.%XJ.1XrXMXrX0XrXc.{ O , t.s.J.l.j.7.6.) t $XJ.$X&X$X&X*X&X+X+X$X$X$Xz.8.%XqX%XJ.G.$XL.$Xj.! $ : i p v s * O w *.[ = U NXaX=XaXAXLXKXMX0XqX1X#Xk.. 9 b.J qXx.F.+X%X&XF.$XJ.J.F.$X$XJ.%XF.F.F.F.F.F.$XF.F.z.qXu.+.*X$X+X$X$X+Xz.z.z.z.OX$X+X+XOXz.OX+X+XOX+X+X+XJ.H.f.v % t &X@Xz.F.z.x.9.6.s.s.l.s.l.k.l.k.l.J.J.@X*X@X0X>X. % p.*.a.s ^ ;.m o.o.X.a u w . *.c.d.t.[ |  .) ) } 1.) [ ] ~ R ] 8 R *.*.~ Y W b a a w v ~ o.a.p.s - 0 O ^ B.&.-.=.-.-.o.W r 5   ",
"  e.$ = 8 y I ) 9 8 y o % % @ * * * 8 I p u ~ -.+ 0 ;.;.N %.x %.X.X.X.X.n w { l.6.s.5.5.9.j.x.j.9.9.+.3.k.k.d.d.i.r.f.k.j.F.L.G.%X+.5 MX$XF.G.9.6.s.l.%X1XMXrX>X2X0XMXBXrXl.J t s.#XK.k.k.4.5 fX%X*X$X&X&X&X+Xw.$X$Xx.x.z.w.w.F.F.z.+X$X$X$X=XMX5 $ : p u 0 9 ~ o.~ g.;XK ' qX$XG.*X0X2Xb.t.K 5 . T } | n.p &X+XF.+X@X@XF.J.F.F.@XF.x.z.@XF.F.F.F.F.F.F.@XF.x.x.} K &Xz.+X+Xx.+Xx.x.x.OXz.OXOXOXOXOXz.OXOXOX+Xx.x.F.[ v.~ 8 X qXj.z.x.z.x.z.w.q.6.6.7.q.j.j.j.8.j.j.j.s.5.l.qX( @ M.g.{ , W Y ^ &.%.m n O . I d.@.4.} ) } ) 5.u.u.} } ] R R ) p T { @.| *.*.a w n a a a b m ^ W u b u + -.h.-.;.>.-.h.^ a.I %   ",
"  7.$ % # o % * * * X % % # 1 3 & % * & 7 i *.{ 9 0 ^ ;.X.N x X., b ^ s ~ s [ l.6.8.6.4.5.5.+.+.9.F.G.L.l.s.s.u.s.s.l.s.j.x.x.k.z.K t J.J.8.s.s.8.s.4.s.b.%X%XJ.qXrX1X1X1XqXqX@X` 1XfXz.$Xm.5 MX&X$X+XF.z.z.z.x.z.x.x.F.&X&X+X+Xz.z.8.z.+X+Xz.qX} $ . . . . . u 0 W 0 ;XUXE . ) +.4.p . o , d.BXLXLXDXhX} p fX$X$X$X@Xx.F.+XF.$X+Xx.x.+Xz.z.z.F.F.F.F.z.+X@Xx.z.j.T &Xj.F.z.z.w.z.z.x.x.z.OXz.OXOXw.x.z.x.z.x.x.@XOXu.k.~ p.# MXz.z.x.x.q.x.w.0.q.q.q.q.6.6.6.6.q.8.j.x.j.8.j.>X% % @.U # { W ^ m x ^ n O # g.[ } ` _ 2.` } } k.] T I U I I I p i.Q u v b b n m %.X.x a b a w v v o., - =.-.X.%.;.;.h.-.=.~ &   ",
"  0.$ $ & & % X X X # X % & & 9 - & 9 7 8 9 + , 9 0 W X.%.%.X.X.0 a o.b  .~ [ c.5.8.j.s.s.s.l.l.l.L.l.s.s.x.x.x.l.l.z.x.x.x.l.k.6.p g l.+.` +.[ k.k.U $ k.#X#Xl.%X1X@XJ.x.j.8.F.&X=X&X3.x.z.. 1Xj.z.$X@X&X&X+Xz.z.x.+X+XF.F.&X$X8.q.q.F.w.x.$X1XJ 5 s.b.@XJ.>X&Xb.b.k.q *.] *.W H 8 @ t u.t.c.cXCXCXDXLXBXT KXF.$XF.z.F.@XF.F.x.z.x.x.x.x.z.z.x.z.z.z.@Xz.x.z.z.m.K &Xz.z.z.x.z.+Xq.x.z.OXz.z.z.z.x.x.z.w.x.q.x.z.x.u.} T e X u.j.q.x.z.x.x.q.q.x.x.x.q.6.6.6.6.8.6.6.q.j.x.j.z.% T n.[ 0 n M m N X.;.w # # m.) _ _ _ _ _ } ] 8 * I E W v v 8 ] E g J i v v b x < x a 0 , 9 , , , u w w u 0 ; , < 0 ; , 0 , 5   ",
"  0.K 5 * . . . X # o o * 7 8 7 % 7 7 7 9 , o . . # - . . , 0 0 s W , W { @.~ c.s.j.l.l.l.l.G.s.k.s.s.s.j.x.x.j.l.G.F.F.F.F.z.+.3.e g rX1X&X%X*X1XJ.! : = s.#Xl.b.l.k.z.x.x.x.w.w.q.x.6.6.k.$ %Xx.x.@XF.$X$X+X+X+Xx.x.x.x.+XF.F.8.6.8.3.x.$X+XqX$ +.fXMXaXaXSXaX0XfXNXNXf.y v.y.w u u.L.l.s.! g g #.sXl.BX5 &X+Xz.q.z.z.F.x.F.z.+X+Xx.x.z.J.b.@X@XJ.z.@X@Xx.j.l.6.J z.x.z.OXz.+Xz.x.z.@Xz.7.j.x.x.z.x.z.w.x.j.q.q.6.3.+Xz.4.= k.j.6.x.q.x.x.q.q.q.q.q.x.j.j.j.q.q.8.8.6.6.j.z.k.X D b.i.u ~ ^ b b n , o - # p.T / / _ _ ) 4.| )  . .I p E k.] ) | [ =.~ w b h h w < o o . O - , 9 u 9 + , -.^ W X.&.X.a.g.{ *   ",
"  0.t y s E E I p y 8 7 & - * s { I , 8 p u v Y u u 9 ~ g./.v.{ a.v.v s ~ ~ y L.K.z.z.F.z.J.l.k.s.k.l.l.l.J.F.l.l.F.l.l.F.J.k.) k.t t *X%Xl.l.l.J.k.J.k.. $ +.1X@X%X>XJ.z.z.x.q.0.w.w.q.j.j.5 #Xk.z.z.z.+X+X+X+Xz.x.+X$X@Xz.x.x.x.x.x.x.z.F.$X0Xe OX$XOX0.w.w.w.+X+X-XNX) . * & 8 U 5.f.s.l.s.s.q.+.t 5.#Xp @X+XF.&XF.F.@X&X&X$XF.$X@X@X6.%X@XJ.z.j.z.z.z.z.j.j.5.t @Xx.+XOXx.z.x.z.z.x.x.j.l.k.j.x.q.x.z.x.6.q.q.q.q.q.e.7.e #Xj.j.x.x.x.j.q.8.8.q.q.x.x.j.j.j.8.8.6.6.6.j.x.p @ E R ~ I W a.*.^ b 0 , 9 # p.n.u._ ) ` _ ` ) } }  .| @.p.u._ 4.r.g.&.n :.h.:.:.%.^ &.o.b 8 . . O * + o B.9XN.N.N.^.h.;.B.R *   ",
"  P * o 0 Y R R R  .~ Y | 7 - &.*.g.*.~ =.y.g.g.=.=.v g.`.h.:.=.*.*.] y s { 0 d.c.b.J.J.F.F.F.z.k.j.l.s.k.J.b.s.s.@.4.s.4.u.s.4.u.p p 5.3.5.6.+.5.6.b.qXs.. . k.>X1X1XG.x.j.q.6.6.6.q.x.@XqXJ 0Xj.x.8.6.x.z.z.@X+X$X&X$Xz.z.$X$XF.z.x.q.x.@X$XOXt 5.z.OX&X&X&X&X+XF.=X$X$XrXk.X 9 8 $ } k.5.+.3.x.w.7.OX&Xz.k.qXx.$Xj.6.z.z.l.@X+X+X@X%X@XJ.J.z.z.z.z.$X$Xx.j.b.u.p 1XOXOXOXx.x.x.x.z.z.q.x.6.J 6.x.x.x.w.q.0.0.0.0.0.0.0.7.5 AXj.x.q.x.j.8.8.j.j.x.j.x.j.j.j.j.8.8.8.q.q.q.k.* v h.S.S.A c x m M x . ; %.x o v.b.4.<._ _ _ _ ) / / / / / J ( 1. .Y ; =.=.`.D.D.&.%.h././.a.Y - O * * O { h.&.;.X.o.{ Y R 8 @   ",
"  $ = *._.[.[.[._._.`.9XtX, * W h &.f.-.-.:.=.:.h.v.h :.=.&.{ -.{ ~ r.p 8 c.Q ] k.k.s.k.k.l.z.J.k.s.s.s.F.l.! 5 $ % q * t u.5.) ) 5 p k.5.3.6.5.8.8.s.k.s.} ) J [ qX$X*Xz.7.3.3.7.6.x.j.j.0XK rX&Xz.z.q.` 3.z.+X+X$X$X+X8.x.$Xz.F.+X8.7.z.w.OXq.$ } z.$X=X+X+X+X$X$X$X$XNXAXAXBX1 R 4.$ d.y [ qX$Xz.j.k.;Xt.@.VXk./ K ` ` ` +.3.q.q.x.&Xz.z.x.@Xz.F.l.J.J.z.z.z.u.p @Xz.z.q.x.x.q.q.0.j.6.8.j.J ` &Xj.q.0.0.0.0.6.7.6.7.7.qXt MXx.6.q.q.6.8.j.j.j.j.8.8.8.8.q.q.8.8.8.6.6.j.&Xg b ,.Q.Z.Z.Z.Q.S.A A A {.Q.N > ~ t.) ' _ _ ) / / / / / / T T T R Y * &.=.w &.-.-.{ &.-.a.a.-.b w 9 - 9 . ^ h.-.-.-.o.*.Y W 0 &   ",
"  @ q H./.[.|.[.{.[.{.[.a.9 , ^ h.`.H.#.h.H.v.a.5XiXu #.*.| { #.y.t.i.4.8 U Q p s.t.s.b.l.s.s.s.s.s.9.s.s.8.5.4.+.4.} ! p [ +.} s.5 g J.z.J.z.F.$X%X1X1XK.1XqXqX=XqXqX0Xz.` 3.7.6.j.z.x.4.5.e k.x.F.j.6.x.z.q.x.z.+X+X+X$X*Xz.x.z.z.z.x.z.OXOXx.. x.&XqX$X$X$Xx.@X$XNXDX0X>XrXSXi.o | R - { :X6XK.J.;Xc.:Xu Q :X[ K.l.J.$X$Xz.F.8.6.` ` j.j.6.l.F.k.z.J.l.F.F.F.j.p z.j.8.x.q.x.x.x.q.x.6.j.3.6.j.q.j.q.6.6.6.6.7.7.6.6.0.7.J &X7.j.x.q.x.x.x.j.j.j.8.8.8.8.8.8.8.j.j.q.7.z.J p , w M c M M c c ,.M V ^.k A , X T ) ) _ ) ) / / T K K R E Y ] R ~ u 0 + s 0 , , 0 w 0 0 0 0 ; , o o ; o &.h.X.o.-.*.o.^ b 0 -   ",
"  $ t Q ~ :.>.^.^.{.{.{.'.W w ;.^ :.-.&.#.*.*.~ ~ y u p p t y U ! { ! Q : 9 i I [ t.+.t.k.d.5.$.[ ! ' [ +.` ` s.8.l.l.8.s.5.4.} c.& t %X@Xl.z.J.J.@X@X@Xl.l.s.l.x.F.z.x.8.j.x.6.q.6.3.6.6.5.5 u.6.3.8.j.x.x.8.6.x.z.+X+X+Xz.z.F.F.F.F.z.5.6.z.6.@ 1Xx.=X0XqXu.z.j.l.NX0Xb.#X1Xl.#Xl.. R r.O v.;X%X>X>Xr.~ 7 . . <XwX3XJ.1X%XF.F.s.l.l.F.qX%Xs.k.6.u.6.x.j.8.3.t.Q q J.k.k.k.s.s.k.z.z.j.8.6.' 6.3.7.` ' T T / / / ' _ L ` . t k.3.7.6.q.8.j.s.6.6.j.j.6.8.6.6.6.6.j.j.j.z.>XX . , a m ,.%.m M m k k V k V c n * % k.[ [ ) ! T R R K J U p , 0 y v u w + , , , , + , 0 w w u Y  .o.s O o h.=.*.*.*.{ ~ v 0 a -   ",
"  $ g g ~ ~ -.h.^.{.{.[._.v 9 -. .9 , Y &.#.{ y.a.y., X . . v  .] { *.[ r.Q , I [ +.[ ) ) } } 4.) ' U p K ) ) 4.} [ +.@.t.k.) ( T X , t.Q L T / ' ' / ' ' ` ' ' ' ' ' ` +.3.3.' ' ` 3.L ` 4.5 ` ` ` 6.x.s.5.6.3.3.3.3.j.x.x.x.x.x.x.x.q.9.x.x.6.5 4.&X&X=X@X6.x.x.q.+X&X@X&X&X$Xk.&X@X! : ! ! K.&Xz.1.J @ @ p <.5.[ s.l.j.6.5.5.5.6.k.k.u.k.s.4.} 5.4.6.k.5._ D I 8 u.6.4.s.k.4.) U J ) } 6.5.s.5.u.s.4.[ ) Q Q ) ) Q E I % q 4.@.} [ } [ [ [ [ } @.[ ) ) ) ) 4.u.u.u.u.m.p & 0 , m ,.,.V Z Q.Z A V l Z A c m + * b.] U v v v R p w v g v E i p { r. .r.t.r.t.4.{ } [ ! [ +.4.t.*.w - o =.=.-.{ [ [ ~ { W w 0   ",
"  1  .I Y ^ a.=.-.>.D.D.*.w 9 R ] R 8 y.`._.8X8X8Xv.{ 8 Q U U ~ ] t.:XwXgX2X= +.c.J.*X*X&X0XqX=X=X$XJ.%X1XqX0XfX0X2XJ.;Xc.L.J.[ # % . o J 5.k.k.m.j.s.s.z.l.z.x.z.J.$X%XJ.x.6.3.3.8.8.` } t $ 4.k.z.z.z.z.b.z.b.@Xu.z.k.u.6.` 7.6.5.j.J.z.j.<.<.9 q z.k.$Xz.z.x.x.x.x.&Xz.+X+Xz.+Xz.@Xl.+.5.J.J.&X&X@X&X<.@ &X1Xz.z.J.qX*X+X$X@XF.l.P.c.J.b.l.l.l.b.z.@X$X@Xk.4.] y l.l.l.%XqX#Xi.5.+.5.s.k.#X>X%X#X#X#XK.>X1X%XJ.#X#Xc.K.X [ 2X;XK.H.H.).;X;XK.t.! g @.4.u.r.i.c.n.n.r.t.] 9 0 + ^ ;.,.A V Q.Q.Y.V A ,.A m w - % E y * y v i i u , 9 % &X@Xj.6.7.6.5.l.j.8.6.8.5.5.9.5.+.5.[ ! R * % . ^ &.b { *.&.*.p.W a w   ",
"  o 5 ) v Y  .g.| *.y.*.8 8 i | p.[ | { ^ a.=.&.a.{ =.Q *.r.[ Q o n.tXAXAXv.: [ l.s.j.8.j.9.7.+.+.+.+.L.P.P.G.l.s.9.u.s.t.Q @.@.X % * * ! t.4.b.z.z.F.j.z.x.l.F.z.@XF.F.z.l.J.J.J.F.k.z.&X) o #X&X&X&X@X&X$X+Xz.q.x.x.x.j.j.x.x.x.j.$XqX=X=X=XqX$ $ &X&X&X@Xz.+XOXx.x.&X$XF.z.z.z.x.z.x.l.j.8.j.j.j.j.@X` 5 6.6.+.q.8.7.7.0.w.0.0.8.q.6.7.7.7.0.q.8.q.x.F.x.7.u.) U b.k.J.i.k.c.5.+.4.4.+.4.) 4.) } +.+.} 5.+.+.+.k.l.+.i.* ) +.3.7.3.5.5.5.3.6.5.4.4.6.j.j.u.5.u.k.} } t.b.E 8 # , W x x x f c < B A A m x , O - o 8 { g.g.*.*.=.^ . . F.8.8.j.8.5.5.' ' +.+.+.+.5.5.+.5.5.[ [ [ 8 - o W =.^ -.o.W ^ W - W 0   ",
"  1 p  .~ ] Y r.n.p. .p & p J T n.T k.i.{ a.&.s Y i U ) ! [ [ s.<XDXBXrXBXrX8 [ #XK.i.5.8.8.9.s.9.l.l.f.G.f.f.f.s.s.s.s.l.5.) 8 X % . . . . p 0.j.x.x.8.3.3.` 7.6.8.6.6.8.j.J.j.x.z.F.J.OX5.o j.x.z.F.z.z.w.q.7.0.0.0.0.8.q.x.x.j.j.x.x.w.x.z.&Xe 8 MX=X&X$X$X$X$Xx.j.z.&X$Xz.F.z.z.j.x.j.6.6.6.6.k.8.s.6.J %Xk.x.3.8.w.0.w.0.0.0.w.0.6.7.7.7.7.0.0.q.q.q.z.j.k. .Q d.u.t.) [ U u.5.} } ) +.5.} +.) ) 4.t.+.+.` +.+.j.@.4.* 4.s.5.4.6.u.5.5.5.4.7.5.6.6.3.7.3.5.5.5.` +.) R E ] o . . ; m m Z C.Z V A A a . . X . . | g.=.f.f.-.h.].w g J.s.5.8.5.5.4.+.+.+.[ +.4.5.5.4.+.+.$.[ ] y O o W ;.o.o.^ W b w 0 a 0   ",
"  t t ) (  .~ i.v.v.m.3 o 7 i F } T U ~ { /.(.y.p.] } ` / } ) J.VXZX<XH.b.k.8 r.;XJ.5.+.8.7.7.8.9.9.9.9.#.9.u.9.8.8.j.q.8.s.j.j.. . ^.^.>.b 9 _ @X+Xz.7.+.3.<.6.6.3.` +.` 5.8.8.j.z.F.z.j.x.$ m.@Xz.z.OX+Xq.6.7.0.7.7.7.7.0.q.q.q.q.q.0.w.w.j.z./ 6 MX&X$X$X+Xz.x.q.6.6.j.z.z.z.x.z.x.x.j.6.6.6.6.j.6.k.4.p m.j.x.6.3.q.0.0.e.e.2.7.8.5.7.0.7.0.0.7.w.q.j.j.u.u.R E i.d.f.@.[ [ ) } 5.4.} U ) b.0X*Xu.J [ 4.[ t.4.3.4.4.k.p T 4.5.5.7.7.4.4.6.4.7.3.} } 3.3.3.3.6.3.3.7./ ( ..v w ,.Q.Q.Q.C Y.U.T.C Z Z ,.m j M %.%.x ^ q [ `.-.=.:.Y r.5.` +.5.4.5.+.+.+.5.5.3.+.+.` 5.+.5.u.5.| 9 X o u o.b 0 s s 0 W s s -   ",
"  F 5 _ _ _ y i.n.i.p.7 X & _ 6 ) I 7 *.y.~ ^ o.p. .` ` ) ) } +.` 3./ ` } } y t.L.d.@.+.3.` 9.j.9.9.5.5.9.5.5.7.6.7.3.8.7.9.G.].m x Q.{.Q.}.+ . / 6.7.L ' ` ` 7.' L / _ +.` 3.6.j.F.z.8.6.z.$ 4.j.q.0.6.q.q.0.6.0.6.6.7.7.7.7.0.7.7.0.0.0.0.0.x._ 5 1Xj.z.x.q.q.x.x.j.s.8.j.x.x.j.j.x.j.q.q.0.7.7.0.q.x.5 . p b.x.6.8.7.0.0.0.2.e.q.8.3.7.0.0.0.0.7.8.8.j.s.u.u.U J d.d.i.@.) [ ) U T ) p J #X#X0Xl.5.5.q p s.i.5.4.$ <.m.e 8 4.` 3.7.4.4.4.4.4.3.7.7.7.3.3.3.3.7.<.3.K } i.v m ,.Q.Q.Y.z C R.R.U.U.U.Z.l V V Z %.,.A A Z m , w ; + . p k.5.5.5.+.+.` +.5.4.3.+.+.+.` +.! $.#.[  .E % # 9 O . O o o 0 ^ 0 s ;   ",
"  L 5 ) _ 1.p i.v.g.n.8 X * e T } 9 i y.g.r.#.*.r.@.[ ` +.` ` +.3.3.3.3.5.} 8 t.f.#.s.l.s.8.8.s.5.5.+.+.5.5.` 6.6.+.$.5.:.S.|.}.}.k k ,.+ B ,.>.^.w J J _ 3.7.2.t ' 3.j.6.3.` ` 3.7.j.j.x.OX$ u.j.j.q.q.0.q.0.0.6.0.q.q.0.0.0.0.7.7.7.7.0.q.w.q.OX1 &Xx.z.q.x.x.x.x.j.j.6.x.x.q.7.7.6.6.7.6.6.6.6.7.0.6.} % T z.k.8.6.6.0.w.0.e.7.x.q.7.7.6.0.6.0.7.s.8.s.s.s.d.Y g K.t.r. .r.[ R J y : p c.K.;Xd.d.d.@.[ U R ! ) ] I ) p.K t k.) 7.7.4.3.3.3.3.3.3.7.4.3.3.3.3.4.4.4.K p U v ,.A C C z U.U.Z.U.U.C C C C C V C C.C z Y.Q.Q.m O + # , v k.+.+.3.` ` +.` 5.+.5.+.' ' ' ` ` $.K J R y % # s - 0 0 - O 4 s r 0 -   ",
"  L 6 1.} 1.p f.h.h.v.u X $ D #Xb.I q #.t.y.*.r.t.@.$.` +.+.+.+.3.6.8.6.6.| 7 r.f.t.s.u.t.P.P.f.@.5.s.5.J +.5.k.[ ! $.m {.!.T.!.~.~.E.~.!.R.Y.!.|.Q.< w t.j.6.<.` x.@Xj.7.7.+.` / ` 5.6.m.j.$ } j.q.q.0.0.q.0.0.6.0.q.q.x.w.q.0.0.0.0.q.w.w.w.q.@Xo z.x.w.q.x.z.x.x.j.8.6.8.7.3.3.3.3.7.3.7.6.q.6.6.6.6.} 1 ) m.6.3.e.0.0.7.7.7.e.0.6.0.6.3.7.6.s.5.5.u.f.c.d.v.~ Y t.[ Y v @.t.t.[ q > @.<XL.f.c.l.k.@.K.g 9 [ E R 4.T u._ 9 b.5.6.4.3.4.7.3.} <.3.3.4.4.4.4.4.4.<._ K J Q w A C Z.U.C U.U.U.U.U.T.T.Z.!.T.!.Y.T.C z z z C ,.; . . & 8 = K +.` ! ' Q +.$.[ ! ! ! ! ! ! ! K K ! p o . o - 9 - ; - d d 0 s u 0   ",
"  L 9 | )  .p v.H.h.c.s # % t _ J g [ U c.4.*.f.t.#.$.` ` ` ` ` ` 7.6.6.7.} 7 t.d.s.s.@.[ t.#.f.f.f.u.s.5.Q s.K.g.>.{.!.U.~.~.~.E. X XU.A.U.z R.R.!.!.,.q R K ) <.q.6./ ` ` ` ` L ' +.7.j.l.: 4.j.x.q.0.6.6.6.6.q.q.q.q.0.0.0.0.q.q.q.q.q.q.q.q.0.5 K b.z.q.x.z.x.x.q.7.6.7.7.7.7.3.3.3.7.q.x.j.j.q.6.7.3.t 4.m.6.3.e.e.0.7.e.e.e.7.7.7.0.6.j.u.R g = 0 ^ o.W Y 9 8 ~ @.v 9 g U { [ . y L.K.) { 4.{ { [ q = 8 [ 8 p #X4.p.} e m.3.} 3.3.3.<.} } <.<.<.<.<.<.3.3.3.3.<.p / *.:.S.Q.T.T.Z.z z A.R.T.U.U.U.R.T.!.U.z U.z Q.Y.V Z Q.%., v + . o R [ $.! g g ! U g g g g K ! g ! ! g g u q 9 b b a < a 0 s b 0 0 3   ",
"  F 9 _ T ( U c.H.c.*.8 X * 1 o p ! 4.K $ t.y.y.f.$.[ [ [ ` ` ` ` +.4.3.3.+.: 4.s.F.l.f.f.f.! Q #.u.@.d.4.[ K.c.f.:.{.,.V Z.~.}.!.}.}.!.l C C A.R.~.!.!.; 0 i.R ` / K ) ' ` ` ' ` / / j.u.u.q ) 5.7.0.7.6.6.7.0.q.q.q.q.0.0.0.0.0.0.0.0.q.0.q.0.j.F $ j.4.6.q.j.q.6.7.7.7.3.3.7.7.7.7.3.7.j.x.q.q.6.6.7.} * ) 6.7.e.2.3.0.6.7.e.e.e.e.e.3.4.1.8 . * - n X.4 O O O * ~ W v p v R [ [ r.@.v.d.Q ) [ [ g t U [ [ J g 7 i.) [ } 5 u.) } } } 3.3.} } } } 3.3.<.<.3.3.3.<./ T ( d.D.A Q.Y.R.T.C l z A.U.U.z C U.U.T.Y.C z C Y.C !.Q.Y.Q.c , > Y Q * ~ @.t.! $.#.! ! ! ! ! ' $.[ $.#.#.! ! Q g w W ^ m a + 0 b u 0 -   ",
"  e 2 e t 5 y v E ~ E 8 # 1 1 7 U | @.R U i { =.{ [ $.+.+.+.+.+.` ` 6.6.k.u.: #.s.s.f.G.P.f.U =.t.+.t.@.@.c.l.#.#.m #.S.B M A A A Q.Z Q.Q.Y.T.C !.!.l Y.N + Y * p / <.' / ` ` ` 4.5.` ` 5.k.& ) 6.6.7.e.7.0.0.0.q.q.q.q.q.q.q.q.q.q.q.q.q.q.q.j.z.K D 4.t 3.m.5.m.j.j.x.8.8.7.7.7.7.7.7.q.0.7.7.7.7.7.7.) = ) 6.3.3.e.e.0.0.7.e.e.e.e.3.4.4.1 o % 0 a w 4 4 0 w , O . , v | [ g R r.t.{ @.| Q R ) [ @.5.i.5.d.] i.i.: [ } _ 7 <.} ` } } 3.<.} <.} } <.<.<.<.3.3.3.<.3.) ..{ - ; Q.U.R.R.z U.R.U.R.R.z U.U.Z.z Z Z V z C Y.T.Y.C Z.c x h ^ @.% o ~ [ #.#.Q ' #.9.[ $.K U ! $.#.5.$.! Q w 9 , 0 0 , , w o.b o.-   ",
"  2 / } @.U J g p 8 8 X 1 3 1 & U d.r.Q d.[ g f.[ t.5.9.5.5.5.5.5.5.5.5.s.@.: $.t.5.G.f.:.#.g.t.K.! f.).:.f.t.c.P.D.:.m j h :.,.l l A V Z Z V Z.Z.V c c w x + : } 3.` ' ` ` 3.6.5.3.' g t r.7 t.6.6.7.7.0.q.x.q.q.q.0.0.w.q.q.q.q.q.q.q.q.0.q.j.OX_ ) u.D D _ <.6.j.j.j.8.j.7.7.8.8.8.8.0.7.e.e.e.e.e.3.+.$ 3.j.3.3.e.2.7.0.0.7.e.e.e.e.6.4.1 X + , 0 + 4 a a a b 0 0 v @.H.*.q *.[ I R ] [ g U [ [ @.@.{ [ ] Q @.) U g } } 8 4.3.` } } <.} } } } } } } <.<.<.<.3.} / T 9 . + ,.Q.Q.U.Z.U.U.U.U.R.R.z U.z C C Z S S z z z z z k ; w , w * . o q q q ! g U [ #.[ Y W Y Q Q [ [ *.@.#.v , u { n w n ^ b b w W -   ",
"  $ 1XrXK.v.).).g.4.] 1.& # & * o & 8 y 1 p . 8 p p p i y 8 t q J U U g i p : R Q Q $.[ c.c.@.Y c.v.t.:.-.b g ) R u.{ w =.! :.S.S.S.V k N B c ,.B k M x ,.>.w * [ i.~ J ` +.5.u.5.3.` ) 1.} 7  .4.6.3.<.7.3.3.7.6.6.q.q.x.x.q.q.q.q.x.q.x.j.j.q.m.t D 4.p i T ) K L +.6.8.x.x.j.x.x.j.w.0.0.7.e.e.e.` ` J % T 5.4.6.7.3.2.` L / ' ' ' ' _ ' 9 - # o 9 ; ; d d b x a a W ~ Y v v [ [ R )  .I I | | { ] ~ R U U R ) _ I 9 p p e } ` ) ) / ) ) / ) ) ) ) ) ) ! ) _ ) X , M ^.V A Y.C.Y.C Y.Z.Z.U.U.z C V C A A c m x x h.:.h._.h.-.O . % o # v v v Y v v Q Q [ @.*.[ ~ i u u u y 9 u 0 = . w b w x b x 0 , - X %   ",
"  $ &X1Xr.f.#.y.v.(.n.UX .# # @ E I 8 7 T T  ...i D J D T 1.#X2X%X,Xc.d.d.t.& d.l.l.K.3X;Xv.: { h.H.:.h.-.f.[ t.>Xz.u.j.4.*.%.%.>.>.< w w a m >.x , n %.%.x w ~ v i.u 8 p 9 t p t t i J I y 8 8 9 J ..J q p J ) 4.5.u.6.+.+.3.3.3.3.3.<.4.u.4.T 9 # . 9 7 J ) _ J K ` ` ) 4.5.5.4.<.<.<.<.<.<.<.` / t t 9 * 9 ( T D _ 4.T D / 6 F L ' ' ' ' / ` y - , ; a - 0 n b w , ; ; 9 v { Y ~ ~ ~ U R [ ~ Y W s 8 p p i D i D 9 p 7 1 & 8 7 8 t D D D J K J J J J K D p p * ^ ^.Q.!.C C V k S S l z V Z A S.,.b Y 2XeX2XH.g.c.:X1X>XBX(.;X{ | s a.+ W &.-.y.f.=.-.#.#.{ { n ^ #.&.~ W Y v p 0 7 % 9 & , , 9 - 7 7 8 # %   ",
"  = p j.! u 7 @.;Xv.2Xk.| @ @ % n.b.t.4.b.#X#Xk.k.s.p s.k.l.J.P.P.P.J.l.l.t.9 d.l.l.s.5.5.} t.5.+.! ;Xs.5.6.5.` q.F.0.w.z.K.b < x w x < , x b , , - - , O w u s i . 7 t.i.d.i.i.4.Q q . v O 7 v.i.@.[ @.n.n.d.i.t.c.K.K.t.) Q [ ) ) Q ! p R p p & 9 i ) J R u.b.b.#X1X#Xi.U U Q [ u.k.k.k.m.u.) T p J 8 9 # o 9 E ( ( ( _ _ <.<._ ' ` 2._ ` } / E Y , ; 0 < a ; O - ; , s w b Y v v v Y I Y Y ] s y H 8 g g J J T T J T H I # p T ) T i J ) 4.4.4.} _ } _ | I 9 , `.{.{.Q.Z.V V V A S c A x m >.h.[ ) 1.r.) [ @.@.@.| } J ) [ 4.t.*.8 I Y b v b ! ^ ^ Q ~ Q U I U ~ #.@.[ { | { R ] I # u E Y s v Y I I u # X   ",
"  $ T / t J D T u.} 5.} 1.@ @ J 4.l.t.s.s.k.6.6.4.[ u.l.l.s.9.s.s.s.G.G.f.#.: d.l.s.6.6.j.j.u.s.5.5.5.4.` e.e.0.3.q.x.5.s.[ . w ^ > w < < x < ,.{.Q.>.>.W . . . , & v n.@.s.4.5.i.t.t.@.8 & 9 t.[ ) U Q [ | | | } } ) } 4.4.4.4.4.u.5.i.t.) ] ..X i 4.7.6.3.4.3.} ` ' ) _ / ` 3.5.k.b.b.k.k.u.) 4.4.) ) U * o J ` <.1._ _ _ ` ` ' / ' ' ` ) p y w b - x A Y.Z.Z S c w - 0 # . O u , v Y Y u E I E r.J q T / ! ) ) ) } +.} 1.9 R } 4.4.} ( ) _ _ ) / / J g.3 r @ . # w >.{.Q.c B V V A c + * , t.) } ) 4.) } | 4.4.r.i.k.b.5.5.[  . .X I [ *.=.{ #.*.*.@.@.4.@.[ ] ) T Q ! [ ! { ] E I X I s u Y ~ W W E i # o   ",
"  % p 4.3._ ` 3.m.e u.u.( * @ ` 4.} ` 5.5.u.5.u.} 5.b.d.l.t.5.5.5.9.9.9.5.[ 5 s.5.7.6.6.7.6.5.+.7.` ' ` ' 6.j.7.m.<.i d.o , f.f.^ < ; < x c A Q.Z.Q.A ,.^.,.M n s , . I 3.3.` ` +.[ b.n.E 1 5 OXu.4.4._ ) } } } } } } 3.} +.5.4.4.3.7.3.+.} _ ) & I _ q.7.3.7.6.3.7.6.x.6.6.3.<._ / _ 3.` ` J e 4.4.4.<.( 1 % r.R _ 1.1. .) T T  .| ( ( _ E s -.x f k Z Y.T.U.R.Y.V Z Z c f %.M 0 a n y.{ Y 8 7 T J p / K K T ) ) } _ } T ] g J 6.m.7.4.4.K r Y w A Z Z S.Z l V ,.A x x X.>.c c V k > , O o : f.u.t.@.5.3.4.} 1.} } 4.i.r.) @.4.[ Q 5 T 1.z.4.} T )  .| [ @.@.[ Q ) ) Q ! R T E E E H X Y Y i I E E Y u s % o   ",
"  $ . ) / ' 3.5.k.4.b.m.p % * 3.7.' 3.3.3.4.4.5.4.} t p J @.@.` +.5.3.5.7.) 9 t.3.3.6.+.6.7.6.6.j.j.x.` } u.j.4.) m.( . + g.-.-.m < j x < B Z.!.!.Z Q.z C A c m ^ { o.. 4.4.+.) } } c.#XUX% 8 u.4.4.4.1.} } ) } } } 3.4.@.[ } @.4.4.4.4.<.4.2.4.1 1.k.6.j.` _ 3.j.6.3.7.7.<.<.` 2._ 3._ <.` q 5 K | l.k.n.7 * ~ y 9 8 p y 8 8 - 9 8 r H s W &.X.N Q.Q.Y.R.!.T.U.U.U.Y.Y.V V Q.Z k m ,.>.o.w * p ( <.1._ K K T K K J D J D ) _ 5 6.7.<.1.p ,.S.Q.Y.C T.T.R.T.U.U.U.T.Q.Q.C Z x < %.-.{ { s E R | @.} +.4.r.| } } ) } ] ) R )  .] R ) t } 0.m.0.<.2.T ( )  .|  .T T T ( T K K / T i I r % | ] E I I s s r y & X   ",
"  $ $ 4.` _ 3.` } } _ 1.7 % 9 <.K ' ` ` ` 3.5.4.4.t $ % 8 | @.[ ' +.' ' +.' : l.s.7.3.6.j.` 3.s.6.5.3.7.` 3.3.j.5.m.z.) : ).~ =.m < M c < x V Z }.!.Q.Q.k k x x < [.bX^ , ~ I I I U +.4...& T u.} } } } } ` ` } } } +.t.i.@.[ [ } } 4.4.} _ ( 1.% _ 6.` 6.6.3./ ` ` / L ` e.3.<.<.<.` ' ' ) e t 4.4._ | ] , 0 B A V V V V k k c B A c A x M N x A Q.~.T.U.T.T.R.R.R.U.R.R.T.z U.C V S m , . . u R } ( D J T ( ( T T ( / _ E T 1 1.J r o ,.}.!.T.A.l l C Z.U.Z.A.z l C l U.T.A k s n.u.} 1.p.p.p.1.<.4.<.<.} } [ ) ) [ ] }  .} ) ) } p J K 1.m.#X&Xl.g p ]  .] E E i I D D / T p D I * * | Q E Y s s v s i 3 o   ",
"  @ $ 4.' K ` ` K ) / _ * * t 6.` ' ` ` ' ` ) [ [ ! t 8 p 9 U @.} +.+.` } K : J.k.x.6.5.7.+.3.5.` +.7.6.q.3.+.6.7.) 6.k.5.K.=.h.m < k M < < < M ,.,.< < < x < , x h.^ m B., o . . . . . . 7 } p.4.4.<.<.} } } } ) ) ` 4.| ~ | 4.4.} / } <._ / _ $ _ <.3.5.6.3.6.<.' ' <.2.<.3.7.<.` <.3.' } +.5 Q T I y o O B A V R.T.R.U.R.C A.U.Y.C Y.U.C.c C.!.!.~.E.U.C U.R.U.R.T.U.T.E.E.E.U.C C C S < 0 . # 9 8 8 D T ( _ ( ( / J T E E D 9 o O ^ S.Z.~.Z.V k C C l C l C z C C C A.z C c + r.1.1.4.4.r.p.i.4.} <.4.} )  .) ) ) } } | | } _ } 5 D T ) 3.j.i.| Q Y I Y R T E T T D i J ( T i E X * R U i E E Y Y H i 7 o   ",
"  @ % J / K ' ` / ) (  .@ % D k.} ` ! ) ! ! ) [ ! [ ) [ v o . & p 5.5.} } K q J.6.j.s.4.4.6.3.` 3.6.5.6.7.` 7.3.3.7.` 4.+.@.*.=.M j k k M > < M %.M < m M x ^ + s 0 - w s s b b W ^ v R E 8 ( 4.4.u.u.p.} } } } U ) 4.} Q Q R U R J ) } } } 1.b.5 b.5.m.7.` _ 3.2./ L _ 2.` ` 7.3.6.6.<.) 6.5.U . o 7 , , ,.Z l z A.U.U.z A.U.C z l C T.T.Y.V V Q.C.T.!.!.Y.U.C C z U.U.R.U.E.W.W.U.U.U.C Y.Q.Z c c w * 9 D t J J J D p p i i 8 g &.X.m V c A A k c B V V l C z A.Z.l A.z l z S < h.[ 3.4.4.<.4.1.} } <.} } } } } } ] } ) } _ } } _ t t / _ / <.4.| ) ] I  .R I I T I I ( T R I I E % 8 E J I D p p H y u 7 .   ",
"  $ % ] ) / ' ` } <.4.| X @ p m.I ) ) ) J g s.5.) +.t.d.d.Q X . q c.+.' ) t t s.7.6.5.5.4.4.` } u.6.5.7.7.3.6.` ` 7.3.` g [ ! ^ m < k k k x < > w w < w , 0 &., o O O . v ^ X.%.;.-.&.&.p.1 i t.} 4.u.4.} } ) T J T T T R Q ) ) U t J ) k.}  .>X5 b.5.6.3.<.2._ / L _ <.<./ K <.u.3.` _ } ' <.4.1 # u u w B c k V S S V V V C Z Y.C V Z V c c f S V C.T.Y.C C C C z C z U.C U.U.T.A.R.R.U.U.R.Y.Y.Q.A c k k m < , u 8 g v * 8 | *.&.m x k < o . . > > > M < B S S A Z.z l l C Q.w *.4.} } 4.} <.} _ _ _ _ ) } } 1.4.) _ _ _ } } ) _ t p ) T / _ ` ] ] i i T T J I J J I U R R y p * O 0 R E p p E E E I E 9 o   ",
"  @ X I ) ) / 4.4./ } p.o X 7  .T ) ! ) ) $ b.@.| d.r.| I q 8 g ) ` ` / ) * t 6.` ` 5.3.3.3.` 3.3.3.3.6.7.3.3.3.` ` ` ' ! $.#.%.%.j B c x c x m < + * - ~ 0 n x v -.h.>.:.x < x x m %.b R 9 T 4.) } | ) } } ` ! ! J J T ) } _ ) i p J T J ) ] r.& } } ` 3.2.` _ / ' ` ` <.} / ) ) / _ ` ` ` 2.1.E & . * b m m M M x a 9 m x < f m M c ,.A Q.Q.!.!.C U.Y.Y.Y.C C C C l C T.!.Y.Q.Z C C V C U.T.C Y.V S S S V Z V x ; w W u y g v w $.:.:.,.:.M %.>.D.S.^.^.B + < o ; M c < k V.A ; E 4._ _ <.<.} } } ) _ _ } } _ ) 1._ ) _ ) _ ) / ) D t j.<./ / ( i * p r. .p T J I I J R J 9 7 o . o 0 I ] s i p E Y u u 9 o   ",
"  $ $ T ) ' L } ) / / ) X @ 7 ) T ) R  .} D _ 7 ( R 8 . . [ 5.' ' 3.` T T $ J 3.` 3.` } 3.} 7.3.` } 3.7.3.5.` 3.+.` ` ' ' #.=.h.^ < ^.m ^ &.:.:.^ %.$.=.~ h D./.&.-.:.^ %.m w w x m M n Y e 8 u.4.} } ) ) / T ) T T } } _ / J / ( J D t T R ]  .8 ) ` ` <.<.<.<.` _ <.K ) 3.7.<.t K / ` ` 3.2.1. .- -.^.{.Q.S.S.Q.Q.Q.{.^.,.,.,.A ,.!.!.Y.T.R.R.U.C U.Y.!.Z.Y.z U.C C U.Y.C S S Z S S S V V V C.Z k c f f x f < < x w s ( r.[ =.h.`./.D.].D.D.{.{.{.{.{.{.{.>., + + , %.^ ,.c x 9 i.} _ } 4.} _ <.<._ _ } } _ _ } ) ) ) ) ) ) ) ) } K 5 u.<._ 4.p.5 $ 9 r.] p R R R R R Q T 8 p 7 o o Y W { W u Y Y 9 9 u 9 .   ",
"  % * I K t p ` K J T p X @ @ E (  .R R  .m.r.& . . . 9 [ t.) K ' ` ' / ) $ ` 3.` ` ` ` ` ` ' ' ` / T ' ) } ` ` } ) ` ' +.5.@.d.Y , ! $.+.} +.' #.f.:.f.t.y ! D.b > h w x b W u w n ^ n Y y 1 4.Q R Q [ T T T J T T J i p p p J T T T J t J I i y ) ) ) _ } ` ` _ ` / K / ' ` _ p D K ` ` _ 3.m.E 0 [.S.B z C C Z.C Y.Z.C Y.Q.!.Q.Y.Y.Y.U.U.Z.Y.Z.Y.C C U.Z.l C V z Y.C U.C Z Z V V k c k c c f + ; O < w a * * ~ y.i.p.6.1.! #.f.:.:.:.f.f.f.:.&.-.%.%.:.%.-., + + = :.{ ^ ^ ^ w  .1._ ` <._ ) <.<.} } ) } ) _ _ ) ( ) ) } ) } } ( _ $ } ( T T J e . . X * p T J J J J 8 E | E * o o ] Y E s s E E 9 8 7 & *   ",
"  $ X y 9 8 T ) ) R ) i X # % % i ] | 9 T ] D X * X . y ) T ) ! J U U T T * ` 3./ ' ` ) ` } ` ` / / } } <.} 3.3.4.) } ) ) 4.4. .Y 7 [ } R ) 4.} ) [ +.+.) Q U U I & O o 7 , v b + b ^ n ~ E 9 i D J I U E ..]  .] T E E I I T T J U J R I H ..E 8 i I T T / ) T ) ) ' T / K K / K p ) ` ` ` } m.t p b > x %.%.A A A B k A A V A Z S k l l k l C C C Y.C Q.T.z Z.z Y.T.Z.z C V Q.k < x < < < o + . . + 0 n X.0 y ) K _ ' ` ' ` K R Q U [ ! Q p p p U [ { I | t.[ ] | p . W v u Y y R J T K _ _ / } } } } _ } } ( ( ) _ _ ) _ ( ) / T 4.5 ) ( T J D D e o . i ) T 8 1 9 D I T E u * o X # * . . . . . . # & * 1   ",
"  @ % q 8 8 p 8 p p p 9 % % X 9 9 y i | p 8 p i p p 9 % X y p y t J T t p 5 K T J p i J T T / J / T / } _ ) / ) ` ) ` } p T T y 8 X J Q U ! $.+.{ Q Q [ [ [ [ u.d.k.T # . * O { n w x n ~ Y i T ) ) g i I E ..] ] ..T I J g p J i R ) R p D I q p i 8 8 t p 8 t J T T T J T T K T T p J R J p 5 I r.y.$.D.D.>.>.^ %.n u m m m N B c c c x x k c A S k k A Z S V Z V C C Z V S A c x 0 # . # # O w + O - . 7 ( <.7.L L L ' L ` t m.u.<._ _ } 4.4.[ [ +.4.4.t.u.r.d.v.c.@.8 & W w , Y ) ) _ / ( K K / / } T ` T K T J ( ( T ( ) T ) T i 1 D T ( r.r.p.E X o i.T . 8 E ....i y i p - o o o . 8 i i D J D T y 1 _   ",
"  % * e p y 9 y q i I p % % X 8 E J i u.T ] 4.T T ) )  .R y y y p u.1.| | * 8 T / U T T / ) ) ` 3.) / ) } } } } ) ` u.u.@.[  .@.I . Q s.g.d.g.c.c.c.c.f.f.[ @.l.u.@X%XJ.Q 9 & w b x x b ~ Q q | 4.( J D I ..] | ) T I I I 7 7 i T |  .] ) y T i D E H I g p 5 t y y p p i p I R ) p * i Y *.*.-.:.^ %.%.-.^ n ^ ^ a.-.{ ^ X.^ &.^ %.%.%.%.,.%.m M x k < k k < k c k k k k < c k < < , , n b s O W X.X.^ 0 p 4./ 2.L L L ' / _ 5 1.1.1.} } _ ` } 4.} T J } } ) ) ) } 4.i.| |  .w 0 W ] ) } 4._ <.<./ / _ ' 1.` <.<.T ( _ T K ) _ _ i T . T 4.1.i.p. .* . . & # ..| E s y y r & % # X o o 8  .} } <.1._ _ 7 * }   ",
"  $ * *  .i 1 1.p.) T I 1 7 1 8 ] J J T J T T J / T T J ) } } 4.} u.} } | o t ) ! / / ' ) ) ) _ ` ` ` ) ) ` } ) ) } ) } [ t.4.| I . [ @.@.#.#.#.@.#.#.$.#.$.! [ Q ' [ 5.k.1XW + . 0 w b ~ 9 p 1.} ( ) T E T T T I I I T ( E T T ) ] R R | ]  .i T I p E R g R R ] | *.r.r.E p y 7 p | *.*.*.&.-.-.:.>.%.-.-.b W -.&.^ ^ ^ ^ W ^ W ^ ^ ^ ^ &.%.^ m m x < x < x < < < < < + < w ; ; , , &.W v W y o - p T _ _ / L ' ' ' L L L _ 2 7.4.} _ } } ) T ) ) / K K T T ) ) ) } } | k.p.9 9 *.R ) T ) T ) ) T / K <._ _ ' / ` ) _ <./ _ ) ) ( 4.X T t i & . . & 9 % . y g.{ E Y W W W W E X X X . D _ ) ) ) ) ( T 7 %     ",
"  1 1 * p y 5 1.<.e t p * 7 8 7 } J p J p F D K K K T K K / T K K D L F t o q T J J J J T T T J p p J K K T / K _ ) . g U Q ! U I . U ) [ [ ! U ! U ! ! ! ! ! ! ! [ ! ! } @.v u * O u *.W 7 ) _ T T J D D T ( T I I E I ( .._ ( ) ( J J )  .) J J _ 8 )  .| { { @.*.@.{ | ] * o . | t.{ ~ v , p *.| Y Y { Y v ~ { [ ~ ~ ~ ~ Y Y Y ~ ~ ~ ~ ~ ~ { { &.#.^ ~ , w q + , , w , * 9 s u . , o.@.T / / / p K _ _ 7.e./ / / _ _ L / _ 6 5.6.` } 1._ ) ( ( T T T T T T T ) ) ) _ _ } ) * * { J ) ( / ) ) / ) / / / / / / / / / _ / / K _ _ J _ o } o y I W W W ~ o.W s o.W r W W W b W s # % # . T _ / ) ) ( ( I 1 %     ",
"  5 @ % X 8 5 * e ( J p 5 & 9 * ( p t D t p K J J K / / T K J J K J K J E # 8 T i e D J T T D p J K K K K L L J T i Q J J U I I i o t Q J J U U ! U ! U ! ! ! ! U Q g ! [ W 0 n 0 O w g.w p ] T / T J T T ( ( T I E I E ..] ( ( ( T R T ) ) ] T J | J 9 I { { { [ ~ ~ R I Y R y p I ~ U i i I R Y ]  .{ v I { ] ~ ~ R I I Y R R ~ W W ~ Y R ~ ~ ~ ~ ~ { [ ] y X . * 9 8 + # b Y o.W . 9 R T ` ` ' ' K L _ 2.2.L L L / _ _ / 1.e 4.4.) ) ) ) T T ) ( T J K J T T T T T T _ T T y X 0 J T K / / / / ) _ / / T / / / / ) / ' / / ( _ T 7 . <.e T I E b Y Y E W ~ ] W s ^ s s I r o o - - . I ) / / ( ( ( D * @     ",
"  e % # * i i 5 J ) T D 1 % 1 7 ( J D T ' D p T / ' / K J K J J K K K L ( % y ( K K K F T D T T / T L K L / J ) | R } U U R U U Y o U [ g U U U U ! Q ! Q Q ! Q ! ! g b n b X.X.w O o I % s T K J J J J T T ( R E E p E ~ ~ R T R D T ] ) ) ] R i ] ] p E ] ~ ~ Q R R R R  .~ ~ | ] R E i I E R Y ~ ] ~ y , R E Y R R E E ~ { o.o.] ]  .~ ] ~ ~ R R R ..] ] R I y . X X o X 0 E v Y O . * ) / / K L L L 2.2.2.F L P _ 2.2.2.1.* ( T i J / / / ( _ ) ) ( T ) ) ( I J J T T T _ E o I R J T / / } ) / ) _ _ / ( / ) / / _ ' / / _ ) p t 1 <.F i H s s v Y W W W W W W W v E 7 o 8 8 r r o r ) ( / ( / ( D * $     ",
"  $ X X 9 I I q e J J p * . * 7 t p p J T J e D K J K K T T K K K / L / ( * e ' L L L K T D } ( T K K K K K J R i 9 ) K g p I R p = [ ! ! U U ! [ Q ! ! ! Q [ Q g v g h < m M n a + X o - u T T D i D i D H i p 9 5 & 7 , , - - 7 7 9 9 8 8 y y 8 8 8 9 8 8 8 0 8 8 0 u p i u u u i p p 9 y p y y y 8 9 9 & 3 8 9 9 9 8 y y y 8 8 y p y y p p p p i D ( ( T ( ..i % * @ # 3 3 r % o O % R ) D D D D J K L _ / K K K L / / / J * D i J I T T ( T D D T R ) ) ( / T J J T T ) } ..# ] Q T / T _ <.) / / ' _ / / ) / / / / / T T J D 1 e 1 t T I s s s v s Y Y b s s u a u 3 & D H r p 0 O 9 ] T T ( T / D 1 *     ",
"  & @ % 7 E I t T D p e & 7 y % I J U K J 6 t t J t J / / / ' ' / / K K ( $ 1 ) / / L / ) } ] D E D J J K K J J % 7 Q Q p y u 9 8 8 ~ { [ q g ! ! J U ! ! ! ! [ R ~ n < M N x a n - % * - 9 i I I 8 9 X r y * 3 p i p i p I I J i p p I J i p y p i i p y y q y 8 8 8 * * * 9 7 * & X $ . & . $ X @ . o . # . . . . . . . . . . . . . . . . . . . . . . . . . . . . . . o . . . . * . . % 9 3 3 1 & # * @ @ o 3 # # # * 3 & % & . o * & 3 1 1 2 1 7 1 3 7 3 9 9 9 7 9 e t e e & X X y I T ( K ( / / ( / ) T K / K K K T / J T I 7 1 i X D J D E R E E Y p H E H Y Y s r 0 H y . * 7 8 9 8 p E I E T T e r * _   ",
"    @ @ 1 E t 5 T J 9 & E D @ @ D ( T / / t _ / D e J K K K K K K K L K J X $ T K J K K J / I 8 8 I T ) ` ) } u.9 & i p X X - 9 0 - 0 u Q p U g g U J R U g I R Y v b . x M x 0 - O . . . o O % # # E p.g.M.s R >X>X>X2X>X>X>X#X#X#X#X#XJ.c.k.u.k.z.b.b.n.b.b.#Xb.b.#X#Xb.b.b.b.b.b.#XK.#Xn.b.l.n.OX#X>X#Xz.u.1X&Xj.k.&XqX1X>Xb.b.k.c.b.b.n.k.k.k.n.n.n.OXn.9 X % E i.I # >Xp...I E  . .] ] R E R E E I i I R s I p p & 7 1 & 9 D J D p p i i D D y E I D D D i p p p i y y * . . . . r ( ( D p D D E T _ T T T T J J T J 7 y e 7 . X & K L e F / _ L F D L K D D p e p D K K / ( _ <.<.( D r i H D D e p @ /   ",
"    X @ 9 p e i J t D i e e 7 * $ ( J ( J 8 ( D D p T p F K K K F D D D J 5 o J J D K D D J D ( e D 4._ / _  .u # - 8 9 - u W W b v . . 7 8 9 : w I R Y Y Y v 8 X * ; < < k x w O % n.:Xn.. . # # 0 g.n. .H r r r.b.UXn.n.b.k.k.k.k.z.b.#X;X>X#XOXl.u.m.k.OXOX#XOX>Xb.n.#X>Xb.n.n.b.#X2X6Xp.4.m.z.OX>XqXrXm.T SX&Xj.x.OX&X>X>X1XqXqXqX#X#X>X>X>XqX2X2X2X1XrX1 . . >X>X% X rXn.n.n.n.g.n.n.a.i.r.i.g.i.d.y.v.v.g.n.n.n.| q u.5 k.b.k.k.k.g.n.n.n.g.p.v.c.d.i.g.n.i.n.n.k.g.i.| H # 8 ] i.} J ( T T D } 8 y R T i I i p 7 9 9 i I p D 3 . 1 <./ 2.2._ / L L L L P L ( / ( _ / _ 2._ / / / / T 1 T T T D ( E X 1.  ",
"    o @ & y i J p e D D e p D t e 7 8 1 % @ . . 8 _ J t F D J K K K K J J 9 . D p p D D K K i T i * q 8 H y . . % W ] ^ a n W n s W ~ b X . . . . X , , & 8 . + M c ; A Q.Z N ; * - tXrX>X;X9 o o * p.E p s r r p ]  .E ( T T E E E T ) _  .| | 1.T I p E ( ( ) ( ] i . I R R i Q Q ) 4.T ( J J D K / ( n.E # p t t e 2 . . t ( 2.2.1._ _ ( _ <.4.t.t.f.m.m.i % r.>Xb.i . 6Xn.a.h.*.y.y.-.*.p.o.~ s { p.g./.g.v.a.a.g.~ r >X8 >Xn.i.u.i.i.t.i.p.r.i.r.i.t.p.o.i.@.@.r.*. .| 1...1 1.T 1.} T T ) 4.4._ J R 1.R T R I _ T T T T ( D ] | p . p. .F / K D D D F F D K L K K K / ( _ T T D D D y e D i D I R 9 @ &X  ",
"      $ % X 8 p D D p t t D D e D p 7 % o X X . * t e t t F F F F F F K J 8 . 9 D K K D J J t t t D 7 O . . . * 0 u 9 s s n ^ n w ^ X.{ b 9 - o . . O * ; %.B S z z k < S S f ; O O o E  .i.y.O o X ( D r p r r r H E E E R E E H i p r u u r 8 i I |  . . . .| ~ ..H 8 # H } ( K L <.<.( ( E E i p H 8 * $ 1 ` ( F F F F F F G 6 6 e F e e 6 e 6 e t F F t D e ] ] | y 9 o.s s Y a W s Y ] W W 0 y u H s s Y W W y u u 8 ~ u ]  .R E ~ ..R R R ]  .E E .. . .r.o.| |  ...H ..M.] I E ..T D p ( ..T T T D D E ( T J ( T D t D p e i R 9 o r 8 e D p e t t r r p D D D D p D E ( E D p y r r i r p i p 8 p m.&X  ",
"        1 2 % * 9 t D t e p p e e p y r # X @ e D T D D D D D K D D F p i & o * D J D D D t t D e i p u , # u E ] ~ W s - , w a s W ^ o.^ W W s # # r # , m B S k S C.S k k f < . % X - a.o.o.O # . I 3 # 1 r 8 y H H Y E R  . .]  . .....W u % 8 I R  .| 1.4.p.1.1.1.( @ T u._ _ 2.1.1.1.u.p.1...( ..e X X % p.4.4.2.2.1.0.0.7.1.1. ./ / ( _ _ <.<.1.1.<._ T e (  .E 3 r E R | | H | ..E ] ..o. .W Y u u H s W Y s y o 9 ~ 3 . 0 y I | | | ] ~ E E y 8 D D H i r u y y y s u r r o o 7 I R ..( i r t y e r r i y D D p D 1 t y i 8 . . * I i i y r r r r r r r r r r r y p p p p y r r s s r u r 8 7 D         ",
"            6 1 % % 7 1 7 8 8 t 8 8 8 7 o @ X p r r r r p y r e e 7 8 1 * o X % 8 p p p e r p D D U v u 9 - u 9 y 8 y y 1 . . o # - 7 w 0 9 9 9 * 3 H # * # . ; ; + k B < ; o . I 0 o O W W . o . R qXm.9 o - 7 u s s s u s s s s u s s 0 - # # O o # # 3 8 y i D D D y o , 8 * 7 3 1 9 8 9 9 7 * # . . . . . . 8 D J T ( T T T R R E p D D D D I E E E D p r % 8 7 - - * 9 3 # X % # * - * E ~ W Y I y H p I E v u p % 9 p o % . 9 H s E W R E y r 0 u 9 # 8 8 v 0 9 y u s s s r # . - p I I I I D D p p p i D I E D p 9 e p 8 8 % . o . # % * - 3 9 9 0 r r r 9 3 4 0 0 s 0 0 0 0 0 0 0 w 9 3 9 e             ",
"                  $ $ 1 * # o @ 1 5 7 5 1 5 1 $ @ @ o . . . . . . . o @ 9 7 * * o # # X o % X * 5 . o o . X . . o e F p J e 5 $ o o . . . . . . o X . & y 9 * X * & & @ 1 7 8 J u.} q 8 * @ 1 7 1.>X        X % 3 3 - - - 0 9 0 7 & % @ % 1 3 7 e 7 3 1 * * % * o @ @ * 8 8 1 1 # * # # # % 3 3 8 y D T ` 1.u. .* . . . . . . . . . . . . o @ # * # # o . . . % 3 D T E E p # % * * # X # # # . . . . . . . . . . . . * # . X X * o o . . . . @ * 1 1 @ . . # @ % . . . . . . . 5 p J D r o . . . o o X o . X $ @ $ X . % * * * % 7 i E T p e e e * o . o o o O o O O 4 - - - - - - 0 - - - p T                 ",
"                        K 2.2.<._                                                                                                                                                                                                                                                                                                                                                                                                                     <.OX0.                                                                                      <.<.1.4.4.4.4.4.u.u.m.m.m.m.m.u.p.p.                          ",
"                                                                                                                                                                                                                                                                                                                                                                                                                                                        &X                                                                                                                                                      "
};
