/* XPM */
static char *out[] = {
/* columns rows colors chars-per-pixel */
"29 13 82 1 ",
"  c None",
". c #232C30",
"X c #252D31",
"o c #262E31",
"O c #262F33",
"+ c #273035",
"@ c #2B353B",
"# c #2F3740",
"$ c #2F3840",
"% c #313D44",
"& c #323D44",
"* c #323D46",
"= c #333E46",
"- c #353E47",
"; c #343F47",
": c #66014B",
"> c #67014B",
", c #68014C",
"< c #354047",
"1 c #37404A",
"2 c #36414A",
"3 c #3A434E",
"4 c #3B4551",
"5 c #3A4650",
"6 c #3C4752",
"7 c #3D4752",
"8 c #3E4654",
"9 c #3F4955",
"0 c #424D59",
"q c #434C5A",
"w c #424D5A",
"e c #444E5D",
"r c #46515E",
"t c #4E5561",
"y c #495364",
"u c #4C5668",
"i c #4E596C",
"p c #556075",
"a c #576177",
"s c #556376",
"d c #576276",
"f c #566376",
"g c #586478",
"h c #586479",
"j c #59657A",
"k c #5A657B",
"l c #5A667C",
"z c #676E78",
"x c #900363",
"c c #920365",
"v c #606C82",
"b c #616D84",
"n c #636F88",
"m c #647086",
"M c #677189",
"N c #67738C",
"B c #6A7892",
"V c #717E9A",
"C c #737F9D",
"Z c #CD0685",
"A c #73809D",
"S c #798198",
"D c #78839F",
"F c #7B86A2",
"G c #868FAA",
"H c #9EA5BB",
"J c #9FA8BC",
"K c #A0A6BC",
"L c #A3AABE",
"P c #A6ADC1",
"I c #ABB0C4",
"U c #ABB1C4",
"Y c #ADB3C6",
"T c #ADB5C5",
"R c #B6BACC",
"E c #B8BCCD",
"W c #BEC2D1",
"Q c #BFC4D3",
"! c #C4C8D7",
"~ c #C6C8D7",
"^ c #DCDCE6",
"/ c #DEDEE8",
/* pixels */
"                      !!     ",
"                     U<<!    ",
"                    Uf:m<U   ",
"                   N$:F:f<U  ",
"              W / NX:F:F:s<U ",
"aGRGLYQIHPK~EzWZJZv:F:F:F:f@^",
"aCFAFFDFCFFFM8ScTxlN:F:F:F:fU",
"0e6w9qr2*%&=&;p>d,l:N:F:F:fFt",
" ###3##       7 5 Og:F:F:fv1 ",
" VBybuV            Xg:F:fv-  ",
" ik j n             of:hv4   ",
"                     +fv1    ",
"                      .1     "
};
