/* XPM */
static char *out[] = {
/* columns rows colors chars-per-pixel */
"29 13 123 2 ",
"   c None",
".  c #272D33",
"X  c #2E313A",
"o  c #2F313A",
"O  c #30303B",
"+  c #31313B",
"@  c #32303B",
"#  c #2F3740",
"$  c #313D44",
"%  c #323D44",
"&  c #323D46",
"*  c #333E46",
"=  c #343F47",
"-  c #3A3948",
";  c #3B3C4A",
":  c #67014B",
">  c #6B0250",
",  c #710558",
"<  c #73065B",
"1  c #75065D",
"2  c #780860",
"3  c #36414A",
"4  c #3B424D",
"5  c #3B414E",
"6  c #3A434E",
"7  c #3D424E",
"8  c #3F4251",
"9  c #3B4550",
"0  c #3C4752",
"q  c #3D4752",
"w  c #3E4654",
"e  c #3F4955",
"r  c #414152",
"t  c #414352",
"y  c #424354",
"u  c #464456",
"i  c #46485B",
"p  c #424D59",
"a  c #434C5A",
"s  c #424D5A",
"d  c #444E5D",
"f  c #46515E",
"g  c #495364",
"h  c #4C5668",
"j  c #4E596C",
"k  c #545666",
"l  c #556075",
"z  c #576177",
"x  c #586277",
"c  c #59657A",
"v  c #5A657B",
"b  c #5D657B",
"n  c #5F667E",
"m  c #60667E",
"M  c #676E78",
"N  c #8E0362",
"B  c #920364",
"V  c #920365",
"C  c #920466",
"Z  c #9C036A",
"A  c #A1036E",
"S  c #AA0471",
"D  c #AD0474",
"F  c #BA047C",
"G  c #BE057D",
"H  c #C0057E",
"J  c #626780",
"K  c #606881",
"L  c #646982",
"P  c #646983",
"I  c #666883",
"U  c #676883",
"Y  c #616D84",
"T  c #666E87",
"R  c #636F88",
"E  c #677189",
"W  c #6B708B",
"Q  c #6E718D",
"!  c #6F748F",
"~  c #6C7490",
"^  c #6D7591",
"/  c #6A7892",
"(  c #747896",
")  c #767997",
"_  c #717E9A",
"`  c #737F9D",
"'  c #CD0685",
"]  c #CE0787",
"[  c #F845B6",
"{  c #73809D",
"}  c #798198",
"|  c #78839F",
" . c #7B86A2",
".. c #848AA9",
"X. c #868FAA",
"o. c #888CAB",
"O. c #898CAC",
"+. c #8B8CAD",
"@. c #8C8DAE",
"#. c #8D8EAF",
"$. c #9EA5BB",
"%. c #A0A6BC",
"&. c #A0A9BD",
"*. c #A3AABE",
"=. c #A6ADC1",
"-. c #ABB0C4",
";. c #ADB2C6",
":. c #ADB3C6",
">. c #AEB3C6",
",. c #AEB6C5",
"<. c #AFB4C7",
"1. c #B0B4C7",
"2. c #B0B5C7",
"3. c #B6BACC",
"4. c #B8BCCD",
"5. c #BEC2D1",
"6. c #BFC4D3",
"7. c #C5C9D7",
"8. c #C6C8D7",
"9. c #C5C9D8",
"0. c #C6CAD8",
"q. c #DDDDE7",
"w. c #DEDEE8",
/* pixels */
"                                            7.9.          ",
"                                          ;.4 7 0.        ",
"                                        >.n , ! t <.      ",
"                                      ^ ; < o.1 U u 2.    ",
"                            5.  w.  ~ @ < o.G +.D I u 1.  ",
"z X.3.X.*.:.6.-.$.=.%.8.4.M 5.' &.] T , o.G @.G @.A U - q.",
"z `  .{  . .|  .`  . . .E w } V ,.C K ( H +.[ #.Z +.B J >.",
"p d 0 s e a f 3 & $ % * % = l : x > K , ) H @.F @.S U ..k ",
"  # # # 6 # #               q   9   o J < O.H +.2 U Q y   ",
"  _ / g Y h _                         O L < o.1 U Q r     ",
"  j v   c   R                           + m N P W i       ",
"                                          X b T 8         ",
"                                            . 5           "
};
