/* XPM */
static char *out[] = {
/* columns rows colors chars-per-pixel */
"29 13 128 2 ",
"   c None",
".  c #33303D",
"X  c #2F3740",
"o  c #3C3547",
"O  c #3F3446",
"+  c #313D44",
"@  c #323D44",
"#  c #323D46",
"$  c #333E46",
"%  c #343F47",
"&  c #6A024F",
"*  c #75065B",
"=  c #403546",
"-  c #403548",
";  c #433549",
":  c #403B4C",
">  c #36414A",
",  c #3A434E",
"<  c #3C4752",
"1  c #3E4652",
"2  c #3E4654",
"3  c #3F4955",
"4  c #434355",
"5  c #424857",
"6  c #4A4359",
"7  c #4D405A",
"8  c #494658",
"9  c #48445A",
"0  c #4B465C",
"q  c #4D465C",
"w  c #4E475D",
"e  c #424D59",
"r  c #434C5A",
"t  c #424D5A",
"y  c #444E5D",
"u  c #46515E",
"i  c #4E4A62",
"p  c #495364",
"a  c #4C5668",
"s  c #4E596C",
"d  c #58586A",
"f  c #566176",
"g  c #576177",
"h  c #59657A",
"j  c #5A657B",
"k  c #60657D",
"l  c #676E78",
"z  c #940468",
"x  c #9B0972",
"c  c #676883",
"v  c #616D84",
"b  c #686985",
"n  c #6B6A87",
"m  c #636F88",
"M  c #6D6A89",
"N  c #6E6B8A",
"B  c #6F6B8A",
"V  c #6F6B8B",
"C  c #6D6C8B",
"Z  c #6F6D8C",
"A  c #706B8C",
"S  c #677189",
"D  c #70718E",
"F  c #6A7892",
"G  c #737291",
"H  c #747292",
"J  c #797897",
"K  c #717E9A",
"L  c #737F9D",
"P  c #79799A",
"I  c #7F7C9E",
"U  c #C70583",
"Y  c #CE0787",
"T  c #D5068A",
"R  c #D8068B",
"E  c #DB068E",
"W  c #CB158C",
"Q  c #D5128D",
"!  c #D10A90",
"~  c #DC1695",
"^  c #E80F97",
"/  c #EB139A",
"(  c #EB159A",
")  c #E41A98",
"_  c #F1179F",
"`  c #E42BA1",
"'  c #F42BA8",
"]  c #F82BAA",
"[  c #F530AC",
"{  c #F930AE",
"}  c #FC31AE",
"|  c #827DA0",
" . c #FB49B8",
".. c #FC58BE",
"X. c #FE6FC7",
"o. c #73809D",
"O. c #7A8199",
"+. c #78839F",
"@. c #7B86A2",
"#. c #868FAA",
"$. c #888CAB",
"%. c #918FB1",
"&. c #928FB2",
"*. c #9390B3",
"=. c #9691B5",
"-. c #9EA5BB",
";. c #A0A6BC",
":. c #A3AABE",
">. c #A4AABF",
",. c #A6ADC1",
"<. c #ABB0C4",
"1. c #ADB3C6",
"2. c #B1B4C8",
"3. c #B3B7CA",
"4. c #B4B7CA",
"5. c #B5B7CB",
"6. c #B1B8C8",
"7. c #B6BACC",
"8. c #B8BCCD",
"9. c #BEC2D1",
"0. c #BFC2D1",
"q. c #BFC4D3",
"w. c #C6C8D7",
"e. c #C7CBD9",
"r. c #C8CCDA",
"t. c #C9CDDA",
"y. c #DEDEE7",
"u. c #DFDFE9",
/* pixels */
"                                            r.e.          ",
"                                          3.8 8 t.        ",
"                                        5.n ` J q 3.      ",
"                                      P 7 ) %.W B w 4.    ",
"                            0.  u.  P ; _ *.{ *.] N q 3.  ",
"g #.7.#.:.1.q.<.-.,.;.w.8.l 9.Y >.! G ( &. .=...*.~ M : y.",
"g L @.o.@.@.+.@.L @.@.@.S 2 O.z 6.x Z I } =.X.=. .%.E b 2.",
"e y < t 3 r u > # + @ $ @ % f & k * C Q | } =.[ *.T M $.d ",
"  X X X , X X               1   5   - V / *.} *.U B G 0   ",
"  K F p v a K                         O A ^ %.' B H 6     ",
"  s j   h   m                           = n R V G i       ",
"                                          o c D 9         ",
"                                            . 4           "
};
