/* XPM */
static char *out[] = {
/* columns rows colors chars-per-pixel */
"29 13 124 2 ",
"   c None",
".  c #292E35",
"X  c #33323D",
"o  c #32333E",
"O  c #35313E",
"+  c #35323E",
"@  c #2F3740",
"#  c #3A3342",
"$  c #313D44",
"%  c #323D44",
"&  c #323D46",
"*  c #333E46",
"=  c #343F47",
"-  c #3D394A",
";  c #68014C",
":  c #6E0353",
">  c #75065D",
",  c #76075E",
"<  c #453E53",
"1  c #780860",
"2  c #790862",
"3  c #36414A",
"4  c #3A434E",
"5  c #3C414F",
"6  c #3C4652",
"7  c #3C4752",
"8  c #3D4752",
"9  c #3E4654",
"0  c #3F4955",
"q  c #414353",
"w  c #434355",
"e  c #444254",
"r  c #464456",
"t  c #494658",
"y  c #4A4659",
"u  c #424D59",
"i  c #434C5A",
"p  c #424D5A",
"a  c #444E5D",
"s  c #49495D",
"d  c #46515E",
"f  c #495364",
"g  c #4C5668",
"h  c #4E596C",
"j  c #555767",
"k  c #556075",
"l  c #576177",
"z  c #5A6278",
"x  c #59657A",
"c  c #5A657B",
"v  c #5F667E",
"b  c #676E78",
"n  c #920366",
"m  c #940569",
"M  c #931B6D",
"N  c #A1046C",
"B  c #A2046C",
"V  c #A70470",
"C  c #AF0574",
"Z  c #A11B78",
"A  c #656782",
"S  c #676883",
"D  c #666885",
"F  c #666A86",
"G  c #616D84",
"H  c #686985",
"J  c #6A6986",
"K  c #686B87",
"L  c #6A6A87",
"P  c #6B6A87",
"I  c #636F88",
"U  c #696F89",
"Y  c #677189",
"T  c #6E718D",
"R  c #70718E",
"E  c #6A7892",
"W  c #747693",
"Q  c #727794",
"!  c #747896",
"~  c #777998",
"^  c #717E9A",
"/  c #737F9D",
"(  c #7A7A9A",
")  c #C70484",
"_  c #CD0685",
"`  c #CF088A",
"'  c #D5068A",
"]  c #DB068E",
"[  c #EF069B",
"{  c #F6079D",
"}  c #FA089E",
"|  c #FE6FC7",
" . c #73809D",
".. c #798198",
"X. c #78839F",
"o. c #7B86A2",
"O. c #868AAA",
"+. c #868FAA",
"@. c #8B8CAD",
"#. c #8C8DAE",
"$. c #8D8EAF",
"%. c #8E8EAF",
"&. c #908FB1",
"*. c #918FB1",
"=. c #9EA5BB",
"-. c #A0A6BC",
";. c #A1A8BD",
":. c #A3AABE",
">. c #A6ADC1",
",. c #ABB0C4",
"<. c #ADB3C6",
"1. c #AFB4C7",
"2. c #AEB6C6",
"3. c #B1B5C8",
"4. c #B2B6C9",
"5. c #B6BACC",
"6. c #B8BCCD",
"7. c #BEC2D1",
"8. c #BFC4D3",
"9. c #C6C8D7",
"0. c #C7CBD9",
"q. c #C8CCDA",
"w. c #DEDEE7",
"e. c #DFDFE8",
/* pixels */
"                                            0.0.          ",
"                                          3.r r q.        ",
"                                        4.S M W t 4.      ",
"                                      ! < N $.Z P y 4.    ",
"                            7.  e.  Q # 1 $.{ &.] L y 4.  ",
"l +.5.+.:.<.8.,.=.>.-.9.6.b 7._ ;.` T , $.{ &.{ &.) J - w.",
"l / o. .o.o.X.o./ o.o.o.Y 9 ..n 2.m K ~ } &.| *.{ $.C A 1.",
"u a 7 p 0 i d 3 & $ % * % = k ; z : F > ( } &.[ %.' H O.j ",
"  @ @ @ 4 @ @               8   6   X H B #.} $.2 J R w   ",
"  ^ E f G g ^                         O H , @.1 H R e     ",
"  h c   x   I                           + A V D T s       ",
"                                          o v U q         ",
"                                            . 5           "
};
