/* XPM */
static char *out[] = {
/* columns rows colors chars-per-pixel */
"29 13 122 2 ",
"   c None",
".  c #252D32",
"X  c #2C2F36",
"o  c #2C3036",
"O  c #2A3138",
"+  c #2C3138",
"@  c #32303B",
"#  c #31373F",
"$  c #2F3740",
"%  c #313D44",
"&  c #323D44",
"*  c #323D46",
"=  c #333E46",
"-  c #343F47",
";  c #393F4B",
":  c #3E3C4C",
">  c #67014B",
",  c #6B0250",
"<  c #6C0352",
"1  c #6E0454",
"2  c #6F0456",
"3  c #7D0257",
"4  c #710558",
"5  c #73065B",
"6  c #36414A",
"7  c #38404B",
"8  c #39404C",
"9  c #3A414D",
"0  c #3B424D",
"q  c #3A434E",
"w  c #3D424E",
"e  c #3F4350",
"r  c #3B4550",
"t  c #3C4752",
"y  c #3D4752",
"u  c #3E4654",
"i  c #3F4654",
"p  c #3F4955",
"a  c #424D59",
"s  c #434C5A",
"d  c #424D5A",
"f  c #444E5D",
"g  c #46515E",
"h  c #4F5562",
"j  c #495364",
"k  c #4C5668",
"l  c #4E596C",
"z  c #556075",
"x  c #576177",
"c  c #586277",
"v  c #596378",
"b  c #59657A",
"n  c #5B647A",
"m  c #5B657A",
"M  c #5A657B",
"N  c #5D657B",
"B  c #5D667D",
"V  c #5F667D",
"C  c #5F667E",
"Z  c #61677F",
"A  c #676E78",
"S  c #87025E",
"D  c #88025E",
"F  c #920364",
"G  c #920365",
"H  c #920466",
"J  c #9A0369",
"K  c #9C036A",
"L  c #9D036A",
"P  c #616780",
"I  c #626780",
"U  c #606881",
"Y  c #616D84",
"T  c #626D84",
"R  c #646D85",
"E  c #656E86",
"W  c #666E87",
"Q  c #636F88",
"!  c #677189",
"~  c #6D738D",
"^  c #6D7591",
"/  c #6A7892",
"(  c #727795",
")  c #747896",
"_  c #717E9A",
"`  c #737F9D",
"'  c #BF2A8C",
"]  c #CD0685",
"[  c #CE0787",
"{  c #73809D",
"}  c #798198",
"|  c #78839F",
" . c #7B86A2",
".. c #7E87A4",
"X. c #8389A7",
"o. c #858AA9",
"O. c #868AAA",
"+. c #868FAA",
"@. c #888CAB",
"#. c #898CAC",
"$. c #9EA5BB",
"%. c #A0A6BC",
"&. c #A0A9BD",
"*. c #A3AABE",
"=. c #A6ADC1",
"-. c #ABB0C4",
";. c #ACB2C5",
":. c #ADB3C5",
">. c #ADB2C6",
",. c #ADB3C6",
"<. c #AEB2C6",
"1. c #AEB3C6",
"2. c #AEB6C5",
"3. c #B6BACC",
"4. c #B8BCCD",
"5. c #BEC2D1",
"6. c #BFC4D3",
"7. c #C6C8D7",
"8. c #C5C9D8",
"9. c #C6CAD8",
"0. c #DCDCE6",
"q. c #DEDEE8",
/* pixels */
"                                            8.8.          ",
"                                          <.0 0 9.        ",
"                                        1.C 2 ~ e <.      ",
"                                      ^ : 3 O.5 I e >.    ",
"                            5.  q.  ^ @ 5 @.S @.F P w :.  ",
"x +.3.+.*.,.6.-.$.=.%.7.4.A 5.] &.[ W 4 @.K #.S @.4 V # 0.",
"x `  .{  . .|  .`  . . .! u } G 2.H U ( D #.' #.S o.1 n ;.",
"a f t d p s g 6 * % & = & - z > c , U 2 ) D @.J O.4 N ..h ",
"  $ $ $ q $ $               y   r   + Z 4 O.L O.4 V E 9   ",
"  _ / j Y k _                         X Z 2 X.2 V E ;     ",
"  l M   b   Q                           o m < B R i       ",
"                                          O v T 8         ",
"                                            . 7           "
};
