/* XPM */
static char *out[] = {
/* columns rows colors chars-per-pixel */
"29 13 111 2 ",
"   c None",
".  c #242C31",
"X  c #2A2F34",
"o  c #2B2F36",
"O  c #2A3036",
"+  c #2A3037",
"@  c #2D353D",
"#  c #2F3740",
"$  c #353945",
"%  c #313D44",
"&  c #323D44",
"*  c #323D46",
"=  c #333E46",
"-  c #343F47",
";  c #373E49",
":  c #67014B",
">  c #69024F",
",  c #6A024E",
"<  c #6A0350",
"1  c #6B0351",
"2  c #6C0352",
"3  c #6E0454",
"4  c #6E0455",
"5  c #7B0257",
"6  c #374048",
"7  c #374049",
"8  c #36414A",
"9  c #38414A",
"0  c #38404B",
"q  c #39404C",
"w  c #3A434E",
"e  c #3B4550",
"r  c #3D4553",
"t  c #3C4752",
"y  c #3D4752",
"u  c #3E4654",
"i  c #3F4955",
"p  c #424D59",
"a  c #434C5A",
"s  c #424D5A",
"d  c #444E5D",
"f  c #46515E",
"g  c #4F5662",
"h  c #495364",
"j  c #4C5668",
"k  c #4E596C",
"l  c #556075",
"z  c #576177",
"x  c #586377",
"c  c #586478",
"v  c #596479",
"b  c #59657A",
"n  c #5A647A",
"m  c #5B647A",
"M  c #5B657A",
"N  c #5A657B",
"B  c #5D657D",
"V  c #5D667C",
"C  c #676E78",
"Z  c #86025E",
"A  c #87025E",
"S  c #88025E",
"D  c #920365",
"F  c #910465",
"G  c #9C036A",
"H  c #9D1A73",
"J  c #5F6780",
"K  c #626D83",
"L  c #616D84",
"P  c #636D84",
"I  c #646D85",
"U  c #636F88",
"Y  c #677188",
"T  c #677189",
"R  c #69748E",
"E  c #6D7591",
"W  c #6A7892",
"Q  c #707693",
"!  c #717E9A",
"~  c #737F9D",
"^  c #CD0685",
"/  c #CE0786",
"(  c #73809D",
")  c #798198",
"_  c #78839F",
"`  c #7B86A2",
"'  c #7D86A3",
"]  c #8088A6",
"[  c #8289A7",
"{  c #8389A7",
"}  c #858AA9",
"|  c #868FAA",
" . c #9EA5BB",
".. c #9FA8BC",
"X. c #A0A6BC",
"o. c #A3AABE",
"O. c #A6ADC1",
"+. c #ABB0C4",
"@. c #ABB1C4",
"#. c #ACB2C4",
"$. c #ACB2C5",
"%. c #ADB3C6",
"&. c #ADB5C5",
"*. c #B6BACC",
"=. c #B8BCCD",
"-. c #BEC2D1",
";. c #BFC4D3",
":. c #C4C8D7",
">. c #C6C8D7",
",. c #DCDCE6",
"<. c #DEDEE8",
/* pixels */
"                                            :.:.          ",
"                                          #.6 6 :.        ",
"                                        $.v > Y 7 $.      ",
"                                      R $ 1 ] 1 m 9 $.    ",
"                            -.  <.  R o 2 [ 4 [ 2 n 9 #.  ",
"z | *.| o.%.;.+. .O.X.>.=.C -.^ ../ P 2 [ G } A [ 2 v @ ,.",
"z ~ ` ( ` ` _ ` ~ ` ` ` T u ) D &.F J E S } H } 5 ] < c @.",
"p d t s i a f 8 * % & = & - l : x , J 2 Q 5 } Z { 2 m ' g ",
"  # # # w # #               y   e   O V 3 { S { 3 M P q   ",
"  ! W h L j !                         o V 2 ] 2 M I ;     ",
"  k N   b   U                           X m < B P r       ",
"                                          + c K q         ",
"                                            . 0           "
};
