/* XPM */
static char *out[] = {
/* columns rows colors chars-per-pixel */
"29 13 116 2 ",
"   c None",
".  c #252D32",
"X  c #2B2F36",
"o  c #2E2F38",
"O  c #2C3036",
"+  c #2A3138",
"@  c #2C3138",
"#  c #31373F",
"$  c #2F3740",
"%  c #373A46",
"&  c #313D44",
"*  c #323D44",
"=  c #323D46",
"-  c #333E46",
";  c #343F47",
":  c #3B3F4C",
">  c #67014B",
",  c #6A024F",
"<  c #6B0351",
"1  c #6C0352",
"2  c #6E0454",
"3  c #6E0455",
"4  c #6F0456",
"5  c #710558",
"6  c #36414A",
"7  c #38414A",
"8  c #39404B",
"9  c #3B414C",
"0  c #3A414D",
"q  c #3B424D",
"w  c #3B414E",
"e  c #3A434E",
"r  c #3B4550",
"t  c #3C4752",
"y  c #3D4752",
"u  c #3E4654",
"i  c #3F4955",
"p  c #404656",
"a  c #424D59",
"s  c #434C5A",
"d  c #424D5A",
"f  c #444E5D",
"g  c #46515E",
"h  c #495364",
"j  c #4C5668",
"k  c #4E596C",
"l  c #505663",
"z  c #556075",
"x  c #576177",
"c  c #586377",
"v  c #596479",
"b  c #59657A",
"n  c #5B647A",
"m  c #5B657A",
"M  c #5A657B",
"N  c #5D657B",
"B  c #5E667D",
"V  c #5F667D",
"C  c #5F667E",
"Z  c #676E78",
"A  c #900362",
"S  c #920365",
"D  c #920465",
"F  c #9C036A",
"G  c #9D036A",
"H  c #BA047C",
"J  c #BE057D",
"K  c #C0057E",
"L  c #5F6880",
"P  c #616D84",
"I  c #636D84",
"U  c #656E86",
"Y  c #666E87",
"T  c #636F88",
"R  c #677189",
"E  c #69718A",
"W  c #6B758F",
"Q  c #6F7692",
"!  c #6A7892",
"~  c #747896",
"^  c #717E9A",
"/  c #737F9D",
"(  c #CD0685",
")  c #CE0787",
"_  c #F845B6",
"`  c #73809D",
"'  c #798198",
"]  c #78839F",
"[  c #7B86A2",
"{  c #7F87A5",
"}  c #8389A7",
"|  c #848AA9",
" . c #858AA9",
".. c #868AAA",
"X. c #868FAA",
"o. c #888CAB",
"O. c #9EA5BB",
"+. c #9FA8BC",
"@. c #A0A6BC",
"#. c #A3AABE",
"$. c #A6ADC1",
"%. c #ABB0C4",
"&. c #ACB2C5",
"*. c #ADB3C5",
"=. c #ADB2C6",
"-. c #ADB3C6",
";. c #ADB5C5",
":. c #B6BACC",
">. c #B8BCCD",
",. c #BEC2D1",
"<. c #BFC4D3",
"1. c #C4C8D7",
"2. c #C5C9D7",
"3. c #C6C8D7",
"4. c #DCDCE6",
"5. c #DEDEE8",
/* pixels */
"                                            1.1.          ",
"                                          &.7 7 2.        ",
"                                        =.m < E 9 *.      ",
"                                      W % 3 } 3 V q *.    ",
"                            ,.  5.  W o 4 ..F ..5 B q &.  ",
"x X.:.X.#.-.<.%.O.$.@.3.>.Z ,.( +.) U 3  .J o.F ..5 N # 4.",
"x / [ ` [ [ ] [ / [ [ [ R u ' S ;.D L Q G o._ o.F  .2 n &.",
"a f t d i s g 6 = & * - * ; z > c , L 3 ~ G o.H ..A N { l ",
"  $ $ $ e $ $               y   r   @ V 4 ..K ..5 C Y w   ",
"  ^ ! h P j ^                         X V 3 | 4 C Y :     ",
"  k M   b   T                           O m 1 C U p       ",
"                                          + v I 0         ",
"                                            . 8           "
};
