/* XPM */
static char *out[] = {
/* columns rows colors chars-per-pixel */
"29 13 129 2 ",
"   c None",
".  c #33303D",
"X  c #2F3740",
"o  c #3C3547",
"O  c #3F3446",
"+  c #313D44",
"@  c #323D44",
"#  c #323D46",
"$  c #333E46",
"%  c #343F47",
"&  c #6A024F",
"*  c #75065B",
"=  c #403546",
"-  c #403548",
";  c #433549",
":  c #403B4C",
">  c #36414A",
",  c #3A434E",
"<  c #3C4752",
"1  c #3E4652",
"2  c #3E4654",
"3  c #3F4955",
"4  c #434355",
"5  c #424857",
"6  c #4A4359",
"7  c #4D405A",
"8  c #494658",
"9  c #48445A",
"0  c #4B465C",
"q  c #4D465C",
"w  c #4E475D",
"e  c #424D59",
"r  c #434C5A",
"t  c #424D5A",
"y  c #444E5D",
"u  c #46515E",
"i  c #4E4A62",
"p  c #495364",
"a  c #4C5668",
"s  c #4E596C",
"d  c #58586A",
"f  c #566176",
"g  c #576177",
"h  c #59657A",
"j  c #5A657B",
"k  c #60657D",
"l  c #676E78",
"z  c #940468",
"x  c #9B0972",
"c  c #676883",
"v  c #616D84",
"b  c #686985",
"n  c #6B6A87",
"m  c #636F88",
"M  c #6D6A89",
"N  c #6E6B8A",
"B  c #6F6B8A",
"V  c #6F6B8B",
"C  c #6D6C8B",
"Z  c #6F6D8C",
"A  c #706B8C",
"S  c #677189",
"D  c #70718E",
"F  c #6A7892",
"G  c #737291",
"H  c #747292",
"J  c #797897",
"K  c #717E9A",
"L  c #737F9D",
"P  c #79799A",
"I  c #7F7C9E",
"U  c #CE0787",
"Y  c #D10A90",
"T  c #E6269F",
"R  c #E92FA4",
"E  c #EC2FA6",
"W  c #F02CA6",
"Q  c #F22EA8",
"!  c #EE33A7",
"~  c #EE3DAC",
"^  c #EE3FAC",
"/  c #FC31AE",
"(  c #F73DB1",
")  c #FA3DB2",
"_  c #827DA0",
"`  c #F140AF",
"'  c #F640B1",
"]  c #F840B3",
"[  c #FA40B4",
"{  c #FC40B4",
"}  c #F14AB3",
"|  c #F44BB5",
" . c #FB4FBA",
".. c #FB51BC",
"X. c #FC58BE",
"o. c #FE6FC7",
"O. c #73809D",
"+. c #7A8199",
"@. c #78839F",
"#. c #7B86A2",
"$. c #868FAA",
"%. c #888CAB",
"&. c #918FB1",
"*. c #928FB2",
"=. c #9390B3",
"-. c #9691B5",
";. c #9EA5BB",
":. c #A0A6BC",
">. c #A3AABE",
",. c #A4AABF",
"<. c #A6ADC1",
"1. c #ABB0C4",
"2. c #ADB3C6",
"3. c #B1B4C8",
"4. c #B3B7CA",
"5. c #B4B7CA",
"6. c #B5B7CB",
"7. c #B1B8C8",
"8. c #B6BACC",
"9. c #B8BCCD",
"0. c #BEC2D1",
"q. c #BFC2D1",
"w. c #BFC4D3",
"e. c #C6C8D7",
"r. c #C7CBD9",
"t. c #C8CCDA",
"y. c #C9CDDA",
"u. c #DEDEE7",
"i. c #DFDFE9",
/* pixels */
"                                            t.r.          ",
"                                          4.8 8 y.        ",
"                                        6.n ~ J q 4.      ",
"                                      P 7 ! &.} B w 5.    ",
"                            q.  i.  P ; ] =.[ =.) N q 4.  ",
"g $.8.$.>.2.w.1.;.<.:.e.9.l 0.U ,.Y G ' *. .-.X.=.` M : u.",
"g L #.O.#.#.@.#.L #.#.#.S 2 +.z 7.x Z I / -.o.-...&.E b 3.",
"e y < t 3 r u > # + @ $ @ % f & k * C ^ _ / -.] =.R M %.d ",
"  X X X , X X               1   5   - V Q =.{ =.| B G 0   ",
"  K F p v a K                         O A W &.( B H 6     ",
"  s j   h   m                           = n T V G i       ",
"                                          o c D 9         ",
"                                            . 4           "
};
