/* XPM */
static char *_[] = {
/* columns rows colors chars-per-pixel */
"64 64 7 1 ",
"  c None",
". c #181818",
"X c #393939",
"o c #5A5A5A",
"O c #7B7B7B",
"+ c gray74",
"@ c white",
/* pixels */
"                                                                ",
"                                                                ",
"                                                                ",
"                                                                ",
"                                                                ",
"                                                                ",
"                                                                ",
"                                                                ",
"                                                                ",
"                                                                ",
"                                                                ",
"                                                                ",
"                                                                ",
"                                                                ",
"                                                                ",
"                                                                ",
"                                                                ",
"                                                                ",
"                                                                ",
"                                                                ",
"                                                                ",
"                                                                ",
"                                                                ",
"                                                                ",
"                                                                ",
"                                                                ",
"                                                                ",
"                                                                ",
"                                                                ",
"                                                                ",
"                                                                ",
"                                                                ",
"                                                                ",
"                                                                ",
"                                                                ",
"                                                                ",
"                                                                ",
"                                                                ",
"                                                                ",
"                                                                ",
"                                                                ",
"                                                                ",
"                                                                ",
"                                                                ",
"                                                                ",
"                                                                ",
"                                                                ",
"                                                                ",
"                                                                ",
"                                                                ",
"                                                                ",
"                                                                ",
"                               oo                               ",
"                             .O+Oo.                             ",
"                             XO+OoX                             ",
"                             o+@+Oo                             ",
"                            oXooooXo                            ",
"                            XXoOOoXX                            ",
"                            .Xo+OoX.                            ",
"                            .Xo+OoX.                            ",
"                            .Xo+OoX.                            ",
"                            .oO@+Oo.                            ",
"                            XooOOooX                            ",
"                            oXo+OoXo                            "
};
