/* XPM */
static char *_[] = {
/* columns rows colors chars-per-pixel */
"64 64 18 1 ",
"  c None",
". c gray9",
"X c #181818",
"o c gray22",
"O c #393939",
"+ c #555555",
"@ c #5B5B5B",
"# c gray40",
"$ c #627676",
"% c #65777D",
"& c #7B7B7B",
"* c #607080",
"= c #408080",
"- c #6A8080",
"; c #808080",
": c gray74",
"> c #EFDECE",
", c white",
/* pixels */
"                                                                ",
"                                                                ",
"                                                                ",
"                                                                ",
"                                                                ",
"                                                                ",
"                                                                ",
"                                                                ",
"                                                                ",
"                                                                ",
"                                                                ",
"                                                                ",
"                                                                ",
"                                                                ",
"                                                                ",
"                                                                ",
"                                                                ",
"                                                                ",
"                                                                ",
"                                                                ",
"                                                                ",
"                                                                ",
"                                                                ",
"                                                                ",
"                                                                ",
"                                                                ",
"                                                                ",
"                                                                ",
"                                                                ",
"                                                                ",
"                                                                ",
"                                                                ",
"                                                                ",
"                                                                ",
"                                                                ",
"                                                                ",
"                                                                ",
"                                                                ",
"                                                                ",
"                                                                ",
"                                                                ",
"                                                                ",
"                                                                ",
"                                                                ",
"                                                                ",
"                                                                ",
"                                                                ",
"                             #XO.=                              ",
"                             X:&@.;                             ",
"                            XO&&@O.                             ",
"                            O@,:&@O                             ",
"                            @OOO@O@                             ",
"                             O&:&OO                             ",
"                            XO@&@OX                             ",
"                           +XO@&@OX+                            ",
"                           $XO@&@OX-                            ",
"                           %X@&:&@X%                            ",
"                           X&@OOO@&X                            ",
"                          ;X@O&:&O@X;                           ",
"                          %XO@&:&@OX%                           ",
"                         *.O@@&:&@@O.%                          ",
"                      +O@&:>&@&:&@&>:&@O+                       ",
"                      O&&@@@O@&:&@O@@@&&O                       ",
"                      &@%%X.O@&:&@O.X%%@&                       "
};
