/* XPM */
static char *_[] = {
/* columns rows colors chars-per-pixel */
"64 64 30 1 ",
"  c None",
". c gray9",
"X c #181818",
"o c #393939",
"O c #555555",
"+ c #5B5B5B",
"@ c gray40",
"# c #63737D",
"$ c #68717B",
"% c #7B7B7B",
"& c #D50000",
"* c #DF0000",
"= c #E10000",
"- c #F85A07",
"; c #F75A08",
": c #FF6000",
"> c #FF6D00",
", c #EF7B18",
"< c #F7B521",
"1 c #EFA573",
"2 c #556A80",
"3 c #647480",
"4 c #666699",
"5 c #668080",
"6 c cyan",
"7 c #808080",
"8 c gray74",
"9 c #EFBD9C",
"0 c #EFDECE",
"q c white",
/* pixels */
"                                                                ",
"                                                                ",
"                                                                ",
"                                                                ",
"                                                                ",
"                                                                ",
"                                                                ",
"                                                                ",
"                                                                ",
"                                                                ",
"                                                                ",
"                                                                ",
"                                                                ",
"                                                                ",
"                                                                ",
"                                                                ",
"                                                                ",
"                                                                ",
"                                                                ",
"                                                                ",
"                                                                ",
"                                                                ",
"                                                                ",
"                                                                ",
"                                                                ",
"                                                                ",
"                                                                ",
"                                                                ",
"                                                                ",
"                                                                ",
"                                                                ",
"                                                                ",
"                                                                ",
"                                                                ",
"                                                                ",
"                          q******4                              ",
"                         =*******;*##*:                         ",
"                        #******;;*******7                       ",
"                       #******;,;;;***;;*;                      ",
"                      ***;;;;;;,,,,,*;****3                     ",
"                     ****;;;,,,,,,,,,,;****>                    ",
"                    6***;;,,,<,<<,,,,,,;;*;;                    ",
"                    #****,;<<<<<9<<<<<,,*;**                    ",
"                   * ;*;;,,<<<00<<<<<<<,,**#                    ",
"                  q***;;,,9<<00000<<<<<<,;*;@                   ",
"                  ****;,<<<<00qqq00<<91<,,;;-                   ",
"                  2**,,,<<<00q888q00<<<<<,,,,                   ",
"                   *,,,<<<00q88%+8q0q<<1,,;,*                   ",
"                   *;,,,,<<08%8%+%8q09<<,;;*&                   ",
"                   7;;;,,,<<%+q8%+%0<<<<<;;*                    ",
"                    * *,,,,<+o+++o+,<<<,,;*                     ",
"                     ***,,,1oo%8%oo,,,,,;*O                     ",
"                      **,,,,Xo+%+oX,,,,;*7                      ",
"                       5*;**Xo+%+oX*;;**                        ",
"                         #**Xo+%+oX**3                          ",
"                           #X+%8%+X#                            ",
"                           3o+ooo+oX                            ",
"                           .%ooooo%.                            ",
"                          2Xoo+%+ooX$                           ",
"                          XXo+%8%+oXX                           ",
"                         #Xo++%8%++oX#                          ",
"                      Oo+%80%+%8%+%08%+oO                       ",
"                      o%%+++o+%8%+o+++%%o                       ",
"                      %+##X.o+%8%+o.X##+%                       "
};
