/* XPM */
static char *_[] = {
/* columns rows colors chars-per-pixel */
"63 64 43 1 ",
"  c None",
". c gray9",
"X c #181818",
"o c #393939",
"O c #555555",
"+ c #5B5B5B",
"@ c #5D7474",
"# c #64757E",
"$ c #697878",
"% c #717171",
"& c #7B7B7B",
"* c #804020",
"= c #874B2D",
"- c #80552B",
"; c #804D33",
": c #894E3B",
"> c #835430",
", c #885533",
"< c #8E5539",
"1 c #F75A08",
"2 c #F85A08",
"3 c #EF7B18",
"4 c #F17C1C",
"5 c #CC7047",
"6 c #C6734A",
"7 c #EF8018",
"8 c #F7B521",
"9 c #EFA573",
"0 c #606080",
"q c #657280",
"w c #687480",
"e c #6B7986",
"r c #627689",
"t c blue",
"y c #558080",
"u c #668080",
"i c #6A8080",
"p c cyan",
"a c #808080",
"s c gray74",
"d c #EFBD9C",
"f c #EFDECE",
"g c white",
/* pixels */
"                                                               ",
"                                                               ",
"                                                               ",
"                                                               ",
"                                                               ",
"                                                               ",
"                                                               ",
"                                                               ",
"                                                               ",
"                                                               ",
"                                                               ",
"                                                               ",
"                                                               ",
"                                                               ",
"                                                               ",
"                                                               ",
"                                                               ",
"                                                               ",
"                                                               ",
"                                                               ",
"                                                               ",
"                                                               ",
"                                                               ",
"                                                               ",
"                                                               ",
"                                                               ",
"                                                               ",
"                                                               ",
"                          ;>>>##>>>-<                          ",
"                       a#>6333>>>336>>>                        ",
"                      ->>636636>336666>>O                      ",
"                     -3666633613188366>>>a                     ",
"                    q>6633333138833883366>                     ",
"                   u6663113318333313833966>                    ",
"                   >6333133111633366133666 @                   ",
"                  >6+1338331111111336383636>                   ",
"                  >661313131338388113631636>w                  ",
"                 a>3338318133181188133316383>                  ",
"                 ;61318381318813111181166883>*                 ",
"                 ,313113811111133333188163163>                 ",
"                 =311133111833338883331116613>                 ",
"                 q3113331133383888883881161836g                ",
"                 i>1338833888888d88888381663836                ",
"                 %>13181883888ff888888833866635                ",
"                 y31138883d88fffff8888888316364                ",
"                 a3366838888ffgggff88d983816634                ",
"                  >38888838ffgsssgff88888883667                ",
"                  >6168888ffgss&+sgfg889388363$                ",
"                  >63188888fs&s&+&sgfd88881333g                ",
"                  ;333863888&+gs&+&f88888183>4                 ",
"                   >33388688+o+++o+3888381334                  ",
"                    >>333>69oo&s&oo83811133>                   ",
"                     q31361>Xo+&+oX33818+2>                    ",
"                      0>333>Xo+&+oX1118>>r                     ",
"                        :>-#Xo+&+oX#>>>>                       ",
"                           pX+&s&+XX#t                         ",
"                           eo+ooo+oX                           ",
"                           X&ooooo&Xa                          ",
"                          uX+o+&+ooXe                          ",
"                          .Xo+&s&+oXX                          ",
"                        t#Xo++&s&++oX#                         ",
"                      Oo+&sf&+&s&+&fs&+oO                      ",
"                      o&&+++o+&s&+o+++&&o                      ",
"                      &+##X.o+&s&+o.X##+&                      "
};
