/* XPM */
static char *_[] = {
/* columns rows colors chars-per-pixel */
"65 65 36 1 ",
"  c None",
". c #303000",
"X c #382810",
"o c #202020",
"O c #282828",
"+ c #483818",
"@ c #503818",
"# c #404000",
"$ c #484800",
"% c #585800",
"& c #686800",
"* c #6A6A0D",
"= c #707000",
"- c #717109",
"; c #6C6C17",
": c #6C6C18",
"> c #737315",
", c #74741E",
"< c #59452A",
"1 c #584B33",
"2 c #604C32",
"3 c #6F6F25",
"4 c #727237",
"5 c #73733D",
"6 c #78783F",
"7 c #787852",
"8 c #7A7A5D",
"9 c #606060",
"0 c #746D63",
"q c #7B7B66",
"w c #767068",
"e c #68767D",
"r c gray44",
"t c #880000",
"y c #808000",
"u c #909000",
/* pixels */
"                                                                 ",
"                                                                 ",
"                                                                 ",
"                                                                 ",
"                                                                 ",
"                                                                 ",
"                                                                 ",
"                                                                 ",
"                                                                 ",
"                                                                 ",
"                                                                 ",
"                                                                 ",
"                                                                 ",
"                                                                 ",
"                                                                 ",
"                                                                 ",
"                                                                 ",
"                                                                 ",
"                                                                 ",
"                                                                 ",
"                                                                 ",
"                                                                 ",
"                                                                 ",
"                                                                 ",
"                                                                 ",
"                                                                 ",
"                                                                 ",
"                                                                 ",
"                                                                 ",
"                                                                 ",
"                                                                 ",
"                                                                 ",
"                                                                 ",
"                                                                 ",
"                                                                 ",
"                                                                 ",
"                                                                 ",
"                                                                 ",
"                                                                 ",
"                                                                 ",
"                                                                 ",
"                                                                 ",
"                                                                 ",
"                    q====================q                       ",
"                    %%%%%%%%%%%%%%%%%%%%%%                       ",
"                   ==&&&  &=========&  &&==                      ",
"                  -%$$$$$$$$$$$$$$$$$$$$$$%-                     ",
"                 >%$#9999r9#99999r9#9999r##%,                    ",
"                6%$.O   t rOr   t rOr  t ro.%7                   ",
"                ==yuuuuuuuuuuuuuuuuuuuuuuuuy==                   ",
"               8%$%%%%%%%%%%%%%%%%%%%%%%%%%%$%7                  ",
"               5%$%%%%%%%%%%%%%%%%%%%%%%%%%%$%;                  ",
"               3%##$$$$$$$$$$$$$$$$$$$$$$$$##%&                  ",
"               :%%=========================&%%&                  ",
"               *%$%%%%%%%%%%%%%%%%%%%%%%%%%%$%&                  ",
"               *%$%%%%%%%%%%%%%%%%%%%%%%%%%%$%&                  ",
"               *%##$$$$$$$$$$$$$$$$$$$$$$$$##%&2                 ",
"               *%%=========================&%%&+                 ",
"               ;%$%%%%%%%%%%%%%%%%%%%%%%%%%%$%&+w                ",
"               3%$%%%%%%%%%%%%%%%%%%%%%%%%%%$%&X1                ",
"               4%#$$$$$$$$$$$$$$$$$$$$$$$$$$#%&X+                ",
"               7%############################%&X+0               ",
"                %XXXXXXXXXXXXXXXXXXXXXXXXXXXXXXX+<               ",
"                e++++++++++++++++++++++++++++++++@               ",
"                                                                 "
};
