/* XPM */
static char *_[] = {
/* columns rows colors chars-per-pixel */
"65 65 41 1 ",
"  c None",
". c #382810",
"X c gray22",
"o c #483818",
"O c #503818",
"+ c #4C3E20",
"@ c #404000",
"# c #484800",
"$ c #4C4C09",
"% c #585800",
"& c #686800",
"* c #707000",
"= c #6C6C17",
"- c #6E6E1E",
"; c #73731C",
": c #5C503D",
"> c #6E6E24",
", c #70702C",
"< c #727233",
"1 c #727239",
"2 c #484848",
"3 c #505050",
"4 c #585858",
"5 c #685B4B",
"6 c #757546",
"7 c #76764B",
"8 c #6C6254",
"9 c #777750",
"0 c #787855",
"q c #79795A",
"w c #606060",
"e c #686868",
"r c #746E66",
"t c #67767D",
"y c #69777E",
"u c gray45",
"i c #80800A",
"p c #808034",
"a c gray56",
"s c #989898",
"d c #AFAFAF",
/* pixels */
"                                                                 ",
"                                                                 ",
"                                                                 ",
"                                                                 ",
"                                                                 ",
"                                                                 ",
"                                                                 ",
"                                                                 ",
"                                                                 ",
"                                                                 ",
"                                                                 ",
"                                                                 ",
"                                                                 ",
"                                                                 ",
"                                                                 ",
"                                                                 ",
"                                                                 ",
"                                                                 ",
"                                                                 ",
"                                                                 ",
"                                                                 ",
"                                                                 ",
"                                                                 ",
"                                                                 ",
"                                                                 ",
"                                                                 ",
"                                                                 ",
"                                                                 ",
"                                                                 ",
"                                                                 ",
"                                                                 ",
"                                                                 ",
"                                                                 ",
"                                                                 ",
"                                                                 ",
"                                                                 ",
"                                                                 ",
"                                                                 ",
"                                                                 ",
"                                      ad                         ",
"                                    ad 3                         ",
"                                   s 3                           ",
"                        e43w     uawX                            ",
"                       2#tttt2  d wXy                            ",
"                    i*********&&&&&#                             ",
"                   p&%############%#                             ",
"                   ;%@###########.%#                             ",
"                   =%%@#########.%%#                             ",
"                   =%#%@#######@%#%#                             ",
"                   =%##%@#####@%##%#                             ",
"                   =%###%@###@%###%#                             ",
"                   -%####%@#@%####%#                             ",
"                   >%#####%@%#####%#                             ",
"                   ,%#####@%@#####%#                             ",
"                   <%####@%#%@####%#                             ",
"                   1%###@%###%@###%#                             ",
"                   6%##@%#####%@##%#                             ",
"                   6%#@%#######%@#%#                             ",
"                   7%@%#########%@%#                             ",
"                   9%%###########%%$                             ",
"                   0%%%%%%%%%%%%%%%$                             ",
"                   q################o+:8r                        ",
"                   ro.................oooooo5                    ",
"                    OOoooooooooooooooooOOOtt                     ",
"                                                                 "
};
