/* XPM */
static char *_[] = {
/* columns rows colors chars-per-pixel */
"65 65 65 1 ",
"  c None",
". c black",
"X c #080000",
"o c #180000",
"O c #200800",
"+ c #281000",
"@ c #282008",
"# c #302000",
"$ c #37280B",
"% c #383000",
"& c #382810",
"* c gray22",
"= c #43371E",
"- c #483818",
"; c #503818",
": c #463A23",
"> c #483D27",
", c #4A3F2A",
"< c #387000",
"1 c #484000",
"2 c #485800",
"3 c #505000",
"4 c #406000",
"5 c #47640F",
"6 c #52601A",
"7 c #4B402B",
"8 c #5B4527",
"9 c #5C462A",
"0 c #5D482C",
"q c #5C572F",
"w c #4E4430",
"e c #514734",
"r c #514835",
"t c #564D3C",
"y c #5F4E38",
"u c #64533C",
"i c #414141",
"p c #4E4242",
"a c #4E4E4E",
"s c #504545",
"d c #524E41",
"f c #564D4D",
"g c #545044",
"h c #585144",
"j c #5E554F",
"k c gray32",
"l c #5C5454",
"z c #5B5B5B",
"x c #635441",
"c c #615846",
"v c #615A4E",
"b c #635B56",
"n c #655E59",
"m c #676157",
"M c #6B6850",
"N c #676258",
"B c #69645B",
"V c #6E6C58",
"C c #676161",
"Z c #696760",
"A c #6C6A65",
"S c #756E65",
"D c #767068",
"F c #78736D",
"G c #6B777E",
/* pixels */
"                                                                 ",
"                                                                 ",
"                                                                 ",
"                                                                 ",
"                                                                 ",
"                                                                 ",
"                                                                 ",
"                                                                 ",
"                                                                 ",
"                                                                 ",
"                                                                 ",
"                                                                 ",
"                                                                 ",
"                                                                 ",
"                                                                 ",
"                                                                 ",
"                                                                 ",
"                                                                 ",
"                                                                 ",
"                                                                 ",
"                                                                 ",
"                                                                 ",
"                                                                 ",
"                                                                 ",
"                                                                 ",
"                                                                 ",
"                                                                 ",
"                                                                 ",
"                                                                 ",
"                                                                 ",
"                                                                 ",
"                                                                 ",
"                                                                 ",
"                                                                 ",
"                                                                 ",
"                                                                 ",
"                                                                 ",
"                  Mq            MV                               ",
"                 a..a          k..z                              ",
"                 #11#         G#11#                              ",
"                64444444454444444446                             ",
"                13333333333333333331                             ",
"               C#31111111111111111*+z                            ",
"               k+3111%%111111%%111*+i                            ",
"               h.311%XX%1111%XX%11*.w                            ",
"               t%311%2<%1111%<2%11*+>                            ",
"               r%111%3<%1111%<3%11*+:                            ",
"               w%#13%12%3333%21%**#+:                            ",
"               w%####13+#####31+###+>                            ",
"               e%#%%#%1+%%%%#1%+%%#+,                            ",
"               r%#%%OOOO%%%%OOOO%%#+7                            ",
"               t%#%%#33+%%%%%33+%%#+,                            ",
"                %##################+G                            ",
"               h%3111111%.+31111111+=                            ",
"               j%#%%%%%%#.##%%%%%%++$                            ",
"               v%1##..##1.#1##..##1+#                            ",
"               b%3%%..%%1.#3%%..%%1+#;0D                         ",
"               m%1%%%%%%1.#1%%%%%%1+#-;;0D                       ",
"               B%#######%.########%X#@&-;;9D                     ",
"               Z#X++++++.+.+++++++Xo@@&-----9S                   ",
"               Aoo.....+###+......oo@&&-----;;8S                 ",
"                ACCnnnnNblbbjfffsspgdhcxxxuuuyuuuF               ",
"                                                                 ",
"                                                                 ",
"                                                                 "
};
