/* XPM */
static char *_[] = {
/* columns rows colors chars-per-pixel */
"65 65 54 1 ",
"  c None",
". c #281000",
"X c #282008",
"o c #302000",
"O c #383000",
"+ c #382810",
"@ c gray19",
"# c #403018",
"$ c #483818",
"% c #503818",
"& c #387000",
"* c #307800",
"= c #484000",
"- c #4D460D",
"; c #485800",
": c #4D5C0C",
"> c #505000",
", c #585800",
"< c #535309",
"1 c #4F5D11",
"2 c #565611",
"3 c #5A5A1C",
"4 c #406000",
"5 c #4B6516",
"6 c #686800",
"7 c #707000",
"8 c #564125",
"9 c #584020",
"0 c #575122",
"q c #63513A",
"w c #586323",
"e c #526924",
"r c #447921",
"t c #4E7B30",
"y c #59773A",
"u c #587839",
"i c #60602C",
"p c #636B3E",
"a c #675743",
"s c #6A5D4B",
"d c #696943",
"f c #6A674E",
"g c #687B56",
"h c #697D5B",
"j c #606060",
"k c #747460",
"l c #77726C",
"z c #108800",
"x c #208000",
"c c #46843E",
"v c #808000",
"b c #989800",
"n c #C0C000",
"m c #F8F800",
/* pixels */
"                                                                 ",
"                                                                 ",
"                                                                 ",
"                                                                 ",
"                                                                 ",
"                                                                 ",
"                                                                 ",
"                                                                 ",
"                                                                 ",
"                                                                 ",
"                                                                 ",
"                                                                 ",
"                                                                 ",
"                                                                 ",
"                                                                 ",
"                                                                 ",
"                                                                 ",
"                                                                 ",
"                                                                 ",
"                                                                 ",
"                                                                 ",
"                                                                 ",
"                                                                 ",
"                                                                 ",
"                                                                 ",
"                                                                 ",
"                                                                 ",
"                                                                 ",
"                                                                 ",
"                                                                 ",
"                                                                 ",
"                                                                 ",
"                                                                 ",
"                                                                 ",
"                                                                 ",
"                                                                 ",
"                                                                 ",
"                                                                 ",
"                                                                 ",
"                                                                 ",
"                                                                 ",
"                                                                 ",
"                                                                 ",
"                   gue5:>>>>>>>><23idk                           ",
"                 t=.7n  j7,666,7j  n7=>p                         ",
"                r=.7n  j,7,bvb,7,j  n7=>w                        ",
"               c=.7m  jj6n,n7n,n6jj  m7=>p                       ",
"               zz&xxxxxxxxxxxxxx*****&&=44                       ",
"              h>>O=>>>>>>>>>>>>>>>>>>>>4==f                      ",
"              y>>O=>>>>>>>>>>>>>>>>>>>>4>>0                      ",
"              e>>O=>>>>>>*;;;;;;=>>>>>>4>>-                      ",
"              1>>O=>>>>>>*>>>>>>=>>>>>>4>>=                      ",
"              ;>>O=>>>>>>&>>>>>>=>>>>>>4>>=                      ",
"              ;>>oO=======OOOOOO=======;>>=                      ",
"              ;>>O>444444>======>444444;>>=                      ",
"              ;>>O=>>>>>>>>>>>>>>>>>>>>;>>=$8l                   ",
"              ;>>O=>>>>>>>>>>>>>>>>>>>>;>>=#$%s                  ",
"              ;>>O=>>>>>>>>>>>>>>>>>>>>;>>=X@$%q                 ",
"              ;>>O=>>>>>>>>>>>>>>>>>>>>;>>=+#$$$q                ",
"              ;>>O=>>>>>>>>>>>>>>>>>>>>;>>=##$$$%q               ",
"              OOOOOOOOOOOOOOOOOOOOOOOOO=OOO$$$%%%9a              ",
"                                                                 ",
"                                                                 ",
"                                                                 ",
"                                                                 "
};
