/* XPM */
static char *_[] = {
/* columns rows colors chars-per-pixel */
"65 65 178 2 ",
"   c black",
".  c #808080",
"X  c #607080",
"o  c #00009F",
"O  c #0000CE",
"+  c #0000DE",
"@  c white",
"#  c cyan",
"$  c #00009F",
"%  c #0000A0",
"&  c black",
"*  c #666699",
"=  c black",
"-  c #0000DF",
";  c black",
":  c #0000E1",
">  c black",
",  c #0000B7",
"<  c black",
"1  c #000058",
"2  c #64757C",
"3  c #B07141",
"4  c #8A5932",
"5  c #815027",
"6  c #674621",
"7  c #AF7142",
"8  c #885B33",
"9  c #647480",
"0  c #67757C",
"q  c #607379",
"w  c #62767C",
"e  c #64727B",
"r  c #63757D",
"t  c #282828",
"y  c black",
"u  c #61727B",
"i  c #64747C",
"p  c #00006F",
"a  c #0000B0",
"s  c black",
"d  c #000048",
"f  c #0000AF",
"g  c #000048",
"h  c #0000B2",
"j  c #000048",
"k  c #555555",
"l  c #0000B0",
"z  c #000047",
"x  c #0000B1",
"c  c #000040",
"v  c #71718E",
"b  c #0000B0",
"n  c #000048",
"m  c gray40",
"M  c #000042",
"N  c #0000B3",
"B  c black",
"V  c #0000B3",
"C  c #000041",
"Z  c #0000AE",
"A  c #000040",
"S  c #808080",
"D  c black",
"F  c #0000B0",
"G  c #00003D",
"H  c #000048",
"J  c black",
"K  c #000048",
"L  c black",
"P  c #00003F",
"I  c black",
"U  c gray31",
"Y  c #63727D",
"T  c #6D6D92",
"R  c None",
"E  c #62737D",
"W  c #63757D",
"Q  c black",
"!  c #65747E",
"~  c black",
"^  c #0000B9",
"/  c #000040",
"(  c #0000B8",
")  c #000040",
"_  c #697887",
"`  c #0000B8",
"'  c #697878",
"]  c #0000B7",
"[  c #64757D",
"{  c #000042",
"}  c #0000B7",
"|  c #000040",
" . c #000074",
".. c #000041",
"X. c #000076",
"o. c #00003F",
"O. c blue",
"+. c #0000B9",
"@. c #000041",
"#. c #0000B7",
"$. c black",
"%. c #64767C",
"&. c black",
"*. c black",
"=. c #000040",
"-. c #55AAAA",
";. c #657280",
":. c black",
">. c #556A80",
",. c #63747E",
"<. c #61757A",
"1. c #63737B",
"2. c #64737E",
"3. c #000040",
"4. c black",
"5. c black",
"6. c #608080",
"7. c black",
"8. c #6B7986",
"9. c #63747A",
"0. c #62757C",
"q. c #62747C",
"w. c #647680",
"e. c #0000A0",
"r. c #0000D0",
"t. c #0000E0",
"y. c black",
"u. c #000070",
"i. c #F8F850",
"p. c #0000B8",
"a. c #E06800",
"s. c #F8F800",
"d. c #C87848",
"f. c #F09058",
"g. c #986038",
"h. c #989800",
"j. c #F8A070",
"k. c #F8B890",
"l. c #F8C0A0",
"z. c #F8B080",
"x. c #D08050",
"c. c #885830",
"v. c #F8B898",
"b. c #F89860",
"n. c #B87848",
"m. c #F8C8B0",
"M. c #F8E0D0",
"N. c #E88858",
"B. c #905830",
"V. c #805028",
"C. c #282828",
"Z. c #0000B0",
"A. c #888888",
"S. c #202020",
"D. c #B07040",
"F. c #505050",
"G. c #000060",
"H. c #000048",
"J. c #000058",
"K. c #000040",
"L. c #000088",
"P. c #000098",
"I. c #000078",
"U. c #606060",
"Y. c gray44",
"T. c gray47",
"R. c #989898",
"E. c gray66",
"W. c #484848",
"Q. c gray69",
"!. c gray22",
"~. c #684820",
"^. c #A06038",
"/. c #D88850",
"(. c #503818",
"). c #63747D",
"_. c #0000C8",
"`. c white",
/* pixels */
"                                                                                                                                  ",
"                                                                                                                                  ",
"                                                                                                                                  ",
"                                                                                                                                  ",
"                                                                                                                                  ",
"                                                                                                                                  ",
"                                                                                                                                  ",
"                                                                                                                                  ",
"                                                                                                                                  ",
"                                                                                                                                  ",
"                                                            . X o O + @                                                           ",
"                                                        # $ % e.e.r.t.& *                                                         ",
"                                                      = - e.e.e.e.r.y.y.;                                                         ",
"                                                      : t.t.e.e.t.y.y.y.y.>                                                       ",
"                                                      , u.t.t.t.y.y.y.y.y.<                                                       ",
"                                                      1 u.u.u.u.y.y.y.y.y.2                                                       ",
"                                                      3 i.p.u.u.y.y.y.y.a.4                                                       ",
"                                                      5 s.d.p.d.f.g.p.d.h.6                                                       ",
"                                                      7 j.k.l.z.x.c.v.z.x.8                                                       ",
"                                                      9 j.k.j.b.b.b.b.d.n.0                                                       ",
"                                                      q j.k.f.m.M.M.j.d.x.w                                                       ",
"                                                      e z.k.f.j.j.j.j.d.N.r                                                       ",
"                                                      t B.z.j.j.d.j.f.f.V.y                                                       ",
"                                                  . u C.C.B.B.B.B.B.V.V.y.y.i                                                     ",
"                                              p a Z.C.C.A.S.d.d.D.V.V.y.F.y.y.s d                                                 ",
"                                            f Z.Z.C.C.C.C.A.y.y.V.y.y.F.y.G.G.G.H.g                                               ",
"                                          h Z.t.Z.C.C.C.Z.y.H.y.y.y.H.y.u.e.e.e.u.J.j                                             ",
"                                        k l Z.G.e.C.C.C.K.L.L.G.e.e.e.e.e.e.Z.Z.u.u.K.z                                           ",
"                                        x Z.L.L.Z.Z.C.C.C.L.L.G.Z.L.L.L.L.L.Z.Z.e.u.u.c v                                         ",
"                                        b Z.H.L.Z.Z.C.C.C.K.L.G.e.P.P.P.P.L.e.L.Z.Z.u.u.n =                                       ",
"                                      m Z.L.H.L.e.e.H.C.C.y.K.G.e.u.u.u.u.u.e.G.Z.Z.Z.u.u.M                                       ",
"                                      N I.u.J.K.P.P.I.y.y.y.y.y.e.G.I.I.I.H.L.G.L.L.L.P.y.B k                                     ",
"                                      V Z.Z.K.K.G.G.G.K.y.y.y.y.J.J.H.H.H.J.L.K.G.K.K.K.G.G.C                                     ",
"                                      Z Z.I.I.H.y.G.J.U.Y.T.F.y.y.y.J.J.Y.J.J.K.K.G.K.P.P.y.A                                     ",
"                                      S I.Z.Z.Z.A.A.A.R.R.R.R.R.E.E.E.E.C.S.H.u.L.P.L.P.K.y.D                                     ",
"                                        F Z.Z.Z.A.F.F.W.W.W.W.W.W.W.F.F.C.C.L.P.P.P.u.J.P.G.G                                     ",
"                                        H Z.t.Q.y.F.F.F.S.S.S.y.y.!.!.C.S.y.F.L.u.u.J.J.K.J                                       ",
"                                        . K A.I.I.D.y.y.W.W.C.y.~.~.~.~.~.y.K.F.J.J.J.K.L #                                       ",
"                                          P A.J.^.b.b.N.F.F.C.y.c.n./.g.~.y.K.W.J.K.K.I                                           ",
"                                            U H./.b./.^.F.F.C.y.c.n./.g.~.y.K.!.K.y.Y                                             ",
"                                            T R /.b.b.^.(.y.y.y.c.^.^.~.~.y.y.y.y.E                                               ",
"                                              W G.^.^.~.(.y.y.y.y.y.y.u.u.u.K.K.y.Q                                               ",
"                                              ! p.p.G.H.K.K.K.y.y.y.K.K.K.K.K.K.K.~                                               ",
"                                              ^ p.p.p.G.H.K.K.K.y.K.K.J.L.L.G.K.K./                                               ",
"                                              ( p.p.p.P.G.H.K.K.y.K.K.L.L.u.J.H.K.)                                               ",
"                                            _ p.p.p.p.P.G.H.K.K.y.K.K.G.J.J.J.J.K.K.S                                             ",
"                                            ` p.p.p.P.I.G.K.K.K.y.K.H.J.J.J.J.J.K.K.'                                             ",
"                                          . ] p.p.P.P.I.G.H.K.K.y.K.J.J.J.u.u.I.J.K.0                                             ",
"                                          [ p.p.p.P.I.G.H.K.K.y.y.K.J.J.u.P.L.I.J.K.{                                             ",
"                                        k } p.p.P.P.I.G.H.K.K.).y.K.G.u.P.P.L.L.G.K.|                                             ",
"                                         .p.p.p.p.p.p.I.I.H.y.).).K.G.I.P.P.P.P.I.H...                                            ",
"                                        X.p._.t.e.G.G.H.H.K.y.).).K.I.I.P.G.G.P.I.I.o.                                            ",
"                                        O.+.e.I.u.G.G.K.K.K.).).).K.I.K.G.J.J.G.H.K.@.                                            ",
"                                          #.I.G.G.G.K.K.K.K.y.).).y.K.G.J.J.J.J.K.H.$.                                            ",
"                                          %.K.K.K.K.K.K.y.y.y.).).y.K.G.J.J.H.K.K.K.&.                                            ",
"                                          . ) K.K.y.y.y.y.y.y.).).y.y.K.K.K.K.K.K.y.*.                                            ",
"                                            =.K.y.y.y.y.y.y.y.).).).y.y.y.y.y.y.y.y.-.                                            ",
"                                            ;.K.K.y.y.y.y.y.y.).).).y.K.y.H.y.y.y.:.                                              ",
"                                            >.y.K.K.K.y.y.y.).).).).y.y.K.H.y.y.y.,.                                              ",
"                                            >.y.y.y.y.y.y.y.y.).).).).y.y.y.K.y.y.<.                                              ",
"                                            1.K.K.y.y.y.y.y.y.).).).).y.y.K.y.y.y.2.                                              ",
"                                          . 3.K.K.K.y.y.y.y.y.).).).y.y.y.K.K.y.y.4.                                              ",
"                                          5.K.K.K.y.y.y.y.y.).).).).y.K.K.K.K.K.y.y.6.                                            ",
"                                          7.K.K.K.y.y.y.y.).).).).).y.y.K.K.K.K.y.y.L                                             ",
"                            = # . S v 8.9.0.y.y.y.y.y.y.).).).).).).).y.y.y.y.y.y.y.y.q.w.6.k # =                                 "
};
