/* XPM */
static char *_[] = {
/* columns rows colors chars-per-pixel */
"65 65 187 2 ",
"   c black",
".  c #808080",
"X  c #687880",
"o  c #0000A1",
"O  c #0000D0",
"+  c #0000DD",
"@  c cyan",
"#  c #0000A1",
"$  c #0000A0",
"%  c black",
"&  c #558080",
"*  c black",
"=  c #0000DF",
"-  c black",
";  c #0000E1",
":  c black",
">  c #0000B8",
",  c black",
"<  c #000059",
"1  c #64747C",
"2  c #B07040",
"3  c #895831",
"4  c #815028",
"5  c #694920",
"6  c #B16F3F",
"7  c #895732",
"8  c #63747A",
"9  c #607080",
"0  c #657280",
"q  c #60757C",
"w  c #63737C",
"e  c blue",
"r  c #282828",
"t  c black",
"y  c #62747C",
"u  c #62747C",
"i  c #000070",
"p  c #0000B0",
"a  c black",
"s  c #0000B1",
"d  c #000076",
"f  c #0000A5",
"g  c navy",
"h  c #0000AF",
"j  c #000087",
"k  c #0000B3",
"l  c #000077",
"z  c #0000B0",
"x  c #000078",
"c  c None",
"v  c #697878",
"b  c #5D7480",
"n  c #64757C",
"m  c #0000AE",
"M  c #000079",
"N  c #0000B3",
"B  c #000098",
"V  c #668080",
"C  c #000055",
"Z  c #0000AF",
"A  c #000040",
"S  c #000047",
"D  c #000060",
"F  c #5555AA",
"G  c #000048",
"H  c #000040",
"J  c #000041",
"K  c #000040",
"L  c #00003C",
"P  c #61727B",
"I  c #66757C",
"U  c #555555",
"Y  c #63747D",
"T  c #000040",
"R  c #64737D",
"E  c #000040",
"W  c #62737D",
"Q  c #000040",
"!  c #0000B7",
"~  c #000040",
"^  c #0000B9",
"/  c #000040",
"(  c #0000B8",
")  c #55AAAA",
"_  c #808080",
"`  c #6D8080",
"'  c #63737D",
"]  c #66777D",
"[  c #000079",
"{  c black",
"}  c #000078",
"|  c black",
" . c #000077",
".. c #6A8080",
"X. c black",
"o. c black",
"O. c #00003F",
"+. c black",
"@. c #617979",
"#. c black",
"$. c #000040",
"%. c #637180",
"&. c #64737D",
"*. c black",
"=. c #5D7474",
"-. c black",
";. c black",
":. c #62757C",
">. c #000040",
",. c #63757E",
"<. c black",
"1. c #5E7979",
"2. c #63747D",
"3. c black",
"4. c #687480",
"5. c #608080",
"6. c black",
"7. c #607080",
"8. c #627676",
"9. c black",
"0. c #61757A",
"q. c #000041",
"w. c black",
"e. c black",
"r. c black",
"t. c #000041",
"y. c #000040",
"u. c #000040",
"i. c black",
"p. c black",
"a. c black",
"s. c #557171",
"d. c black",
"f. c black",
"g. c #0000A0",
"h. c #0000D0",
"j. c #0000E0",
"k. c black",
"l. c #000070",
"z. c #F8F850",
"x. c #0000B8",
"c. c #E06800",
"v. c #F8F800",
"b. c #C87848",
"n. c #F09058",
"m. c #986038",
"M. c #989800",
"N. c #F89860",
"B. c #F8B890",
"V. c #F8C0A0",
"C. c #F8B080",
"Z. c #D08050",
"A. c #885830",
"S. c #F8B898",
"D. c #F8A070",
"F. c #B87848",
"G. c #F8C8B0",
"H. c #F8E0D0",
"J. c #E88858",
"K. c #905830",
"L. c #805028",
"P. c #282828",
"I. c #503818",
"U. c #606060",
"Y. c #888888",
"T. c #B07040",
"R. c #505050",
"E. c #0000B0",
"W. c #484848",
"Q. c #000058",
"!. c #000040",
"~. c #000078",
"^. c gray22",
"/. c #000048",
"(. c #000088",
"). c #000060",
"_. c #000098",
"`. c #0000C8",
"'. c gray69",
"]. c #202020",
"[. c #684820",
"{. c #584020",
"}. c #A06038",
"|. c #704828",
" X c #D88850",
".X c #63747D",
"XX c white",
/* pixels */
"                                                                                                                                  ",
"                                                                                                                                  ",
"                                                                                                                                  ",
"                                                                                                                                  ",
"                                                                                                                                  ",
"                                                                                                                                  ",
"                                                                                                                                  ",
"                                                                                                                                  ",
"                                                                                                                                  ",
"                                                                                                                                  ",
"                                                            . X o O + .                                                           ",
"                                                        @ # $ g.g.h.j.% &                                                         ",
"                                                      * = g.g.g.g.h.k.k.-                                                         ",
"                                                      ; j.j.g.g.j.k.k.k.k.:                                                       ",
"                                                      > l.j.j.j.k.k.k.k.k.,                                                       ",
"                                                      < l.l.l.l.k.k.k.k.k.1                                                       ",
"                                                      2 z.x.l.l.k.k.k.k.c.3                                                       ",
"                                                      4 v.b.x.b.n.m.x.b.M.5                                                       ",
"                                                      6 N.B.V.C.Z.A.S.C.Z.7                                                       ",
"                                                      8 D.B.D.N.N.N.N.b.F.9                                                       ",
"                                                      0 D.B.n.G.H.H.D.b.Z.q                                                       ",
"                                                      1 C.B.n.D.D.D.D.b.J.w                                                       ",
"                                                    e r K.C.D.D.b.D.n.n.L.t .                                                     ",
"                                                  . y P.P.K.K.K.K.K.L.I.k.k.u                                                     ",
"                                                i p U.P.Y.b.b.b.T.L.k.R.k.k.k.a                                                   ",
"                                              s E.W.W.Q.Y.k.L.W.k.k.R.k.!.~.~.~.d                                                 ",
"                                            f E.j.W.^.!.k./.k.k.k.!.k.Q.g.g.g.g.(.g                                               ",
"                                            h E.).W.^.!.E.E.(.l.g.g.g.g.g.E.E.g.g.j *                                             ",
"                                          k E.(.E.W.W.^.Q.E.).(.~.~.l.l.j./.j.g.g.(.l                                             ",
"                                          z E./.E.W.W.^.!.E.).E.~._._./.j.).).E.E.(.x                                             ",
"                                        . c (./.E.!.W.^.^.(.).E.~.Q.Q.(./.j.j.E.E.E.~.v                                           ",
"                                        b E.~.).(.E.W.W.P.(.).E.l.~.Q.E.).j.`.E.E.E._.n                                           ",
"                                        m E.E.!.(.E.W.W.'.U.).E.E.l.Q.E.).`.`.E.E.E.E.M                                           ",
"                                        N E.~.~.l.E.Q.Y.^.].R._.E._._._.).!.(.j.j.j.h.B                                           ",
"                                        V ~.E.E.l.E.'.^.].].].l.(.(.(.l.`.`.`.j.j.).).!.C                                         ",
"                                          Z E.E.l.l.Y.R.^.].P.l.l.l.(.E.j.j.`.E.!.j.).).A                                         ",
"                                          S E.j.Y.l.k.R.].].^.^.P.].R.(.E.E.l.Q.E.k.).D *                                         ",
"                                          F G Y.~.T.k.k.[.[.{.{.{.k.!.R.Q.Q.Q.Q.!.).!.H                                           ",
"                                            J Y.}.N.N.J.F.A.|.|.[.k.!.W.Q.!.Q.!.k.k.K L                                           ",
"                                            P R. XN. X}.F.A.A.A.[.k.!.^.!.k.!.k.k.!.I                                             ",
"                                            U /. XN.N.}.F.}.A.{.{.k.k.k.k.k.k.k.!..X@                                             ",
"                                              Y ).}.}.[.I.k.k.k.k.k.!.Q.Q.!.!.!.!.T                                               ",
"                                              R x.~.)./.!.!.!.!.k.!.Q.(.(.l.!.!.!.E                                               ",
"                                              W x.E.~.)./.!.!.!.k.!.!.l.l.Q.Q.).!.Q                                               ",
"                                              ! E.~.~.)./.!.!.!.k.!.Q.Q.Q.Q.Q.l./.~                                               ",
"                                              ^ E.~.).)./.!.!.!.k.!.Q.Q.Q.l.l.).)./                                               ",
"                                              ( g.~.)././.!.!.!.k.!.Q.).l.g.(.l.)./.)                                             ",
"                                            _ E._.)././.!.!.!.!.k.!.Q.l._.g.g.~.Q./.`                                             ",
"                                            ' g._.)././.!.!.!.!.k.!.).l._.g.g.g.Q./.]                                             ",
"                                          [ E._.)././././.!.!.k.k.!.).l._.g.g.g.)./.{                                             ",
"                                          } g.!.)././.!./././.k..X!.).~._.g.g.g.~.~.| *                                           ",
"                                           .)./.)././.!.!./.!.k..X~.~.g._.).)._.~.~.~...                                          ",
"                                          v !.!.!././.!.!.!.k..X/.~.g.!.).Q./.)./.k.~.X.                                          ",
"                                          @ / !.!.!.!.!.!.k.k.k./.k.!.!.!./././.k./.k.o.                                          ",
"                                            O.!.k.k.k.k.k.k.+._ @.#.k.!.!././.!.!.k.k._                                           ",
"                                            $.!.!.k.k.k.k.k.%.    &.k.k.!.!.!.!.!.k.*.                                            ",
"                                            =.!.!.!.k.k.k.-.      * ;.!.!.!.!.k.k.k.:.                                            ",
"                                              >.!.k.k.k.k.,.        <.k.!.!.!.k.k.k.1.                                            ",
"                                              2.k.k.k.k.k.3.        4.k.!.!.!.!.k.k.5.                                            ",
"                                              ~ !.!.k.k.k.6.        . k.!.!.!.!.k.k.7.                                            ",
"                                            8.!.!.!.!.!.k.9.          2.k.k.k.k.k.k.0.                                            ",
"                                            q.!.!.!.!.k.k.w.          e.!.!.!.!.k.k.r.                                            ",
"                                            t.y.u.i.p.6.o.            a.!.!.!.!.!.k.k.s.                                          ",
"                                                                      d.!.!.!.!.!.k.k.f.                                          ",
"                                                                      0 k.!.!.!.!.k.k.| .                                         "
};
