/* XPM */
static char *_[] = {
/* columns rows colors chars-per-pixel */
"65 65 196 2 ",
"   c black",
".  c #808080",
"X  c #687880",
"o  c #0000A1",
"O  c #0000D0",
"+  c #0000DD",
"@  c cyan",
"#  c #00009F",
"$  c #0000A0",
"%  c black",
"&  c #558080",
"*  c black",
"=  c #0000DF",
"-  c black",
";  c #0000E1",
":  c black",
">  c #0000B7",
",  c black",
"<  c #000058",
"1  c #64747C",
"2  c #B07141",
"3  c #895831",
"4  c #815027",
"5  c #694920",
"6  c #AF7142",
"7  c #895732",
"8  c #65757A",
"9  c #607080",
"0  c #617380",
"q  c #60757C",
"w  c #62747D",
"e  c #63737C",
"r  c #272727",
"t  c black",
"y  c None",
"u  c #62747C",
"i  c #00006F",
"p  c #0000B0",
"a  c black",
"s  c #0000B0",
"d  c #000077",
"f  c #0000AF",
"g  c #000076",
"h  c #0000B1",
"j  c #000088",
"k  c #0000B0",
"l  c #000079",
"z  c #0000B1",
"x  c #000078",
"c  c #0000B0",
"v  c gray40",
"b  c #0000B0",
"n  c #66777D",
"m  c #0000B1",
"M  c #000070",
"N  c #0000AE",
"B  c #000098",
"V  c #000078",
"C  c #000033",
"Z  c #697878",
"A  c #000047",
"S  c #000078",
"D  c #5D7480",
"F  c #000047",
"G  c #71718E",
"H  c #000040",
"J  c #000040",
"K  c #000047",
"L  c #61757A",
"P  c #6D6D6D",
"I  c #000060",
"U  c #717171",
"Y  c #64747C",
"T  c #61757D",
"R  c blue",
"E  c #627680",
"W  c #0000B7",
"Q  c #0000B8",
"!  c #555555",
"~  c white",
"^  c #0000B8",
"/  c #608080",
"(  c #64737D",
")  c #6B7986",
"_  c #55AAAA",
"`  c #0000B0",
"'  c #63727D",
"]  c #00003F",
"[  c #000078",
"{  c #000040",
"}  c #000076",
"|  c #556A80",
" . c #607080",
".. c black",
"X. c black",
"o. c black",
"O. c #00003F",
"+. c black",
"@. c #808080",
"#. c #617979",
"$. c #000040",
"%. c #000040",
"&. c #637180",
"*. c black",
"=. c #5D7474",
"-. c black",
";. c black",
":. c #62757C",
">. c black",
",. c #63757E",
"<. c black",
"1. c #5E7979",
"2. c #62737D",
"3. c black",
"4. c #687480",
"5. c #000040",
"6. c black",
"7. c #627676",
"8. c black",
"9. c #63747D",
"0. c #000041",
"q. c black",
"w. c black",
"e. c #000041",
"r. c #000040",
"t. c #000040",
"y. c #000041",
"u. c black",
"i. c black",
"p. c #000040",
"a. c #557171",
"s. c #000041",
"d. c black",
"f. c #657280",
"g. c black",
"h. c #0000A0",
"j. c #0000D0",
"k. c #0000E0",
"l. c black",
"z. c #000070",
"x. c #F8F850",
"c. c #0000B8",
"v. c #E06800",
"b. c #F8F800",
"n. c #C87848",
"m. c #F09058",
"M. c #986038",
"N. c #989800",
"B. c #F8A070",
"V. c #F8B890",
"C. c #F8C0A0",
"Z. c #F8B080",
"A. c #D08050",
"S. c #885830",
"D. c #F8B898",
"F. c #F89860",
"G. c #B87848",
"H. c #F8C8B0",
"J. c #F8E0D0",
"K. c #E88858",
"L. c #905830",
"P. c #805028",
"I. c #282828",
"U. c #503818",
"Y. c #606060",
"T. c #888888",
"R. c #B07040",
"E. c #505050",
"W. c #0000B0",
"Q. c #484848",
"!. c #000058",
"~. c #000040",
"^. c #000078",
"/. c gray22",
"(. c #000048",
"). c #000088",
"_. c #000060",
"`. c #980000",
"'. c #000098",
"]. c #F80000",
"[. c #B00000",
"{. c #A00000",
"}. c #F05050",
"|. c #E80000",
" X c #0000C8",
".X c #E00000",
"XX c #A8A800",
"oX c #202020",
"OX c gray44",
"+X c #D88850",
"@X c #A06038",
"#X c #A86840",
"$X c #584020",
"%X c #684820",
"&X c #63747D",
"*X c white",
/* pixels */
"                                                                                                                                  ",
"                                                                                                                                  ",
"                                                                                                                                  ",
"                                                                                                                                  ",
"                                                                                                                                  ",
"                                                                                                                                  ",
"                                                                                                                                  ",
"                                                                                                                                  ",
"                                                                                                                                  ",
"                                                                                                                                  ",
"                                                            . X o O + .                                                           ",
"                                                        @ # $ h.h.j.k.% &                                                         ",
"                                                      * = h.h.h.h.j.l.l.-                                                         ",
"                                                      ; k.k.h.h.k.l.l.l.l.:                                                       ",
"                                                      > z.k.k.k.l.l.l.l.l.,                                                       ",
"                                                      < z.z.z.z.l.l.l.l.l.1                                                       ",
"                                                      2 x.c.z.z.l.l.l.l.v.3                                                       ",
"                                                      4 b.n.c.n.m.M.c.n.N.5                                                       ",
"                                                      6 B.V.C.Z.A.S.D.Z.A.7                                                       ",
"                                                      8 B.V.B.F.F.F.F.n.G.9                                                       ",
"                                                      0 B.V.m.H.J.J.B.n.A.q                                                       ",
"                                                      w Z.V.m.B.B.B.B.n.K.e                                                       ",
"                                                      r L.Z.B.B.n.B.m.m.P.t .                                                     ",
"                                                    9 y I.L.L.L.L.L.P.U.l.l.u                                                     ",
"                                              * i p Y.I.T.n.n.n.R.P.l.E.l.l.l.a                                                   ",
"                                            . s W.Q.Q.!.T.l.P.Q.l.l.E.l.~.^.^.^.d                                                 ",
"                                          * f W.k.Q./.~.l.(.l.l.l.~.l.!.h.h.h.h.).g                                               ",
"                                          h W.W._.Q./.~.W.W.).z.h.h.h.h.h.W.W.h.h.j                                               ",
"                                        & k W.).W.Q.Q./.!.W._.).^.^.z.z.k.(.k.h.h.).l                                             ",
"                                        z W.^.(.W.Q.Q./.~.`._.W.^.'.'.(.k._._.W.W.^.x                                             ",
"                                        c W.).(.].~.Q.Q./.[._.W.^.!.!.).(.k.k.W.W.W.^.v                                           ",
"                                        b ^.^._.).{.}.{.{.|.{.{.z.^.!.W._.k. XW.W.W.^.n                                           ",
"                                        m W.W.~.).).{.N.].}.].].}.}.!.W._. X XW.W.W.^.M                                           ",
"                                        N W.^.^.z..X.X].B.XXB.].{.}..X'._.^.).k.k.k.j.B                                           ",
"                                        V ^.`.].].|.}.}.XXx.XX}.}.|.].].`. X Xk.k._._.~.C                                         ",
"                                        Z (.W.W.z..X.X}.B.XXB.}..X.X).W.k.k. X^.k.k._._.A                                         ",
"                                        * S W.k.R.R.].].}.}.}.].I.oXE.c.c.^.z.W.(.z._._.D                                         ",
"                                          F T.R.R.R.R.].].].{.S.c.c.c.OXh._.!.~.~.~.~.~.G                                         ",
"                                          H E.+XF.+X@XA.`.`.#XS._.h.h.OX_._.~.~.~.~.~.J                                           ",
"                                            K +XF.F.@XG.A.`.S.$Xl._._.Q.l.~.~.~.~.~.L                                             ",
"                                            P I @X@X%XU.l.l.l.l.l.l.l.l.l.l.l.l.l.l.U                                             ",
"                                              Y ^.^.~.~.~.~.l.l.l.l.~.~.~.~.~.~.~.l..                                             ",
"                                              T c.^.~.~.~.~.~.l.l.~.~.z.!.!.~.~.~.~.R                                             ",
"                                              E c.'.^.~.~.~.~.l.l.~.~.!.!.!.!._.~.~.*                                             ",
"                                              W W.).^._.(.~.~.l.l.~.!.!.z.).).z.(.~.@                                             ",
"                                              Q W.)._._.(.~.~.l.l.~.!.z.).h.h.)._.~.!                                             ",
"                                            ~ ^ h.^._.(.(.~.~.l.l.~.z.).h.h.h.'.z.(./                                             ",
"                                            ( W.'._.(.(.~.~.~.l.l.~.z.'.h.h.h.'.z.(.)                                             ",
"                                          _ ` h.'._.(.~.~.~.~.l.l.~._.h.h.h.h.h.^._.'                                             ",
"                                          V W.'._.(.(.(.~.~.l.l.l.~._.h.'.h.h.h.^._.]                                             ",
"                                          [ h._._.(.(.~.(.~.~.l.&X~._.^.'.h.h.h.^.^.{                                             ",
"                                          } _.(._.(.(.~.~.~.~.l.&X^.^.h.'._._.'.^.^.^.|                                           ",
"                                           .~.~.~.~.(.~.~.~.l.&X(.^.h.~._.!.(._.(.~.^...                                          ",
"                                          @ X.~.~.~.~.~.~.l.l.l.(.~.~.~.~.(.(.(.~.(.~.o.                                          ",
"                                            O.l.l.l.l.l.l.l.+.@.#.$.~.~.~.(.(.~.~.~.l.@.                                          ",
"                                            %.~.~.l.l.l.l.l.&.    ( l.~.~.~.~.~.~.~.*.                                            ",
"                                            =.~.~.~.l.l.l.-.      * ;.~.~.~.~.l.l.l.:.                                            ",
"                                              >.l.l.l.l.l.,.        <.~.~.~.~.~.l.l.1.                                            ",
"                                              2.l.l.l.l.l.3.        4.l.~.~.~.~.~.l./                                             ",
"                                              5.~.~.~.~.l.6.        . l.l.l.~.~.~.l. .                                            ",
"                                            7.~.~.~.~.~.l.8.          9.l.l.l.l.l.l.L                                             ",
"                                            0.~.~.~.~.l.l.q.          a ~.~.~.~.~.l.w.                                            ",
"                                            e.r.t.y.u.6.i.            p.~.~.~.~.~.~.l.a.                                          ",
"                                                                      s.~.~.~.~.~.~.l.d.                                          ",
"                                                                      f.~.~.~.~.l.l.l.g..                                         "
};
