/* XPM */
static char *out[] = {
/* columns rows colors chars-per-pixel */
"296 150 256 2 ",
"   c None",
".  c #010101",
"X  c #0B0B0C",
"o  c #080606",
"O  c #140B08",
"+  c #17150A",
"@  c #0A0B12",
"#  c #140D13",
"$  c #0B1315",
"%  c #141314",
"&  c #1C1B1B",
"*  c #181717",
"=  c #0A120A",
"-  c #231B19",
";  c #25190A",
":  c #1C221B",
">  c #182309",
",  c #28251B",
"<  c #312F11",
"1  c #1A1C22",
"2  c #111927",
"3  c #231D23",
"4  c #341F22",
"5  c #1C2325",
"6  c #1C2934",
"7  c #242323",
"8  c #2C2B2B",
"9  c #282827",
"0  c #342C28",
"q  c #2C332B",
"w  c #37352A",
"e  c #2A2C33",
"r  c #342D33",
"t  c #2C3436",
"y  c #333433",
"u  c #3C3B34",
"i  c #3B3C3B",
"p  c #363738",
"a  c #443A2A",
"s  c #433C37",
"d  c #4D372E",
"f  c #453A18",
"g  c #3B433B",
"h  c #3C422A",
"j  c #3B4316",
"k  c #4E5015",
"l  c #5A630F",
"z  c #6C7216",
"x  c #484729",
"c  c #575828",
"v  c #44433C",
"b  c #494639",
"n  c #54493B",
"m  c #575638",
"M  c #4E512C",
"N  c #645537",
"B  c #5B642F",
"V  c #676928",
"C  c #757927",
"Z  c #777837",
"A  c #6A6E33",
"S  c #635A1B",
"D  c #393C43",
"F  c #2C3747",
"G  c #162F46",
"H  c #443E43",
"J  c #3C4343",
"K  c #3C4649",
"L  c #3C4C52",
"P  c #3F5363",
"I  c #434443",
"U  c #444B44",
"Y  c #4C4B44",
"T  c #444B4C",
"R  c #4B4C4B",
"E  c #474547",
"W  c #534C47",
"Q  c #4C534C",
"!  c #485449",
"~  c #53534C",
"^  c #595749",
"/  c #444C52",
"(  c #4A4D53",
")  c #4C5354",
"_  c #4C555A",
"`  c #4D5B5B",
"'  c #485655",
"]  c #535453",
"[  c #545A54",
"{  c #5B5B54",
"}  c #535B5B",
"|  c #5B5D5B",
" . c #565557",
".. c #534E53",
"X. c #645949",
"o. c #635D55",
"O. c #6D5645",
"+. c #53625D",
"@. c #5C625C",
"#. c #5A6558",
"$. c #546353",
"%. c #66654A",
"&. c #646355",
"*. c #63645B",
"=. c #6B6B5C",
"-. c #686759",
";. c #736B5A",
":. c #6B735A",
">. c #76755A",
",. c #747448",
"<. c #545D62",
"1. c #595D64",
"2. c #4C5A63",
"3. c #546363",
"4. c #5B6463",
"5. c #5C6A64",
"6. c #5B6C6B",
"7. c #576869",
"8. c #5D716D",
"9. c #5C7266",
"0. c #5A6D71",
"q. c #5D7273",
"w. c #5A7475",
"e. c #4D6466",
"r. c #636563",
"t. c #646B64",
"y. c #6B6C63",
"u. c #636C6B",
"i. c #6B6D6B",
"p. c #666567",
"a. c #726D65",
"s. c #64736C",
"d. c #6B736C",
"f. c #697568",
"g. c #73746B",
"h. c #777868",
"j. c #637473",
"k. c #6B7472",
"l. c #6C7B74",
"z. c #6B7C7B",
"x. c #657978",
"c. c #747B74",
"v. c #7B7C74",
"b. c #737C7A",
"n. c #777876",
"m. c #676D72",
"M. c #635E63",
"N. c #837B69",
"B. c #847D74",
"V. c #857453",
"C. c #827B33",
"Z. c #7B842E",
"A. c #798417",
"S. c #7A844F",
"D. c #7A846A",
"F. c #6C827C",
"G. c #6B8276",
"H. c #7C8374",
"J. c #74837C",
"K. c #7C847B",
"L. c #7C8A7D",
"P. c #758678",
"I. c #798D77",
"U. c #848829",
"Y. c #868936",
"T. c #949838",
"R. c #8B9530",
"E. c #99A534",
"W. c #9BA32F",
"Q. c #8D914F",
"!. c #9BA54B",
"~. c #AAB250",
"^. c #87856A",
"/. c #838374",
"(. c #83847B",
"). c #838B7C",
"_. c #8B8C7B",
"`. c #898876",
"'. c #938C78",
"]. c #88937B",
"[. c #96957B",
"{. c #919468",
"}. c #ACB26D",
"|. c #9EA170",
" X c #B8C556",
".X c #BAC66B",
"XX c #C8D370",
"oX c #CAD664",
"OX c #707D82",
"+X c #6D8482",
"@X c #738483",
"#X c #7B8582",
"$X c #758A84",
"%X c #7B8B83",
"&X c #798B8A",
"*X c #7C9188",
"=X c #7C9091",
"-X c #7EA092",
";X c #848C83",
":X c #8B8D83",
">X c #858A88",
",X c #849384",
"<X c #8B9384",
"1X c #84938B",
"2X c #8C948B",
"3X c #8C9A8B",
"4X c #899A87",
"5X c #939484",
"6X c #93958B",
"7X c #949B8C",
"8X c #9B9C8B",
"9X c #989985",
"0X c #8C9B93",
"qX c #899793",
"wX c #949C93",
"eX c #9B9D93",
"rX c #969B98",
"tX c #908D88",
"yX c #A29C89",
"uX c #A39E93",
"iX c #9DA18D",
"pX c #96A28A",
"aX c #8DA395",
"sX c #94A294",
"dX c #9CA394",
"fX c #95A49B",
"gX c #9CA49B",
"hX c #9AAA9A",
"jX c #8FA592",
"kX c #A2A38D",
"lX c #A7A78A",
"zX c #A3A493",
"xX c #A3A59A",
"cX c #A4AB9B",
"vX c #ABAC9C",
"bX c #A7A995",
"nX c #AAB29C",
"mX c #B3B29A",
"MX c #9AA8A3",
"NX c #9BAFA7",
"BX c #A7ACA3",
"VX c #AAB3A6",
"CX c #B5B7A8",
"ZX c #B8BBB4",
"AX c #ACB3AF",
"SX c #959BA2",
"DX c #BBC3B5",
"FX c #BDC689",
"GX c #C5C7B8",
"HX c #C8C8B0",
"JX c #CDD789",
"KX c #BCC6C3",
"LX c #D0D3CA",
"PX c #E1E4DE",
"IX c #C1BCAB",
"UX c #837F82",
/* pixels */
"                                                                                                                                                                                                                                                                                                                                                                            DX:.g : =                                                                                                                                                                                                                           ",
"                              9 . 3 7 i T T I D J K / T ( R R T J 2  .u *.#.g.f.f.$.y.*.H.).:.D.{ h.a.v.`.`.&.            i t g *.;.q >.D.D.D.,X#.~ 5.s.j.b.t.k.<.                                                                                                                                                        F F D F F F F F F F G P 2.0.G F U D.].{.{.S..XFXJX.X~.FX.X.XJX.X}.!.FX}.      I.Z.Z.$.                                                                                                                                                                                                ",
"                $ q : cX[.0 b w :XrX0X0XMXVXAXCXBXxXxXvXvXBXBX6XdXh.0 :XmXpX{.].{.{.'.{.mX}.{.lX|.9X}.lX|.lXvX<X= . w ).^.FXFXJXJXFX.XFXXXFX.XJXFXmXb d.xXzXkXkXzX5X%X,X,X0Xb.D 1 2 / D . m.b.l.d.k.k.k.b.#XK.#X#XL.K.#XK.v.b.K.H.(.H.H.>X>X>XOX .e 8 v.wXxXgXBXcXBXxXuX5X3X6X:X;X).K.4X:XH.b.n.#X>X>XUXt e 1 e OX=XSXNXNXNXAXSXMXMXSXSXSXAXSXSX>Xt @ _.}..XXXJX.XXXJXJX XoX XXXXXXXXXXXXXXXXXXXJXJXJXJXJXXX X X XXX}.$.D.    h 9 t q q , , q 9 I ^ a.B.v 8 q t 9 :./.H._.{.5X_.^.'.'.6XB.'.6X_.5X7X6XzX_.9X6X9XiX_.zXzXlXlXmXBXIXIXCX@.^ v g.B./.'.(._.v.g.)./.].5X(./.(.:X6XeX(.i.D | p.i.H 2                 ",
"          . q t.1Xz.y xX[.; N < 5XrX0X#Xb.H.D.).uXBXxXvXvXvX8X6X,XzXE a.pX#.,.{.{.^.Z V.|.|.|.S.{.Q.Q.|.^.%.n , & /.{.JX}.~.}.XXXXXXXX~..X.X X XXXJX,.> b w N.;.&.pX<XpXH.:XwX} @ ..r # n.LXZXVXZXBXAXLXZXKXZXZXAXCXZXCXCXDXCXDXDXDXDXDXDXDXZXZXB.u ^ ^ VXkX_.8XvXzXmXCX_.9X`._.).:X_.).<XrX8X7XtX5XuXeX .. . BXMXrXfXNXNXNXSXSX2XtX0XxXSXMXBXAXZXQ j LXXXoX~. X.X.XXXoX X XoXXXXX XE. X.XoXoX XoXXXJXoXXXoXoXoXoXoXoX!.M * 9.h J.J.:.#.*.:.M :.^._.eXxXn O O . 9XnXnXlXlXmXIXHXlXmXCXlXN.[.h.'.lX9X9XmXHXHXCXlXnXbXmXHXlXIXHXLXHXLXLX0 o 8X9XN.mXIXGXHXlXmXbX[.[.8XzXkXzXmXCX8XbXy.b mX`._.(.`.*.i             ",
"      . T >XrXgX*Xs.6XxXyXa n tX=.o.s i  .o.y M.tXSXBXSXtXM.s W H r O # i * q %.o.a.eXo.W o.o.a.>.< %.^ &.0 . h.pX}.}.~.z !.~. X!.~.XXXX~.}..XXX}.JXFXlXM -.^.h.'.8XuXBX9XtXB.- d B.d ; BXZXxXVXBXnXGXCXCXCXAXVXZXCXcXAXVXCXZXDXZXDXDXDXDXZXCXLXLXn.a.+ zX_.'.bXuX5XB.;.a.k.n.g.f.D.D.].]._.).)._.'.`.B.eX8 ~ xX_.5X3X[.SXrXtXtX(.(.tX_.3X<X6X:XSXp.h Q.T.E.XX X XXXXX X~.XXXXXXXXoX!.~. XoXoX XW.oXoX X X X X X X X!.~..X|.:.: J MX6X_._.D.h.D.$.$.f.dXb < O :.zX}.|.|.lX}.mX}.|.yX^ , b _.&.vXh.h.:.x { %.N.tX_.6Xs ; o b v.'.8XxXuX+ 6XGXmX[.yXzXkXnXkXmXbXkX].:.^.'._.<X5Xv.h.H.(.:XN.'.h.B.(.v.u y         ",
"    X 7.0X0X' [ g o gXuX'.d s o.w . i R r  .e H AXLXPXAXAXBX..PXPXLXSX# o , tXrXn.xXLXLXZXZXLXAXCXcX@ 5 =.q w {.{.}.XX.XE.R.!.~.~.XXJXXXXX.XXXXXXX.X}.}.>.M w %.;.p.N.V.B.V.; d B.V.4 4 ^ DXzX`.9X9X9X8X'.tX[.[.).<X_.:XK.(.(.).).].].`.`.'.8XuXv.BX+ 0 { vXZXCXIXmX8XtX8X6XzXzXbXbXlXlXiXlXlXiXyXlXlXkXvXo.a.IXbXlXlXlXeXtX'.`.^.h.N./.^.'.`.g.n.0 0 N V Y. X X!. XoX X X~.~.oXoX XXX X X X XE.W.oX~.oX.XE.~. Xz z E.!.,.%.].: 5 AX)._.[.].]./.D.D.H.'.a.- - -.{.^.D.,.V.A O.N %.W # @ e  .o.| tX5Xy.@.~ h.:XuX6XB./.m.a.i.i.g.m.B.tX% xXCX;XcXwXp.E ( r.[ ~ | ] [ 1.| | | R I ..y i g.v.a.-.&.o.o.a.| 1 J     ",
"    . NXqX2X4X3XMX= c.zX'.w Y 0 p.rXLXZXCXCXCXBXtXAXGXO.UXAXa.IXLXPXPXF o 6XPXLXZXCXZXGX6XBXZXBXgXCXlXD.w pX>.%.Z.}.JX.X!.l !.~.~.XXJXXX X!.}.XX.X!.}.}.}.|.{.{.;.X.d ; d d n O.N.N.d ; , c.`.[.9XkX9X9X9XyXkX8X9X9X8X8X6X5X5X5X5XiX`.bXbX^.8XgXeXCX3 - o =.B.'.UXB.:Xa.f./.g.f.D.H.D.].D.`.)././.].[.5XbX=.v mX9X5X8X8XlXbXvXbXlXbXlXkXbXdX8X8Xn.0 . k !.R.z E.~. X~.oXoXoX X XE.~.oXoX XoXoXW.W. X X XE. XE.Z.Z.!.V S.k x I., q t.; a < f a x M &.%.a X.. . . M m c f a b b a W o J KXZXMX| . ZXZXCXCXBXCXxXBXvXCXCXHXGXIXZXIXCXZX_.+ vXZX9XzX6Xr.y.n.y.n.g.d.g.g.v.b.v.v.v.OXn.i 7 rX'.h.N.h.h.h.o.y.I *     ",
"  $ P qX=X1XK.[ z.K | 6X_.u , tXCXBX(.cXVXcXBXxXBXuXUXuXtXyX6XtX6XBXZXKXo BXZXBXIXIXCXIXBXBXZXZXvXbX[.}.}..XFX.XFX}.}.Q.z Z.Q..XJXJXXXXX}.~..X.X!.~.~.|.Q.|.{.mXmXlX{.N.B.o.- 0 N.o.n w - . 7 ..a.a.;.o.-.o.&.;.-.o.] ~ Y o.*.*.*.&.*.(.).&.- UX>XB.* - , . . O 0 W [ 6XdX4Xf.-.f.#.#.#.9.f.b.k.d.t.| y.g.s * i i , q , 8 { g.a.y.=.y.y.g.y.o.{ O 4 ,.N V k z W.oXE.oXoXoX~.oXoXoX X~.oX X X~.A. XE.A.W. XZ.A.S.!.R.z < M w q : X i.o.M.B.i.g.b.0XfX>Xn.k.n.u.J . . n h.h.;.;.9X~ X | LXAXAXBX*.CXBXBXBXxXcXyXiX8X9X9XbXvXuXxXvX8XCX:.+ 9XbX8XbX8XeXvXzX7XzXcX8XzX8X_.dXzXnXzXvXwXJ # y.y.>.:.-.-.;.;.=.u %     ",
"  $ t 1XqX2X<XH.Q g cXtXh.- , zXBX4Xf.xX7X7X:X:XZXvX(.cXgXvXBXdXZXB.:XGX. BXv.7XCXVXvXcXBXxXZXxX].].].}..X}.Q.Z.!.~.!.Q.l R.~..XXXJXFXXX}..XXX.X!.~.T.~.!.~.|.lX}.|.|.^.{.yX'.;.. ; 3 r - * 9 4 r # - 4 a 0 4 4 - 3 0 0 0 d 0 r 4 4 4 - ; 4 d W s o - # 3 r d 4 Y Y W y.p.@.] { ~ ~ W ] { o. .H H D e 3 @ 3 3 r 1 # 3 s H s 4 3 4 0 4 - 0 n f a 4 W V.< O C.~.W.oX XoXoX XW.oXoX X X XoXA.E.E. X XA.~.E.A.z Z.Z.!.Z.S.j + , p : p.AXSXuXBXCXCXGXGXLXGXGXLXLXGXGXBXB.^._.M 9XGXLXb * ! KXhXgXVXBXvXVX7XgXvXdXcXdX8XdXdXpX6XeXcXzXbXvX(.o vX9X5X5X9X7XiX<X<X7X<X`.<XVX_.kXpXbXlXlXnXU * P.g.h.:.;.;.=.&.Y & *     ",
"  $ . @X&X#XrXxXL./.2XzX5X0 g CXvXdXxX3X<X6XwX2XgXK.:XwX7XdX<XzXBXBX2XAXo gX].BXcXdXdXzXeXtXeXxXL.pXDX}.FX.XZ.~.~.!..X X!. X.X~..XXX XQ.~.}.JXFXJXJXJX.X}.C.}.}.Q.}.Q.{.V.Q.|.|.^.W - # 3 d 0 O 4 4 ..{ W .. .X.W W W W X.o.o.O.o.O.X.{ O.H s ..s 4 O - # H 4 4 o . o 9 - 3 7 0 u r s y 0 r r r 4 3 * 3 3 3 3 0 3 3 H ..H H H H H W H s n O.w 4 , ; . O C.W.W.W.E. X X X XoXE. X XW.R.W.A.A.E.!.Z.~. Xl Z.l Z.C !.S.Z.$.< ~ 9 & >XrX:X5X[.9X[.8X[.'.yX[.yXlXbXmXmXIXCXbXbXCXIXuX- 7 +.KXhXcXBXdXcXdXgXcXdXdXzX8XzXeX7X7XwXwX3XxXBXzXcX# ZX8X7X5X8X<X5X3X_.<X).:XD.D.].pX[.D.].I.jXJ 7 { (.^.;.;.=.&.o.u * 9     ",
"  $ t t J z.&XqX&XrXc._._.0 0 3X,XeX7X:XwX;X<X(.g.).BXVXxX7X3XcXBX6XxXBX7 v.wX5XcXdX7X9X5XeXeXtX].5XFX[.}.S.}.!.}.!.~.}..X!.}..X.X~.~.~.!. X}.~.}. X.X.X~.}.~.{.}.}.Q.|.{.}.!.{.'.9XX.0  .H ;.-.O - p Y W X.W d s s s d n X.a.a.o.d d 4 4 O - o O 0 0 r 0 d d 4 r d 0 ; ; 4 4 0 W 4 w 0 u H 4 H H H # - & # ; s W d < 0 s s d n d n ^ H 0 o . x V S S z T.R.W.W.W.A.A.W.E.!.!.A.Z.E.U.R.A.Z.E.A.E. XZ.A.Z.E.Z.Z.T.l < B W &.+ o BX>X(.7XeX9XkX9XyXkXbXbX[.lXbXlX[.yX|.mXmXnXuXbX= : ! DXeXgXdXeXgX<XeXgXdXdXhXzXdXdXeXiX7X7XeXcXvX6XCX= VX5X).7X7X).`.)./.).].,X).H./.].).h.h.v.b.5 = , H.h.;.X.;.;.W ; * t     ",
"  $ $ ] T D . J D #Xg.v.a.w 9 7X7XeXeX5X6XdX6X,X<XK.).eX<X7XdXzXhX/.<XgXi.{ eXeXVXCXzXcXvXCXCXvXmXCXpX].j A !.~.Z.Z.~.~.JX~.!.T.Q.~.~..X}..X~.T.T.T.W. X X~.}.!.}.!.|.|.{.|.}.|.Q.S.^.W 4 M.'.M.O . X.B.:X'.B.V.N.N.B.N.h.N.N.h.;.a.V.V.{ O O d X.X.O.W O.O.O.O.O.n O.O.w - O W a.^.B.;.;.V.N.{.O.H 9 . . 4 h.>.;.;.>.N.N.V.;.V.%.;.V.V.W O c C.R.W.W.~.W.W. XW.R.W.A.A.E. XZ.l R. XW.W.E.W.A.Z.A.E.Z.E.!.Z.k Z.Z.h h j , & & g rX6XeX8X8X8X9X8XyXyXkXbXmXlX9XyXbXlXyXmXmXiX`.'.. % @.AXsXdXsXdXhXdXpX7XdXzXiXzXiXdXdXdXgXgXgXzX8X8XAX+ CX_.5X).)._.].`.).].].].].L.).<Xv.).H.h.K.9 % q ^.N.;.;.;.^ 4 ^ * I     ",
"  $ 2.1XgXrX;Xi.. g 5X_.a.w 9 xXeXzXeX7XdX3X<X<X<XwX3XeXeX7XdXcXiXdXBXBXtX] CXCXmXnXCXvXmXVXmXvXCX5XvXmX'.m Q.}.k Q.!.}.!.~. X X~.~.~. X~.~.W.C.~..XoX X!.~.~.}.FXQ.Q.|.{.|.}.{.^.S.{.>.x a.B.d - ;.tX'.N.'.B.'.B.'.'.B.'.N.V.^.N.|.yXmXmX4 N O.O.W N N N N N O.n n O.O.d # * , `.9X:.%.,.A ,.^.o.d B.W b 0 ^ :.[.lX^.^.V.Q.V.^.V.^.{.|.d ; !.R.W.W. XW.W.W. XW.W.W.E.E.E. XE.E.E.E.E.E.W.E.A. XZ.A.A.Z.Z.Z.~.Z.+ 0 < > q Q 7 eXeXxXdX].[.5X8XkX9XlXuXyXbXbXvXyXbXmXbXbXkXkXxXBX+ + o.AXcXxXcXhXcXVXcXiX7X7XcXdX8XhXpXdXcXVXvXnXeX8XBX, bX_.5X9X[._.`.[.].].`.5X_.<X`./.).].).).>X5 % y `.N.h.X.a , n w * /     ",
"  2 OX#X<X<X6X:X+ h.7Xh.&., + 6XeX8XzXxXdXK.:XtX6XcXdX8X8X8X_.BXZXvXvXBXeXs DXVXCXbXcXvXxXxXxXcXzXzXvXvXbXyX%.; < c }.!.!.!.~.~.oX~.~.Y.!.XXXX~.~.~.T.V.}.XX}.!.Y.V.Q.Q.{.!.{.,.,.^.^.[.b *.yX'.B.B.yXB.N.N.'.N.[.'.V.{.N.'.[.lX'.{.V.'.[.; O.O.O.O.n N O.N N d N N O.O.d - % 3 [.-.%.:.>.:.-.;.uXO.'.vX].>.j -.mXbX%.m >.>.>.S.>.V.^.{.w < }.R.T.R.U.W.W.E.W. XW.W.A.W.E.W.E.Z.A.A.A.Z.A.A.Z.!.A.A.Z.Z.z l Z S j < $.*.#.t.. eX8X5X5X_.[.[.[.5XkXbX8XyXyXyXvXuXlXvXyX'.kXyXyXZX* X s BXdXsXpXhXvXVXnXvXnXiX7XzXzXdX7XdXdXzXdXvX5X9XvXO 5XkX[.iXvX_.`.).9X5X].].]._.).<X5X,XH.h.t.9 $ t.*.W s . w n v : X )     ",
"  $ m.;X<X`.`.h.y sXzX-.[ + o wX_.].zX<X7X5XtX).xX8X8XcXuXeX6XmXmXCXmXCXtX9 GXxXuXbXbXiXzXbXxXbXuXvXxX8XbXmXX.m B ,.|.z Y..XT.T.Q.!.l T. XXXT.~. XU.T.T.Q.T.C z Q.Y.V.N C.,.A Z c N ;.%.O B.N.;.^.N.N.B.'.N.'.V.'.N.N.N.V.'.N.'.'.N.'.'.uXd W O.O.O.N N N O.n O.d O.d n d 3 O p #.^ h.-.&.:.;.^.`.a %.lX,.Z ^.{.>.c ^ m m X.^ >.;.a.o.a.n a k V Y.A.W.W.R.R.E.T.A.A.A.E.~.R.A.A.E.A.Z.Z.A.~.A.!.l A.Z.B + w 0 a < , y.y.,X,Xo dX:X`.5X[.<X5X[.5XbXbX[.8XyXyX'.9XyXyX'.yXlX|.bXmXw * eXBXdX].7XdXzXcXvXcXdXhX<X<X3XiX7X<X7X7X7X9X'.5XxXv./.zX7X8XkX).].9X<X_./././.).).9X<X).h./.v.t & , X + x O.X.X., - X )     ",
"  2 / l.).).D.$.y L.v.f.$.: X :X7XsX7X<X9X[.6XeXCXzXkXbXvXuXvXvXzXvXvXCXBXr LXvXbXnXcXbXbXxXcXxXzXuX6X5X9Xh.`.[.^.{.!.Y.Q.U.Z z C.Y.S N C.C.C.Y.C.C.C.T.C.U.Q.}.T.Q.|.C.f d n d x n 0 O 4 -.N.{.N.N.'.^.{.N.'.N.'.'.'.N.N.'.B.V.'.B.N.B.yXV.4 d n O.O.O.N O.N O.O.d d N d 3 # 3 =.:.m %.>.>.,.>.^.n = {.,.Z A B Q.^.,.m m ^ m =.o.g.o.o.w < . ; f k A.R.C Y.C z A.A.A.Z.W.E.A.Z.Z.A.Z.l Z.Z.A.Z.A.k j = + + ; ; * o T c.;Xt.7 eX_.5X_.].[.9XyXbXlX9X8XyX5XyX9X5X9X9XyXyXbXbXmXCXs e LXBXgX4X,X).3X7X7XwX:X6XwX<X5X,X#.=.g.(.].8X).'.BX:Xx ZX5X7X_.:X`.).D.D.H.H.).:X/.H.).8X8X/.k.8 : 7 %.;.N.V.o.X.- + . _     ",
"  $ ) #X2X5Xv.q v g.:.^ #.9 = g.5X5X5X^.'.yXyX'.'.9X'.`.h.N.B.^.`.`.`.tXa.4 ZXyXyXvXvXvX8X5X6XzXeX9X6X8X`._.`.B.lX,.C !.Y.C !.!.E.}.l < !.~.R.Z S C z V !.T.!.!.C Y.Q.,.< < . * . . . . . X.5XyXN.B.'.'.'.{.N.'.'.N.N.N.'.N.B.N.N.N.N.N.yX'.4 O Y W O.O.O.O.O.O.O.O.O. .r 8 9 Y ].].^.,.^.^.^.Z V.yX+ 0 ^.A A ,.Z.S.Q.C.Z Q.%.>.n a a 0 + - 0 d ; V C z C Z C C.Z.!.l k l z z Z.Z.Z.C Z.l Z.Q.Z.S.> M M > + 0 . . R c.aX1X@.v <X5X[.[._.9X8X9X8XkX9XyX9X'.8XyXbX8X5XkXkXiXkX8XuXW 7 eX_.dX7X3X<X6X,X].).xXxXv.wXdXwX<X).dXdXpXiX[.>.=.w > zXf.].^.`.D.<X).,XwX,X<X:Xc.K.).y./.t.c.& # & -.X.X.n d O . o * }     ",
"  2 ' ;XtX:Xv.w ~ c.v y y 9 + a.h.;.;.B.B.`.N.;.;.O.,.%.^ ^ W X.&.&.o.o.- # o.o.;.B.'.B.B._.N.N.B.h.B.B.`.'.8X`.%.. k A Z k l Y.}.!.C !.Q.~.!.l k V V S Z Q.A V ,.%.o . w h >.B N ,.{.{.;.0 ;.g.o.N.'.B.N.N.N.'.[.[.[.B.N.V.N.;.N.N.N.N.'.yXO.O . - s O.H d d 4 4 o o o . . . ; m N 9X[.^.>.,.,.%.'.0 a '.N A S.!.|.{.|.^.Q.Z >.B.O.W s . o W O ; < N V.Q.C Y.Y.U.!.S k A.Z.E.z Z.z l Z.Y.Z.V x j j m B , * 0 &.g.[ *.J.z.* ~ iX'.`.].9X9X9X5X_.B./.5X_.6X8X6XB.5X_.6X_.[.5XtXtXY y 6X:Xh.7XcXdXdXcXBXCXZXCXwXgXvXcX7XLXZX<X).<X)._.H.u q ].D.H.].].:.f.D.K.H.v.d.*.H.4Xt.t.f.@.0Xi + % . . . . @ i E 3 3  .    ",
"  2 8 ;Xf.$.+ m ].6X6Xn.Q + * v I B.`.`.'.`.`.'.yXyXlXlXyXyXlXmXbXuXmXmX, O '.5X9XtX9XbX5Xh.`.9XuXmXCXmXIXmXvXvXuXyX(.N.m k C C Z.Z.Z.Z k k V k l < j c ; . f x w ; , %.{.!.!.~.T.~.~.!.|.[.; d o a.B.B.N.V.N.V.N.h.:.>.V.N.N.`.B.N.N.N.;.N.V.p.H o # r o 1 H SXBXBXAXZXZXZXZXCXCXBX'.yX,.m %.n %.;.w + , b X.&.x %.X.a.a.a._.B.a.UXg.p.o.a.;.;...H o + . < Z C T.C l Z.A. Xz l Z.k k V V Z.A . j c B S.x ; , W { i y ( / t 8 g.g.h.=.d.B.UXB.tXeX:X9.#.n.B.B.n.a.r.E I v u b n s r # s b y.W ^ W W p.:X:Xc.(.(.f.o.=.(.t.y.=.g.=.s 0 b O + W ~ { f.v v -.i u I J = Q ! q g ) | @.9 % . Y y.g.a.g.6XB.- % p     ",
"  2 5 J.W b w =.:XxXeX(.g 9 g eXtX`.[.`.yX5XyXyX[.yX[.yXyXyXlXIXmXIXmXIXb 0 HXIXmXmXbXmXvXuXCXHXmXFXHXHXCXmXyXvXvXCXvXbX9XyX,.Z.Q.z V l k V k B Z < < m + , n s O + >.{.!.A.A.A.E.E.U.T.V Q.o m |.[.N.;.B.'.B.yXpX].<XdXyXmXzXCXIXmXlXlXuXmXuXuXxXrX@ o rXLXPXPXLXLXLXPXLXPXLXLXLXPXGXLXZX'.. w ^.m < w . . 0 s OXtX6XZXGXGXLXGXIXCXZXGXGXGXGXIXIXIXvX9Xn.+ x B A l z Z.l Z.z B B > x > + {.j V A M > < a w O . % K.2X2X* o . v.nXbXcXcXxXCXAXBXCXVXjXDXZXZXZXGXZXZX].BXvX[.zXg.O 6XvXxX7XwXhXnXgXxXDXLXDXCX6X5X. ^ 7X[.sXiX9X[.pXsXb . 5X).g.y.g.&.[ 7XBXLXCX7XvXc.*.t.#.L.t.^ 0 * O (._.'.^.h.a.;.O.r *       ",
"  t * q ~ Q , ~ g.(./.=.0 u ^ tX8X9XB.'.B.B.N.'.'.'.'.'.'.[.'.'.|.[.|.yXN.a mXlXyXyXN.B.xXvXuX8X[.9X^.'.9X9X[.9X`.'.'.`.'.bXlX%.V c k l k k k %.9 > . 3 i . 4 0 , + M Z !.!.Z.E.~.!.XX~.}.Y.Q.Q.XXV.k [.N.tX5XN.:.<X<X<X`.5X^.9X^.^.D.{.[.9X9X8X>XBXo OXPXLXAXSX=X>XtXSX5XkX`.`.'.8X5X8XzXvXv.Y &.x pX5Xw BXdXdXBXxX8XdXBXuXuXuXzXbXzXkXnXmX8XnXyXyXxXuXIXCXo.o > k A C l z V {.+ o + + < ,.V Q.c . o = X % q R [ s.$Xc.* + O h.].I.].pX_.].].].I.I.S.I.I.I.I.I.].].I.].iX].pXy.0 6X_.cXNXDXhXnXmXGXDX4XD.S.%.$.:.pXI.:.D.D.G.I.D.].D.g [.dXsX3X,X<X].].P.VXLXs.J.G.K.f.J.sXvXxXI O o h.^./.-.O.;.-.X.r +       ",
"  P $ , ~ [ v { y.h.v.(.r 7 =._.tXtX`.`.'.B.B.'.'.tX'.'.'.^.'.B.B.'.B.yXtXs 8XyXyX'.N.yXbXbXyX8XbXyXdX8X9XyX9X9X9X[.yX9X9X'.9XyX< x k < < < . . . * OXOXSX<.# 3 o w o ,.C z ~.~.E.oXXX}.~.Z.~.!.T.V < >.'.uX8X9X9X5X].[.[.).H.[.dXpX4XpX5X9XkXiXrXOX2 PXPXAXrXBXAXBXBXxXbXBXcXcXbXcXcXzX<XpXZXDX:XU DX9Xw cXgX7X8X;X:X6X6X'.(.(.eXdX7XwX7X3X<XeXuX:XvX8XtXBXCXn.. o < j m M < . o + . . . . h M M %.= $ 8 p j.F.+.6.>Xn.% = + ;XjX4XjX].pX<X].pX].|.|.jXnX}.I.|.].].].|.#./.zX&.- 8XD.].nX|.|.I.D.H.I.].I.].].D.<XI.D.I.I.I.I.D.].].$.h L.I.G.L.c.k.J.K.J.,XJ.s.c.l.j.9.s.J.+.l.v.X . (.g.`.^.;.o.o.~ 8 %       ",
"  0.$ y @.@.[ { H.:Xv.*.0 0 a.tXB.^.`.'.'.B.'.'.'.'.'.'.'.B.`.'.B.'.[.'.N.v lX9XbX;.'.9XbXeX8XdXxX8X8X8X9XyX9X[.yXkXkX9XyX[.uXvXx > m x > > + * | &XSXSXSXSXF 3  .{ + j k Q.!.U.U.U.l S V C C T.Y.Z S._.kXzX9X[.pX[.9XiXnXnXvX8XiXpXlXbXpX[.].pXAX2.F PXKXNXMXAXAXAXBXBXvXbXVXmXCXvXCXCXcXcXvXCXDXf.nXmX, h.7XdXhXcXzXcXdXsXdXdXwXdXdXhXiXhXcX8XbX_.tXxXtXuXxXuXv . $ o . . 9 o.BXBXtXi.g.W ; &.M #.o t 9.e.q.G.F.7.qXi.# % X v.I.I.jX4XhX4XpXpXI.jXnXhXI.I.jXjX].I.jXnXD.D.8X! b DXvX].I.].I.].].I.4XI.4XdX].H.).`.4X].G.I.I.|.H.D.g > f.G.%X@X@XJ.J.J.l.d.s.#XJ.G.s.G.5.9.' J.*.o o v./.`.N.-.X.o.( % &       ",
"  x.$ v K.H.=.=._.5X9X_.0 y =.'.`._.'.'.'.yX5X'.'.tX'.5X'.'.9Xh.N.N.a.O.Y s '.yXCX9X9XzXdX8XbXzXbXzX_.5XyXvX8XkXkX9X9X[.yXlX[.vX%.+ w , b 0 r I qXNXMXNXOXOXe # o., . . < k V S < < . < > < < Q.k S.lXkXkX8X5XiXkX[.iXiXiXnXkXnXmXbXpXnXnXbXlXiXAXG =XPXKXSXBXVXcXBXBXAXvXvXvXCXvXCXmXvXBXBXcXzXCXgX{ 7X* H.sXdXgXdXeXxXcXhX6X6XdXdX7XdXdXdXdXdXxXvXvX5XuX8Xn.^ E ( . & a.BXBXBXvXcXtX:X7X).w o * 7 : 3.9.9.' 7.z.m.tX..@ i X rXaX4XjXjX4XpX4XI.jXjXI.jXFXnX|.jXI.|.].hXpX<XiXv *.VXdXpXD.].].I.I.I.I.4X].jX].].].L.I.I.I.I.G.S.].D., + -.G.$X*X&X#XJ.@X$Xb.J.F.x.j.q.9.8.9.5.! ;Xo X . >.^.O.N X.x a H &       ",
"  0.@ t g.H.h./.7XiXeX_.9 0 a.tXtX`.`.'.9X'.yX'.tX'.'.tX5XmX/.b I s @ 3 ..W N.uXvXbXyXyXdX8X8XvXbX5X5X8X_.kX8XkX9X9X8X9X[.pX9XmXb : . ^ b . 9 @ J 7.@X1X3.r & % ] 0X>X>X1.] + . , O M M c N < N < %.lX9X9XpXbXbX9X8XkX9XnXnX8XkXlXlXvXkXpXlXiXpXdX9 KXPXCXnXhXnXBXcXcXnXmXCXmXvXmXxXbXxXBXuXvXzXnXvX. 0X+ g.dXdXxXdXeXxXeX8XeX6XcXwXdXdX7XdXdX5XuXCXmXv.Q W + s 9 eX;.`.mX5X(.(.K.n.n.v.,X5X*., . = : +.G.e.e.P G.$Xg o 4 , * 0XaXjXhXhX*X].4XI.].].4XhXDXhXhXhX].I.|.jX|.].pXj g.VXzX4X<X].4XI.$XI.*X$XI.).4X;X2X>X#X1X4XH.;Xf.<Xv.w : ).I.P.I.4X,X;X%XaXL.s.8.s.j.w.` 9.#.L :.BXo # s B.;.n N O.^ d o.*       ",
"  e.o p v.(.g.-._.dX6X:X7 0 ;.B.'.'.'.5X5X'.'.'.'.'.^.'.uX5X, - ] tXuXvXuXO N.[.zX[.9X8X8X'.9X8X8XkX9XkXkX9XlXkX8XkXiX[.9X9X9XvX! : y.*.g.d.n.c. .I . . s { & . 2XrXqXrXMXMX>X(.+ ; %.k N k c {.- b -.[.zXzXiXcXbXzXdXbXvXiX[.iX8XiX[.kXiXpX4XiXdXy PXLXCXcXvXCXVXnXBXmXvXbXbXBXxXbXxXvXvXbXvXxXCXCX&.v.: d.cXdXeX7XeXdX<XwX7XsX7X7X7XdXdX8X8XcXuXuXBX8X. , w ~ n.Y B.vXGXB.v.tXwX:X#XK.c.<Xa.. ~ k.F.+Xe.G.-XG.e.g ^ :.yXyX+ d.4X*XpXdXpX7XsX4X,XhXnX[.I.|.lXnX|.I.I.nXI.I.hXq 6XvX<XnX7X3X*X*X*X*XI.4X4XL.).,XOXOX&X1XJ.%X4XwX>X+ a + ,X,XP.P.%X1X%X%Xl.d.$XF.6.5.` +.9.G.' P.tXO @ # s w n b X.X.w a -       ",
"  e.= g 2X).-.^ _.tX5XB.- 9 *./.B.tX'.tX'.'.`.[.'.'.B.5X6Xv.w ^ CXHXbXmXuXO _.'._.tX8XpX9X5X9X8XiXkX5X9X9XkXiXlXkXpXkXlX9X9X8XCXq m GXGXCXBXcXBXxXrXdXg.. 0 9 { ;XqXb.#XqX0XrXZXB.< m a o 4 N ; o y.t.g.CXnX6XbXzXbXbXzX[.iX8XiXiX9XiXiXiXiX9XnX>XJ PXDXVXbXnXCXCXnXVXVXmXvXvXvXcXcXzXvXvXvXbXbXmXCX[.:.* b BXwX6XwXwX6XeXhX7X7XcXhXdXBXeX7XzXeX6X8XeXcXv & & & 4 # n.BX8X/.5X9X7X3XwXwX5XtX~ s xXAXAXNX*X1XAXAXQ m lXlXyXmX4 ..pX4XjX4X,XwX3XpXnXnXnX4X[.jX].4XI.I.|.I.].[.D.h /.dX].].9X<X,XI.I.I.*X,XhX,Xd.c.&X&XOX>Xz.F.3XK.b.p.9 * l.F.s.&X>X&XJ.z.s.z.G.9.s.s.8.` +.4.$.4.o.o o # . # # . . . w R 8       ",
"  e.o J K.H.:.%.5XuXeX6X0 0 a.[.[.yX9X^.'.[.yX'.9X`.[.'.'.N.yXyXIXCXlXmXuXo _.'.[.8X8X8XiXbXbXyX8X8X9XkXbXmXiXkXkXlXiXpXkXkXkXvX+ :XVXdX).c.H.(.).(.6XBXB.{ UXBXSX2X&X#X&XqX2XwX;.w < d < O -.&.y %XwXf.y.6XvXxX8XcXmXnXzXiXkXkXlXpXlXDXkXnXmXCX[ g PXVXkXzXVXCXvXbXnXnXCXBXvXcXnXvXzXcXvXmXmXbX[.o.iXiXv U BX6X6XsX6X7XxXdXdXcX3XdXdXdXiX7X8X<X<X6XdXzX2X, . . $ i DXBXnXnXh.[.iXcX7X8XuXvX^ w 0 v Q $.) J ) R + O.^.{.V.[.n ..jX-X4XhXhXpX4XfXhXpXpXjXjXpXpX].].I.jX].lX].> w g.dXpX<XL.H.4XI.*X*X1X%X].pX4X1X2X#X>Xb.J.P.aXd.$X3Xg 9 G.D.I.*X%X$XJ.G.s.G.9.7.j.s.+.s.t._ k.| s O.+ o o O 0 W ^ W B.&.i       ",
"  e.o ! %X).a.f.5X7X5X:X0 y B.B.B.;.^.kX'.N.h.h.;.[.'.[.`.'.CXmX5XmXmX9XuXO '.'.zX8X8XzXzXkXbXbXkX8XkX8XiX[.9XkXkX9XkX8XpX9X9XzX, ).H.h.d.H.K.L.)./.7X8XB.>X6XrX&X>X&X>X>X>XSX2Xw ; a n ; w k.b.u.&XSXK.. , h.VXxXvXvXiXCX9XlXnXpXiXbXnXmXbXzXxXp.7 LXZXuXxXxXvXvXvXvXvXBXvXvXvXcXbXvXzXvXbXa./.&.^ GX].w q iXjXdXdXpXeX7XdXgXdX6XsX7XwX3X4X3XpX7X7X<X<X6X;X{ | * 8 vX[.mXIX'._.7X7X`.].(.n.r.7 8 b.qXqXtXe . . ; ;.O.V.V.O.M. .I.F.I.aXNXaXsX4XjX].I.4X].4XpXI.].I.].].pX]., > ; cX3X<XP.].P.4XjX4XL.*X,X%X1X2X@X@X#X*XJ.L.L.*X%XgXw : ).G.G.I.;X%XK.J.9.G.9.G.9.+.5.3.+./ K { d W ; '.B.N.N.'.yXyXa d -       ",
"  0.o [ ;Xv.y.{ /.).(.v.w 0 =.-.a X.w B.-.b X.%.b -.^ :.h.`.8X'.^ h.8XH.B.0 B.bXyXzXzXzXiX9XiX9XkXkX8X8XiX[.iXvX8Xa.g.-.v._.).zX* v t.U *.t.y.i.H._.:Xv.;XwXtX#X#X#XOXOX#X6XwX{ * n < ; w w 8 3.7.#X>XM.& , . [ 8XzXvXbXnXlXpXiXkXkXlXlXpXcX8XzX1.1 p.PXBXeXvXBXBXvXBXvXcXcXvXcXzXbXzXbXkXlXpX8XvX8Xf.%.! = cXpX7XsX6X:X7XdXdXdXeX3X<X3X4X:X3XjX3X<X].<X3XpXdXCXy u IXmXmXyX8X9X8X_.].5Xv.<X3X#.5.MXVXBXAXn.% O d N O.'.yXyXd 4 ` G.9.*X-X$Xz.1XG.I.D.I.I.4X,XD.pX].].[.|.I.y.h X 3X_.).:X3X,X3XG.*X*X,XL.$X&XqXqX>X@X#X$X&XL.L.#X3Xw > H.H.I.I.@XJ.J.x.9.G.G.9.9.e.7.L ' Q y :Xs O - tXN.h.N.;.a.a.r s 7       ",
"  2.@ J p.a.=.{ ^ H.H.v.y 0 b ^ ^ n b %.x X.=.^ m n n X.&.^ X.-.^ ^ w b n u ^ 5X>._.zXbXzXdXdXiX5X8XyXzXzXzXcXeX5Xv.:X(.b a.yXdX. :XtXK.v.P.B.;Xh._.y.8XBXBX0X1X2X1XrXtX:Xn.v w ^ ;.X.-.s W R @.` b.n.r : , , . { CXVXzXiX[.[.kXlXpXiXiXlXlX[.bXp.1 . LXVXvXCXCXCXCXCXmXvXvXvXvXvXcXcXbXdXzXnXzXmXbX/.-.W = ;XxXgXxXrXBXBXxXBXBXBXgXgXgXBXdXhXdXhXhXhXcXsXzXzXBXg.s GXvXbXbXzX8XdX5X[.[.].vXDXD.f.BXsX0XBXBXo O O.V.V.'.yXyX; d j.#XK t &XNXMXqX-X].I.9.jXhX4XL.jXI.`.dXdX).q m m $.[.4X4XjX*XP.$XF.I.G.I.aX1X,X=X$XF.$X$XP.I.F.K.>Xg = D.G.G.G.G.w.j.j.G.e.$.e.7.e.` +.4.} t 9 o - . O.B.;.a.;.;.M.H d -       ",
"  2.$ >XtXtX/.H.g.f.v.v.v , ^ ;.%.>.v.h.>.h././.h.h.`.`.N.%.;.N.N./.a.=.b , s w < b X._./.H.).].f.f.H.H.H.h.y.*.*.. -.H.v u o.b + a v g.-.-.g._.h.;.7 ] 3X2X;XwX0X>XrX>XX.. . b a o n ;.o o r.MXb.UX3 o . . : . v ZX8XnXnXCXCXnXVXkX[.iX].[.5X5X1X. . . 8X9X8X9XyXuXbXbX8X8X5X5X5X5X`._.(.(./.h.v.).H.-.9 , p eXrX>XtXtX>X>X>Xb.c.n.n.c.d.4.y.y.g.y.k.l.d.l.j.0._ 9 BXtXB.eXgXgX0X0X3X3XH.zXDXsXL.0X0X0XSXAXo.0 N.V.V.V.V.V.4 O.x.j._ 5.3XgXk.d.I.4X3X4XpX4XI.gXbX[.].iXpX:.m M c {.,.D.>.f.h.f.f.f.x.G.*X*X*X$X%XP.*XI.G.G.9.5.8.$Xg : ! ! ! L ! ' ' p t L ' e.K $.+.t.5.5 & = % . W B.N.X.%.&.o.o.W H -       ",
"  K I CXZXHXCXzXmXxXtX6Xv , a.-.-.h.-.^ X.^ ^ W -.{ &.&.< b b b b %.h.{ ^ + . n ;./.`.a.; , , b a.g.a.a.a.D.`./.:Xa.y.o.W g.~ v.&.%.h.>.h././.p.=.w o 4 y W o.y.I # ^ o.o.*.-.B.CXZXCXnXCXZX+ ~ ZXZXCXCXBXBXxXzXzX6X_.CXGXZXGXGXGXzX(.BXAX(.tXBXb.4.xXGXZXHXIXCXCXuXB.tX_.zXdX:XxXzXnXAXcXCXbX_.kX8X*.W p 0 - . I tXrXrXhXdXgXBXMXsXwX4XhXVXpX4X2X6X*X,X1X2X;XB.o o W o.a.g.i.l.b.k.n.n.y.H.L.rX4X,X).;X>X6XeXa.X.O.O.O.n < O | g q ~ g $.%.j h ; w ! -.[ b y M %.w < n a f %.V A.Z.Z.Z.Z.A.j j h ! h L L ! ! ' L h g [ $.' q g y i 9 7 E R v U U Q Q g.b.m.K.c.[ J.$.f._.i.. X X =.tX`.N.^.X.X.M.....s 7       ",
"  t i ,X5XCXCXkX8X6X6X).{ , u w u w 0 X.a m n b + > < x g v %.-.=._._.5X`.v O &.`.kXyXyXh.. O CXHXHXCXCXmXDXDXnXmXZXnXnX9X4XxX(.b =.bXo.&.n 0 4 , 0 , . { . Y ^ vX_.bXZXIXZXGXHXGXGXHXCXLXGX+ $.IXCXmXbXbXcXdXvXzX9XiX9XbX_.<X6X5X9XzXbXvXbXcXVX. 2XPXLXHXPXGXGXHXIXmXIXDXbXnXHXHXZXVXDXGXGXGXGXGXCXCXeX- g & OXZXKXZXKXDXDXGXDXDXNXgXhXDXVXjXjXhXMXhXDXVXMXeXxX9 o.UXh.5XbXpX<X2Xc.6X<XiXzXyXCXCXCXmXCXCXvXBXvXCXBXtXB.W o h.DX4XD.D.S.S.].[.pX[.pX[.`.[.].^.D.. O d f < Z Q.Y.Z.l l A.Z.Z.E.R.Z.E.R.A.B j S.G.9.G.).zXnXzXiXlX8X(.. , 3X,XJ.;X,X<X;X;X,X,Xl.K.;Xv.q { :XeXd.X % :X=.^ B.`.N.o.O.a.M.Y 0       ",
"  6 : *.=./.9Xh.a.N.5X).y., ; h O - w ;.%.x ; m #.#.*.l.I.L.L.L.K.G.H.t.y.u + 8XvXuXkX9XuXY O { CXkXlXkX8X/.[.<X5X5X[.3X<X3X2Xr.v [ U ; . . , , o o O p o.uXuXvXmXuXlXlX9XkXzXnXbXbXzXCXZX).O iXCXbXpXlXbX8X9XdXiX9X7XbXkXcXzXzX7XdX7XpXbXkXiXZXy p GXhXkXDXcX7XwXcXuXeX4X7XhXzXhXzXCX9XzX7XbX5XbXdXeXxXJ t * rXDXDXDXDXDXhXhXI.$XaX1XqX$XF.0XaXqX4XaXNX0X2XwXBX8 BX<X`.a./.iX5X-.g.bXvXnXmXCXmXmXvXbXbXuXkXxXmXvXvXvXBXtX- 5.AXG.I.aX-X].D.I.|.[.nXbX].].D.D.pXh.w < f ; c A A A.S. XZ.A.Z.E.E.R.E.~.!.Z.q ! ! G.I.P.hX6XeX<Xv._._.& ) u.) d.f.c.c.x.c.b.b.J.l.$Xc.U b.K.).n.% O ....*.;.O.o.*.M.B.o...0       ",
"  6 * b =.h.h.h._._.9Xh.g.+ b n o O , v ;.< a.(.(.f.l.P.J.P.J.P.L.$X,X%X>X% $ LXuX7X7X6X8XxX).`.8XdX_.9X5X<X7X6X7X<X4X<XpXwX2XgXU , * + + 0 o n n '.B.xXbXbXzXzXbXuXkXzXkXkXkXkXpXkXzXcXkX^ o GXCXlXlXbXkXvXbX8XiX8XzXbX8X8XbXbX5X8XdXcXnXzX7XdXy [ VXnXBXvXBXVXVXBXgXxXcXvXzXdXcXnXVXVXnXcXvXnXcXdXeXdX] 1 5 AXNXDXNX4X*XG.e.9.hXNXqXqX*XMXjXjXjX1XhXaX*X1XrXrXo 3XhXbX].{ g.g.v./.9XkXiXkXbXbXzXzXzX8X8XyXzXbXuXyXyXuXuXr _ LX$X4XaX*X].|.|.Q.{.].D.I.P.^ {.I.iX`.< 4 < x c S.B Z.!. X!.E.A.E.E.E.R.E.Z.Z.B ! 9.D.f.<X2X6X:X5XH./., eX;X#Xb.m.k.z.b.b.l.z.b.J.x.l.s.%Xl.k.g.= X ~ =.=.a.X.p.&.M.o.s Y 0       ",
"  t q [ ^ :.D.h.h.>.D.;.a.a , + o + O ; v y.y.i.v.f.l.G.J.J.J.J.L.$X$X;X2XR 7 ZX6X6X7X5X7X).7X5X7X7X5X<X7X<X5X5X<X5X<X<X7X<X3XcXU v %.> O O V.yX`.mXzX8X8X9X9XlXlXkXzXzXkX8X8XbXzXzXzXzXvX5X, HXmXmXkXmXkXkXvXkXiXnXvXbXcXcXzXzX9X7XkXvXiX9XiXdX9 5.VXnXcXzXvXhXBXVXhXzXcXzXcXBXBXVXVXnXcXcXdXcXbXuX8XuX{ : J LXDX-X-X$X+X-X-XNXcXnX4XI.I.jXgXfXsXhXfXhXfXfX1X[ J 3X[.pX5Xv.v.v.h./._.^._.`._.9XyX8X8X8XeXeXuXeX6XuXuX8X9XW ] LXNX4XL.P.D.D.D.D.D.I.].I.D.G.D.I.%.`.b o < N Q.!.Z.Z.Z.Z.E.!.E.E.E.A.E.!.B B j ! d.;X>XtXrXSX>Xh.(.n.+ ;Xc.K.>Xb.b.k.f.z.k.b.b.z.j.j.+Xz.t.D.K.. o ] y.&.*.{ ~ &...o...H 0       ",
"  t c.D.>.^ h.^.:.:./.D.a.;.0 , o + O y (.J.k.J.K.b.l.l.J.J.J.J.J.K.%X%X#Xm.u CX2X:X,X_.).[._.<X5X<X7X5XdX7X,X:X:X).<X7X).<X3XsXb + q 0 ; B.uXlXlXyXyX8XzX9XzXyXbXkX8X8X8XdXiXzXpX8XzXzXBXv.b CXbXuXbXbXiXkXvXbX8XbXbXzXbXmX9X9X5X_.iXzXbX5X7XhXg ;XDXVXdXVXVXcXvXCXCXVXnXcXcXnXCXVXCXVXvXgXxXvXvXvXzXxXd.& J KXaXP 4XhXG.q NXLXDXDXhXI.,XVXZXAXJ.[ g.BXfXfXfXs.gXsX^.].5X'.`.:Xy.h./._.^.].[.h.6X_._.5XtX6XtX6X8XuXkX8XvXn.3 ZXH.I.].I.].].].D.D.].].^.I.D.I.{.S.>.j b + < c c Z.S.S.Z.Q.Q.!.!.R.A.R.R.j j ! S.2X#X:X2XtX>Xb.n.n.f.J L.b.l.J.J.J.c.k.k.u.i.b.J.c.j.%X1XG.g.c.} X p g.a.h.a.X.O.X.X.^ ..8       ",
"  t [ ).`.g.X.^ b a ;.h.a.a.0 o * ] s o.b.5.! l.J.c.k.c.c.l.l.J.J.%X$Xl.b.[ u VX5X;X<X;X<X).].6X<X].:X<X<X:X,X,X).).:X,X:X<X2XeXq * d N d mX'.yXuXyXkXyXzX8XzXzXzXuXyX8X8XzXzXzXkXbXzXbXBXtXn CXlX9XkXpX8XkXvX8X8XvXcXkXzXzX8X8X8X9X8XiXiXiXdXdXt n.AX,XvXVXBXVXVXZXCXBXBXBXvXzXnXnXnXVXVXvXvXVXbXcXbXBX>X3 >XKX4X' ! +.e.G.I.jXDXDXjXhXDXVXZXSX3 - . | BXfXMX,X;XBX/.^._._.<X_.-.=.H.`._._._.g./.xXeX:X:X:X:X:X<X5X9X7XxXh.* BXtX9X5XwXhX].].I.D.D.D.D.S.D.S.S.B %.; N w m j k l l V A Z.A l z B l l j j h G.G.v.n.v.c.n.#X>XB.b.i U qXJ.n.K.b.k.d.k.f.u.u.f.#XK.k.c.K.c.s.t.f.# . p.o.h.;.o.-.;.o.W W 9       ",
"  L ~ { b s u u w b s w w w . g v.B.b.k.b.f.s.s.K.P.k.l.$XJ.l.l.l.l.K.b.b.t.R vX6X:X;X:X,X,X:X,X).L.;X,XK.]._.:X).).:X).;X:X;X).9 * s O ; lXlX[.yXyXkXbXyX8X8XyXkX8XzXxXeX9XdXiXzXvXkXxXcXvXw CXyXlXkXiXiX9XbXzXnXbXvXkXvXbX8X8XiXnXkXH.5X3X).eX| t.vXBXzXAXAX2Xv.2XDXAXvXnXVXVXVXBXcXVXBXcXcXzXdXbXyXbXv.& LXZXjXNXjX,X*XDXjXK 9.aXhXaXjXK.rX- . r w . wXMXVXsX1X2Xv.h._.eX(.v.(.v.v.8XwX:X:Xt.v.xX_.6X6X6X5X5X5X5X6X5X7X:., AXvXrXeXBX].H.D.L.P.I.D.D.D.D.{.S.+ + b /.d.jX! $.k B j j k j k j j > > B g G.G.9.d.>X(.v.c.k.;X;Xh.: g ;Xk.c.J.c.l.c.k.k.k.j.k.k.j.i.k.l.l.f.d.d.% - *.~ n X.o.o.o.o.o.s *       ",
"  L i g b ^ O.X.o.&.*.^ ; . v n.c.u.k.b.l.k.k.l.J.@X#Xs.u.J.J.#XJ.J.J.J.#Xt.u BX7X7X:X;X:X,X1X%X).;X;XL.:X<X:X:X).:X:X:XL.).,X:X: & O + f lXyX[.yX8XyXyXuX8X9X9XzXxX9XzXzXdX8XzX8X8XzX7XeXy.w GXyX8XlXCXbXyX8XvXvXbXCXvXbXxX5X8XzX8XpX^.].I.].gXu.I AXAXCXCX[ * . . m.DXcXvXvXBXCXvXvXnXBXNXcXdXcXiXdXVXtX0 LXZXnXVXAXvXCXCXBXMXMXAXMXsXwXgX4XH.@.U dXK.c.l.hXu.e t wXgX7XeXxXzXzXdXdXxXeXBXdX5XzX8XzXzXeX8X7X5X5X<X5X6X2Xi., BXu.@XqX=XZXAXBXrX@X1XL.%X/.pXQ.,.^.[.].P.0XBXJ y >.D.^ q -.D.$.^ ^ j j $.g.n.k.4.n.n.n.l.v.;X#Xd.y.* g c.k.d.i.k.c.b.l.c.z.k.u.u.5.r.u.s.k.l.d.y.# - + , - - - 0 4 r r & *       ",
"  0.$ * + O o . . . . O - - ;X$Xz.j.l.OXb.z.b.z.b.J.k.z.b.@XJ.J.b.J.J.K.K.#.~ dX<X5X,X:X,X,X).:X:XL.L.).,XL.).,X).;X).<X:XJ.,XH.+ . + o N.yXyXyXlXyX8X5X9X8XeXuX8X9X8X9XdXyX8X8X8X8X8XeXwXt.w HXbXiXbXZXvXyX5XzXmXcXzXbXzXbXeX9X5X,X).<X3X&.].zXt.g CXBXSX& . 7 9 9 . ZXCXVXBXBXVXvXVXBXnXcXVXnXdXzXzXVX*.y LXDXBXCXhXcXVXgXfXBXfXhXhXaXfX4XsXNXhX,XhXVXhX*X1XK @ t LXMX:X6X6X6X<X6X7XeX6X2X8XiX<X[.uXuXeX7X8X7X5X9X7X7XwX4.7 wX&X7.m.m.OXqXOXOX=XSXqX&Xf.>.I.dXDXsXD.f.wXOX& . U H.D.$.! f.D.D.$.Q ~ @.i.k.;Xn.c.k.n.c.f.;X2Xc.i.& , K.n.s.d.s.k.b.k.c.k.m.m.OX6.7.6.j.z.u.d.R * - y g u y p 3 3 & 9 7         ",
"  0.$ @ R | p.i.g.n.n.R # % c.c.z.x.x.z.OXb.z.b.z.k.m.J.z.6.l.G.G.G.J.J.b.t.*.tX]._.).(.,X)./.).;X).).,XL.).).).L.L.K.).L.L.).~ . Y - O |.|.'.|.yXlXzXzXuXuXbXyX9X6X9X9X9X8X8X5X8X8XwXeX7X6Xv nXzX8XbXlX8X8X8XkXvXbXzXkXuXzXzX8X8X5X].7XpX8XxXVXc.u ZXBXrX| . o . . g CXBXvXvXcXvXvXcXBXcXvXcXnXdXzXzXBXt.p PXGXBXhXhXhXhXfXfXfXwXgXNXVXhX5.aXsXgX4X1XfX*X&XMXqXi 5 BXVX6XgX:X6X7X0X<X>X>XJ.(.8X5X5X5X6X7X'.5X7X7X8XiX[.yX-.w eX#X>XrXrXAXSXOX_ _ D F t : m qX3XgXk.l.#XOXg.s & . ~ #.^ = b [ Q [ [ 4.[ i.j.k.b.#Xk.n.L.c.f.t.i.i.i X tXc.d.d.k.c.s.d.j.k.j.m.k.3.` 6.j.j.p...% # & H i s p 8 H H 9 9 3         ",
"  0.@ 7 eXmXCXCXCXZXZXt.X % v.b.@Xx.j.k.b.K.>Xb.n.b.%X,X(.d.d.P.l.%XL.J.$XK.0 xX<X).L.:X;X).).L.H.;X).:XL.(.,X).).H.K.K.H.J.D.9 Y /.- . yX[.yXlXlXyXyXuXbXzXzXuXuXyXyXuXzXuX8XyXdXiXkX7XcXnX> VX8XiXlX9XbXiXzXnX8XdXkXzX9XyX8XzXzX_.dXcX9XnXiX7XJ.q BX7XzXwXrXAXR t.ZXBXxXcXBXcXcXBXxXVXnXvXdXvXzXxXdXBX@.: VXDXVXnXfXfXhXfXfXgXaXAXBXNXAXfX1XNXaX$XqX0XL.>XMXAXgX: . hX:XL.<X;X;X/.v.;X2X<XH.y.g./.`.H.H.<X<X:X,XpXkX8XyX^ , DXrX#X@X@X=XOX1.OXm.5.g v > 9 L.,XK.;X#Xb.i.tXp.+ * . *.f.s.l.*.J t.@.| k.).u.[ b.>X>XOXn.[ 5.t.y.f.R $ u.d.k.k.c.c.f.k.s.j.u.0.7.0.' J T L * @ X . & u v I E | o.r 7 - 3         ",
"  OX= q ).lXpX[.iXiX8X*.$ : D.9.` G.G.G.H.L.,XH.h.#.H.g.=.g.;X:X).J.K.#.J.[ & 9X6X).%X3X).).<X).P.4X<X:X).].J./.c.f.K.*.U t.f./.B.H 0 o.N.[.[.'.yXkXkXcXbXvXuXkXuXyXuXvXvXxXxXvXbXdXuX7XxXgX: DXdXdXzXvXmXVXCXbX9XbXzXkXkXvXbXzXiXiXbXcXcXnXbXxXOX& . h.^ kXxXGXBXvXvXvXxXBXBXcXVXBXCXVXVXvXVXvXgXvXcXBX] O . LXCXVXVXhXBXMXMXgXMXAXAXVXNXAXNX+.F.*X=X1X*X1XhX3XwXy.$ -.:Xc.K.v.:XxXZXBXgXhXeX2X;XgXsXgXcX#X>X1X&XJ.g./.v.v w 2X+X+X0.0.OX1.OX1. .1.i.i.u > m 4Xf.5.s.G.f.D.c.& = X q ' 5.7.| q ~ @.5.:X>Xc.c.n.OXn.n.g.5.J.L.H.g.u.X 5 b.n.u.b.b.n.k.k.5.6.6.j.7.<.} <.| ( E # # 9 p w 8 w 3 . . . . y         ",
"  0.o q =.&.,.'.`.`.).r.= J D.D.m $.D.G.%.,.%.%.w . . . . - g.(.{ *.H.v.* + . . u W :.h.^.D.h.y.&.=.t.~ w 9 , u 0 0 , - { `.g.y.W # - s o N n N.h.B.h.h.v.^./.(.(.v.`.`.B.B.5X_._._.:XB.n.U 9 CX3X).L._.9X8X5X`._.N.h.h.v.N./.B././.h.h.H.f.v.*.r 3 7 ^ 5XdXcXvX5Xg.nXdX8XeX6X5X8X8X8X7X<X6X6X6X5X2X6XtXY - . tX<X:X:XgXxXxXBXgXgXfXfXsXMXBXaXb.! J.hX3XG.hXAXfXSXk.p ! Y c.g.t.~ ] g.y.*.a.:X2X1.rX0XMX>Xu.u.k.b.OX' . i 7 w 4.e.P P 2.2.1.2.0.2.m.OX<.{ q q G.I.G.#.:.G.U g = * y = , D ~ Q s [ ! Q U R ] R _ E D ( ( ) } | ( ( _ 7 7 R R I E ( ( E I t i i t * e } i.4.| 1.] * O o . . e Y H Y E E r.        ",
"  e.. g L.L.:.-.D.`.<Xk.X I I.^.{.S.M S.S.Z.V B m %.X.* X . . . . u v v - o w ;.s - y.h.f.D._._.;.h.iXiXD.^.=./.-.>.(.w =.s b W 0 O o =.N.a.vXCXCXCXIXIXZXZXcX9X9XCXZXCXCXmX5X8XBXZXHXGXDX* . (.8XbXuX6X6XxXzX8Xg.:XxXcX8X9X:X(.9XeXxXxXvXvX5X(. .* { v.b $.*.~ . . q (.ZXmXeX8XzXcXBXzX:X:X(.:X:XtX:Xy...O B.BXeX:XzXBXvXuX7XeXgXBXdXcX9XuXIXZX5X<XHXxXiXrX>XOXR 9 .  .cXCXZXCXvXvXxXZXZXZXCXnX/.B.vXzX8X9X5X:X'.8X(.:Xg.% : k.J.z.c.t.1.M.2.1._ 1.7.3.! ! $.%.%.I.jXhXD.m #.$.m %.W 4 a ~ 0 - u b Y Y ~ E R E p p i p p y o 1 8 3 7 * X 7 i E r 9 9 3 p % . o X $  .k.g.d.(.k.X o . a.p.y.v.n.v.B.g.(.i       ",
"  2.o { dX].`.|.[.{.].y.. % f.D.|.S.S.Z.j l j S.B A w o - ~ o.o.s . . . O ^ B.tXv.:X6Xv.%.%.$.D.<X).<XnXbXCXkXdX_.<XGX(.g.uX8X6XB.0 W LXGX'.9XmXbXCXCXCXHXHXnXiX8XbXIXGXIXCXzXdXvXsXBX8XBX% r.cXCXCXLXLXGXAXVXCX7XCXZXGXZXDXCXcXVXeXcXCXCXGXDXAXrXo BXZXeX).v.h.v.c.g.GXGXZXZXCXZXDXCXZXZXCXDXGXLXGXCXGXv.o rXLXCXCXdXcXcXvXVXVXVXCXVXcXmXIXh.yXbX[.9XlXIXCXW 9 # + eXLXGXDXCXCXCXZXVXDXCXBXpXhX8X`.5XzXyX_.5XyXuXmXuXmXyX%.D.vX7XH.:X_.'.tXrXtX>X>X7.G.#.^ D.h.g g :.I.M m S.%.m < a d d ; . , ^ ;.=.g.y.*.~ o.W o.=.o.o.i.B.>Xh.*.v & - ~ ] | p.o.| o.] r 1 1 @ 9 <.i.*.&.~ v.& X # (.=.=.-.;.a.a.-.a.Y       ",
"  2.@ } dXzX^.D.>.>.(.c.% >XdX>.{.l B S.j B %.M ^ + . , a.'.N.V.'.;.O O o W N.N.h.] I d._.).f.k.v.K.f.d.(.).<X].l.H.P.).4XsXH.3XBXp ..LXIX[.kX8XnXpXnXiXkXbX[.iXnX[.[.iXpXsXcXhXhXwXwXqXaX5 LXDX<X3XgXsXjX*XI.*X-X4X-XI.jXjXjXjXjX4X-XjX].jXI.AXKX5 DXDXCXDXDXDXDXDXGXVXBXNXhXhXjXaX3XaXsXsXhXhXsXfXfXfX2X% . <X3X3X<X).:X<X<X7X4X3X4X0XhXzXw /.'.'.'.N.'.lXg.0 0 1 PXDXBXBXBXMXBXBXeXrX2XeXwXrXwXxX6XeXeXtXtX8X9XB.5XyXyXV.'.GXvXa.-.O.B.6X2XeX:Xg.f.f.f.:.f.g W m ^ n j m x a 4 + + + < > h $.%.%.h.D.>.%.:.:.M n w x m >.>.-.a.X.X.n 0 -.=.&.{ ^ b v 9 p 9 9 & 9 4.@.v n _.tX9 % & n.o.*.=.;.-.;.&.&.R 5     ",
"  L 1 ) _.].].`.h.<X2X*.% tXpXx S.Q.B > B A ,.h.m : X &.N.V.V.V.N.|.w o o d N.>.v.{ + (.dX/.H.).v.#XK.K.L.L.,X,X;X).c.:XJ.,X<X7XCXp v PXLX5XkXzXzXzXvXpXdX7XiXiXpXzX[.zXcXpXsX0XfXsX<XaXAXt hXBX3XNX3XsX-XaXhXNXNXhX-XjXjXjXjXjXjXjXjXnXI.NXAXhXAX$ DXaXsXNXhXhXsXwXfXhXMXhXsXfXMXfXfXfXjXsXfXaXjXjXjXjXBX& GXsXcX2X2X8XdX6XsXwX2X7XdXgXBXK.+ y.h.yXyX[.yXN.-.s q % fXBXAXBXMXBXBXrXwXwXrXrXwXrXwXsXrXrXwXrXwX6XuXuXuXuXuXN.&.xXSX6XtXB.UX6XB.B.6Xv.{ *.x #.V.,.N A V.A N N O.n ; - & : > #.S.S.{ :.:.-.:.%.%.%.X.m N >.-.;.n n V.;.-.%.u n -.y.*.^ ~ W | H H ( e D 1.r.:.a.`._.w % # B.a.a.=.;.&.*.o.o.W 7     ",
"  6 5 E /.5X/.].5X[.v.p = [ 8X%.Z S.+ x M M %.[.-.; v `.N.{.V.{.|.mX0 O o 9Xh.h.`.h.% *.g.5X).v.d.H.c.c.b.#Xv.K.L.L.(.K.L.:X,X6XCXu s PXGX(./.tX<XxXhX7X3X3X3XdX3XzXvX7X3X4XfXMXfXhXfXaXNXt 1XMXhX*XhX4XaXhXhXjX-XhXhXNXjXjXjXjXhXjXhXjXDXjXnXhXAX2 KXNXMXMXhXNXfXfXfXhXfX0XfXhXhXfXaXfXsXaXhXaXfXjXfXfX#X= ).VXgXdX<X3X7X<X7X6XdX3X7X5XzX7X= , B._.N.N.B.'.B...% : Q KXAXrXrXBXrXrXwX0XrX0XrXfXrX0XrXsXwX0XwX7XeXxXSXBXBX] R rXp.UXSXSXH ..6Xb.g.K.f.y.S.B M S.f f V.,.m N h + ; a M k k B j h ^ a.>./.`.$.m -.%.X.X.-.>.^ %.%.x ^ -.h.+ b -.{ *.a.*.o.p.p.|  .r H R ^ H.5X`._.g = - :Xa.=.-.o.-.*.=.&.Y 7     ",
"  6 $ Y h.].[.[.'.'.(. .X * :.^ < m x ;.M b v b - - < -.;.;.>.X.;.O.. . ; '.a.N.B.B.* v.6X7XK.H.P.P.k.k.K.b.;Xb.).;X).L.P.K.6X8XCXu w PXIXB.(.5XzXdXpX7XiXhX7XsX6X3XhXhXrXaXaXfXaXhXfXaXqX2 J.AXjX*X*XaXjXjXaX-XjXjXjXjXhXjXjXjXjXjXjXNXNXjX*X*X=X2 DXNXhXMXMXMXhXfXfXfXfXfXfXhXMXfXfXMXhXaXMXhXhXhXfXMX0X, VXdXcXeX8XeXgXdXdXdXdXcXeXgXcXVX% * s h.;.;.V.o.a.M.w 9 7 LXBX0X0XrXrXrXrXrX0XrX0XrXrXfXrXwXwXqXrXrXrXeXxXxXBXy.Q DX..tXAXBXM.r R n.v.(.3X3X{.I.|.~.!.N x %.m < h %.Q.Y.R.R.Z.z A.l V V S.^.m %.%.^ o.m >.h.-.;.n X.^ ^ >.^ o w i.*.{ *.] r.o.| ~ w s I v g.v.5XB._.~ = X B.o.*.-.;.;.y.-.a.~ -     ",
"  e.o [ v.nXlX[.[.9X6XeX* $ . w ^ >.`.N.>.;.X.y.a # . . o . . . . . 0 u , =.h.h.B.h.*.B.<X6Xv.H.H.g.+.y.J.K.K.;X:X(.:X4Xc.c.6X:XvXH - LXCX5X(.8XvXnX7XdX7XzX:XbXhXgXsXsXMXfXaX-X0X0XaXaXqX6 s.DXNXNXjXaXaX4XaXhXhXjXjX-XI.-XNXhXjXjXjX4XNXMXs.rXMX$ NXhXsXfXhXgXMXMXBXMXhXfXaXfXaXMXfXhXBXMXhXfXsXhXfXMX2X8 CXcXdXgXdXdXgXgXdXgXgXdXxXgXcXBX. & , 9 Q Q { ^ o.p.i | 8 xX6XrXrXrXrXrXrXrXrX0XrXrXfXfXgXrX0XrXrXSXrXxXbXcXCX%.=.HXcXbXh.W a.g.Y *.B.i./.D.,.S.S.Z.Q.{.D.:.q > Q.!.E.W.R.W.A.A.W.W.E.E.R.A.k h n w ^ %.V.;.m W ^ o.W ^ W , + W o.{ Y s v ~ I ^ { ..R I Y &.*.g.-.h.Q o = v.*.&.-.o.o.X.a.o.W 9     ",
"  2.o K.:XbX|.[.yX8XeXrXe * f.#.&.&.B.h.h.h.a.'.*.% o % . , 0 x X.N.N.h.+ d '.h.h.h.g.v.H.H.v.H.P.b.y.K.;XK.tX:X<X,X,X4XD.P.).<XBXY 9 LXCXtXg.h.<XAX7X).8XkX[.f.7XcXfXgXMXhXaXaX0X0XqXqX0XT u.AXVXNXhXqXaXfXNXhXjX].jXjXjXhXjXjX-XaXjXjXjXhXsXBX0Xe LXhXMXhXhXNXfXaXfXfXMXfXfXrXfXgXfXrXhXhXhXBXMXBXNXVX6X1 cXnXnXbXnXvXvXvXnXcXcXcXdXzXeXeXa.+ - & , g i s 9 p , - # . 8 p.rXBXMXrXfXrXrXrXfXBXMXfXSXrXrXrXfXSXrXBXxXzXmXX.h.CX6XB.tXB.rXtX..p s { %.D.S.S.}.S.,.,.m v : B Z.E.A.A.A.A.W.W.A.A.W.W.R.Z.C k k > < k < < < n %.O.n d 4 ; w { o.{ =.| { *.o.o.| ] W ..Y { =.h.h.a.~ o & (.o.o.^ Y Y W o.W u ,     ",
"  D * ! ,Xh.D.I.'.`./.k.9 5 | &.n -.;.>.V.h.a.N.W % o X W -.>.;.;.,.,.N.b - '.N.=.g.i.(.(.v.v.v.g.D.c.2X>Xn.v.K.;X:X).].D.I.pXnXCX..7 GXZXyX-.h.rXAXtXh.9XbXnXhX<XwX,X3XhXaX1X1XqXqXaX0X0Xl.' DXhX0X4XaXNXaXaXaXjXjXjXhXjXjXjXjXjXaXjXhXjXsXsX2XSX9 AXNXfXfXMXfXaXrX0XMXfXMXfXfXfXgXfXfXgXfXwXhXBXhXcXBX@.w LXnXvXbXbXzXcXcXcXzXdXzXxXcXzXxXGX3 X % X I ~ i : o . e ..W i . 8 qXAXqXMXrXSXfXMXgXrXrXrXrXSXrXrXfXrXrXgXeXiXw w kXeXn.n.tXB.H Q ( ] v.(.f.S.|.}.Z.B c %.D.B |.E.W.A.A.W. XW. XU.U.W.E.R.A.l z Z.A.C R.Y.z S Z Z ,.;.m ; , o.r.#.y.r.a.| i.{ ^ o.^ { o.^ W h.c.g.h.t.o X { ~ ..W W ^ ..^ Y 7 9     ",
"  G 5 * : #.D.D.>.:.H.4Xt * < #.^ %.-.;.>.N.'.'.W + X s b 0 4 a < w n d o., B.B.h.g.v.v.K.v.H.H.h.k.d.L.;Xv., p.(.<X`.D.I.].zX5XvXY 3 LXCXyX5X_.dX6X:X(.).dXvXdX,X4X,XjXaX4X1XaXaXaX0XfXfXx.t KXaX*XaXjXaXjXNXjXhXNXNXI.-XjX-XjX0XaXjXjX3XhX3XrXBX$ AXMX4XgXhXrX0XfXaXMXBXBXfXwXsXfXBXhXgXfX0XsXfXgXfXAXr.v PXzXiXcXcXzXbXcXcXzXdXcXbXcXxXxXZX8 X - & + . . 0 ~ uXCXCXuXeXR X 1 qXAXrXrXrXrXrXrXrXSXrXMXrXSXrXrXrXrXxXeXbX0 X.vXeXrXtXtXn.n.v.=.r.y.:X~ $.S.B M B S.S.{.B S.Z.A.E.W.R.A.U.W.W.W.R.R.R.Z.T.Z.A.z z C C R.A k k w , O O w ~ W v v { y.&.o.@.~ ] ] *.y.{ 9 v.(.(.B.d.X o o.o.o.X.X.X.{ ^ s O W     ",
"  6 5 K.f.q $.:.:.D.,X8XD 1 @.g ^ ;.h.h.^.^.[.yXu = . 7 9 s s 4 0 9 # . + ; W B.v./.(.(.(.;XK.H.H.).d.c.<Xt.+ g :X=.#.h.,XpX7X6XBX..7 LXBXvX5XzX8X6X7XeXhXcXdX2X2XdXrXgXfX*XaXfXsXfXhXrX0X@X6 LXqXaXaXjXaXjX1XjXjXjXjXjXjX4XaXjXjXjXaXNXjXjXhXsXAX5 LXgX0XfXMXfXhXhXMXVXBXsXsXMXhXMXMXMXfXfXhXsXhXMXNXDXJ 5 wXhXzXBXhXnXcXzXcXhXcXcXdXzXxXvX(.7 7 7 & + + n.9XyXgX8XtXB.tXrXr # . ZXrXrXrXSXrXSXgXrXSXrXSXrXrXrXBXqX;X6X:X- { vX6XcXxXdXeXzXiX5X8X6X:X).v.).^.^.S.%.,.A h = l A.R.U.W.R.W.R.W.U.C C z z l l z C A.z C Z.V M o X O 3 9 # 0 9 0 0 q w u s u v g w i s s ..v.(.B.v.v.. o g.;.o.;.o.;.o.X.a.9 i.    ",
"  2 R ;X).D.D.:.^.h.^./.I 9 Q 7 , W B.h.%.;.>.;.O + # 0 o.o.y.-.o.o.s u - - 0 B.B.>.:X).;X).).(.(.).K.v.v.~ O . ~ @.c.2XK.;X>XK.>Xi p GXCXvX[.zX8XeX7XuXxXeX<X:X6XgXrX2XwXfXsXsX3XaXaXrXMXu.T PX0XhXjXpXhXNXNXNXjX-XjXhXhXjXjXjXaX4XjXhXNXVX<Xt.k.& d.VXrXMX0XaXNXBXhXhXfXsXaXgXMXhXfXhXsXhXfXaXNXhXNXAX$ * ;X7XnXzXkXhXcXzXcXnXcXvXcXBXvXtX. . . . o * 0 dXgXrX6XeXxX`.tX6XtX- X i.VXgXMXBXBXrXrXrXrXrXMXrXrX>XMX>X*.Q , - o &.^ -.:.=.h.h./.h.v.(.8X9XyXiX`.D.G.S.:.:.#.j Z.!.T.A.A.U.W.R.U.z U.C l l S z C C l U.R.l c < ; , Y ^ Y s ^ { ^ #.^ { ~ W ~ { m v w v 0 n.g.v.(.g.>X. o b.-.a.o.=.;.o.Y B.b d.    ",
"  $ } <X).[.{.{.{.>.%.H.p 3 , O o . * 0 < w , * * # * y w ; + < a b b ^ Y - - b b , c._.(._.(.(./.(.v./.H.i.g E Y tXwX>X2XtX;Xp.) 5 p tX:XB.n.v.v.v.n.(.2X6XrX2Xb.gXZXBXfXwX2X1X>X>X2X#XqX@ ) KXwX1XG.G.G.L.G.P.].].4XG.s.f.P.I.L.c.].H.P.a.w 0 . & . BX#XJ.:X6X:X:X,XH.).7X3X7X:X>X3X7XsXgXgXgXgXrXfXMXi 3 y.=.:.a.#.&.&.$.&.#.&.*.y.y.&.a /.9XyX[.- . . . c.(.:XtXuX5XN.B.g.. 9 s 6X>XtX>XOX;X;Xn.1XrX(.K.2XwX6X2X6X_.(.O -.=.o.o.;.O.^ ^ ^ ^ X.-.;.>.>.,.>.,.%.%.^ B :.^ B !.!.R.C E.W.~. XU.U.C S c V V V z C R.Z.A x x m v ^ { &.-.-.&.^ ~ { { { *.#.^ v W 0 r 8 SXa.n.v.v.i.o X :Xo.o.X.n u I i U u ]     ",
"  $ p ;XI.[.].[.].^.[.wXy 9 y 2Xy.*.d.g./.>.g.y.* + , s s v b h.-.o.^ ^ s O s a.B._.(._._.(.:X_.(.H.(.:X>X:X:X7XgXdXdXzXwXeXBXBXwX. . (.>X:X:X>X>X:XwXwXrXwXcXcX2XeXBXBXfXwXwX4X0XfXBXgXrX... i g./.nXCXnXcX`.:.S.4XnXcX8X5X<X3X9X/.g.O + o w n o.- + 9 -.`.`.`.uXvXgX6X/.N.-.h.B.a.*.&.&.&.{ o.&.h.g.eX{ r tXuX8X8XzXzXuXyXzXzX5XkXmXCXHXPXPXPXLXPXLXLXvX/.; . W W X.O.n O ; 5XGXZX8X8XBXCXvXBXxXAXVXCXxXrXrXgXeX6X6XtXuX0 vXmXyXyXtX'.[.9XyXlXpX[.{.^.S.^.D.S.S.:.D.D.D.M o !.C T.z V U.W.U.z z l C.k < < < j V V k > ; w Y w , u h v v v W ~ ^ *.=.h.=.o.*.&.i - , 2Xn.v.n.y.( @ % E 7 # - o - w s 0 u 7     ",
"  5 * K U g U ~ W ^ y.>Xy 8 v ,X*.g.H._.h.a.v.i.* * , 0 , b -.-.^ ^ W b 0 O W B.v.).h.f.g.g.f.g.g.h.v.v./.).H.v.H./._._.(.(.7X(.;X~ 7 DXVXhXdXsXhXpXdXpXpX7X,X,X].4X4X].:X<X7X4X7XsX<X4X3X].q dXdXpXHXHXHXmX`.[.h.v.D.8XiXdX9X7X7X_.zXw o m a W d - o 5XbXmXZXCXGXLXLXLXLXHXlXcXLXPXLXLXHXPXHX9XzXyXCXPXs s PXGXGXHXHXGXLXHXHXGXCXCXzXvXnXmXmXmXmXlXDXHXLXLXGXzX4 O ;.=.4 vXIXIXvXmXnXCXvXdXdX7X:XzX6X3XwX0X2X1X2X4X<X6X5Xv 9XuXyXyXyXyXyXyXuX9X^.h.^.[.{.S.S.:.%.A >.:.:.= = Q.Z k z Y.!.T.A.C V S c < + + . < h ; O , w I E y 4.d.*.#.=.%.o + b u Y ^ o.-.a.*.s # o.:Xi.y.g.g.H @ @ . n `.5X'.yXyXuXuXyXv     ",
"  e 5 I R ~ *.@.p.M.0 g.9 9 #.v -.y.-.g.-.a.y.o.* & 8 Y W s =.%.^ &.X.o.r 3 p.B./.v.h.h.h.v.D.g.f.h.h.H.)._.)._.K.).K.K.n.c.K.c.P.f.g pX_.].].<X<XH.L.4X4X4X<X3XpX4X,X,X3X3X3X3X3X4X].4X4X#.3XGXCXlXpXlXkXiX].iXcX6X;XK.K.)./.)./.,X].:Xy.w w 0 4 , O _.dX9X[.].D.`.^.[.lXmXnXmXCXCXmXnXlXIXDXnXnX7Xh.BXs y xXdX7X6X:X).9X9X7X7X9X]._.<X5XpX<X_.].9XiXpX].|.9XDXBXW . . CXmXwX2XeXrXwXrXwXwX2X1X0XeX2X2X2X1XqX>X&X%XL.L.(.0 uXmXvXlXyXuXuXyXyX_.n > M %.k k M m j < + = . > B Y.z Z.S l l l A Q.k d ; ;.o.p - % y q : 8 J K t J K 6.d.t.[ $.^ 0 + a s w - 9 9 0 o 9 cX6Xg.v.g.g.E o @ o _.'.'.'.'.[.|.N.^.w     ",
"  6 & Q d.K.,X,X,Xv.g.p.o * | y t.t.*.&.&.o. .M.3 - I a.a.^ ;.a.N.;.o.o.9 9 o.(.v././.K.L.H.H.P.D.c.H.).(.H.H./.).v.(.(.;XK.L.d.t.P.t.CXD.].<X).,X,X3X,X,XpX,XpXpX4X4XpX4X4X<X4X4X,X4X4XgX@.).CXbX7XpX8XvXZX7X5XiX5X:X_.,X:X;X<X).H.g.5XwX>X0 . 0 , # ZXcX8X_.3X<X7X9X<XpXsXbXDXLXCXiXiXkXbXbXhXcXgX;X(.I q dX3X3X3X7X8X7XsX7X7X7X7XpXsX7X7XpX7X[.<X].9X[.].pX7XuXBXs g.AX6XtXeXwXwXrXqXrX0X0X2X1X>X>X1X&X1X1X1X1X;X%X).6X, 5XvXuX9XyXyXyXuX8X/.h h > ! M %.M zXy.y.*.Q u . > Z.C C z k k < c c < ; Y k.p.R E D 9 5 t T ` _ ` ' L g <.t.[ *.W v 0 ^ h.r.s o.o.o.- W zX7Xg.B.n.B...@ X o yX^.N.>.a.;.V.O.g 9     ",
"  e t 7 U Y v Y R r.v.n.% o p ) e u.p.*.{ ^ o.p.3 - ] g.^ n -.N.h.-.h.B.0 r w B.H./.)./.K.v.H.H.g.v.H.).(.(.).v.(.H.v.K.#X).:Xd.d.gX~ VX].].).,X,X,X4X,X4X4X].,X,X,X,X4X4X4X].,X4X<X4X4XfX~ 7XnXdX7X6X8X8X_.).<XdX6X<X<X<X:XK.:X).<X).).I.wX>Xp.. 9 o bX5X,X9X_.9X9X3X].pXsX9X4XlXlXkX9X].pXjXdXdXdX:XeXY 9 o.(.dXfX3XsXpX6X3X7X7X7X3X7XwXdXdXsX7XpX].].4XpXsX3X8XBXa CXgXuXwXrX0X0XwXqXqX3XqXqXqX0XqXqXqX1X;X2X1X1X:X;X:X9 `.vXyXtXB.tXtXB.H.f.g g = h , w dXDXcXBXBXwXwXVX*.+ d c C S k N < , , O ).g.r.y.| r.] J i p ) ` ` e.3.L <.4.{ v ; d ..a a.y.s Y =., & a.8Xn.i.p.n.n.| X * . N.N.;.-.O.X.^ W n 8     ",
"  e t #.*.#.a.#.*.(.v.y.& $ 4.u.p.i.-.*.>.=.-.o.9 & Y =.s v ;.>.-.-.-.a.i 0 u (.6X_.(.).).D.c.g.D.v.v.H.(.L.v.v.v.L.v.>X:X;X:Xc.s.c., K.D.].<X,X4X2X4X,X,X,X,X].,X,X,X4X,X,X].4X,X4X4X4X3X> #.VXbX9X5X9X7X5X_.<X<X5X<X6X3X:X:X;XL.).).).].;X2XSX4.. . CX5X/.]._.[.<XpX].<X7XiXbXzXnXmXmXCXVXhXjX7XsX(.gXi , g.tXBXpX7XwXdX7X6X7X7X7XwX7XsXgXpX7X4XpXpX].].7X7X2X:X:Xx vX8XwX6XeX0XwXqXqX2XqX1X2X1X0XqXqX>XqX>XtX>X>X:X2XeXv 5XbXdX9X5X5XtXh.`.*.w v b 9 p { eX#.H./.:X_.).nXVXuX- x m c f . . . 5X; n -.^ g.f.y.=.y.@.Q b $.#.` 8.Q [ u o ; d H H H W H s & - , + y c.c.n.n.*.*...o * . ; W ^ ^ %.X.{ %.^ 9 %   ",
"  6 9 *.| { *.^ [ *.d.v.i * U c.K.g.y.*.=.f.-.] 8 % Y h.o.0 a.;.&.X.X.o.H - ~ B./._._.(.H.H.H.v.H.G.v.P.b.v.v.n.v.v.b.:X;Xn.s.H.1X;X$.h.<X<X<X<X4X].,X3X4X4X,X,X,X,X,X,X,X,X,X4XI.4X].4XsX! $.VXhX7X7X7XdX5X7X).].<X:X<X7X7X:X:X).).H.7X<X,XJ.K.SXBX* GXhXiXpXdXVXCXcXiXiXwXpX<XcXcXnXhXdX].D.D.L.:X<XBXy.r BXAXhXgXsXpXhXsX3X3X7XwXpXsX7X7XdXpX9XpX<X].,X<X3X<X:X:X/.kXeXwX2X2X6XqX2X1X2X0XqXqX0X3X2X2XqXqXqXqX>XtX>X<X7X, h.nX9XzX7X5X5Xg.h.-.b ;././.dXH./.g.,XL./.D.`.H.r.:Xy * # o . *.c.K.5Xh.! ~ y.c.=.f.g.v.h.h.h.h.H.-.h n u + s a.a.O.;.O.o.o.W H r 7 % * @.l.| o.o.| 1.2 & # &.-.n W { %.>.^ -.0 #   ",
"  t 5 % , 0 9 9 8 t i i T * t r.U *.y.-.-.-.=.p.y * B._.=.&.;.a.-.X.o.a.o.0 s g.o.I &.(.K.K.L.H.b.c.c.c.n.v.v.b.v.b.v.v.n.b.c.K.k.>X[ #.7X4X].3X<X<X7X3X,X,XL.*X*X4X].].,X,X].*X4X,X4X4XfX#.~ nX<X9XcXbXcX<XiX<X3X<X<X<X7XwX:X<X<X).H.7X].).).*.BXM.* DXzXiXpXdXhX8X<X8XzXvXcX,XK +.9.` #.I.jXjXhXdXsXgXi.7 ZXBXxXdXgXsXdXdX7X7XdXhXdXdXpXpX3XsX4X4XI.L.7X<X7X:X2XxXh.nX8XwX0X0X0X2XqXqXqX1XqX2X1X1X1XqXqXqX1X>XqX>X1X>X).q m nXD.v.).K.g.{ [ f.y.f.v.3X<XhX4X).H.H.G.G.c.c.k.k.[ - o ^ (.zXDXCXdXc.! g.n.n.y.@.:.g.h.f.h.H.pX9Xv.&.+ w o.o...s O...M.X.W o. ...* 9 v.>Xn.UXUXm.M.3 3 # v.#.x *.h.a.h.;.X.a %   ",
"  e 5 #.@.d.c.d.g.n.i.i.q $ p 5.{ W f.f.*.r.i.g.0 , :Xg.n h.a.%.;.N.a.-.{ 7 s h.h.a.o ^ (.b.v.d.g.c.h.l.b.n.b.K.H.H.J.H.v.v.P.b.z.@.! p cX<X].).,X,X].].H.L.,X].I.I.].,X].,X,X].,X,X*X*XqX! y hXD.9XiXCXCXcXcX7XdX5X].,X7X<X<X2X<X:X).7XL.).v.wXBXBXx IXiX5X)./.H.)._.<X8XzX7XjXf.3XhXI.hXNXVXVXcXhXdX0Xb.1 AXwXdX3X3XwX3X7XsXdXwXpXpXdX7XpXpXpX].4X].f.L.).<X<X:X8Xn vX6X2X2XqX0XqXqX2X0X0X0X1X1X1X1X>X1X1X1XqX>X>X;X#XBXw %.GX].<Xh.:.#.*.t.f.H.c.).H.f.:XJ.H.L.H.D.D.P.c.K.>XQ * Q 8X8Xg.D.CXc.v.h.d.k.n.c.d.g.D.:.D.D.h.D.h.B.7X0 0 W d ^ W Y a 0 H o.X.H  .& 8 >XwX6XtXB...m.1 1 O 7 i  .o.*.^ n 0 a w *   ",
"  6 8 y.t.[ @.;X:X>XB.b.5 = 7  .p c.H.*.f.g.y.1.9 , o.&.{ ;.g.=.a.;.a.o.a.u X.y.h.o.* o.>Xv.c.g.c.c.b.n.K.OXK.v.v.c.H.L.H.d.G.H.;XfX#.p cXH.].].,X,X,XL.I.L.,XL.4X].].].I.,X,X4X].*X*X4X1X#.' VX<X9XbXpX&.Q v dXiX<X).7X7X,X<X<X<X7X:X:X<X:X;X0XeX] 9 CX/.).].].].9XdXnXmXxX2XH.4XVXhXjXjXL.,X].,X3X].0X>X1 BX;XwX7X3X4XwXeXdXwX7X<X].9X3X<XpXpX<XI.].].D.f.].]._./.^ 9X7X2X1X2X2X1XqXqXqX2XqX2X2XqX1X1X1X2X>X0X>X1X2X6XCXw 9XpX].3Xt.f.H.%XK.K.).%XH.L.J.H.,XI.P.].D.,X).pX2X0Xq 9 iX7X].P.@.L.k.d.l.c.;XJ.c.d.y.t.f.h.D.d.f.D.y.>XY - ^ *.^ &.X.^ ^ o.X.W ^ W * 9 :XtXn.p.g.o.OX# # # :Xo.^ ^ ^ n ;.h.o.a #   ",
"  t 5 [ } u.c.1. .*.i.t.& = @.4.] d.*.| ! ~  .] 7 & Y o.{ &.-.^ ^ a.-.;.^ b b ^ s o Y M.] y.c.c.g.c.v.v.b.B.b.v.h.c.c.P.J.H.D.pX*.4Xb Q 7XL.3X4X,X].].L.P.P.L.4X4XI.I.*XL.,X].4X4X,X4X,XaX+.U LXgXg.H.^ ^ m + <XcX).<X6XdX8X5X,XdX6XK.K.;X,X<XB.rX. . vX8XiXiXzXbXdXdXdX(.(.y.c.jXjXjX4X*XI.I.*XI.,X).L.;X1 ZXrXgX7XsXdXhXdX3X7X7X3X3X4X<X6X4X<X4X,X4XI.H.D.dXpX(.5XD.^.].I.0X2X2XqX1XqX1X1X>XqX1X>X1X1XqX1X>X1X2X3X,X>X4XU ].h.h.=.#.H.K.L.1X4XK.L.L.L.4X0Xc.L.*XL.I.,X).,XL.(.9 y f.h.P.s.$.9.s.s.j.l.f.y.f.d.d.f.f.d.9.d.y.l.i.;X .% :X;.s n { X.o.o.h.o.s w o , wX:Xn.n.UX( OX3 2 # :X{ b ^ X.&.;.-.;.0 #   ",
"  t * ' 4.) i i g ] ) p.9 % T s.[ y.d.y.=.{  .] 1 & - u s o.o.-.a.a.b &.o.W 0 v 7 ~ 8 r . . g | y.;XB.b.v.K.(.v.v.G.c.c.c.c.k.<XsXBXY b wX4X<X3XjX].H.l.G.I.L.I.I.I.I.I.I.,X*X*X,X*X,X*XhX+.g cX7X_./.Q D.:.h dXdX6XwX6X<X7XcXBX3X:X;X;X;X6XeXwXBX9 _.CX)./.`.H.c.k.k.c.%X3X3X3XjXjXjXaXaX-XaX0XaXhXjX,XOX1 rX<X%X<XH.P.6XxXeX3X3X).).3X<XgX2XrX2XgX,X<XBX7XD.H./.a.w %.b ].4X;X#X>X>X#X,X1X4X4X1X1X1X>X>X>X&X>X>X1X>XrXf., f.c.f.f.b.c.J.J.P.K.J.J.c.l.0X1Xf.l.G.c.P.f.d.J.b.l.u w l.@.l.9.3.J.+.9.s.9.5.s.f.f.l.c.k.f.f.d.u.f.d.k.] + W b s W ..o.X.X.W Y s H + 9 6X:Xp.i.UXUXp.3 & * I s ^ y.o.s Y 0 - 0 -   ",
"  t 5 i.5.i.@.Q 5 i u.n.5 % i 4.4.@.t.v.h.g.| r.7 % p u s o.a.N.=.^ *.y.b v 9 o . I s | R v o . + ] b.;Xv.K.n.v.c.v.l.c.f.d.d.J.5.u.= #.:X).P.).).I.P.G.I.L.).).].].*XI.].4X,XL.I.I.$X$X1X*.#.$.:.&.n M w >.w t.BXwXeXdXcXnXZXpX2X<X;X).c.gXf.*.m., tXv.#.y.s.c.%XqX0XfXsX1XaXfXaX0X4X*X&XF.z.J.>X>X#X) u.1 F u.1.2X>Xv.rXMXfXwX;Xb.>XwXgX;XAXLXZXVXcXZXDXVXl.H.y.#.q * f.:.h.h.K.H.{ @.t.c.l.P.>X;Xb.c.r.b.OXrX2X2X2X;X] o U *.Q @.f.f.k.J.l.d.f.f.t.f.f.f.f.k.f.t.t.f.@.[ } ~ 9 * v t.t.l.9.d.' ! +.t.@.5.t.@.t.t.[ | } $.4.t.@.t.[ * 9 3 9 0 s H p s 0 , u p + w (...p.g.UXn./ 1 # 9 R ^ ^ b ^ o...0 Y 0 9   ",
"  F 5 #.d.k.@.>Xr.p d.K.% + i u.) } k.n.*.] M.i.3 1 | n.a.&.-.o.o.o.^ *.W w 9 y.B.:XeX:X:Xv.g.W I . . ~ Y *.c.y.y.f.g.c.d.f.l.c.v.#XX [ H.d.L.].P.P.P.f.G.I.K.K.K.K.P.*Xl.g.d.sXsXsX(.t.Q y ~ :.#.h q &.f.$.! D.g.wXrXgXhX<XcX<XH.;Xv.b.d.K.H.(.i.* VXmXzXbXCXvXcXcXhXbXCXdXD.K.1X6XfXdXdXcX7X<X<X;XB.>Xm.6 rX>X0X0XwXwX0X2X<X7X<X7XpX].iX].].].L.P.L.D.f.G.;Xd.y.Q , &.h.>.M pXpX]./.].4X[.].dX4X].[.[.].jXiXpXpXpX).3Xf.~ ,X).].7XsX0XgXiX7X<XpX9XdXcX<X9X].7X9XhXdXiXpX2XK.Q o o.H.v.L.G.f.j.3.$.! 9.f.9.9.9.#.t.f.d.f.@.t.d.f.i.u.u , I 0 9 r 0 0 0 9 - - * & 0 (.c.i.p.i.m.H 3 2 4 ~ v 0 b o.o.v 0 s 9 8   ",
"  L : 4.4.5.[ k.t.p p.g.O X p i.` 6.k.k.*.p.p.m.3 % y Y p.a.o.=.o.X.&.&.o.0 a.8X8XtX/.`._.(.8X/.*./.t.w . o ~ ).P.c.P.H.P.P.H.H.>XBX. h D.f.,X3X3X,X*X4X3X,X%XK.#XJ.J.&X%Xl.L.LXLXGXzXd. .p q Q w . > *.p ZXVX7XcX7X0X2XH.H.iXgX6X6XK.;XwXrXrXwX..X B.xXcXeX/.7X7X7X9X7XsXdXrXwXgX;XK.4XpXdX<X<XwXxXBXBX/ 1 SXBXcXfXsXdXBXvXhXdXpXkXnXzXDXnXhXcXcXiXkXnXpXgXdX7Xh.$.+ =.`.^.w D.c [.^.^.].{.D.S.D.{.].].|.|.pX].[.pX].nXf.^ dX8X4X,X,X3X0X4X,X,XI.H.G.F.P.,XL.L.L.].L.,X*X4X1X+.* >X;Xl.G.G.f.f.f.I.I.G.f.:.#.f.f.f.d.f.f.=.h.f.D.d.f.~ O v p.o.W ..Y W Y W Y - % - -.d.n.UXB.m.H 2 # r b v ^ u 0 a I s 0 7 8   ",
"  L = T } t.4.b.Q e p.m.* X r k.f.i.5.d.k.g.E OX1 % i { &.-.=.&.-.-.X.o.^ - =.9X_.9X-.| i ~ g.BXg.*.K.B.=.0 . Y H.g.#.y.L.K.H.c.n.#XX ] /.`.(.K.%X*XaX4X0X0XqX1X1X>X&X$X$X*X=Xj.l.G.e.+.5.p X | n.y.p . f.GXdX<X7X6X,X:X8XCXCXgXwXdXeX6XwXeXxXrX| X n.rXeX2X0XfX;X).wXwX;X2X<X2XwXrX1X6X4X<X:XVXgXBXBXLXg 5 b.rXpXwX3XpX3X4X3XgXpX).4X3X,X,X4X<X4X<X3XgX,XL.9X].h.$.q :./._.>.>.]._.H.9XbXpXlX].].jX<X6X3XhX7XiXnX:.:.zX#.! ,X*XL.$XL.J.J.J.L.%XJ.$X%XI.I.@XI.F.G.P.I.I.P.$XK.5.q J.s.8.9.G.9.9.s.F.G.$.$.+.K s.L.#.] 4.@.*.t.:.f.:.#.~ o ~ =.*.o.X.;.a.g.W i 8 X y b.(.p.B.B.B.( 1 1 H { b b v n W ^ { X.p 9   ",
"  L $ ' u.r.| y.p e p.i.* $ y k.u.p.k.i.y.n.p.p.3 % i R n :.>.h.-.a./.h.&., h.9X_.5X; . ..R . y.zX(.(.Y g.g.u . Q H.@.d.f.d.d.v.(.2X8 u 8Xf.v.K.L.J.*XF.#X1XqX0X>X@X$X&X&X&X*XqX*XaX*X7.k.i 9 ;X).L.<X, 5XPXzX).dX).]./.<XL.h.g.H.).cXwX:X2Xb.tXo.% :XBX<X6X:XwX;X2XwX0X;X2X0X2X3X6X3X3X].<XfXdX>X).k.MXt e >X2X,X3X3X,X<X3XwX3X,X2X,X4X3XpX].,X3X<X,X<XL.4XG./.H.=.w VX).).H.,XcX7XhXcXhXpXpXpX9XsXgX3X7XiX7X7XdXgXt.gXt.p 4X%XJ.L.%XL.$XJ.J.J.L.*X$XL.L.G.G.F.P.G.J.F.L.l.J.! t c.f.9.x.7.8.8.9.G.j.9.5.9.! $.' 5.t.t.+.} +.5.@.@.[ t.= W o.{ X.W o.o.o.X.I p O r 1Xd.B.UXn.UX1.* 1 * v , b n b Y ^ { h.s 1   ",
"  e.$ U } [ 4.R } I n.m.* # & ] g J c.k.@.r.1.} % % U ~ #.*.*.y.{ ^ y.=.h.a /.5X`.8XW 9 ..H ] a.BX8Xy.tXg.h.a.- w f.Q f.H.P.;XK.K.6XR v ZXh.h.c.+.k.P.$XJ.c.@XJ.&X=X$X=X&X&X*X-X=X=XqXOX} q 5 qX(.v.L.L.vXDXcX<X<X<X<X].K.).<X3XdXzX7XwX:X4X;XrXm.o &.8X(.6X3X6X3X6X6X%X0XBX4X<X7X3X/.VX<X7XhXrXwXwXUXqXe 9 Q >X2XL.L.L.:X3X>X4X,X;X;X<X).).,X).).).,X).,XL.).,XL.#.9 BX<X4X;X2X,X4X3X3X3X<X4X3XjX0X3X5X3X3X<X3XsXfX<XwXn.q 1X%XI.*X%X;X%XL.L.J.P.$XP.J.*X*XP.I.$XI.F.%XL.G.l.! g G.G.l.f.s.x.8.w.s.9.9.f.f.f.5.f.d.H.d.t.t.#.#.$.y.5.4.+ r ..H s s s d b W i w % 7 b.g.| B.a.n...2 % r Y b ^ b W ^ &.b 0 + %   ",
"  7.= Q } } n.] b.| D R & * * 4.4.4.k.k.t.u.| ) X $ , q 9 y 3 8 8 H R H Y , h./.h._._.tXB.i.uXtX_.c.| *.*.a.~ O b B.g.d.H.v.K.K.n.n.y r 6X:.v.n.f.f.$.l.%X1X#X$XF.$XF.F.=X-X0XqX=X&X&X0.$ J t MX#Xu.:XxX).).7XdX5X7X7X3X7X7X8X7XdXBXrX2X2XwXeXgXp.X rXeX<X2X,XcXhXdXhXcXzXcXsXgXdXsX,XdX<X:XgXxXrXSXrXrX5 e i rX4X:X;X).,X0X4X4X:X2X4X3X3X4X<X,X,X;XL.,X,X,X3X].).q h <X<X3X;X;X1X,X2X3X0X4X,X,X,X,X4X,X3X4XpX3X3XpX,X,XH.g 4X*X*X$X*XL.%X$XI.L.P.P.L.L.$X$XI.*X*X*XI.G.I.P.I.v v 3Xf.l.G.G.9.9.9.9.I.D.G.I.#.:.f.#.:.t.d.c.f.f.k.y.y.} & , . ; 0 w a w ; O . y * i g.k.r.g.a.a.1.# 1 i [ b ^ W ^ W 0 u 0 9 7   ",
"  / . I @.u.p.Q [ p @.o.9 $ e p.<.i.k.k.i.k.p.1.X X y ~ ^ { { &.^ ^ ^ { ] * -.h.=.h.g.a.=.^ a.-.&.*.| *.| { 9 , 0 p.I u b ~ ~ b *.r.- 9 k.t.k.OX#XJ.u.K.;Xk.v.>X1X*X+XF.@XL.@X@X=XqXAXNXNXAXQ AXI i.n.p.[ r.~ ~ :.t.f.H.gXeX6X2XrX5.i.>X2XeXrXeXp.o BXeXK.,XgX5XVXCXZXhX).).3XwX7X2X6Xb.y rXBXhXgXgXqXn.e E J 0X>X2X1X2X1X2X2X>XP.,X4X;X3X2X%X,XL.4X1X,X,X,X,XL.I.#.c.,X,X%X*X).,X1X1X,X,X2X4XJ.P.1X;X*X,X%X,X*X4X4X,X4XsXg 0X*X@X*X%XL.J.J.J.J.L.$X@XI.I.$XI.*XG.$X$XJ.x.G.L.: Q 7Xc.L.f.G.H.v.9.:.I.D.D.].f.D.:.#.&.:.i.f.*.-.d.i.t. .* 9 ..Y 0 - r u s I Y i % E k.r.o.g.B.n...# e E Y W W d u d u , , , 9   ",
"  e.t J i.4.5 y n.p d.1.1 * 8 u.T u.i.k.k.) u. .$ % ~ *.-.-.=.g.-.&.^ -.b O *.D.*.p.r.;.-.;.&.&.&.*.*.{ g. .O . | *.s y.;Xr.| u I { & n.(.}  .OXOXm.b.m.u.p.r.u.u.s.s.z.l.b.i.m.@XqXKXAXSXKXt qX>X6X>XUXqX6X6X0XwXwX>Xv.2Xv.n.0XLXAXAXAXfXgXgXBXi.# GXGXv.h.).eX7X2X(.(.(.c.v.g.n.:X2Xv.d.U k.;X(.k.OX1.H t . n.k.L.%X1X;X#XL.;X,X3X3X3X;XL.K.f.! c.H.L.K.H.K.).H.L.7X;XL.P.,X,X,X;X;XL.(.).).L.,X4X<X4X4X*X,X,X%X4X,X].sXq *XL.I.L.L.L.*X$XL.&X%X$X@X$XL.$XF.$XI.F.L.*X8.x.b.U & Y w *.b g H.H.9XpXD.#.f.D.#.f.h.f.f.t.t.*.} r.| 4.@.*.O y i.y.o.I { p.*.| r.d.X I n.] >X>Xi.n...3 4 H 0 3 o o o O # * * = o   ",
"  K p 8 p @ I 4.OX5 p.] 9 % t i.Q m.i.m.k.m.k.1.X % { { &.o.^ &.^ { &.^ @.. Q D.).f.=.a.=.=.a.a.y.g.c.K.6X| o | y.Q ! { >X4Xv.@.Y u & Y v.n.c.v.1X0XgXfX,X4XL.I.,X3XwX0X0XwXwXMXhXgX2X;XfXMX9 LXDXVXZXCXAXcXrXcXBXgXwXwXh.I.dXnXhXLXLXZXBXgXxXBXi.% dX:X_.bXzX/.5XCXLXHXnX8Xa.7XCXDXcXBXDXeX).).#.nXDXAX<.1 p.@.t.k.c.K.l.%X>XK.6XwX:X2XdXeXwXwX6X2X;Xv.y.y.@.).c.g.<XH.k.D.L.L.<X:XL.(.v.v.n.v.;XK.K.K.l.P.l.f.d.J.L.K.fXy 3X$XP.G.L.*X*XL.J.%X%XL.J.I.F.F.F.I.$XJ.+XI.*X%X9.y @.#.{ : . ..E . b h.^ q f.g.~ y.y.@.-.| 4.@.| | *.[ @.*.X 8 i.n.g.i.g.UX .] H ] X o.6X{ b.n.a.v. .1 r & o r Y { o.g.g.g.B.H O   ",
"  $ 5 5.6.j._ <.p.t u.} 7 % t r.5.k.k.u.m.u.m.| @ * I ~ ^ ^ m ^ m n ^ h o.y s 6X=.g.h.h.;.;.-.y.=.*.*.g.R w U eXd., Q ! g ! 5.b.rXi o o 8XeX2X1X;X7XwX3X3XpXsX*X<X3X<X,X4XaX0XhXaXaXaX3XMX5.g cXiXdXzXbXvXpX5X).>X:XK.].).,X7X<X,X#.t.t.@.U #.i y % GXiXwX3XgXwX,X:X<X,X%XgXL.gX6XwX2X6X;X6XdXhXgXDXCXAXI e LXMXwX4XpXhXcXjXwX4X2X,XL.P.wXhX,XgXgXrX4X3X6XwXH.[ c.v.v.H.K.,Xv.t.;X6XgX2XgX2X:X).wX<X,X1X7XrXwX2X>X=Xk.@.K.g L.P.I.%XP.L.P.P.L.I.L.L.L.P.J.I.P.P.G.I.$X$XP.I.f.g h.^ ^ &.0 a.h.i -.H.a.-.y.g.{ t.y.@.#.@.{ @.{ #.r.r.r.) X , v.v.v.i.p.M.@.] ~ E # ] (.I i.v.g.n. .& 7 7 & a.B.i.a.B.h.h.n.s X   ",
"  6 9 l.J.#Xb.n.b.D )  .7 % t l.k.s.i.j.k.1.0.1.@ # | *.-.X.^ ^ $.^ ^ W r.o., '.a X.;.a.a.h.g.=.y.f.*.c.Q o y.t.| Q @.t.#.5.#X@.;X* = Y <X%X#XK.OX#XG.&X*X*X-X*X&X*X%X#X*X-X*X*X*X-XqX1X1XJ 9.hX:X,X<X).6XBXCXBXwX2X2X2X%X2X>XJ.).;XP.H.).(.g.;X .- ZX<X$X;X$X%XJ.J.F.$X$X*X0X1X=X&X*X&X>XOXJ.K.@X6.k.MX} t AX&XH.*XL.%X*X*X*X,X*XI.L.%X*XL.@X3X%X*X*X*X,XsX).).gX{ ,X:X).gX7X:X6X2XwX3X4X3XdX2XG.sX,X4X2XqXqXqX-XqXqXs.L.! $.P.G.F.F.P.P.P.I.J.G.H.J.J.J.I.@XF.P.J.%XL.G.P.$.b h.b b ~ ^ , - o.*.f.&.f.#.u *.g.*.#.*.{ *.&.&.y.p.{ ] I $ 9 r. .p.| M.]  .] s w O u v.y *.v.c.c.( & - 7 0 p.{ =.*.y.a.y.a.i X   ",
"  5 5 t.m.k.n.d.k.E | | 1 # p k.5.4.6.u.m.u.M.M.o & ..W { -.=.a.a.>.&.n u o.W -.y.g.o.&.*.*.o.*.&.y.*.*.y.&.. 9 v.v.H.1X;Xb.>X1.9 i & c.;XK.K.&X@X@XF.&X$X$X+X$X%X&X@X$X$X+X+X=X*X&X$X=XqXL 0XMXK.;X2X>X3XL.;X%X;X2X2X1X;X2X>Xb.H.b.1XcXBXBXfXVXb.7 gX*Xl.@X$XJ.@X$X&XJ.J.F.F.$X*X1X1X1XqX@Xb.@X@Xz.m.8.7.e PX=X%XI.$XP.P.*X4X%X*X*XaX1X,X*X*X,X4X3X4X3X1X,XL.pX).E :X4X,X).<X3XwX1X>X1X4X:X<X4XL.1X1X>XqX&X&X=X=X&X=X&Xc.g h ,XI.I.I.G.J.P.G.J.I.l.c.P.F.P.G.L.%X$X#.G.l.5.y ~ &.0 0 W E E n.B.o.@.-.*.^ ] y.&.b v ~ { ^ &.p.y.y.] ] s O % { E o.] ~ ] E H p Y & w :X*.Q r.i.v.Y & & & w -.*.y.a.&.y.o.| y X   ",
"  t $ Q ) T U ) n.| ) | - * p s.} 3.m.u.5.i.k.p.X , p.-.=.&.%.&.%.-.&.~ I =.*.=.^ g.f.-.i.i.*.y.y.-.y.d.-.g.c.~ . ~ f.y.g.n.n.p . H O g.G.G.G.@Xb.F.F.+X+X$X$X$X&X&X$X@X$X$X$X+X+X$X&X&XqXF DXSX$X4X>X1X;X>X,X2X1X<X2X2X;X2X2X;X1XwX1XqX$X1XhX2X@X4.$.4XF.$X&X1X*X$X*X@X*X*X=X$X&X%X*X&X1X&X1XMXfXAXfXrXm.6 AX#XL.*XI.*X*X*X*X1X,X,X1X,X,X,X1X4X,X1X1X1XaX,X,X3XwX6XqXwX,X,XL.:X2X;X;X%X>X;X>X1XqX&XqX>X=X#X=X1X&X+X=X@X3Xg + 5XP.H.D.H.J.l.G.H.*XL.J.l.t.9.l.G.L.G.G.L.u.[ 9 W h - - Y b s p.^ v ~ *.{ { y.*.W { n { Y W { o.{ W Y R p O 9 ~ Y Y |  .{ o.p.o..., q (.y.y.g.g.v.g * % + , { =.=.*.o.{ o...y %   ",
"  F $ ` 4.4.} r.b.| g | 1 * i j.K } x.m.4.| u.1.# & { &.&.^ ^ ^ ^ ^ ^ ^ ^ =.#.a.-.*.f.*.*.g.f.f.v.B.v.g.c.d.f./.g.O . 0 v R i UX] r O tXf.G.P.G.@X+XF.G.+XG.F.+XF.J.$X=X$X&X$X+X&X-X$X&X0XD DXqX3XsX3X%X2X4X2X1X2X2X;X2X<X0X2X4XgXr.. . t ' & . 1Xm.1 i.#X$X*X$X*X*X%X&XqX1X*XqX0X$XF.*X&X,XL.0XLXKXNX&Xk.6 AX1X3XI.L.%X4XsX2X0XaX4X,X%X%X4X2X0XwX2X,X4X*X,X<X,XeX*.wXwX4X<X).(.;X;X%X%X%X,X;X2XqX&X=XqX>X=X&X=X+X=X=X0.6.Q = f.:.L.P.,Xd.;X4X%XK.J.J.;Xl.J.P.J.P.G.*X$X=XqXt : 8 + w y r 0 . 7 w Y &.$.&.=.r.^ @.{ { v W { ^ { Y I Y Y X 0 *.r.W I { { t. .Y W ; O &.g.y.d.p.n.i * % + , ^ { o.o.{ o.{ I 7 *   ",
"  J * #.u.r.] @.c.) D 4.& * J l.3.5.m.4.u.u.4. .X & =.a.&.o.^ ^ ^ W ^ ^ ^ y.*.g.f.-.*.*.t.*.*.*.-.r.o.p.t.t.t.t.f.d.+ o I q v.BX2X@.Q K.G.G.G.+X+X+XF.+X*X+X+X+X$X$X$X+X$X&X*X-X=XqX-X=XqXt NX%X0XsX3X3XgX0X1X;X;X2X2X4X<X:X).sX! . 5 t NXDX0Xi.. H 9 . b.qX1X$X&X%X1XaX$X$X$X*X1X$XJ.@XJ.%X$X&X$X$X0XMXBXt 2XqX$X#X*X1X1X1X0X4X4X,X,X1X1XwX3X,X2X3X4X3X3XL.].,X2Xv.gX3X<X3XhXL.;X:XL.;X;X2X:X2X>XSX=X=X+X+X&X=X=X=X=Xx./ T $ [ 1X3Xy.,Xc.f.;X5.1XK.K.%XL.,XP.l.L.%X1X@X1XqXp 5 , Q Y W s v y u Y Y v ~  .p.&.~ Y ^ H W o.a.W v Y Y R Y 9 I -.p.i.~  .|  .I v u * , { *.~ *.n.6Xi % t # 9 ^ =.&.{ o.X.p.H u 7   ",
"  J $ 4.u.t.r.| #X| R p.7 : p 6.u.6.6.u.m. .} ..= - b b ^ =.-.&.&.^ ^ b ^ -.=.=.g.#.@.[ t.@.*.*.o.r.@.r.t.i.i.m.u.k.U = w p.| y.v.b -.6XG.w.G.+X+X+XF.=X=XF.w.w.+X+X+Xx.$X&X*X&X=X$X$X&XqX2 AX*X3X<X0X3X;X,X;X;X;XL.L.:X;X3XhXs.5 f.L F.NXNXqXb.1 3 9 R I MX1X$XJ.&X*X*XJ.@XL.@XJ.&XL.$X$X$XJ.L.J.#X&XSXLXt 0XqX1X,X*X4X1X%X,X1X,X*X].3X,X,X,X,X*X1X*X4X0X,X;X2XrXi.4X<X).%X).J.%X;X%X).:X3XL.;X>X=X=X=X=X&X&X&X=X&X=XqXqX2 . R 6XrX2XJ.K.+.c.l.l.;XP.,XL.L.L.s.$X=X1X1X#X&X_ 9 y &.W v Y Y s 0 s p & 0 { ^ v s Y u s ^ &.{ u ..~ Y ~ ] E b p.i.r.*.y.r.R 8 ~ ] s , , { p.{ v.:Xy = p O s o. .^  .o.M.o.s H ,   ",
"  t $ ) 4.u.u.t.K.| ) p.7 : p s.7.4.4.7.p.u.p.( X * ~ ^ W o.^ X.X.&.o.^ W W &.*.a.#.[ #.*.*.| *.4.y.y.y.*.t.g.c.y.%Xc.O b xX*.W o.b &._.:Xj.G.F.+XG.F.+X+XG.G.F.+XG.+X$X$X+X&X*X$X+X$X=XMX6 KX-X,X,X4X3X1X4X2X2X>XL.L.J.,XsXl.s.hXNXe.NXKXNX9.. . . 1.BXI i.1X&X+X*X$X$X$X$X$XG.$X$X$X&X*X*X*X*X4X$X*X*XfXg fX0X,X4X4X,X1X%X,X*X,XL.L.G.K.$X;XL.H.L.L.L.%XP.].%XK.) K.).L.;X;X*X;XL.L.;X;XL.).,X;X%X@X&X&X&X+X+X=X=X=X=X&X<.. ] eXwX0X2X2XJ.f.0X= U 1X;XP.;XL.G.%X*XF.G.x.z.0.K : y g 0 w 3 0 s { W + - s s H W Y 0 - s W Y b W v w ..| v i | t.t.{ ~ @.r.r.y.] Y - w (.v.*...{ i % 9 - 0 v y 9 p w E i % * &   ",
"  F & 5.u.t.| -.c.Q ( 1.7 5 i u.7.<.4.u.p.1.} E X % v a b ^ { ^ ^ ^ ^ ^ b X.o.=.=.*.#.*.f.*.*.*.@.{ t.*.=.y.y.g.g.K.^ , s a.g.o.0 , . q U K.J.8.G.w.w.G.G.+Xw.G.+XG.+X$X+XF.*X*X$X&X&X&XaX6 $X$X9.P.L.f.b.#X%XJ.#Xt.#X` u.9 . VXNXMXAX#X3.$ . =XSXrXi.@.Y . J.$X$X-X$X+X$XF.*X$X$XG.$X&X$XF.*X-X*X*X*X*Xx.Q ) 1X1X*X*X*X,X1X1X3X1X4XpXI.sX4XL.,XL.%XP.I.P.H.).<X6Xc.).H.H.,X3X4X%XL.L.,X;X%X(.:X%X@X@X@X&X=X=X+X+X+X+X+X&X0.. r.gXwX3X3XaX` %Xi.+.%X3X%XJ.P.L.$XJ.G.G.F.7.x.OXe J +.w + 0 y W { Y 0 3 s b W W W Y a Y ; s ..W o.~ v ] { [ v *.w p p { -.| R s ] { a 0 =.v ^ (.g.i O 7 7 o.9 X # . . . o X 7 9   ",
"  6 : 5.5.t.] @.r.y } o.7 & p 4.( 4.p.6.4.1.1...# * a v ^ o.o.{ Y Y a v n ^ o.a.v.=.*.a.f.y.=.#.~ ^ { #.*.&.{ | y.^ . 7 + , 0 - * O & + , L.G.q.w.G.G.7.w.+Xw.+X$X+XF.+XF.+X$X&X*X&X$X=X7.5 . = = 9.+.! L L L K ' ' / J . # X r 6.z.rXt . _ AX&X@Xm.ZXrXr.n.J.L.F.*X*X-X*X$XF.@X*X$XG.I.P.G.G.G.l.G.J.G.@XJ t &X$X%XL.L.$XJ.%X%X*XsXaXaXsX3XG.4X,XVX,XL.<X4X).,X:X[ cX].L.4X$X%X%X).;X%X#XL.%X;X&X&XOXOX+X+X+XOX+X+X=X+X$XOX. ;X3X3X<X;X%X@ 5 J sX0X4X1X,XL.%X0X*Xs.8.q.0.&XOXF ' +.$.b * 0 s - o u o.y.a.o.s ^ a.{ ..W . . 0 s y { ] { { W  .[ U p.*.|  .] *.] u Y 0 o p a.tXM.r # 0 9 o.r 0 w & # # . O % i   ",
"  6 = ' } 4.3.y.c.g | t.9 7 t 4.} 4.<.1.} } 1.( # * I ~ ^ X.^ W b n Y a w Y s o.a.f.#.o.&.&.a.y.{ #.b v v v w &.v 4 * s n 7 . . . o - n ~ Y ! *.9.w.G.x.w.w.w.q.+XG.9.g w.+X@XF.+XF.F.3./ 5 & 3.5.` 5.x.l.x.G.G.F.F.z.@Xp.X ..% . & 7 e i b.x.. . o q l.KXMXqXz.F.+X+X$X$XF.J.,X*X*XF.J.F.l.G.G.z.F.$XJ.i.5 p MX4X,X*X,X*X,X%XG.G.s.s.s.f.G.P.G.l.G.l.hX3X<XL.).L.! sX:X,X%X;XK.P.J.J.%XJ.#XK.$X#XqXe.K ` L L L K L L OXqXJ.$ xX6X3X3X2X5.$.s.qX2X$XK.;X%XH.%X2X1X3.+.*X>XqX@XK L L ! ! , 0 - * * s r.g.N.p.a H W ..0 0 - r i i v | ~ Q ~ [ y [ ~ { | Q { I ~ Y s b 0 0 -.n.i.M.r * 0 - 8 3 0 r & O 9 s 8 * D   ",
"  6 $ ) } r.[ c.P.I @.@.8 : t } ) Q } 3.4.r.} ..* - Y v w n X.;.-.o.X.^ W X.X.W b 0 ~ v.h.p.h.{ n d '.yXiX0 0 w 4 O.O.d s W X.H h * O X , w q w v i v I g R [ t.G.! f.$.$.` [ ' [ +.5.#.5.q $ +.u.s.#.+.9.G.G.j.j.x.l.@Xk.r r . . . r 8 p K ] 9 * # e 4.J.aXqX*X*XG.*X&XJ.J.l.G.J.K.J.G.j.s.t.s.s.c.$X>X#X8 I NX#XJ.$X,XpX4X%X,XL.L.I.L.L.L.J.J.,Xl.3X0XJ.L.J.K.j.g L.I.%XK.J.l.$X$Xl.J.J.%XL.L.#X1Xj.5 6 D q > L w.U g 3.J $ hX,X).).K.L.G.1X3X%X%XJ.c.J.G.$XJ.+.F.J.@.k.;Xb.J L ! ! g 0 3 d W s O i ^ ^ { W o.X.o.*.E @.-.t.| @.~ | ~ U U 9 | g.p.r.r. .| ~ Y a s , , [ k.p.o.r * 9 - s y.a.W a.*.g.a.a.8 t   ",
"  6 * 5.m.d.| Q [ g t.r.9 & t 4.3.4.+.[ @.u.u.| O - ^ { o.n n n X.d d n a W X.N.;.w W ;.;.X.^ ^ W uXlXB.vX5X, , d d a f ; a n N.B.4 . a - . . ; 0 # r Q [ l.L.L.P.G.aXL.*X$.$.+.9.s.5.P.%Xu u J.).G.G.l.f.j.t.l.%XP.s.aXu.& k.1Xk.5.i 1 . r #X_ E # D T ` F.F.z.w.9.t.[ Q e p y 7 p ) ) ! U J [ +.4.@.] ] R 8 b.i.u.c.b.b.J.K.c.G.f.J.).J.L.L.L.,XG.1XL.b.K.c.J.k.K ;Xl.l.x.4Xl.,X;X).J.J.G.L.L.P.&X$X/ J ` 5 t G.1X[ Y +.t p rX4X].I.L.4X$XH.l.J.b.z.J.z.z.j.f.l.f.d.k.f.@Xe.J P ` +.q O s o.g.o.W o . . s o.;.o.s ~ -.*.#.r.@.| #.[ ] U [ y R [ g U | | ] |  .E ^ w - y.>XtXUX9 * 9 O a m ^ y.-.;.a.{ ~ 4 e   ",
"  t $ u.} <.| } *.[ u.d.9 5 t i.d.4.u.t.@.[ 1...& - s ^ n a b B.B.B.;.< n O.O.-.;.-.X.;.d d M 4 a.GX'.(.`.yX`.; 4 V.d n N O.B.a a.a.b o.B.#X%Xk.] k.b.v.z.@XJ.$XJ.L.@.aX1X*X9.9.9.G.q.' K.p g LXZXBXnXVXCXVXdX).,X;X$X0X7.. NXZXAXMXrXqX&X<.. p { s & ..U | [ [ g 8 . . . k.J.I.%X+.8.8.3.F.%X3XJ.K.4.r.r.7 U #X%X&XK.b.#Xb.K.k.s.m.d.u.6.d.l.x.l.f.5.l.s.k.g.[ p.t d.t.@.5.u.k.s.t.5.t.j.5.8.7.f.j.d.z.w.w._ t U o.X.=.8.K +.J.s.#.f.J.J.J.J.x.j.l.j.j.F.@Xl.x.l.s.k.s.c.z.3.5 J L p 1 o 3 ..o.X.;.=.o.N.;.-.o.W w ~ [ | ) [ ) ' | ] 4.@.n.i r.[ r.@.@.p.o.| X.W o.s u tX>Xm.tX9 & 9 O s o.;.&.^ { ..o.W 3 1   ",
"  K o U 1.5.r.c.| | d.l.: * g u.| ] ( 5.] J ( D 5 3 Y Y b b ; d =.X.d ^ O.n W X.W d W V.O.N V.d n CX9XyXuXuXN.O.;.N.V.B.;.O.mXs . n -.{ b.0X0X#Xz.J.u.5.j.c.F.' = = 7 t.0XaXG.s.G.F.0XMXNXK ! LXvX8X_.<XjXnX4X,X#X*X@X@XqX0.e 4.>XrXNXNXAXAX#X% . H i y.o.w a 9 . o 7 & @XNXaX0X*X$XaXaXaX-XqX0X=XqXVXqX1X8 m.MXaXqXqX0XMX0XfXfXqXfXqX0X3X=XrXMX0X0X0X0X0XqXOXb.5.' 0X&X&XqXqX0X#XF.j.@X1X@X&X+X&X>XaX0XfXfXSX0X, p B.g.k.F t Q U [ 5.5.k.k.i.6.5.u.4.+.l.x.s.6.s.8.6.k.6.j.6.5 t F 5 i % . s ; W W ;.h.;.;.o.^ - *.&.{ | _ ! R / _ | t. .| U i [ ~ {  .] ..o.W a W 3 4 M.n.OXOXy * E - o.y.^ W { o.X.o.o.9 *   ",
"  L = K +.@.d.d.[ v @.@.& * p Q R ] I U 5 7 3 8 r 9 b ^ n n w ;.;.;.O.n n o.n u i [ v.(.:XdX_./.).dX2X2XgXcX3XdXHXGXGXGXLXGXZXBX>X9 . BXfX&XJ.$XJ.J.l.J.J.&X>Xk.( q . . Y 2XJ.J.&XqX0XOXMXL J NXL.J.$Xz.+X+Xx.+X+X+X+X+X+X1XrXk.t q s.L.s.J.>X7 : 9 [ [ g.W w * + i e = >XMX-X-X=X-XAXNXaX-XfXMXfXJ.rXn.b.J x.+X$XF.+X$X+Xz.z.z.@XJ.%XJ.G.x.G.G.F.F.$X+X&X@Xj.qX6.5.&X+X$X=X@X+X+X+X+X+X&X&X=X+X+X+X+X+Xw.OXw.+Xz.l.8Xv.@.7 r SXSXtX#Xz.>X#X>X%X#X0X0X1Xc.l.u.d.k.s.s.b.k.( i e e e i ^ - ^ '.d ; r d d 0 n . . @.f.Q R | Q U p t U I g y 0 v y R ] E W i I a a s a , 0 i.m.OXn.p # s # W a.%.o.X.o.&.&.Y 3 1   ",
"  2.o t @.[ @.@.R r.] i % = , y s 9 1 & y r y 8 - 3 o.;.O.;.n N.O.;.X.O.n a b ;X1XK.3X3X3X,Xc.J.$XF.%X&X%XF.J.G.s.d.P.I.I.$X$Xj.ZXMX5 AX%X5.z.s.G.z.&XJ.1X0XMX0X0XrXk.{ O 9 y.f.J.l.j.7.6.' t F.F.$X*X&X&X=X&X+X+X+X&X@Xx.q.&X0X$X+XG.$XL.$Xj.L $ 5 g y v v ; O w *.[ = ! NXaX=XaXAXKXKXNXfXqX1X#Xk.. 9 J.J 0Xx.F.P.$X*XJ.$XJ.@XG.$XL.F.*XF.x.F.+XF.F.$XF.G.z.1X6.+.*X$X+X$X&X+XOX+Xw.+X+X+X+X+X+XOX+XOX+X+X+XOXF.J.c.f.U % t >X@Xz.OXz.l.9.8.s.s.l.s.G.j.z.s.z.J.J.L.&X@X0X>X. # p.M.y.s ^ -.m o.O.O.s a 0 . *.v.i.u.| | [ Q [ } <.Q [ ~ R Q ~ 8 R o.M.Q Y Y b a a a x ^ o.a.M.s - 4 O ^ N.-.-.=.&.-.X.W r 5   ",
"  e.$ $ 8 y I ( 9 8 p . # % X * * * 9 I p p ^ =.O 0 ;.;.N %.x %.O.X.X.X.b y $.d.6.8.5.5.9.G.x.j.9.8.e.e.j.k.k.d.u.t.d.l.f.F.P.J.%X+.5 MX$XG.G.9.6.8.G.&X1XMXrX=X2XrXMXBXdXk.K t s.$X#Xk.k.6.5 fX%X&X$X&X&X&X+Xw.@X$Xx.x.x.w.w.+XF.G.+X$X+X$X=XSX5 $ : y p 0 9 ( r.~ g.UXK ' -X&XF.*XqX4XF.f.J 5 . / } } c.p #X+XF.+X+X$XG.F.G.F.@XF.x.z.@X+XG.F.G.F.G.F.@XOXx.x.} K &Xx.+X+XOX+X+Xw.w.OXOXOXOXOX+XOXw.OXOX+X+XOXx.F.} v.~ 9 X qXk.OXx.OXw.x.j.q.8.8.7.q.j.j.q.8.8.j.j.s.5.b.qX( @ p.h.#., W ! ^ %.#.^ n O . I i.| 4.+.) ` ) 5.u.u.} | ' R Q ) p U { @.| *.*.a w n x a a n n W W a H s ; -.N.-.;.>.-.h.X.a.I %   ",
"  0.$ $ O o % % & % X % % # 1 7 1 # * 3 , g -. .4 0 X.;.O.N n %., b ^ s ^ v [ l.9.8.6.3.e.+.e.$.9.G.G.I.l.f.s.u.s.s.l.s.s.z.x.j.G.L t G.F.9.G.9.t.s.5.s.b.%X#XJ.qXSX>X1X1X0X1X@X` >XfXz.$Xs.5 MX&X$X+X@XOXx.+Xw.+Xw.w.+X&X&X+X+XF.G.w.G.F.+X+XqX3.$ . . . . . r 0 W 0 UXB.H @ / +.4.p . o 7 d.VXLXLXDXgX} F fX$X=X+X+Xx.+X+X+X@X+Xx.x.F.G.G.F.G.+X+XF.G.z.@Xz.z.j.T &Xj.+X+Xw.w.w.+X+Xx.OXOXw.OXw.OXOXOXw.OXx.x.+X@Xp.k.W y.X MXOXx.x.x.w.x.w.q.w.q.q.8.8.6.8.6.8.8.q.x.q.q.j.>X% % | Y + ^ ^ m m x n n O # g.} } ` _ _ _ } ` k.) U I b v U J p i.) u v U n n n %.O.a a b a d s s o.- - ;.&.X.%.;.;.h.-.;.W &   ",
"  0.* $ & & * O X # # @ % & & 8 - & 8 7 8 9 + , , 0 W X.%.%.%.X.< s X.v { W [ l.5.s.x.s.9.:.G.G.G.I.l.f.9.s.G.x.x.l.G.x.x.G.z.j.8.p g w.e.` +.` k.j.L = k.#X@Xl.#X1X@XOXz.j.8.F.&X=X&X3.z.z.. *Xq.G.@X@X$X&X+X+X+Xx.+X+X+XF.&X$X8.w.8.F.w.x.=X=XJ : w.OX@X@X=X=Xb.F.k.t r.] o...v 8 $ t s.t.J.cXZXVXDXPXNX! KX+X$XF.z.F.@XF.+Xx.z.x.x.x.x.z.z.z.G.x.z.@Xz.x.z.z.0.K $Xx.w.OXw.+XOX0.w.x.OXOXz.x.OXw.w.+Xx.w.j.z.OXz.m.` I e X u.j.q.x.OXj.x.q.6.j.w.j.q.6.6.6.8.q.6.8.q.j.j.q.k.% ( n.~ 0 n n m ^ X.;.w # # m..._ _ _ _ _ } ] e * H E Q s H 9 ] E J J i b h b x 0 x a 4 , 7 4 , - d y w a 0 ; 4 , , , < 0 , -   ",
"  0.K 5 * . . . O X . o % 7 8 3 % 7 7 3 9 & o . . O * . . , 0 0 d Y , W | o.] c.s.j.x.z.G.G.G.9.l.s.s.9.G.x.l.j.x.G.G.G.F.F.z.+.+.6 g aX1X*X%X*X1XF.! : = j.#Xk.J.z.x.z.x.x.x.j.q.q.x.7.0.x.$ ,Xj.x.@XF.@X+X&X+X+Xw.x.x.x.+XF.+X0.8.8.e.x.&X+XqX$ e.aXSXSXaX-X-XqXfXNXNXf.w h.y.w p t.L.G.9.! g g +.sXG.AX5 @X+Xx.x.x.F.z.x.F.z.+X+Xx.z.z.b.z.J.@X@Xb.@XJ.x.k.z.6.K OXOXx.+Xz.+XOXj.OX+Xx.7.q.x.OX+Xw.+Xw.x.q.0.6.6.3.+Xz.7.@ k.q.6.q.q.x.w.w.q.q.q.q.j.j.j.q.8.8.6.8.8.8.q.z.k.X i b.i.s W ^ b b n , o - ; p.( L / _ _ _ 4.1.) [ | E p R k.] ..| { -.Q w b j h w < o o . O - , 7 s 9 + , -.^ E X.-.O.a.g.{ *   ",
"  0.e e s R E H p y 0 7 & - * s $.b , q p u b Y u p 9 ~ g.(.v.{ y.v.v s ~ ~ y L.J.z.z.F.z.J.d.s.s.k.x.x.l.G.z.l.l.G.l.z.F.J.j.' l.t g &X*Xl.G.x.J.j.@Xj.. $ 4.1X@X#X>XJ.G.x.w.q.8.w.q.q.0.m.5 #Xj.G.x.z.+X+X+X+Xw.x.+X+X+XF.w.x.w.x.x.x.F.F.+XqX6 +X+XOXw.OXOXOX+X+XqXNX) . * & q g 9.f.s.G.8.s.w.e.t 7.@Xt OX+X+X$XF.F.+X&X&X&XF.@X@X@X8.$X@X@Xz.k.z.z.z.z.j.0.u.t OXw.OXOXx.x.OXOXOXx.x.j.x.x.w.w.w.G.OXw.0.0.0.0.0.w.e.7.e #Xj.j.x.w.j.j.q.q.8.q.q.j.j.j.j.x.q.8.j.6.0.0.z.t $ U Q ~ H W f.r.^ n 0 , 4 # y.n.u._ _ ' _ ` ) } <.| <.1.p.6._ 4.4.a.&.m :.D.>.:.%.^ { &.v 0 o . O + + o B.5XN.V.N.^.N.a.B.R *   ",
"  P * @ 0 Y Y R R [ ] Y | , - o.*.g.*.~ *.y.a.g.y.*.b h.`.h.:.;.*.-.] y s  .e d.c.b.J.OXJ.J.F.G.j.j.k.s.k.J.G.f.s.5.5.u.3.5.s.5.t.g t 9.3.5.5.+.5.6.b.0Xs.. . k.>X1X1XG.x.w.w.8.6.q.q.j.OXqXK qXj.x.q.8.x.OXx.@X+X&X&X+XF.F.+X$XF.G.x.8.j.+X+XOXt 8.+X+X&X+X+X+X+X+X=X@X$XrXk.# 9 8 $ +.j.#.+.7.G.G.e.+X&Xz.k.1XOX+Xj.9.z.F.x.@X@XF.@X&XJ.J.J.z.G.z.z.&X@Xx.x.OX0.p &XOXOXOXOXx.w.x.x.z.q.x.7.g e.w.OXw.w.w.0.0.0.0.0.0.0.7.1 AXj.x.q.x.j.8.8.s.j.j.x.x.x.x.j.j.8.8.6.0.j.q.z.* g g.S.,.,.c k M x x . ; -.d o b.n.7.} _ _ _ _ _ / / / / / D ( |  .Y ; =.:.`.D.D.%.%.>./.`.a.Y - O * - O { h.;.%.X.X.{ Y R e $   ",
"  $ = *.].[.[.[._.'.'.[.tX- ; W h -.:.:.-.:.:.:.h.h.x =.-.%.$.&.{ ~ 1.p 8 c.Q [ k.k.s.f.k.z.G.J.s.8.s.9.J.G.! 5 $ % q & t u.6.Q ' 5 t k.5.+.6.5.8.s.s.j.s.} Q J ' qXL.=XF.7.+.3.7.6.j.j.j.qXK rX&Xx.z.8.` e.F.F.+X$X$X+Xw.x.$XG.F.+Xw.7.+Xw.OX0.$ e.OX=X=X+X+X+X+X=X+X$XNXAXAXNX1 ( M.$ f.w ' qX&Xz.j.k.>Xy.+.VXj.L K ` ` 2.3.e.q.q.z.$Xz.z.z.@XG.J.z.J.@XF.z.z.m.p @Xz.z.j.j.x.0.0.0.j.6.8.j.J ` =Xq.q.q.0.0.0.0.7.0.7.7.=Xt MXx.7.q.q.0.q.s.q.j.j.8.q.8.j.j.8.j.8.q.6.0.j.#Xi x ,.S.Z.Z.Z.Q.S.A A A {.^.m > W u._ ' _ / _ / / T / / / T T T ..W * X.:.w %.:.*.%.%.-.a.a.-.n 0 0 ; 4 . { h.;.-.;.o.&.Y W y &   ",
"  @ q H.`.9X|.{.{.[.'.[.;.0 , ^ h.'.D.#.g.H.v.f.8XdXw #.@.{ { #.y.p.m.4.8 U Q i u.t.s.J.j.s.s.j.x.9.9.s.t.8.9.5.5.+.` ! g [ +.} f.5 g J.l.J.z.F.$X%X1X*X#X1X0XqX*X-XqXqXG.` e.7.6.j.z.z.7.6.e k.x.F.j.6.x.F.q.x.x.+X+X+X@X=XF.w.x.x.G.w.OXOXOXx.. w.&XqX@X+X&Xx.+X$XNXDXqX>XMXSXm.o | W - { tX6X#XOX>Xn.;Xp Q >X[ L.l.J.$X+Xz.F.8.5.` ` k.j.6.k.z.j.l.J.x.J.F.F.j.i z.j.8.w.q.j.z.x.j.j.6.q.3.6.w.8.j.q.6.6.6.7.0.7.7.0.0.7.J #X7.j.j.q.j.z.z.j.j.j.8.8.6.6.6.8.6.j.j.8.3.z.J p 9 w c B M M M B S.c B Q.k A < o E ( ) ) ) ' / / ! K K T E U ) ! ) h 9 + x 0 , < q w w < < 0 ; 4 o o ; o -.h.X.&.o.o.o.^ b 0 -   ",
"  $ t ~ ^ -.>.^.^.{.|.{.'.W w :.^ :.-.#.$.#.&.^ ^ w g u i t y U Q [ R Q 1 9 g I [ t.+.t.k.d.5.$.$.! ' ' +.+.` 8.9.G.s.9.s.4.t.} l.: t >X@Xl.z.J.J.@X$XJ.G.G.8.G.G.G.z.q.w.j.x.8.q.6.3.5.5.6.5 6.6.e.8.q.G.x.8.7.w.G.+X+X+XG.x.F.F.+X+Xx.7.8.x.6.@ =Xj.=XSX-Xm.z.j.x.NX-Xz.#X>Xk.>Xk.. Q t.O v.>X%X2X>XM.R 7 . . 1XwX3XL.qX%XG.G.s.z.G.F.qX%Xj.k.s.0.0.z.j.8.3.t.Q q J.s.j.l.j.s.j.l.z.k.8.6.' 6.3.3.` ' L T / / / / _ / _ . t j.1.6.6.q.8.j.6.6.q.j.j.8.q.s.6.6.6.q.j.u.z.>XX . , h m :.%.m M N j k V k S k n - % n. .} Q Q Q T ! K J g y 9 0 y v u 0 + , , < 9 ; , 0 w w a b [ o.s O o h.=.-.*.r.^ ^ s 4 a ,   ",
"  2 g g ~ ^ ;.h.^.{.{.[.'.b 9 -.{ , , W &.&.{ a.i.p.7 O . . v { ~ | *.[ *.Q : v [ +.] ) ) } } 4.' ! L g K [ ` @.' $.+.@.u.f.) ( T @ : t.) K / / / ) Q ' ' $.L ' P ' ' ` ` e.3.' ` ` 3.L _ 7.6 ` ` +.8.x.8.7.6.3.3.5.7.s.x.x.w.w.x.x.j.q.8.w.x.6.: 7.&X&X=X+X0.z.x.w.+X=X+X&X&X@Xj.&X@X! : Q Q J.#Xk.<.D @ @ D } 5.[ s.l.j.u.7.5.5.s.s.j.8.j.s.7.} u.4.6.k.t._ i J 8 u.s.3.i.s.4.' U K ' } 5.5.s.5.8.9.5.} ) Q ) Q ) Q T H $ t r.3.} } | [ [ } [ } @.[ ) ) ) ) 3.i.m.i.u.m.i & 0 < m >.Z B Z Q.C.A V k Z.C c m + * OX] v g b I R p y b g b R u p [ r.| t.r.5.t.@.} } ' Q ' +.4.t.M.0 - O =.=.=.{ { ] ] { n 0 0   ",
"  1 } I Y ^ a.y.-.h.D./.&.y 9 R ] R 0 y.).].8X8X8Xv.{ 0 ~ U U ~ [ t.:XwXxX2X$ } c.J.&X*X=X0XqX=X*X$XF.*X*X1X0XaX0X3XJ.;Xc.L.J.[ = % o o J 5.k.k.j.s.8.s.G.z.z.j.z.@X@X&XF.x.8.+.e.s.0.` _ p * <.x.z.b.k.z.z.k.OX@Xu.z.z.8.6.} 3.0.6.k.OXz.k.<.1.9 e b.x.&XOXz.w.j.j.z.@X+X+X+Xz.@Xz.@Xz.$.5.J.J.&X=XOX&X3.= &XqXx.z.z.-X&X+X+XJ.F.G.G.l.J.J.z.x.x.b.z.@X&X@Xj.7.] y l.l.l.%X1X%Xf.5.} 5.d.k.@X>X%X$X#X#XK.>X1X&XK.#X#Xc.#X= [ 2X;XK.K.v.).:X;XK.i.Q g @.4.u.u.i.k.b.k.p.t.~ 9 r + X.;.,.%.V C.Q.Z.V A ,.V m w - % Y y * y v u s p , 7 + &X+Xs.8.5.6.5.z.G.9.9.9.5.9.9.5.$.9.` ! R % # o ^ o.b { o.o.M.o.W a a   ",
"  = & ) s Y { a.{ &.=.*.8 8 g | r.| 4.[ ^ a.=.&.a.{ -.! @.*.$.~ = g.tXAXAXn., [ d.s.l.s.j.9.7.` $.9.+.I.J.P.G.G.s.s.s.s.f.Q @.| = % * > R u.7.b.z.z.F.x.F.x.x.J.z.J.F.J.z.x.J.F.F.F.j.J.#X( o &X&X#X&X@X&X+X+XOXq.j.x.x.x.j.x.z.x.j.@XqX=X=X=XqX2 $ =X#X=X+XOX+XOXx.z.@X@XOXz.z.z.z.z.k.x.q.8.j.j.j.j.OX+.5 6.6.+.8.w.w.7.w.w.w.e.w.w.5.7.e.7.w.8.8.w.x.x.x.3.m.[ U b.k.J.u.k.c.5.@.4.+.@.3.[ 5.) } +.+.[ 5.@.+.+.j.k.4.f.* ) @.+.3.4.7.7.7.3.5.6.5.4.5.s.m.5.5.p.j.` +.t.n.E 0 X - W s x x f c < A A A m a , O - o q [ c.g.*.*.:.[ . . J.8.8.q.8.7.+.` ' +.` e.#.9.9.+.5.9.$.' [ r ; o n ;.m -.o.W ^ W - n 0   ",
"  2 t } ~ ] R p.v.r. .y & p I T k.R i.f.^ g.o.s I i U ) ! ` [ s.2XZXBXeXBXrX8 [ #XK.f.6.9.9.9.w.9.D.G.f.G.f.f.f.G.s.s.s.l.5.' q = + . . . . t m.j.j.w.8.3.3.} 3.8.q.8.8.8.j.F.l.j.z.G.J.OX6.@ j.x.OXOXx.OXw.w.7.0.w.0.7.6.q.j.x.j.j.x.x.x.x.z.&X6 e MX=X&X@X+X+X+Xz.j.z.=X@X+X+Xz.z.x.x.s.8.6.6.6.j.u.s.t.J %Xj.j.7.w.w.w.w.w.e.e.w.7.8.7.w.e.e.w.w.w.w.w.x.j.x.[ Q d.u.r.) ' U u.5.} } ' 4.5.} +.) [ +.9.+.$.` +.+.j.<.r.* r.j.5.5.5.u.7.p.u.3.3.6.5.6.3.4.3.7.7.7.` 3.) R E ] o . . + N m C.C.C.A A O.x . . @ . . #.g.*.:.:.:.f.].y g J.s.9.9.9.+.5.+.+.$.$.+.3.9.+.5.+.$.$.$.[ y # O W ;.&.o.X.W H d 0 s 9   ",
"  e F ] ( } W i.n.B.m.3 o 1 i F } T E ^ [ ^.`.a.p.] } } T +.! P.AXZXtXK.b.k.8 r.>Xv.9.+.8.e.9.9.9.9.9.9.#.9.9.9.9.9.x.q.8.q.j.s.. . ^.^.>.b e 2.@X+X+Xe.` e.+.6.6.3.` 3.` 5.8.9.l.F.z.z.j.z.$ m.+Xx.OX+XOXw.7.7.0.0.7.0.0.0.q.q.q.q.0.q.w.w.w.z.L 5 MX&X$X$X+XG.x.w.0.s.j.z.z.z.z.z.x.x.q.8.6.7.6.q.6.z.4.D m.j.j.7.e.w.e.w.e.e.e.0.9.7.8.e.w.w.e.e.7.8.j.j.m.i.R U u.k.d.@.[ [ ) } u.4.+.T ) b.qX;X8.J [ #.` t.3.@.4.7.k.t T 4.6.5.p.7.7.5.7.7.4.3.` } 2.3.<.<.6.3.3.3./ ( ..v a ,.Q.Q.Q.C Y.U.T.C.C.C.,.c w M ,.%.M ! q [ ).#.:.:.m t.5.` +.9.+.9.+.+.+.9.e.+.+.3.+.+.+.9.s.5.{ 7 # o s X.s 0 s s a ^ s d -   ",
"  F 6 _ .._ r i.n.i.p.3 # & _ e / K , -.y.W ~ *.y.} ` ` ! ' ` e.` +.L ` +.} t y.L.d.#.+.+.` 9.x.9.9.9.9.9.+.9.e.8.7.3.9.9.9.G.I.! x Q.Q.Q.}.+ o L 7.7.L ' ` _ 3./ L / ` +.` 3.7.s.G.G.8.q.z.$ 6.x.0.0.7.w.q.0.7.0.0.0.0.7.7.7.0.e.0.0.0.0.e.OXOX_ 5 1Xx.x.x.q.q.z.x.x.8.8.j.x.z.j.q.j.q.q.w.7.0.6.8.w.x.5 . t b.k.0.0.e.8.e.e.e.2.w.0.3.7.0.0.0.w.7.9.8.j.j.u.u.R v f.l.i.@.[ } ! L T ' p J #X#X0Xk.5.t.q p t.s.5.5.* <.m.e e p.} 3.4.6.7.4.3.6.3.3.4.3.<.7.1.7.7.<.<.L <.d.g ^ V.Q.T.C.z A.U.U.U.U.U.U.S S S C.%.,.Z V ,.N 4 f - ; . w k.6.9.9.+.` $.+.9.+.+.` $.e.$.e.' $.#.$. ...% # - O . O o O 4 X.0 s #   ",
"  L 1 ( _ 1.r i.v.g.n.r X * e K 2.7 p f.c.-.#.*.t.3.$.` $.` $.+.2.3.3.e.5.1.8 y.f.#.j.G.s.9.9.9.3.9.+.+.3.9.+.9.9.+.$.9.:.S.|..X}.l k V.+ B >.S.{.q J I _ 3.7.2.t ' <.q.7.3.` ` 3.5.j.j.j.OX$ u.j.j.w.q.0.q.0.q.0.0.6.q.0.0.0.0.e.7.e.0.0.OXOXP OX2 =Xj.G.w.x.x.x.x.x.j.6.x.x.9.7.5.8.8.7.7.8.6.7.7.7.6.} * T z.j.6.8.q.w.w.w.e.e.OX0.7.e.w.0.6.7.7.9.w.s.5.8.k.U g L.@.5.[ r.| T g g 5 g l.K.>Xk.l.k.@.[ U ! ! ] ] J ( 6.J y j.' 3.7.4.<.<.3.3.3.3.3.4.7.4.7.<.7.7.4.T t R h ,.C C C z C.C.U.U.C C z C C C.S A C.V C Y.T.V.n O O + - I x.+.+.+.+.` e.` e.$.9.+.' ! ! $.$.$.L g ..r % O s 4 0 a ; O 4 d 0 0 -   ",
"  L 5 <. .4.p a.D.h.c.u X X D >XOXJ q #.t.y.-.t.t.#.` $.e.e.+.e.3.5.8.6.6.@.5 *.s.9.f.9.9.G.P.f.+.9.s.#.J +.5.j.` ! $.B {.T.E.E.~.~.E.~.!.R.Y.!.}.Q.< y u.j.6.<.2.j.@Xq.7.7.` ' L ' 5.8.0.j.* <.j.m.q.0.w.q.q.7.0.0.q.q.w.w.w.0.0.0.OX0.e.OXw.0.OXX z.x.w.w.j.x.x.j.q.8.6.8.5.e.3.e.3.3.e.7.0.q.q.7.6.6.} 1 ) m.6.3.e.7.w.e.e.w.e.0.0.0.6.3.0.0.f.9.9.9.f.c.i.B.~ b t.[ Q g | t.t.[ w > @.1XL.f.J.c.c.#.J.g 9 [ E R 4.U u._ 9 b.5.u.4.3.7.3.3.} } 3.3.4.4.3.4.3.1.1._ J J ) w B C C C.C U.U.U.U.U.T.T.C.T.T.!.T.T.C z A.z C Z ; . . & 9 = K $.` ! ` ! $.$.$.! ! ! ! ! ! ! g g $.p o . o - 4 - - - d d 4 d r 0   ",
"  L 6 } _ } u v./.h.g.v $ % t } H J [ T k.r.*.f.t.#.$.` $.` ` ` +.7.7.6.7.+.5 u.l.s.s.#.$.:.$.:.f.f.s.s.5.Q s.H.f.S.D.!.A. X~.~.E. X XR.A.R.z Y.R.!.!.,.q Q I _ e.q.0./ ` ` ' +.L ' 3.3.m.k.1 5.j.j.q.0.0.0.0.0.q.0.q.q.w.0.0.q.0.0.0.0.OXe.OX0.0.6 I OXz.j.j.z.x.x.8.e.8.7.e.7.7.3.7.7.3.q.j.j.q.m.0.7.3.e 4.m.0.e.e.7.0.0.e.e.e.7.e.7.0.7.m.5.! g = w ^ o.W s 8 q ~ @.b 9 g Y [ [ . y #XK.~ [ @.[ [ Q q = 8 [ 9 i #X1.4.<.e m.3.2.<.3.<.<.} } 3.<.<.<.<.<.3.2.3.3.3.t ( r.,.S.Q.R.T.U.C z U.R.R.U.U.A.T.T.!.U.z U.z T.C.V C.V.%., b + . o ! [ $.! g g ! K g g L h L ! g ! ! g g w w 9 s b a < d 0 d H 0 0 4   ",
"  F e _ T ( U c.v.c.o.8 @ * 2 @ g ! #.K $ t.y.y.f.{ [ ` ` ` ` ` ` +.5.3.4.+.: 3.8.G.G.:.9.D.! $.$.s.#.d.5.[ P.c.D.:.D.$.B Z.~..X!.}.}.T.l C C A.R.E.!.!.< 0 i./ } / L ' L ' ` L ' L ' j.u.5.q ] 6.7.w.7.7.7.0.0.q.q.q.q.0.0.q.7.e.OXw.e.e.w.e.OXm.F @ m.7.0.0.j.j.6.7.7.8.e.e.7.9.7.7.e.7.w.j.q.q.6.8.e.` * ) 5.0.2.e.e.0.0.e.e.e.e.e.7.1.4.1.8 . + - n O.4 O O O + ^ W g y v Q [ [ t.@.K.d.Q ) @.[ g t v $.[ J g 5 y.Q _ } 7 m.' 3.` <.<.3.3.} <.+.<.+.<.<.3.3.<.2./ L ( g.h.V Y.U.Y.T.A.l A.A.U.U.z C U.U.E.Y.C.z C Y.C ~.Q.V.Q.m > + b Q + ~ #.9.! $.+.! ! ! ! ! $.$.$.$.$.#.! ! $.h q W ^ W a O 0 b w 0 -   ",
"  6 2 e t 7 p v R ] E 8 # & 1 3 I +.@.T T g #.*.$.[ $.$.+.+.+.+.` ` 6.u.k.t.: #.f.f.G.G.D.9.b *.f.#.s.@.@.J.G.#.9.M S.S.B M %.A Z Q.C Q.Q.U.R.C !.E.l Y.N + R > p L +.' ' $.` +.7.5.` [ 6.k.& ) q.7.7.e.7.0.7.w.q.0.q.0.w.w.w.w.w.e.w.OXOXe.P OXOXD D 7.t 4.m.6.u.q.q.j.8.8.9.7.7.7.9.9.w.8.7.7.7.7.7.e.' = ` 6.1.e.e.2.0.e.0.e.e.e.e.2.0.1.3 o # 0 a w < 4 0 f - O . , v | [ g ! *.t.[ 4.} Q R [ } @.4.i.5.d.] s.u.: } | _ 9 <.} ` <.} 3.<.} <.1.<.3.} 1.<.2.3.3.<.3.( R o., ; Q.U.R.R.z A.T.U.T.U.z U.U.U.S C.C.C z C Y.T.U.C.Z.c M x $.#.* o ~ $.#.#.$.! $.t.! $.g L g $.#.9.$.! ! t , , w < 4 , w { Y o.-   ",
"  5 / _ 4.U J g p e e # & 3 1 & U d.r.Q d.[ g y.[ t.5.9.9.9.5.#.9.5.t.5.s.+.: $.f.9.G.f.9.$.h.f.J.! f.L.f.t.:.f.I.D.S.! h h :.,.l l A V Z Z V Z.Z.V c c j x + : ' 3.` ' ` ` 9.8.3.+.' J t p.7 5.u.0.0.7.0.q.w.q.0.q.q.0.q.q.q.q.w.w.e.e.OXe.OXOXOX_ ( p.D D ( <.6.q.x.j.8.q.7.7.8.8.8.8.7.e.e.e.e.e.e.e.3.$ +.6.e.1.2.2.0.m.0.7.7.e.e.e.0.1.1 @ O 4 0 O 4 d f a x 0 0 v *.K.*.q *.[ b Q ] [ g R [ [ @.@.} } ' Q @.Q U g } } e 7.<.` } +.} <.} } } <.<.<.<.<.2.+.3.+.T E 9 . O V.Q.Q.U.C U.U.U.U.T.U.z C.z z C.Z S S z z z z z k ; h , w * o = q t q ! g K $.#.[ ! ! ! ! Q [ [ *.#.#.b : w &.m w m ~ b U w W #   ",
"  $ 1X0XK.v.;X(.g.1...M.# # 3 * o & 8 y 1 p . e u p y g y q e e J U U g g p : ! ! ! $.~ c.D.#.Y c.v.t.:.%.x g ) K 9.' j 9.! :.S.S.S.V k N B c ,.c k k x ,.h.w + [ d.~ K ' +.5.8.6.3.' ) 1.} 7 } 7.6.<.2.7.<.3.7.6.0.q.j.w.x.q.q.w.w.OXe.OXOXw.P m.t D 4.D p / ' K L 3.0.8.x.x.j.x.q.w.w.w.8.7.7.2.e.' e.J * Q 6.1.0.0.1.2.2.D L P L _ P _ _ 7 3 ; o 0 ; ; d d d d b a W ~ b v v [ [ R ) } I I  .| [ [ ~ Y U U Q ) ) K 6 i p 8 _ ` ' ) / ) ) / ) ) ) ) ) ) Q ) _ / @ , M N.V C Y.C.Y.C Y.Z.Z.Z.Z.z z z C.V O.S N a a >.>.>.'.N.O.O . % o + b v v ! b g ! ! $.@.*.$.! g h g w w 9 u y = . w x w b b x < , - # #   ",
"  $ &X>Xt.y.@.y.H.(.n.>X .# # @ Y I 8 7 T T  ...D H J D T 4.;X3XL.,Xc.d.d.y.& s.l.G.K.6X;Xv.& { h.H.=.h.:.:.' 5.>Xz.u.x.4.5.{ %.>.>.< h j x ^ >.M , n %.%.x 0 W I i.s 9 t e q t t p i J I p e e 9 D ( H 8 i J R 4.5.u.6.+.+.3.3.P 7.3.+.3.u.<.I 8 # . 9 7 I ]  .K K ' 3.' 4.5.5.7.<.<.<.<.2.2.} ` / t t 9 % 9 ) / D _ 1./ F / 6 F L ' P L ` /  .r - , ; d ; d d b w 4 ; + 0 v ^ b ~ [ ] U R  .W Y ..s 0 y p i I i D 8 p 7 1 & e 9 e e D g D J K J J J J K D F t > ^ Q.,.!.C C V k z l l V z Z A D.,.M Y :XeX2X(.k.n.>X2X>XBX(.>X{ o.s g.+ ^ -.*.f.:.:.-.&.#.$.^ g $.{ &.^ Y Y I u 0 3 % 7 & , - 7 - 7 3 0 # %   ",
"  @ t m.Q i 7 @.;Xv.tXk.1.@ @ * n.b.y.4.b.#XOXk.j.m.p f.j.l.J.J.P.P.P.c.G.t.q s.d.j.s.5.5.[ t.5.$.) ].s.3.5.9.+.w.+Xw.8.z.#XM < x j x < , M b , , - - , O w w b s . 7 y.d.d.i.i.@.) 8 . v O , v.a.r.[ @.n.n.d.u.u.c.K.#Xt.) ) ] ' ' Q ! i R i p 1 7 i ( D ( u.b.b.K.>X#Xu.K U ) } u.m.k.m.d.u.[ K i K 8 9 # X 8 E ( ( ( _ _ <.<._ ' ' 2.' ` _ R E Y , ; 4 4 f ; O - ; , d w b n I v v U I Y Y ] s y H 8 v g J J T R J R H H # i E ( K D J ) 4.4.3.} ) }  .| E 9 , `.^.{.{.C.V V S Z S S B x m >.h.[ ) | p.) [ | @.| | } K ) } | t.*.8 b n b g b W $.! Q ~ Q Y I g $.#.@.[ { | | R ] H # p b I s b Y b H i X X   ",
"  $ / / t J D T 6._ p._ 1.@ @ K 4.k.5.s.s.j.u.9.#.` 5.l.l.f.9.9.9.f.l.D.f.+.: f.l.8.6.6.8.j.6.s.9.9.5.5.` e.e.6.e.6.w.5.9.$.. w ^ > j < < j > S.{.Q.>.>.n . . . , * v J.@.s.5.5.u.5.5.@.8 & 8 p.] Q I Q } | | } } } ) } 4.@.5.5.4.u.7.u.u.] ] ( O D 7.7.6.<.4.<.} ` ' _ ' / ` 3.5.k.OXb.k.k.u.' 4.5.) ) T % o g _ <.<.<.} _ _ ` _ P _ ( 2.) p u w d 4 x C.C.C.C.S c f 4 0 ; . # a , H s Y s E I E p.K t T Q T ) ) ) } } _ 4.9 R <.1.4._ ( ) _ } ( / T J g.3 e @ . # a >.{.Q.c V A c A c + + 7 y.Q } ' 5.' } 4.4.| p.u.k.b.5.4.| } ] X J [ r.*.[ #.-.#.#.@.4.| [ $.Q U Q ! [ ! [ ] R I o I s s Y ..W W E s # X   ",
"  $ i 5.3.' ' 3.m.e u.m.( % @ _ 4.} ` 5.5.6.5.u.+.t.J.d.l.t.9.5.9.9.9.9.5.$.5 s.5.5.s.6.7.6.7.3.9.` ' ' ' 6.j.7.m.<.D d.= < :.f.$.< < < h k Z.Q.C.Q.A ,.^.,.M Y i , . v 3.7.' ` +.} v.k.E & 1 OXi.4.4.) } } +.} } } } 3.} @.5.3.4.3.4.3.<.} _ _ & I _ m.7.e.7.0.7.3.6.j.0.0.3.` _ L _ 7.2.` g 6 4.4.4.<./ 5 % @.( _ <.1.} ( T I  .<./ ( ` E s *.n f d C.C.T.C.T.C.V Z O.c < ,.M 0 a n =.{ E 0 3 T J i / K K ( ( ) } } } T ' i J 6.m.6.0.4.K r Y w A Z S.,.Z l A ,.Z x d X.>.c c c k ; 9 + o : d.s.t.4.5.@.4._ 4.1.} 1.i.r.) @.4.} Q 5 T 3.k.5.} R ) | @.} @.@.} ! ' Q ) Q T T Y R E s # Y Y i E H Y E i s % o   ",
"  $ . ) / ' 3.4.j.6.OXm.p # $ 1.7._ 3.+.+.7.5.5.4.+.y p g @.5.$.+.9.+.9.e.$.9 9.3.3.6.+.s.7.8.7.8.x.x.` +.6.j.5.) k.( . % f.:.%.M < j M < V Z.Q.Q.Y.Q.z C V m B ^ &.*.. 4.4.1.[ +.} k.;XUX# 8 m.7.3.4.1.} } ' } } } 4.4.@.[ } @.4.5.7.4.<.4.2.M.1 1.m.0.m.2._ 3.j.8.3.7.7.2.` 2.2._ 7._ 2.` q 6 K @.k.k.k.9 * [ y 9 9 p r 0 0 : 4 r r H s W O.N N Q.Q.T.U.W.W.C.U.U.C.C.V S Q.Z f S V.;.o.u * p ( 1.1.( K E L K K J D J J _ _ 1 0.1.1.1.t S.S.S.Z.A.T.T.Z.E.Z.R.U.T.T.Y.C Z k < %.;.^ [ H ( ( <.+.| } 3.r.<.| } ) } } ) R ) [ ) T ) q } 1.OX0.<.2./ ( (  .o. .T T T ( T K K / J i H r % | ] Y I s I s r r 3 @   ",
"  $ $ 7.` _ 3.` } _ _ 1.3 # e <.L ' ` ` ` +.5.3.5.q $ $ 8 @.@.' ' +.` ' ` ' : j.9.7.3.9.s.` 3.s.6.3.3.3.+.3.3.q.5.m.z.) , /.~ :.M j M B j j B Z.}.!.!.Y.k x k x < [.lXn , ~ b I I U @.4.( 1 T u.<.} } <.} ` ` +.` +.+.5.u.@.[ ] } } 4.7.<._ ( <.* _ 7.2.7.0.<.' ` 2./ L _ e.3.3.<.2.2./ ' ' q q 4.r._ 1.Q , < %.A V c z V k k c S V N A x M O.d A Q.~.T.C.W.W.W.T.T.U.T.T.T.z U.C V S N , . . y R  .( H I T ( / / / / / _ I T 1 1.K e o S.}.~.E.Z.l l C Z.Z.A.A.A.l A.z U.Y.Z x a n.u.| 1.M.p.p.1.<.4.} <.} } } ) ] } ] } } } ) ) } t J D <.m.#X#Xk.g p ..{ ] E E D I D D / T F D H % & o.R E I H s Y s H 3 o   ",
"  @ $ 4.' K ' ` T / / _ 2 % t u._ ' ' ' ! ` [ $.[ Q t 8 p 7 U #.+.+.+.$.` U : F.j.x.8.3.3.+.3.7.` +.7.6.q.3.+.8.7.' m.k.5.J.*.f.m < j M < j < M ,.Z < < < x < , x h.%.m B., o . . . o . o 3 } p.4.4.} <.} } } } ) ' ` 5.| ~ | 4.+.} ) } <._ / 2.$ _ <.<.6.7.3.7.2.' ' 2.2.2.2.7.<._ 2.<./ +.+.5 ! K E r O o m V V T.W.R.R.R.A.A.U.U.C Y.C.C.S C.V.!.~.W.C.C.U.U.U.U.W.U.W.W.W.W.U.A.C C S < 4 . # 3 e r D ( ( _ ( / ( J E E E D 7 . = ^ Z.Z.~.Z.V k A Z.l z l C z A.C z A.z C S + =.1.<.1.4.p.M.i.1.<.<.4.[ ) } ) ] ) [ | } | } ) | 1 D L 2.<.j.u.} ) E I E ( ( E R T D D D ( ( i R O % R U i E H Y E H s 3 o   ",
"  $ $ K / K ' ' ' _ (  .# # D k.} _ / ` ' ! ! ` Q } Q [ g o . : t 9.5.` ` K q F.8.j.s.3.5.6.3.` 3.6.6.7.7.` 7.` <.3.` 7.3.#.-.:.M j M j h > < M %.n < N x x X.: v 0 - w u a n b W ^ s W E 8 ( 7.1.u.u.p.} } } ` T ) 5.[ Q Q U U T J ) [ <._ 1.n.3 OX4.m.7.2._ 7.2.L L _ 2._ } 7.7.6.6.` ) 6.5.! . o 7 7 > >.Z.l z Z.U.U.z z U.C z z A.Y.T.T.O.C.T.C.T.~.W.T.U.A.A.A.C.U.T.U.~.W.W.U.U.R.C Y.Q.Z c c a % 9 D e D I J D t p i D 8 g %.%.c B c A A j B l B V k Z.z C Z.l A.z l V S < h.{ 7.1.4.1.1.1.1._ } _ | _ } } } _ _ ) } } } } } F t / _ _ <.4.| ] ] I  .( D E H I I T R R I I I # 8 R I H H i s H r p 9 o   ",
"  $ % ] ) ! ' ` } 3.1.| @ X p m.J ) ) ' J g s.5.' @.t.d.f.Q = . q c.+.' ' t g s.5.6.9.5.4.6.` } u.u.6.3.3.e.7.+.e.9.e.+.g $.M ^ B < k k j k < > w w < w < 0 ^ , o O O . b m { %.:.:.%.-.p.1 i u.} 4.u.4.+.} ' T K ! K T T Q Q ) U t J ) k.|  .>X5 b.u.6.3.2.2._ / L _ 2.<./ K +.6.3.} _ +.' 1.1.3 # p u q B B l V l V V z V C C Y.A V A V S S f S z C.T.Y.C C z C.z z z U.C U.U.T.A.R.T.U.U.Y.U.Y.T.N c k k N < 0 w 8 v s & 8 #.#.%.B x j < o . . > > > c j l l B C Z.V l S C Q.w =.#.} <.3.} <._ _ _ } _ _ _ } 1.1.) _ _ _ } } ) _ p g ) L / _ 2... .i i T T J I J J I T ! R q r * O 0 R E p i I T E E E 9 o   ",
"  @ $ J ) ' L 7.4./ [ t.X X 9  .R ) Q ) ' $ n.1.@.i.5.} J q 8 g ) ` ' / ' * t 8.' ` 5.3.3.3.` +.3.3.+.6.3.3.3.3.` ' +.! K $.9.#.$.j B B M M k m < + + , ~ 0 m x s *.>.>.:.x < k f m %.b R 9 I 1.) } | ) } } } / Q J K T ) ] } ) t J J I J ( ] r.* } } ' <.2.2._ / _ ` ` 3.2./ ) ' ' ) ` _ ` 2.2.( 1 . * m B M M M h a 9 m x < f c M c Z Z Q.Q.!.Q.C C.C.C.Y.C C.C C.l C T.!.Y.T.Z C C.V C C.T.C C.V S S S V Z N k ; w W u y g g h $.f.:.,.,.m %.S.D.S.Q.D.m = < o > M S < k ,.N ; W r.` _ 1.<.} <._ _ _  .} | _ ] 1. ._  .)  .( ( ) F e m.3.( / ( p & t r.[ p I D T I J R J 9 5 o o o 0 H ..s i p E W i p 9 o   ",
"  $ $ T ` ' L +.) / ' ' X @ 7 ( T ) T | } i  .7 ( R 8 . . } 5.' ' 3.` ! K $ J +.+.+.` ` <.` 3.3.` <.3.3.3.7.3.3.e.' +.L ! +.*.D.$.< D.B ! -.:.>.^ %.$.-.m h D.^.X.-.:.^ %.m w w b M m m Y e e p.4.} | ) ) ) T ' T T } } _ / K / ) J D t I ( _  .e Q ` } <.2.2.<.2.' 2.L ' <.5.3.t L / ` _ 3.e.1...3 -.{.{.S.S.S.Q.S.{.|.Q.,.,.,.A V.!.~.Y.T.T.R.U.C.C.T.T.U.Z.C C.C z Y.C.C S S C S S S z V V Z Z S c f j k f < < x w s ( 7.[ :.D.^.`.D.].D.D.{.D.{.{.{.{.Q.>., + = < %.N ,.c x 0 p.<._ } 1.2._ } <._ _ } } } _ } ] _ )  .( _ _ ( <.J 6 u.} _ 1.4.1 $ 9 4.] i R R R R R ) U 8 i 3 o o E ..X...u Y Y 7 0 s 9 o   ",
"  % & J K t p ` K J K p X @ @ T (  .( T | m.7.& . . . e [ u.[ K ' ` L ' ) : ` 3.` ` ` ` 3.' ' ' ` / T ' ' ` ' } +.! ` L +.9.@.d.m : ! $.$.$.$.' $.9.:.f.t.t ! H.M > h w h M n u w m m n Y y & 1.) T Q ' U R I J K ! J i t i i J T T T J t I J i p ) ) ) ` ` } ` _ ` / L L _ ` _ t i L 2.` _ e.m.T w [.S.B l Z.Z.Z.Z.Z.Z.C Y.Q.!.Q.Y.Y.Z.C.C.C.U.U.U.U.C U.C l C z S C.C.U.C.C.C.V c M c f S N f + ; + ; w d ; % ~ i.u.4.p.3.T $.f.:.:.:.f.:.f.:.:.#.%.%.:.%.%.< + + = -.{ ^ ^ ^ r ..<.2._ <._ _ <.<.<.} ( } _ _ _ _ / ) ) _ _ _ _ ( _ $ } / T T D e . . @ % p T J J J J 8 E | I * o O  .n I s i Y I 9 0 3 1 &   ",
"  $ @ t 7 q T ) ' ! Q i X # % % i  .<.9 E ) H X * X . t ) R ) Q g L K ! T * ' 3.L L ` ' +.` ` ` ' ' ` +.3.<.3.3.7.' +.) ` @.5.[ K , ` $.! Q @.} $.$.+.+.) Q K U U & O X 9 - b b + x ^ b ~ T 7 D D I I U R (  . .] R E T T J U R I U J R I H R I e i J T T ( ) T / ' / / T K L / K t _ } ` _ _ u.e p g > M A A %.%.A B k V A V A Z c k l k k l Z.C z R.C T.T.z Z.z Y.T.C z C z Q.j j x < < 4 O # . . ; 4 n O.w t L L 2.' 2._ 2.K / ) U [ ! Q t p h K [ [ I @.p.{ ] | y . Y v h Y y R H H K _ _ ( } <.} _ _ _ <.( / ) ) _ _ _ ( _ / T 4.5 ( ( T J D D e o o D ..R e 3 3 p E R R p * o O # % . . . . . . # & % 1   ",
"  $ # e r e p e y g p 9 # % X 7 9 y i <.p 8 t i p p 8 X o y i t t J ! t p 5 K T J g g g K T / K ' K ) ` ' ' / ) ` ' ' ` p T U p q = J Q U ! $.+.$.! ! [ [ Q } u.k.k.T % . * O o.W h h m ^ R D R ) R g u J E ( ] _ ( U E g J p J i T ) Q i D J r p i 8 e p t e t J I T T K T T K T T t J U K p 5 I r.:.^ D.D.>.:.$.%.M p W m m A A c c B k x k B V S k l V Z l V Z V z Z.C.V S A S x < O . O # O u ; O - . 9 ( <.e.L L L / L _ t m.m.<./ _ } 4.1.' $.| 4.r.7.u.t.d.v.c.@.8 & W u , R _ _ _ / ) K I / / <.T } T K / I / ( T T ( T ) I D 1 D / / p.p.p.E @ o p.E o 8 R ....i r s p - o o o . e i i D I D ( r 3 _   ",
"  $ * e p t 7 y r i J p # % @ e R D i u.U ) 4.T T ) ) | R y y y p p.| } | & 8 T ! K T K / ' ) ' 3.` / ' ` } } ` ) ` s.u.| } | 4.I . [ f.c.l.h.G.G.h.l.f.f.[ #.k.5.J.&XK.) 7 , q v x h b ~ R q 1.4.( K D H ( ] 1.] / I I I 7 9 i T }  .[ ) p I i D I D I g t 5 t p e y p i y g Q R p * i Y @.&.-.=.X.%.:.$.^ m ~ ^ :.&.%.^ &.^ X.^ %.B %.%.,.%.c M x j < M k < k c k k k k < c k < < , 4 n s s ; W ..O...0 p 4.' 2.P L L ' / 2.5 1.1.1.} } _ _ } 5.} T K } } ) ' ) } 3.u.1.| { 0 0 R ]  ._ 4._ <.<./ / _ ( 1._ <.<.T / _ T K ) } _ i T . / 4.1.i.p.<.* . . 1 # ..o.H s a r r 1 # # X X . 8 } } } <.<._ _ 7 2 }   ",
"  $ * *  .i 7 1.p.) T I 1 3 & e ] J J K K T T J / T / J T } } +.<.6.} } @.. t ` ' ! ' ' ) ` ' _ ` ' ' ' ) ` } _ ) +.Q | ] 5.@.| v o [ #.@.@.#.#.*.#.#.$.#.#.! ` ' [ ` 5.g.:X! + . w w b ^ 9 p 1._ ( ) T T E R T I I I I ( J T R ) [ R T 1._ } i R I i E Y i ! Y ~ @.*.r.r.R i r 7 i | r.-.*.&.:.-.:.>.%.%.:.g m -.&.{ ^ ^ ^ W ~ ~ ^ ^ ! ^ %.&.m W m x < x j x < , < > < + < a ; ; - < %.W s W p o - D E ` ' L L / L _ L L L _ 2 4.4.<._ } } _ / ) _ ' K K I / ) [ ) | } } d.p.9 9 *.T ) T ( / _ _ L / / <._ _ _ ( _ ( _ <.' ) ) _ / 1.X T t i & . . - 9 # . y g.o.H H W W ..W H X # X . D | _ ( ( ) / K 5 %     ",
"  2 3 * y y 1 1.} e t i * 5 t 3 } I t K t J F K L D / K K Q K L K F / F r X e K g J K K I T I K p t K K K ! L K ) ) . g U Q R U I . U [ [ $.! K ! K ! ! ! ! Q ! ! [ ! ' +.#.v w - O s o..., (  .T / D J D E T E I I T I ( .._ ( ( ( K J ) | ) D J } 8 ) ] | { { *.*.@.{ | { % . .  .i.{ ~ b , p -.#.R Y { b s ^ [ ^ ] ^ ~ W Y Y Y ~ ^ ^ Q ~ ~ | ^ &.#.^ m , w w + , , w , ; 0 s u . , o.@.Q / / L t K _ 2.0.2.P P P / 2.L L _ 6 6.7.} } <._ _ ( ( T K / T T T T ) ) ) } _ <.( % * { g ) _ / ( ) / _ / / / / / / / / ( _ / L K _ _ D <.@ _ @ y I W X...O.o...d M.W d H W Y s W s # # # . T _ ( ( _ ( _ H 1 #     ",
"  e @ % X 9 5 & e ( K p 1 2 7 & ( t e J t t K J J L / / T K K J K J L D H # e T F e i J R K D D J K K K K L L J R i Q J J R v I i o t Q g g K ! ! ! ! b ! ! ! ! b ' g ! ~ ~ 0 n 0 O u g.y p ) T / / E T ( ( ( ( I E D E ( ..( ( R E R T R ) | E I 1.J 9 I { | } ] ~ ..R I Y R w p I ~ E s i J Q E ] { { I I | ] ~ ] W I I Y R W ~ W ~ ~ Y R W ~ ~ ~ ~  .[ R w X . * , q + % b Y o.Y . 9 ( T ` ` / P K L 2.2.2.L P L P _ _ P <.6 7.4.) ) ( _ T / _ / / J J J T I T T T T _ T ( r X y J T K / / / / ( _ / / K / / / / ( / / / / )  .T 7 o 2.e T H H H H W H ..H O.W H ..s H H r O o - - o I ) / / _ _ H D * $     ",
"  e $ X * i i 5 J ) / D 1 * 1 7 _ J D / / p t / / ( / K J K K J K K L K / $ t ' K E D D J D T T / / T K L L g [ | R +.T ! ! U U U o U $.g K b K g ! ! ! $.! ! ! ! ! g ! n d m X.w O o I % J E J D J J J H / ( ( T E y E ] ..( R ( D E _ ( ) ) R i ) _ p Y ] ~ ~ Q Y Y Q R ] ..] *.] R U i I R R R ~ ..R r , R E E W R E E ~ { *.o.] ] { ~ ] ~ Q R R W ..) ..( E r o X X . X r I v Y O . * _ T / K L L P P 2.2.F L / 2.2.2._ 1.# / T i J ( ( T / _ ( ( ( ( ) _ ( I K I T T K ] E o U T K / / ( <._ / _ _ ( / / / _ / / _ / ' / _ ..t r 1 _ F i H H d H H W n ..W E W W H ..4 o r r r r o w ) ( ( ( / ( H & @     ",
"  $ X X 9 I I y e D K t & . 2 7 r i p J L J 6 J K J J / L T K L L / L / ( * e / / L L / / D } ( T K K K L K g ! g 9 ' K g p J Q p = ~ ' $.g ! ! [ [ ! ! ! ! $.$.g g M h < N n M a O O O - i T T D t D D D H i y 9 5 & 3 - , - - 7 7 9 8 8 8 t p 8 8 e 9 9 0 9 w 8 0 y p p i u p i s y p 9 r y r r y r 8 3 * 3 9 9 9 9 8 y r w r r r s y w p p y i i D ( ( R R ( i * % % # 3 - r # . # # R ] D D J J F K L _ / K K K L L / ( H 2 D i D D T T ( E D D T R ) ) ( / T J J T T ( <...O ] Q T / K _ <.( / / _ _ / / _ / / L / / K / J D 1 e 2 t / H s s H d H n W H H s d s d 3 # D H r s 0 O 8 ] T ( / / ( D 1 %     ",
"  $ @ $ 1 E D t / D t e & 7 r $ T J T K K 6 t t D F J L / / / ( ( L L K ( $ 1 _ / / L / ( | ] D R D J J K K g K % 7 Q Q p r u 0 8 0 ~ $.$.t g L ! J K ! ! ! ) [ R ] W < M N x a n - O * - 9 s H I r 4 # r r - 3 p i p D i I E H s s p E J i t r p D i r p t r p q 8 8 & % * 9 7 & & X * . : . $ X @ o @ o # . . . . . . . . . . o . . . . . . o . . . . o . . . . . o . o . o . . * o . # 9 3 3 1 & # * # @ o 3 # # # & 3 & % 3 . o * & 3 3 1 1 3 3 1 3 3 3 e 7 e 1 9 e r e e & X = y E E / D ( / / / / _ L J L K L K L / J T J 7 1 i o F H H H ..H ( E D H H H H W H r 4 H F o * 3 e 3 e r ( D H H P 6 r & _   ",
"    @ $ 1 R r 3 T J e * R J X @ i ( T ( / t _ T D e J K K K L / K J / J J @ $ T K J K K K / I r 8 I T ) ` [ } t.9 & i w o o - 0 y - q i ! h g g g U g ! K g J R Y g n . x k d a - O . . . o # # # # H p.n.M.H W >X>X:XtX#X>X>XOX#XOXb.OXK.c.k.i.k.b.n.OXn.n.OXOXb.v.#X#XJ.c.n.n.n.n.;XOX#Xb.b.k.k.OXOXUXOXk.m.qX#Xm.x.&XqX>X>Xb.OXm.n.OXn.n.k.m.k.n.n.b.OXn.8 @ # T m.H # UXp...H R .. . ...R W E R R H D I T D H p p - 3 1 1 7 D H H p r D p D D D H H H D D p p p p i r r & . . . . r ( / D F D D D / _ T E / T J I E J 9 p e 3 . O 1 H P G F ( _ / F L F H F F D e F F H L H ( ..2.1._ D e D D H F r r # /   ",
"    @ = 7 p e D J t D t e 9 e 2 * / D ( D e / D D t K D F K L K F F F D D 5 o H J F J F D J D ( e D 5._ ( _  .u # 4 0 9 - u W W b s . . , q q : w I R Y Y Y I 9 @ + ; f < k x < O # n.tXn.. o # # 0 n.n...H r 0 p.n.UXn.b.OXm.k.k.m.n.OX#X>X&X#Xb.k.u.m.m.OXOXUXOX>Xb.b.#X;Xn.n.n.n.#X2X6Xp.4.0.OXOX>XSXSXm./ rX=Xm.q.OX&X>X>X1XUXSX=XOXOXqX>XqXqX2XqXtX>XrX1 . . >X>X% @ eXn.n.n.n.g.n.n.g.i.r.a.k.i.a.a.v.v.g.n.n.n.| y p.1 k.n.k.m.n.k.n.n.n.k.p.OXn.m.i.k.n.i.k.n.k.n.i.M.H # 8  .m.<.D T E / D <.e p T T D I i p 7 9 7 i H i D 3 . 2 2./ 2.2.2./ L P L L P H 2.D 2.2./ 2._ _ / / ( H H 6 H H ( H H E @ 1.  ",
"    o % 1 e i J t e p D e F D e e 9 e 1 % $ . . 8 _ J t p F F K K K L J K 9 . D F t D D K K p T F * e 8 H r . . + ..] ^ u n W W d W ^ b X . . o . O 5 , : 8 . + k N ; A T.C.N ; - 3 tXrX>XB.9 o X % p.H s H r r p ]  .H ( ( / K E E T  ._  .1.| 1./ H F H ( ( .... .i . I ) R i ( R ] 1.T ( D K F L H H k.E # F e F e 2 . . F / P P OX_ _ ( _ 1.7.p.p.m.m.m.D # p.#Xn.D . eXB.i.g.=.a.a.r.o.p.o.] s { p.h.B.a.v.a.a.g...r >Xe tXn.m.i.m.a.p.y.p.r.m.o.i.p.p.o.g.4.} p.*. .| M.( 1 1.R 1. ./ / ( 4.M._ D R 4.R I R I _ / J / T ( H ..1.H o M._ F P D D D F F F F D / F / H / ( 2./ D D F D F r H D H H H 0 @ &X  ",
"      $ $ X e F i F p t t r D e p D 3 # o @ o . 2 t e F F F D F F F F K D 9 o 9 F K K F J p t t t D 9 O o . . * 0 s 3 d s n ^ s w ^ X.{ Y 7 - O o . O - ; %.B S z z S < S S f < O O O E ..i.a.O O o ( D r F r r r H H ..H ..H ..H H r r d r r r H D 1.}  . . .1.....H 9 # H <./ D / _ _ ( / E E F H H e * $ 1 2.( F F F F F F G 6 2 G F e 6 6 6 3 G r F F e D e ....1.r 4 o.s H H s W s W ..W R 0 y s s H s H W E s r s 4 ( i ]  ...E ..R ( ..R .. .E E .... .M.M.| { { ( H ..M...H E ..E H F ( _ H / E D D / ( H D ( H D F D r e i ( 9 . r 3 r D D e r F r r F F H F H F D ( H H H H F r r s r D H i r r m.&X  ",
"        1 2 % * 7 y D t e F F e e F F r # @ @ e H D D D F D D K J D t F D & o * D J D D D F t K e D u s - # u v ..X.H s - , a d d W ^ o.^ W W s # # r # , m S S k S C S S f f < . # X - a.o.o.O # . H 3 # 1 r r r H H H H ..o.....{  ... .H s * 4 H .. .| 1.M.p.M.1.1.( # / p._ 2.1.1.1.1.m.p.M...H H r o @ % p.1.0.2.2.OX2.OXOX1.<._ ( ( ( _ _ 1.1.1.1.2.( ( F ( M.H 3 r H ..M.o.H o...H ....o.o.W W r s H d ..Y H s o 8 R - . 0 y E } | o.....E E y 8 H H H D r s y y r s s r r O o 3 H R ( ( D r e t 8 e e D D D D D D 2 r r D r . . & H s D F r r r r r r r r r r r r s H r F r 4 r H d r s r r 9 D         ",
"            6 1 % 2 3 3 7 8 r r 8 8 e 7 o # @ p r e e t F p t e e 9 e 1 * o X % e F r p e e F D D T s u 9 - p 9 y r s r 1 . . @ # - - u 0 9 9 9 - 3 D # * + . , < + M N f ; O . b 9 O O Y W . o . ( qXm.e o - 9 s s s H r H H d s r s s r 3 O # O o # # 3 e r D H D i r o - r * 6 3 1 e 9 4 9 3 * # @ . . . . . r D I T / / F H ( ..E i H D D D H H H ( D D r * e 3 3 3 & 3 3 # # # * - 3 ; I W W R H r s p H H s s s % 4 i o # o 9 H H I ..W H r r r p 9 # 8 r s r 9 y s H s H r O . 3 p J I I I D D D i p D D H E D p 3 e D 4 8 % . o . # * * 3 3 3 4 0 0 4 r 4 3 4 4 r d 4 s 4 r 4 s 4 d 9 3 3 e             ",
"                  $ $ 1 1 # o @ 1 5 7 5 1 1 & $ @ o @ o . . . . . . X X 9 5 * 1 o # # @ @ % @ % 1 . X o . X . . o e F r J e 1 $ @ . . . . . . . o o . & w 9 % X % & * @ # 4 4 D u.[ y 9 2 @ 3 7 1.>X        o % 3 3 - - - r 4 4 3 3 # $ # 3 3 3 e 7 3 & * 2 % * @ o @ 2 e 7 1 1 # 2 # 2 # # 1 3 e r H ( _ <.m._ 2 . . . . . . @ . . . . o @ # # 2 # # @ . . . 2 3 H H H H D # * # - # O # # # . . . . o o . . o . . . % # . @ X # @ . . . . . @ * 1 1 $ . . # $ % . . . . . . . 1 s K D e o . o . . o @ . . # % @ # @ . # 1 # 2 # 7 D / T t e r e # o @ o o O O O # O 4 # - - 3 4 4 4 - - 3 i /                 ",
"                        K 2.1.e._                                                                                                                                                                                                                                                                                                                                                                                                                     <.OX0.                                                                                      2.1.1.p.4.4.0.M.m.p.m.m.m.m.m.M.p.M.                          ",
"                                                                                                                                                                                                                                                                                                                                                                                                                                                        &X                                                                                                                                                      "
};
