/* XPM */
static char *out[] = {
/* columns rows colors chars-per-pixel */
"296 150 256 2 ",
"   c None",
".  c #010101",
"X  c #090808",
"o  c #140908",
"O  c #171509",
"+  c #080C12",
"@  c #091617",
"#  c #141314",
"$  c #1C1B1B",
"%  c #171817",
"&  c #0F100F",
"*  c #231B19",
"=  c #25170A",
"-  c #1B231B",
";  c #17250D",
":  c #28251B",
">  c #302F10",
",  c #1A1C22",
"<  c #081C23",
"1  c #241D23",
"2  c #1A2626",
"3  c #112D2F",
"4  c #242323",
"5  c #2C2C2B",
"6  c #282827",
"7  c #342C29",
"8  c #2A322B",
"9  c #37352A",
"0  c #292C33",
"q  c #2B3637",
"w  c #333433",
"e  c #3B3C3B",
"r  c #373837",
"t  c #342D34",
"y  c #433C38",
"u  c #443A2B",
"i  c #473919",
"p  c #3A433B",
"a  c #37442C",
"s  c #3B4515",
"d  c #4D5015",
"f  c #5A6411",
"g  c #6C7217",
"h  c #474729",
"j  c #44433C",
"k  c #494739",
"l  c #575738",
"z  c #525230",
"x  c #655436",
"c  c #596630",
"v  c #757927",
"b  c #6B7031",
"n  c #645919",
"m  c #383D43",
"M  c #2C3B44",
"N  c #103B45",
"B  c #443E43",
"V  c #0C4E55",
"C  c #3C4344",
"Z  c #3B4749",
"A  c #3B5657",
"S  c #344C4F",
"D  c #0F646B",
"F  c #306E70",
"G  c #215B62",
"H  c #434443",
"J  c #444B44",
"K  c #4C4B44",
"L  c #444B4C",
"P  c #4B4C4B",
"I  c #474548",
"U  c #534C47",
"Y  c #4C534C",
"T  c #485449",
"R  c #53534C",
"E  c #585749",
"W  c #444C52",
"Q  c #4A4D53",
"!  c #4C5354",
"~  c #4C5B5B",
"^  c #485657",
"/  c #535553",
"(  c #545B54",
")  c #5B5B54",
"_  c #535B5B",
"`  c #5B5D5B",
"'  c #565557",
"]  c #534E54",
"[  c #645949",
"{  c #625D55",
"}  c #6C5646",
"|  c #4B625C",
" . c #5C635C",
".. c #576459",
"X. c #58664B",
"o. c #66664A",
"O. c #646354",
"+. c #63645C",
"@. c #69695A",
"#. c #726C5A",
"$. c #767559",
"%. c #6E744F",
"&. c #495C63",
"*. c #575D63",
"=. c #464A62",
"-. c #4A6767",
";. c #536463",
":. c #5B6463",
">. c #5C6B64",
",. c #5C6C6B",
"<. c #556969",
"1. c #59736B",
"2. c #566C72",
"3. c #4B7575",
"4. c #547374",
"5. c #5B7474",
"6. c #557B7C",
"7. c #5C7C7B",
"8. c #587878",
"9. c #4B6F70",
"0. c #636563",
"q. c #646B64",
"w. c #6B6C63",
"e. c #646C6B",
"r. c #696A69",
"t. c #726D64",
"y. c #6C736B",
"u. c #677569",
"i. c #73746B",
"p. c #777868",
"a. c #6B7B74",
"s. c #637C7B",
"d. c #6B7D7B",
"f. c #667674",
"g. c #747C73",
"h. c #7B7C74",
"j. c #767978",
"k. c #686D72",
"l. c #625E63",
"z. c #847B69",
"x. c #847D74",
"c. c #847454",
"v. c #817A37",
"b. c #7B8429",
"n. c #798737",
"m. c #798516",
"M. c #78864E",
"N. c #5B827C",
"B. c #4B827F",
"V. c #79836B",
"C. c #6C837C",
"Z. c #67847B",
"A. c #7C8374",
"S. c #73837C",
"D. c #7C847B",
"F. c #7C8A7D",
"G. c #748779",
"H. c #728F78",
"J. c #3C817E",
"K. c #84892A",
"L. c #858937",
"P. c #8D9633",
"I. c #98A535",
"U. c #9BA52F",
"Y. c #8C924E",
"T. c #98A74D",
"R. c #A9B351",
"E. c #87856A",
"W. c #838B7C",
"Q. c #868778",
"!. c #89937A",
"~. c #96967A",
"^. c #91916E",
"/. c #ABB26D",
"(. c #99A472",
"). c #B8C556",
"_. c #B9C66A",
"`. c #C8D370",
"'. c #C9D563",
"]. c #567D82",
"[. c #6A7D82",
"{. c #367C81",
"}. c #5B8484",
"|. c #529091",
" X c #648483",
".X c #6C8482",
"XX c #688A88",
"oX c #748B84",
"OX c #7B8C83",
"+X c #778886",
"@X c #6A948A",
"#X c #7C938B",
"$X c #799689",
"%X c #6B9594",
"&X c #789994",
"*X c #6F8D92",
"=X c #7BA398",
"-X c #78A18D",
";X c #78A9A7",
":X c #6C9EA2",
">X c #3A8386",
",X c #848D83",
"<X c #878B86",
"1X c #849384",
"2X c #8B9484",
"3X c #84948B",
"4X c #8B948B",
"5X c #849A8C",
"6X c #8C9B8C",
"7X c #899A85",
"8X c #939B8C",
"9X c #9B9D8B",
"0X c #959686",
"qX c #849C93",
"wX c #8C9C93",
"eX c #889895",
"rX c #939C93",
"tX c #979C96",
"yX c #8E8D89",
"uX c #A39D8C",
"iX c #9AA28C",
"pX c #8CA394",
"aX c #88A69A",
"sX c #94A394",
"dX c #9CA393",
"fX c #93A49B",
"gX c #9CA49B",
"hX c #9BAB9C",
"jX c #95AA9B",
"kX c #8CA892",
"lX c #A4A58C",
"zX c #A3A593",
"xX c #A4AB9B",
"cX c #A7A999",
"vX c #AEB29A",
"bX c #89AAA3",
"nX c #97ABA3",
"mX c #98B3A7",
"MX c #8EB5AD",
"NX c #A6ACA4",
"BX c #A8B4A7",
"VX c #B4B8A8",
"CX c #B6BCB4",
"ZX c #A9B7B2",
"AX c #939BA2",
"SX c #B9C4B8",
"DX c #B0C4B4",
"FX c #A9C4A1",
"GX c #C5C7B8",
"HX c #CDD887",
"JX c #B8CCC6",
"KX c #9ACECC",
"LX c #CCD4CB",
"PX c #DDE4DF",
"IX c #BFBDB1",
"UX c #837F83",
/* pixels */
"                                                                                                                                                                                                                                                                                                                                                                      D MXMXFXB.F G V F F V                                                                                                                                                                                                                     ",
"                        F G G G V S S S A ^ ^ S A S ^ ^ ^ ^ ^ W Z 3 _ m  . .V.u.u.X.u.@.A.W.u.V. .p.i.A.W.W.1.F F       V G G A l.t.Z t.H.V.V.7X .| <.f.f.[.2.d.9.                                              D D D D D D D D D D D D D D D D F F D D D F F F F F F =.{.F F F F G D F F D D D D D D D ].].{.D V D V V G G F =.G =.G =.G G V =.=.9.2.N M J A.!.(.E.M./._.HX_._._._./.HX_.R.T._./.kXH.FXH.n.n.X.F                                             |.>XD V V D D D D G V D V V V V V V V V V V V V V V V N V N V V V V N V F F F V D D D V D D D V D D V V V V V V V V V F D D F                     ",
"              V 3 q $ xXuX= h i Q.tXeXeXnXNXZXBXNXcXgXNXcXNXNX2XtXi.7 <XvXlX!.^.^.!.^.^.vXlX(.lX(.uX(.lXuXlXcX2X. . 9 E.c.vXHXHXHX_._.`.`.HX_.HXHXvXk y.zXzXuX9XuX2XW.1X3XsXj.M 1 < =.t X e.j.a.y.j.k.j.i.j.[.j..XD.j.g.h.i.d.d.h.W.h.Q.+X<XUX[.] 1 1 j.0XgXdXcXNXcXcXuXyX2X<X+XW.Q.A.2X<Xh.i.j.x.<X+Xj.5 0 % 1 [.*XAXMXMXZXAXnXnXAXAXAXAXNXNXAX[.t + !./._.HX`._.`.HXHX).'.)._.`.`.`.`.`.HX`.`.HXHX'.HXHX`.).).).`./.B.G.  D D V Z p p 8 8 q 8 j R w.j.y 6 5 6 * O.Q.V.Q.yX<Xx.E.^.Q.0Xj.2XyXW.!.0X<XtX^.~.7X0X4XW.lXlXlXuXgXcXvXIXvX{ U j t.x.z.Q.G.Q.p.$.Q.h.A.0XQ.h.x.<X3XtXx.r.y R { 0.B N                 ",
"          X 8 q.#XC.r xX~.> U > yXzXeXOXS.G.A.W.uXNXNXcXcXxX9X8X2XxXK t.kXX.M.V.^.Y.%.$.(.(.T.M.Y.Y.Y.(.M.o.l : $ A.^.HX/.R./.`.`.`.HXR._._.R.R.`.HXo.> k u p.#.@.9X2XsXV.W.rX` + ] y * j.LXCXNXCXNXCXSXCXLXCXCXZXCXCXCXVXSXCXSXVXGXSXVXCXSXCXCXW.r ) R VXzXQ.uXvXcXVXVX!.0XQ.Q.W.W.,XW.4XtXdX8XyXyXuXtX' . . NXAXtXAXnXAXnXAXAXyXyX8XxXAXAXNXNXCXU s LX`.'.R.)._._.'.'.).).'.'.`.).I.)._.'.'.).'.`.HX'.`.`.'.'.'.'._.T.z 2 $.a j.C...O.@.O.z %.p.2XzXcXl O o . 0XvXvXlXlX_.VXGXlXvXVXlXp.0Xp.^.lX9X0XBXGXGXVXlXcXcXvXGXlXVXGXLXGXLXLX5 & 0X0Xz.vXVXGXGXlXVXlX0X2X0XlXuXuXvXVX9XzXt.k VXx.<XQ.x.{ A             ",
"      . I <XrXfXoXf.4XzXuXu k yX@.+.j e ' ` r *.UXNXNXAXyXl.C J Q m % < p - 8  .O.w.9XE R { { w.i.> @.E X.8 . p.(././.R.g T.R._.T.R._.`.R.)./.`./._.HXlXh #.z.z.UXuXuXVX0XyXx.* y x.u * NXCXcXNXNXxXGXVXVXVXBXVXCXVXNXVXVXCXVXCXVXDXGXSXVXIXVXLXIXh.t.O lXW.Q.cXuX0Xx.#.i.i.i.j.p.V.V.!.!.~.Q.Q.Q.~.Q.E.tX7 R cXQ.0X8X~.AXtXyXyX,Xh.<X<X0X4X0X<XAXt.a Y.Y.I.`.'.).`.'.'.).`.`.`.`.'.T.T.).'.'.).U.'.'.).'.).).).).R.T.R._.(.%.2 C nX8XW.W.V.V.V.X.X.u.iXk : X $.lXlX~.(.lX/.vX/.~.~.E : K Q.+.cXp.z.%.k X.O.x.yX<X8Xr > o k p.yX0XxXtX% 9XGXcX0XlXcXdXcXzXVXcXlX!.@.A.~.!.2X0Xh.p.x.W.Q.z.~.p.x.Q.h.y S         ",
"    X ,.wXeX^ ( p X zXzXx.u y #.w . r P t ' 0 I ZXLXPXZXZXNX' PXPXLXAX+ + 6 4XrXj.tXPXLXCXCXLXCXCXxX@ 6 w.8 9 !.^.(.HX_.I.P.R.T./.`.`.HX_._.`.HX_.HX/.lX$.k u #.#.#.z.z.x.c.= y z.z.i = E CXzX^.~.9X0XuXQ.~.~.~.W.2XQ.2Xh.W.Q.,XQ.!.Q.!.!.yXuXuXx.VXO 7 { cXIXVXIXvXuXyX0X0XdXzXiXvXlXlXiXlXlXiXuXuXuXlXvX{ #.IXcXlXlXlXuXyX~.Q.E.z.z.E.E.^.Q.i.x.t > x v P.).R.R.).)._.R.R.R.'.`.'.`.).).).).I.U.).R.'.).I.R.).g m.P.T.%.o.!.- 2 ZX<XQ.!.!.W.A.V.!.E.yXt.* : @.^.E.E.$.c.b } } o.E $ < 8 _ +.) 2XyXw...E i.yX9XyXj.x.y.t.i.r.i.y.W.yX% xXVXW.xXyXr.I Q +.( Y  ./ ` ` ) ' l.P J ! w e y.i.p.O.O.{ { r.) , A     ",
"    . nXeX3X2X6XnX@ g.zXyXr U 7 r.tXJXCXVXCXVXNXUXVXGX{ UXNXj.IXLXPXPXM X tXPXLXCXBXCXJXwXNXCXnXgXDXlXy.9 7X$.o.%._.HX_.T.f T.R.R.`.HX`.).R./.`._.T./././.(.^.^.#.} i = B i x } z.c.y = * h.Q.0X0XuX0X0XuXuXuX9X0X0X9X9XyX0XyX0X0X9XE.zXcXE.uXtXtXVX1 * o @.x.<Xx.x.Q.i.t.A.i.p.V.V.A.!.V.V.W.Q.Q.!.~.0XzX+.k BXuX~.9XiXlXcXcXcXzXlXlXlXzXzX9X9Xj.7 X n Y.P.g I.R.).).).'.).).'.I.R.'.'.).`.`.U.U.).).R.I.).T.n.b.T.b M.h h V.6 8 q.: u > i u z k X.O.h [ . . . z c z s h k k u U & W CXZXnX:.. CXCXZXCXNXBXzXNXBXvXVXSXGXCXCXIXVXCX1X# xXVX9XdX8X0.y.j.w.p.g.y.i.i.x.[.h.+Xj.UXj.m 1 xXyXz.h.p.t.p.O.w.H &     ",
"  < A eX#XeXD.( d.Z ` 0XQ.u : yXVXNX<XxXNXxXBXgXNXAXUXtXyX9X8X<XyXNXCXSX+ nXCXNXGXCXVXVXNXNXCXCXcXcX(././.HXHX/./././.Y.b.b.Y.R.HXHX_.`./.R._.`.T.R.R.T.Y.(.^./.vXvXz.z.x.{ * 7 z.#.k 9 * . 1 ] t.p.#.{ @.{ O.#.@.{ / R U { +.O.+.+.w.Q.<X{ * x.<XUX# * * . . o 7 ] ( wXiX8Xu.+.u.X.>...u.u.j.k.y.q.) r.i.B # y e * 8 : 7 [ t.t.#.w.w.w.i.r.l.[ o : } x n d m.U.'.U.'.'.'.)._.'.).).).'.).).I.m.).R.m.U.R.n.m.n.R.P.g > z s 8 - & w.` l.x.i.k.<XwXfX<X[.d.d.e.Z X X l g.p.#.t.yX! # *.LXZXZXNX:.ZXBXhXNXhXxXgXdXtX9XiXcXxXdXxXxXdXvXu.O 9XxXiXcX9XtXcXzX8XgXcXiXzX8XW.dXlXcX9XxXrXB + 0.@.$.#.o.#.#.#.w.e #     ",
"  < q 3XeX4X<Xx.U p NX2Xi.: 8 iXNX7Xa.hX8XrX2X<XCXNXW.nXhXNXNXrXZX+X,XSXX nXA.wXBXBXNXNXNXNXCXtX7X7X!./._./.M.n./.R.T.Y.f P.R._.`.HXHX`._._.`./.R.).v./.^.R./.lX/.~.^.Y.~.uX^.#.X = * y * # 1 1 t o * 7 7 7 1 1 * * : 7 7 y u t t 1 1 * = 7 u U B o * * 1 t y 7 I K U w.t.{ ' { R U ] E ' { ' I ] m t 1 + 1 1 t , # 1 t I y 1 * 7 7 7 * 7 U i 7 : } } i o v.R.U.).).'.'.).U.'.'.'.'.'.).m.I.I.).).m.R.U.m.g b.P.Y.n.M.d O : r $ *.ZXAXtXNXVXvXSXGXLXSXGXLXLXLXGXBXA.Q.!.z 6XGXLXj - | DXnXjXNXmXNXBXpXhXhXjXhXdXiXsXiXsX6XrXhXgXhXxXF.X NX6X2X2X8X8XdX2X7X8X2XW.7XBX!.iXiXvXlXlXvXJ % g.p.p.#.@.#.#.{ U $ $     ",
"  + . +X+X+XfXgXW.D.0XdXyX7 p VXxXgXgX4X1XwXwX4XfXOX1XwXwXfX7XjXNXNX4XZX@ nXOXBXnXsXsXjXfX1XtXnX,XkXFX/.FX_.n./.R.T._._.T.)._.R./.`./.Y.R./.HXHXHX`.HX_.R.v././.Y./.Y.^.v.Y.(.~.z.[ # o * B u o 7 t I } U ] } } U U k } } { { } c.} } } } B B U y 1 o = = t 7 1 . X X 1 1 1 1 7 t y r t t t t t 1 1 % 1 1 1 1 7 1 1 B ] U B B U y U y u y } u 7 * = X o v.U.U.U.R.).).).).'.).U.U.U.P.U.m.m.n.R.b.R.).f n.f v v T.M.M.c > Y 5 $ <XtXyX0X0X8X0X8X~.!.0XiX(.iXdXvXFXvXvXcXzXVXCXdX6 2 <.JXjXnXBXfXnXsXhXnXjXdXhXsXjXsXpXrXwXfX6XhXNXdXNX% SXsX8X7XrX7X2X6X1X2XF.W.A.V.!.iX!.V.!.H.6XJ 6 ..Q.V.p.#.#.O.[ y % 4     ",
"  @ q q m d.#XeX+XwXj.<XW.5 8 0X1XsXrX1XwX1X1XOXa.OXNXBXhXwX6XmXmXwXnXnX8 C.pXqXhXjXiX6X5XrXsX4X1X7XFX(._.M.T.T.R.T.T.R._.T./._._.R.R.R.Y././.R./.R.`._.R.R./.Y././.Y./.Y./.^.^.^.~.{ 7 } B #.{ o * y U } ] } B y y y y U [ t.t.] t } = 1 o 1 X o 7 7 t 7 y 7 7 u 7 7 = o 1 * u U 7 9 7 u B 7 y B t o * $ # = y U u > u u y y y k u U K 7 X . k b n v n P.P.U.U.U.m.K.U.I.I.T.m.P.U.K.P.m.b.P.m.I.).n.b.n.P.n.n.I.f > c K 0.% X nX4XF.sXiX8XiX6XiXlXcXxXiXdXxXiXiXiXlXvXFXxXdXhX@ 2 | DXfXfXaXjXjX4XsXfXsXjXjXjXsXdXfXpXpXrXsXnXnX8XBX; NX6XF.pX8XOXW.1XF.W.1X7XW.F.F.!.F.V.p.p.D.2 + 4 A.z.#.o.#.#.U = # r     ",
"  @ @ ! I H . C C +Xi.h.i.9 5 rX8XsXtX2XwXgXwX1X3XF.OXfX1XpXsXhXjXF.4XnXf.>.wXfXBXBXhXhXNXVXZXNXvXCXjXH.> n.T._.n.n.R./.HX/.I.Y.Y.R.R._.R.`.).K.P.U.U.R.'.R./.T./.^./.~.^.(././.M.E.z.U * #.yX#.o . } x.yXx.z.c.z.z.x.x.p.z.z.t.c.c.c.c.} o = B } } } } } } } } } x } } u * o U t.E.z.#.#.c.z.~.} U 7 . . 1 p.$.#.#.#.z.z.c.c.c.#.#.c.c.} o n v P.P.U.U.U.U.).U.K.U.m.K.P.).P.f K.).R.K.I.U.m.U.U.n.m.T.I.n.d v b z a a : - - C tXrXrX8X8X9XiXiXiXiXiXdXvXgXiXiXiXlXkXvXBXsXW.1X+ - -.ZXfXfXjXaXjXfXpXwXsXgXpXjXfXsXjXjXnXjXfXhXfXpXZX- ZX!.6XW.1XW.!.A.F.7X!.7X1XF.W.1XD.F.A.g.G.8 # 8 z.z.#.#.#.E : U % A     ",
"  @ ^ 3XtXrX<Xy.. p 2X2Xt.9 8 gXrXdXsXrXjX6X3X4X4XwXwXpXsXwXfXnXsXfXnXmX3X..ZXBXBXBXBXNXBXBXBXxXNX6XcXvX!.l M.(.d M.Y./.T.R.).).).R.R.).R.R.U.v./.).'.).U.R.R._.`.c.Y./.Y.(./.Y.Y.E.^.$.k t.x.y * #.yX~.z.x.x.uXx.x.x.~.^.z.c.^.^.~.uXuXvX* x } } } x y x x x x x y } } B = * 1 Q.0X%.o.%.b %.c.} y x.U K 6 E #.~.lXM.E.c.E.c.Y.z.E.^.~.h = T.P.U.U.).U.U.U.).U.U.U.U.U.U.).P.I.I.U.U.I.I.I.m.).m.n.m.n.b.n.R.n.; 9 > - q Y 8 rXtXgXdX7X7X7XiXiXsXdXdXiXdXxXxXiXhXvXhXxXjXsXhXBX; < :.ZXMXjXjXjXmXmXmXsXpXkXhXjXpXjXpXjXnXmXmXBXsXsXBX2 hX7X7X6X7XW.F.7X!.!.F.7XW.7X!.F.F.1XW.,X<X2 % r Q.p.p.} u : k 9 % A     ",
"  , [.+X2X2X8X,X# g.0XV.+.6 % 4XdX9XgXhXsXF.3X5XwXnXjXsXsXpX1XmXDXnXBXBXtXZ SXBXBXjXmXxXhXjXhXhXhXgXhXNXcXiX%.> a z _.R.T.T.T.R.'.R.T.L.T.`.`.R.R.R.c.Y./.HX/.Y.c.v.^.Y.Y.^.(.c.%.E.E.(.k O.0XyXx.x.0Xx.z.z.~.z.uX~.c.z.z.x.~.uX~.^.c.^.uX= } x } } x x } x x x x } } } y = o 1 !.#.X.$.$.#.#.#.uX{ ^.lX~.$.9 %.vXvX@.E #.c.$.$.c.c.Y.E.i > /.P.U.K.K.U.U.U.U.).U.U.K.U.U.U.P.I.b.g m.b.m.b.n.I.m.m.m.n.g f v c s : X.q...u.+ rX8X6X6XW.0X7X7X7XiXhXsXiXsXiXxXjXxXhXsX7XkXiXsXZX3 - Z mXbXjXaXmXmXmXmXmXmXaXpXjXjXfXpXkXfXfXjXmX5XwXnX- 6XdX7XsXxX7XF.!.7X7X7X7X7XW.W.2X6X2XA.p.q.0 # w.@.K y . 9 K j : & ~     ",
"  , k.<X2XW.W.p.a sXdX@...; X sX1XW.fX1X6X4X4XOXjXsX6XNXjXsX5XBXNXBXBXZX&XS ZXnXjXjXjXkXjXjXhXhXsXNXNXsXhXvXX.l c %.(.g L._.P.Y.Y.T.n P.R.`.U.R.).K.U.U.Y.P.v.v I.c.v.n v.c.b } x x #.} o x.z.c.x.x.z.z.uXc.^.z.~.z.z.^.z.~.x.^.~.z.x.x.uXx } } } } } x x x x } x x y u y * = y { X.p.@.{ #.#.E.^.u } lX%.v Y.^.$.z l l l [ { #.{ t.{ t.U u d n K.K.U.U.K.P.I.I.m.f m.U.U.I.b.m.I.b.m.n.m.I.m.T.f m.n.c O 9 7 a > 8 q.u.3X3X@ 6X2XW.2X7X!.8X7X7XxXgX7XsXdXsX7X6XsXiX6XiXlXkXiXmXp 3 qXmXjX$XpXaXbXnXmXhXjXnX&XqX=XaXaX$XaXkX6X6X7X5XnXC.F.jXpXsXjXF.7X6X7XF.A.F.F.,XF.8X2XW.p.W.j.q $ - # O h { [ [ 6 * X &.    ",
"  < W a.W.W.V...w D.g.u...2 & 1XsXjX6X7XiX6X6XsXZXdXjXhXjXjXNXmXjXmXmXmXMXF KXmXjXFXmXhXhXhXmXhXhXsX6X4X8Xg.D.iXE.^.T.L.Y.L.n.g K.P.n x c.v.v.K.v.v.K.c.v.v.I.R.T.L./.c.i u x i h h 7 o : #.z.E.z.z.x.^.z.z.~.c.^.^.z.z.z.z.z.z.z.~.x.x.yXc.* y U } } x x } } } y x u } 7 1 * 1 #.@.l X.$.$.%.$.z.z o ~.%.b b x ^.Y.%.x l E l @.{ z.{ { 9 : . O d i K.K.v L.b g m.K.g P.I.I.g b.b.m.n.f n.P.b.n.b.d s X O O : * * . L j.OX1.8 sX,X2X7X!.7XiXiXxXhX6XiXsX6XsX6X6X6X6X6XpXmXhXFXFXA p LXMXaX=X$X$XaXpXpXaX$XqXaX&XqX5X1.1.Z.$X$XpXF.5XBX7XC ZX5XpX1X7XOXF.G.G.F.F.F.1XF.A.F.iXsXA.a.5 2 6 O.#.z.$.o.[ * # . -.    ",
"  @ ^ +XyX2XA.9 j G.@.( >.6 & g.7X7X7XW.!.8XdX2X!.7X!.H.V.H.OXF.F.F.F.&X|.F MXsXjXxXBXhXsX5XwXfXsX6X6XrXW.2XW.A.lX%.b /.n.b.T.Y.T.R.d > T.R.L.v.f v b g T.P.T.T.v L.Y.%.> : . % . X . o . [ 0X0X^.z.^.~.x.z.z.~.^.z.z.z.~.z.x.c.x.z.z.^.uXuX= = k } } U } } } } } } } ] 7 7 6 U W.^.E.c.E.E.E.b z.uXO 7 E.b b b Y.n.Y.c.b Y.o.E.x 9 u 7 # * i u = x v g v v.v v.v.R.f d f g g b.n.L.v v f b.Y.n.n.; c h % O w . . Y a.pXeX;.C 7X7X8X5X!.sXiX6XsXfX8XsX6X5XsXpXhXpX5XkXhXkXjXkXjX| q aX5XbX-X=X-X=X-X$X$XbXMX.X=XaXaXaX$XaXbXaXkXkXH.N.a V FXZ.H.H.-XH.7XOX5XkX5X5XOXV.F.F.u.A.q.d., % % @.[ [ l y o . X % 9.    ",
"  < ^ ,XyXyXA.9 R i.C a w 8 % a.g.w.w.Q.D.W.V.w.u.@.u.>.........1.u.>.1.G G 8.>.y.D.OXOXF.,XA.V.D.g.D.F.W.1X8XQ.O.. d b M.d f b./.T.b.T.P./.T.f d n b n v Y.b x %.x o . 9 h $.c x b ^.z.#.7 #.z.} z.0Xz.z.z.z.~.~.~.~.x.z.c.z.t.x.z.z.z.x.uX} = . * y [ U y y = = X . X . . . = l x (.~.E.$.%.$.o.E.7 u !.x c c.^./.Y.(.^.Y.b $.x.} U u . o U o = > x v.Y.v L.L.K.P.n d g K.I.g b.f g K.L.b.b h a s l c > % 9  .y...,.S.C.2 ..dX!.W.!.7X6X4X6X,XA.OXwXOXwXpXwX+X6X5XpX$X5X5XqX-X^ Z pX$XH.kXmXbXaXnXMXZXJXMXaXbXmXMXaXJXZX=X$X-XH.H.H.A D -XH.H.H.!.V.Z.C.H.G.C.a.,.H.5Xq.1.a.>.wXp % % . . . . + y I 1 1 <.    ",
"  , 0 ,Xi.X.O T 1X8X4Xj.! % % j K h.W.W.2XW.W.2XiXiXdXxXiXsXdXxXdXhXBXBXG G @X6X6X5X7XnX5XS.F.8XdXvXBXvXVXvXxXNXhX8XW.p.l d n.b.L.b.n.v d d g d f > > c = X i u u = * o.T.Y.T.R.P.R.R.R.(.~.= u X #.x.x.z.c.z.c.p.z.$.$.c.z.z.Q.x.z.z.z.t.c.#.l.B o o t o 1 ] AXVXZXCXIXCXCXIXVXVXNXx.uX%.l o.z [ #.9 O : k { O.h o.E t.t.x.E.Q.t.UXi.r.{ t.l.#.U B o O . > v v P.v f K.m.).v f v d d c b b b . s c c %.h > : U ) e q Q W q q u.y.a.u.V.d.#Xj.eXAX#X1.B.j.[..Xf.f.,.^ A | A A | A G V F F N.9...| -.7.*X&XZ.$X@XZ.1.1.$XN.|.}.|.B.F D J.G V -.3.1.Z.S Z f.Z C L Z - Y ^ q p ^  .0.0 # . P w.w.t.i.0Xx.1 + S     ",
"  , 2 d.Y k 9 @.W.xXgXQ.p 8 C sX2XW.0XQ.8X2XsXiX7XiX7XsXiXsXhXFXVXFXFXFXF G DXDXBXNXjXBXnXsXDXDXFXFXSXSXFXBXiXcXcXVXvXcXiX~.%.n.Y.g b f d b h c %.> > x o 7 k u X = $.(.T.b.m.m.U.R.m.P.g E.X x uX~.z.#.x.~.x.uX9X2X2XdXuXvXuXVXVXvXlXlXcXVXuXuXgXAX+ X yXLXPXPXLXLXLXPXLXPXLXLXLXPXLXGXIX~.. u Q.l > 9 . . 7 y x.yXyXIXGXGXGXGXIXVXCXIXGXGXGXIXIXIXNX9Xh.O h x v f g b.f n.f c c ; h ; O (.s b c c O 9 9 9 X . % +XwXeX2 + X C.NXhXhXmXgXZXZXmXFXmXkXFXZXDXDXJXDXZX-XMX;X-XMX|.G ;X;XbX;XaXMXMXbXbXDXJXDXmX-X-X< -.-X-XkXbX=X-XkXkX9.V -X-XN.N.|.B...5XmXJXZXwXnXd.1.>...$Xw./ t % # Q.!.W.Q.z.t.t.[ 7 O S     ",
"  q % 8 R Y - ( i.,XD.q.w r ` 2XrX0XW.!.Q.Q.g.W.,X2X2X!.2X7X7X7X7X7XiXsXH.F MXjXkXsXG.F.hXmXjXsX7XiXF.!.iX7X7X8XW.!.!.Q.!.zXlXo.c c d d d d d o.> = X * r . 7 7 : o z b T.T.K.U.I.P.`.R./.L.Y.Y._.c.d ~.z.yXyXz.@.~.7X!.A.~.Q.0XE.E.M.^.~.uX0X0X<XNX+ [.PXLXCXAXyXUXAXyXyXuXQ.Q.~.uXyX0XzXcXx.K o.j 9X2X9 cXgXdXNXzX9XtXNXuXuXuXzXzXzXlXvXvX9XvXuXuXzXcXCXVXl.. = d b v f g b ^.O X O O > %.b M.c . X @ # % q L ..f.OXa.- - # a.7XH.H.kX7XH.kXH.H.H.H.H.-XH.H.H.@X-XH.-XkXH.kXB.F ;X-XjXMXFXMXMXMXDXKX-XH.H.N.| H.;XH.B.H.H.B.-XH.-XN.A -XkX=X;X-X$X5X$XoXmXJXN.oXZ.$X7.H.kXmXjXT O X V.Q.A.%.[ #.O.[ 9 # q     ",
"  ^ @ 4 ( ( k ) w.i.h.D.w 6 w.,X2X2XQ.W.W.W.,X1X1X2X1X1XW.F.,XF.F.1X7XkX&X| ;XkX6X7XG.jXmXjXsXrXjXsXsXrX8XiX8X9X9X2X9X8X8X2X9X9X> h d s > > . . . % [.[.AX*.+ , X u X %.v g R.R.R.'.`./.R.K.R.T.P.v > $.~.uX0XuX0X0X!.7X0XQ.Q.~.dXsX8XiX~.0XlXlXuX[., PXPXZXtXNXNXZXNXNXcXVXcXcXcXcXcXcX2XrXCXCX2Xk SX0X9 cXdX8X9X2X<X8XyXyXQ.<XtXdX8XdX8X8X2XtXcXQ.cXuXyXcXVXx.. . > a c h > . o # . . . . i z h X.O @ q r s.C.| 5.3Xd.% & - OX=XkXkX-XpX$XkXkXkXH.kXkXFXkX-X-X-X-X-XkXN.@XbXB.D ;XH.-XMX-X-XH.@X@XN.-XH.-X-X@X-X-X|.H.@X@X-XH.-X-XB.F @X@X@X@XXXZ.XXXX@X-XH.f.Z.Z.N.1.8.oX;.C.j.@ . +Xi.Q.x.$.@.{ ] 5 # V     ",
"  2.@ r  . .( ) Q.2XA.+.w w w.2XQ.W.W.1X2X2X1XW.1X2X1X4X1XF.OX1X1X1X7X$XG.F ;XkXhXa.7XpXhXsXpXpXjXsXsXsXsXiX8X7XiXiXiX9XiX0XzXcXk ; l h ; > O $ :.+XAXAXAXAXt 1 ' ) O h d Y.Y.b.K.K.n g b b v P.L.v.M.Q.uXlX~.0XiX~.~.lXvXvXcXiXiXiXlXzXiX~.!.9XZX=.=.PXLXAXnXZXZXNXNXNXcXuXVXVXVXvXVXVXzXcXcXVXGXw.vXVX: p.8XdXxXxXxXcXxXrXtXtXrXdXdXdXsXzXcX9XcXQ.yXcXyXtXcXcXj . # . X . 1 { NXNXyXr.i.P > o.z X.X p >.-.7.Z. X,.eXk.@ 2 % S.$X$XkXkXjX-XkXkXH.kXMXkXH.-XkXkX-XH.kXjXH.Z.=XJ.J.KXMX-X@X-XH.-X-X-X-X-X-X;X-XH.H.-X-X-XB.-X-X-X-X@XF V N.@X@X@X@XXXXXXX XZ.N.@XH.C.5.Z.1.1.| S.1.X + A.V.Q.z.O.[ ) P , $       ",
"  [.& H F.A.@.w.W.2X8X1X8 9 w.2XW.W.W.Q.2X8X2X0X2X1X1X6X5X1X7XG.G.Z.u.;.^ F -XkXBXpX6XpXjXpXnXjXjXsX7X7XsXxX8XiXiX9X9X~.lXiX0XcXO.O 9 : k 4 0 H eXnXbXZX[.[.t 1 { : . . > d b n > i . = ; > > Y.d c.lXlXzX9X0XuXiX0XiXiXiXvXlXcXvXzXiXvXvXcXiXiXZX0 [.PXJXAXhXNXNXNXNXVXvXcXcXVXcXVXvXcXNXVXcXcXVXdXX.4X% Q.sXdXdXtX9XtXxXzX8X8X9XjXiXgXdXdXtXdXzXcXvX0XcXuXt.] K ] . $ t.NXNXvXNXcX2X<XyXW.9 X # 6 - >.1.<.| -.s.s.4XQ @ Z @ bXaX$XaXqXaXkX5XH.kXkX-XMXFXkX-X;X-XkX-XkXkXkX;XJ.B.MXaXkXH.-X-X@X-X@X|.-X-X;X-X-X-X-X|.-X-X@XH.B.H.H.F D B.@X-X:X%X*X@X@X*XXXZ.XX}.N.N.8.4.1.1.^ $XX @ X p.E.o.} E k r B $       ",
"  2.+ w i.A.g.A.9XiXdX,X5 5 i.2X1X2XW.W.0X0X0X2X4X2X2X1X6XNXOXA A Z 3 q &.^ G.sXmXhXsXjXsXpXpXBXhX6X7XsX7XsXiXdX8X8XiX~.!.iX2XNXT : . T k . 5 @ Z :..XeX:.0 * # Y tXyX<X*./ O . = o l z d x > x > o.lX0X9X9XzXcX9XiXzX0XcXvXuXlXlXlXvXlX0XlXdXiXdX6 JXPXCXvXgXvXNXcXcXcXvXVXVXcXvXcXzXcXNXuXcXcXVXNX. rX% i.gXzXxX9XtXzXtXrX9X8XxXtXdXdX8XdXzX0XuXVXvXh.Y U O y 6 tX#.E.VX0XQ.x.[.x.j.g.<X0X .4 . @ 2 | N.-.3.A N.oXC . 6 5 - eX=XkXmXkX$X$XqXH.-X5X-XjXFXMXkXkX-XH.-XkXkX-XkXF |.mXmX=X5X-X-X%X@X@X%X@X@X@X=X&X:X%X%X=X=X@X%XZ.-X|.F G -X@XH.@X=X&X&X@X=XoXN.N.7.7.N.| 4.1.A 1.NX+ # L E.@.l l o.[ k [ $       ",
"  -.+ r j.W.i.@.!.tX0X<X5 5 w.Q.Q.!.<X0XyX!.1X!.1X1XF.W.jX5Xa 2 | 5XnXmXbX2 G.6XjX5X6XpX6X7X6XiXpXsX8XjXsX(.hXdXiXiXiXiXiXiXiXcXT : w.@.y.i.j.i.) H . . y ) * . 4XtXeXtXAXNX,X<XO = b h x d n ^.: k @.~.zXzXlXcXlXlXlXzXvXiX~.iXiXiX~.lXiXiX~.kXdXw PXLXVXcXvXVXVXvXNXvXvXcXcXvXxXcXcXNXVXzXcXcXvXVXX.p.; w.cXgX9XrXtXuX0X8X8XtX8X8X9XdXdX8X8XcXuXuXNX9X. : 9 R x.H x.cXGXx.h.yXrX2X,Xg.g.4Xi.. ! y.C.oX| N.$XH.1.L R #.lXuX% f.5X$XkXjXkXpXkX5X$XjXjXkXH.kXjXFXkXH.H.kXH.-XbXF =XMX$XmXaX-X&X&X:X-X%X=X=X@X-X%X|.%X%X:X%X%X=X=X@XV F G :X-X|.@X%X=X@X@XXXN.@XZ.8.2.-.9.1.N.| H.4X& # @ y 9 U k [ [ 9 u *       ",
"  9.X p 2XW.@.l 2XyXyXQ.: 6 @.Q.Q.2X!.yX2X2XW.2X1X!.F.6X5XG.p X.FXSXnXBXnX- 1X7X1X3XkXsXpX6XpXkXsXdX7X6XiXsXsXzXsXiXkXlXiXiXiXvX8 k GXGXVXNXxXNXgXtXtXi.. 7 6 ' +XeX[.[.&XtXtXCXx.: x i X : [ = . w.q.p.VXxX0XcXzXzXcXzX0XiX9XiXlX0XlX9XlXlX0XcX<XH PXGXNXcXvXVXVXNXvXVXVXcXcXcXcXcXgXxXcXvXcXuXVXVX~.w.% k xXrXrX8XtX8XrXxX8X8XxXgXdXNX9X9XxX9XtX9X9XNXj % $ $ 1 # j.NX9XE.0X9X8X8XwXrX2XyXE y gXVXZXBXOXqXZXZXY U lXlX~.vX6 / kX5XkX5XOXkXqXpXjXmXmXkXkXkX-XkXH.H.kX-X-X-XH.F %XaX7X-XkX-X-X@X@X@X%X=XMX-XN.@X%X%X%X%X@X|.=X@X@X|.F V N.@X|.@X&X%XXXXXN.N.Z.1.7.Z.8.| <.,.| q.0.. & % X # # . . . w U 0       ",
"  -.+ p G.F.w. .0X9XtX4X5 w i.yX0X9X9XQ.!.8X9X2X8XW.7X7X1XG.sX8XZXFXcXxXsX@ 1XOX7XsXpXsXsXhXdXsXsXsXiXdXhXvXiXiXdXlXiXiXiXiXdXNX% ,XBXdX,Xg.A.Q.W.Q.8XNXx.) UXNXgXyX<X+X+X3X4XrXt.u > u > = { { r +XrXy.w.0XNXzXiXcXVXcXzX9XlXlXlX9XlXDXlXcXVXVX' e PXvXzXzXvXVXcXcXNXvXVXvXNXcXvXcXzXvXcXvXvXcX0X[ 9XiXj T NX8X8XrXyXrXzXgXdXxX8XrXdXxX8X8X9X2XyX0XdXzX2X6 . . # r IXNXcXvXp.!.iXzXrXdXzXcXE 9 t j T ~ ~ C ! P O o.^.^.z.~.K ' aX$XkXjXmXpX5XjXjXkXkXkXkX7XkX7X-XH.-X(.FXH.s G Z.jXpX$X$XZ.=X@X@X-X=X%X-X-X=X&X=X%X%XXX@X@X;X}.@X-XJ.F |.H.@X-X%X@XXXXXN.XXN.1.7.8.1.1.4.&.s.:.U E % . + & t P E U Q.+.e       ",
"  -.X ! OXF.t.p.0X8X2X<X7 r A.A.E.@.Q.tX!.x.h.p.u.!.!.7X!.1XBXBX7XBXBXsXfX- 1X1XjXsXpXjXdXjXhXjXsXsXdXiXiX7XiXdXiX0XdX8XiX8X8XdX: F.A.g.y.D.D.Q.W.Q.8X0Xx.<X8XtX+X<X<X<X<X<XAX4X9 = u k = 9 i.j.e.+XAXj.. : p.BXcXcXcXzXVX9XcXcXiXlXcXvXvXvXzXcX0.6 LXIXuXxXcXNXVXcXcXcXNXNXcXcXcXcXcXlXvXxXt.Q.O.E GXQ.9 8 sXiXsXdXiXrX8XdXgXtX8X8X8XsX8X4X7XsXrX8X2X2X4X,X) ) # 5 vX~.vXIX~.Q.8X0XW.!.Q.j.+.4 5 j.eXyXeX0 . . : #.} c.c.} l.' oXH.oXaXbX5XpX5XkXkXH.5X$X7XkXH.7XH.-X7X(.H.a - a jX-X5XoX@XH.-X;X-X@X-X-X&X&X&X*X@X%X%X@X@X@X:X%X;XF D :X@XH.@X&X%X@XXXN.N.N.Z.N.3.4.<.-.^ S ..j R * <XQ.h.x.Q.uX9Xu k *       ",
"  <.X / ,Xj.w.( A.W.Q.h.9 w w.@.a ( a Q.@.k X.O.k w.E u.V.F.6X7XX.G.5XH.+Xr G.dXjXjXsXhXkXiXsX6XiXdXiXsXiX7XiXxXdXu.g.@.V.W.W.zX- j q.J >.q.w.y.h.W.yXh.x.tXyX+X+X+X[.[.<XyX9X' % l 7 = 9 9 5 ;.,.+XyX{ $ : . ( 9XzXcXcXcXlX9X9XiXlXlXlXiXlX9XcXl., r.PXNXtXcXNXcXcXvXcXcXcXNXcXzXcXzXcXiXlX0XiXvXuX$.X.T X xX7X8XrX0XyXrXdXdXdXtX4X2X4X2X7X6X6X8X1X!.2X0X8XzXVXt y IXvXvXuXuXuX9XW.Q.~.h.2XrX..>.nXBXNXZX[.# o u x c.^.uXuXB t ~ N.1.#XaX$Xd.&XZ.H.H.F.H.kX$XH.kX$X!.7X-XH.u.Z < aX$XoX$XaX$X=XH.-X=X%X@X&X%X=X&X%X%X%X%X%X@X@X@X;XF G |.@X@X@X@XXX@X XN.N.N.N.4.4.9.A | ^ p 1Xk O : yXp.p.z.$.t.t.t y 4       ",
"  &.+ p 0.i.@.X.E A.A.D.w 8 k E E l J X.k X.u.X.X.T T ..+.X. .q.( ..p p ^ p ..6XV.!.gXhXjXdXjXsX6X6XsXdXdXdXgXsX2XA.2XQ.k p.iXdX. 2X4XW.g.g.D.,Xi.Q.t.9XBXNXwX3XeX<XrXyX<Xx.I 9 U #.o.@.y U K :.! j.[.t : 4 : . X.VXVXzXlX~.(.lXlXiX0XiXlXlX(.lXl., . LXNXcXVXVXVXVXVXVXcXcXcXvXcXcXcXcXiXzXcXzXvXcXQ.@.Y & <XgXgXxXtXNXNXgXNXxXNXgXjXxXxXsXdXdXgXgXgXxXiXjXgXNXi.y GXvXlXcXzX9XdX0X~.0X!.cXVXG.u.NXfXwXNXNXX o #.c.c.x.uXuX= y f.*XZ M $XnXbXeXH.$X$X1.aXmX5XF.kXH.H.hXkX$Xa X.T X.5XaXpXaX$X@X@XXX@X}.@X=X&X:X%X%X|.@X@X@X@X|.@X-XF V H.N.N.H.}.N.}.6.B.B.| B.9.9.-.-.9.-.p 3 @ 4 . ) Q.#.t.#.#.l.U t *       ",
"  &.% <XyXyXQ.x.a.w.A.j.j 6 X.#.O.p.A.p.p.V.A.A.V.V.Q.W.A. .p.A.A.G.p.u.T 8 p p 8 k  .,XF.H.OX!.a.u.F.H.F.g.u.q.+.. q.h.j r ) K O y j t.@.@.w.<Xz.#.6 R 4X4X,XwXtX<XtXyXR . . y u X k #.. o 0.nXj.<X1 X . . : . j CX0XvXcXVXVXvXVXlX~.iX!.~.0XyX4X. . . uX0XuX0XuXuXcXuXuXuX0X0X0XyXQ.Q.W.W.Q.i.E.Q.A.0.5 : e tXtX<XyXyX<X<X<Xj.j.j.g.i.f.q.t.y.y.w.a.a.a.y.y.k.Q 0 NXyXx.tXxXtXrXwX6X7XA.zXSXsXF.pXwXwXtXVXl.7 z.c.c.c.c.c.* } f.f.~ ,.qXtXj.a.7X7X7X1X5X5XH.jXhX7X!.sXiXu.c p z !.M.M.u.Z.V.Z.5.Z.N. X%X=X@X@X-X%X-X@X@XN.N.N.B.H.J.G B.F F A -.-.F S S | F 9.A | -.f.1.q 2 @ % . U Q.z.{ O.{ { l.U B *       ",
"  Z J BXCXIXVXcXNXcXyX8Xj : p.@.@.V.@.E o.E O.U $.X.w.X.8 l k T k ..V...( - . T y.A.Q.p.: 8 8 K p.p.p.y.p.p.W.Q.,Xw.q...R i.R h.) o.p.$.p.Q.x.l.#.9 X 1 r U { w.H & U { { O.@.x.VXGXVXvXVXIX# Y IXIXVXVXNXNXxXxXzX0X~.VXGXVXGXGXGXzXQ.xXVXQ.yXgXj.:.NXGXIXGXVXVXVXuXx.yX~.zX9X2XzXzXvXBXcXNXzXQ.dX9X{ R r 7 * . J yXtXAXgXgXgXgXgXsXrX4XNXBXiX2X2X4X4X1X<X4XQ.x.o X U { t.t.r.j.d.j.j.g.t.h.,XrX4X1XW.<X<X8XtXt.} } } } z 7 O ) p 8 ( k o.X.s a > 9 T  ...T a k O.9 9 l 9 h o.b c n.I.n.n.n.D f f D D c F | G 9.| S A | -.| N | G F G V ^ | A Z | | | N.Z.7.*X X| oX<.f.$Xf.X @ @ q.2XQ.Q.Q.o.) { ] ] e 4       ",
"  q r 1X0XVXVXiXuX0XyX,X) 6 a 9 9 9 8 ) a E k k ; ; 8 k p T ....u.7X2X4XOXj # @.W.zXiXiXg.. O BXSXSXVXVXvXDXSXvXvXDXvXvX8X7XgXF.K w.zXO.o.k u : 1 7 : . { . K U vXQ.cXIXGXVXGXGXGXGXSXVXLXGXO E IXVXvXcXcXcX9XcXzX0X9X9XcXyX!.8X0X0XdXxXcXcXcXVX. 2XPXLXGXPXGXGXGXIXcXIXDXxXvXSXGXCXVXSXLXGXGXGXGXVXVXtX- C * [.CXJXCXSXSXDXLXSXZXBXfXhXZXBXkXsXhXnXhXBXZXnX9XNX6 { UXi.8XzXiX1XyXg.yX1XuXlXzXVXVXVXvXVXVXNXcXVXVXNXyXUXK X p.SX7XV.V.$.V.~.~.kX2XiX!.!.!.!.A.V.. O k i > %.Y.n.n.c f n.n.n.T.n.n.n.n.m.c f M.N.B.N.$XbXmXmXkXkXaX@X2 q =X$XXX$X&X&X$XoX&X&XZ.oX$XoXq ..5XsXa.@ $ 1Xw.E Q.E.h.O.{ r.r.U 7       ",
"  0 - @.w.Q.~.p.t.E.2XQ.w.: : 9 # - 9 t.o.k ; R .... .Z.H.$XOXF.G.G.H.>.q.p - 6XcXdXiX8XrXT & ..BXdXiXiX8XQ.2X2X0X2X2X8X2X4X8X0.p ( k : . . : : X o o y { uXzXcXVXuXcXlX9XlXlXcXlXcXzXVXVXQ.o lXvXcXiXlXcXuX0XlX9X0X9XzXzXcXzXcX9XtX9X9XcXzXiXCXw w GXdXlXGXxX8X9XNXcXuXiX!.dXdXxXdXVX6XgXiXzX9XxXdX9XgXC q , nXSXDXJXCXVXBXhXoXOXwXqXeX+XC.pXpX6X5X6XmXrXwXtXgX8 NX2XF.p.Q.iX0Xq.i.cXcXvXvXvXvXvXvXcXlXuXuXcXcXcXNXxXcXyX* e.ZXV.$XkX-XF.E.V.(.8XvXxX!.!.V.V.iXp.9 9 u : z %.b n.n.T.n.m.n.T.I.I.T.).T.X.V | | M.H.@XaXaXpX-XH.&X$X8 -.N.-.}. XXXXXZ.XX.X.XXXZ.@XC.^ Z.F.OXa.% # ! ( +.#.{ O.@.{ x.{ ] 7       ",
"  3 % k @.p.p.p.W.Q.0XV.g.O j U X # 5 j $.> i.W.F.a.Z.G.C.G.oXG.oXoX#X#XOX2 $ JXjXrX6X6X8XxXW.W.iXdX7X7X8X7X8X8X6X0X7X2XsXrXwXtXJ : * O % 7 o k z Q.x.zXcXcXlXzXlXuXlXcXuXuXzXlXiXdXzXcXzXE X GXVXlXlXcXlXcXcX9XiX9XzXzX9X9XzXzX0X9XzXxXxXzX8XdXw ( BXvXNXzXxXBXVXNXgXgXxXxXxXgXxXNXBXvXvXhXxXNXxXdXdXgX/ , 2 NXZXBXmX5XOXZ.;.-.nXmXqX3X#XnXaXwXaX5XjXjX#XeXeXtXX 2XhXvXQ.X.t.i.z.E.0XlXuXlXvXcXzXzXzX9X9X9XuXcXuXuXuXzXuXt ' JXoX$XjX$XH.(.(.!.V.!.V.H.V.X.!.^.iX^.: > 9 s c M.c n.T.).T.I.n.I.I.I.n.T.n.M.c | N.H.Z.=X&XqX&XaXoXoXq aX$XXXXX7.Z. X XXX XXX.XXXZ.s.7.$XZ.a.Z.@ @ _ q.@.r.) @. .0.l.B K 7       ",
"  q 8 R E $.V.p.p.p.V.@.t.u : O o O o : y w.u.r.j.y.G.a.S.C.H..XoXoXoXOXeX/ 4 CX4X8X8X4X8X1X9X2X8XsX7X2X8X4X2XyX1X2X2X2X8X2X6XxXJ k X.; o o z.~.Q.vXlXzX0X0X9XuXzXuXzXzXiX9X9XzXlXzXzXdXvX2X: GXvXvXlXvXlXlXcX9XiXvXvXzXxXcXzXlX0X0XzXcXlX0XiXdX8 q.BXNXxXzXxXxXcXNXgXzXxXhXxXNXBXBXBXNXxXhXzXxXxXgXdXgX` 2 C LXDX&X-X@XH.bXkXBXhXxX6XH.H.jXfXfXsXjXfXhXfXfX3X^ H 4X8X~.~.x.x.p.h.Q.Q.E.^.Q.Q.0XuXuX9X9XdXuXgXzX9XtXzXzX0XU ' LXmX5XF.G.V.V.H.Y.V.!.!.H.V.N.H.H.X.^.k o > b Y.Y.n.n.n.n.T.T.I.T.T.n.m.T.n.D a | s.oX#XqXAXnX*X.X$XC.3 @X.XXX&XXX X Xs. Xs.XX.X Xs.].XX X1.C.F.@ @ ~ w.+.+.( ( +.) ' ] K 7       ",
"  q g.A.$.E p.A.$.@.E.A.w.#.7 : . O o t ,XG.f.S.+XZ.a.a.S.S.oXS.oX+XOXoX+Xf.r ZX4X2X4X1XW.!.1X2X7X2X8X4XsX8X2X1X2X,X2X8XW.2X4XsXj O 8 7 = ~.uXuXuXuX9X9XlX0XiXuXzXlX9X9XiXzXiXzXiX9XzXzXNXA.k VXcXuXlXcX9XzXvXcX9XcXcXzXzXvX9X9X0X!.iXzXzX2X8XgXp ,XSXBXgXNXNXNXNXVXVXBXxXcXcXNXVXBXBXvXxXhXxXxXxXxXzXdXy.$ Z JXpX| &XjXZ.8 hXLXDXDXhXH.1XBXVXZXD.( i.NXtXfXfXy.gXrXE.!.2XyXx.<X#.i.x.!.Q.!.!.h.0XW.!.0XyXyXyXyX8XuXuX9XcXh.4 CXA.F.!.G.H.!.!.V.V.!.F.E.A.Z.E.!.M.%.a k O > c c n.M.M.n.T.M.T.T.I.D I.J.f s c N.qX#X#XqX&X*X+X.X.XN.A $XXXZ.XXoX.XXXZ.7.7.7..XXX Xf.#X#XC.a.Z.| @ e i.i.p.i.[ [ [ { R U 5       ",
"  q ( Q.Q.p.E [ k u $.p.t.p.7 X $ [ k ` j.1.W a.oXj.a.a.C.a.a.S.F.+X+Xa.S._ p BX4X,X1X,X2X,X1X6X2XW.1X2X0XW.2X2XW.Q.,X2X2X2X4XrX9 % y } i vX~.uXuXuXuXuXcX9XzXzXzXlXuX9X9XdXzXzXzXcXzXcXNXyXz VXlX9XlXlX9XiXvXiX9XvXcXuXzXzX9X9X0X9X9XlXlXdXdXdXr j.BX2XxXVXNXZXNXCXVXNXBXxXxXgXvXNXNXBXBXhXNXNXgXcXcXBX<X2 eXJXqX^ ^ 1.A Z.#XjXSXDXjXjXZXZXCXNX4 4 . ` NXfXnX1XOXNXQ.E.!.Q.2X!.O.#.A.Q.Q.!.W.i.Q.cX9XyXyXQ.yX<X!.0X0X8XxXi.$ NXyX0X7X9XxX!.H.A.V.V.V.V.M.M.M.M.X.c = x a T s a c f c n.n.n.c g m.f D f s V H.B..X.X.XC.[.oX#X*X XS ^ &XXX.X@X.XZ.s.Z.s.5.8.s.#X.XC.d.oXC.1.e.f.@ + 0.@.i.#.O.@.#.{ U U 6       ",
"  S R ) K y u r 9 k r 9 9 9 . e j.[.j.a.a.f.u.u.S.C.a.a.+XS.C.a.a.a.oXj.S.e.Y cX4X1X<X<X1X1X,X2X,XF.,X2XD.1XW.1XW.,X,XW.,X2X,X,X4 % u o > uXuXuXuXuXlXcXuX0X9XlXdX9XzXzXtX9X9XdXzXNX9XzXcXcX9 VXuXlXuXiXiX9XzXzXcXcXcXdXcXzX9X9XiXcXiXQ.7X7XW.tX_ 0.xXNXdXZXVX1Xj.4XSXZXxXNXBXVXBXNXmXvXNXBXhXjXdXhXiXxXh.2 JXSXnXnXkXOX-XFXaXS 1.pXhXsXsXF.rX1 . 0 w . rXNXmXsX4X4Xp.p.2XtXQ.h.D.A.h.tX9XyXyX@.j.zXW.yX0X2X0X0X0X0XyX0X9Xw.: BXcX9XtXBX!.W.V.!.A.A.V.H.V.E.(.M.O = k Q.y.sXT X.s c s a s s s s s s s c D M.H.M.f.3X+XoX.XC.#XoX Xa S &XZ..X.X.XZ. X7.Z.d.f.f.s.s.f.a.Z.Z.a.u.a.% 2 0.E U ) +.) { { { B ,       ",
"  A e e k [ [ [ { O.O.E = . C j.j.,.f.j.d.f.a.a.j.+X+Xf.e.S.+XS.S.S.S.S.+Xe.r NX0XrX<X,X,X1X4XOXF.<X,XF.,X2X2XW.,X1X,X2XW.,X<X,X- - O o 9 lXlX~.uX9X9X9XuX9X0X9XzXcX8XzXcX9XtXzXiX9XdX9XdXw.9 GXiX9XzXVXvXiX9XvXcXcXvXvXcXzX0X9XzX9XiXA.!.W.W.dXe.H BXVXVXZX_ % . . y.CXxXxXxXBXBXNXxXNXBXhXhXhXhXsXsXBX1Xw JXZXmXBXZXmXBXZXnXnXnXZXnXwXsXfX3XD.:.J jXD.g.a.hXe.0 q tXtX9XtXxXzXzXgXdXxXuXNXdX!.zX9XzXzXtX0X0X0X0X0X2X4X4Xr.: NXe.[.eX&XCXCXAXtX<X4X+XOXQ.iXY.%.!.~.!.A.rXNXC q p.V.X.8 X.H.X.X.X.a a X.g.C.f.,.[..XC.d..X#X#Xs.f.3 p Z.Z.Z.8.s.Z..XZ.C.[.s.f.f.,.,.5.f.f.s.a.u.# 4 % 4 4 : * 5 5 t t $ 3       ",
"  2.@ $ O o o . . . . o * * ,XOXd.f.j.[.d.j.d.d.S.[.a.f.j..XS.G.C.S.OXS.D...( dX2X2X1X1X1X1X,X1X,XF.F.OX2XF.,X1XW.W.W.1X,Xg.1XA.O . O X z./.~.~.uXzX9X0X9XtX9X9X9X0X0X8XiXdXiX9XtX9XsX8XrXq.8 GXcXiXcXVXcX9X0XdXBXxXzXcXzXzXzX0X0X2XW.2X7X@.!.hXe.p CXNXAX$ . 2 6 6 . SXBXBXNXxXBXhXnXBXhXmXBXBXdXhXhXBX>.r LXSXBXBXhXnXBXnXnXnXaXnXnXwXfX5XfXmXnX1XhXBXnXOXeXZ @ w LXnXyX0X8XyX4X0X0XrXeX4X9XzXyX~.uXdXuXrX9XtX2X8X0X9XrX0.1 tX<X,.k.k.[.eX[.[.*XeXeX+Xt.$.A.sXDXiXG.u.tX[.$ X k G.Z.X.T V.H.A.X.T _ ;.f.d.+X[.d.d..Xd.a.$XeXs.f.3 a XX X7.Z.s.Z..X[.Z.s.f.7.[.4.2.5.7.[.f.f.Y % 4 r p w r r 1 1 1 6 4 3.      ",
"  2.# X P ` 0.r.t.j.j.] # # j.j.d.s.f.d.+Xj.d.j.d.f.k.S.C.,.a.Z.Z.G.S.C.j.q.0.4X1XW.W.Q.1XW.F.W.1XW.W.2XD.W.W.OXW.W.D.,XF.F.W.( . H * & uX~.~.uXuXuXuXzXdXzXcXuX0X0X9X0X0X9X8X0X8X8XrXdX8X8Xp VXzXiXcXiX9XiX9XiXvXxXdXiXzXzXzX9X8X0X!.8XsXiXzXBXa.e SXhXrX` X X . . C ZXBXNXxXmXBXmXxXBXxXmXhXBXfXhXfXNX1.C PXJXmXjXjXnXnXaXwXnXwXnXmXZXnX1.aXfXjX5X3XfX,X+XaXtXe 2 NXBX4XdXyX4X8X8X0X<X<Xj.Q.9X~.0X0X0X0X!.0X0X9XiX9X0XuX@.9 zX+X<XrXtXZXAX[.] ~ m M q - T 7X6XgXy.a.,X[.i.H $ . Y @.T & Z ~ Y | | ,._ f.f.f.+X+X[.[.+XC.a.1.f.f.Z % qXC.s.f.s.s.s.7.s.s.s.f.].<.-.1.8.k.,.^ $ % $ C p H r 5 B B 6 6 4         ",
"  2.+ 4 tXvXVXVXVXCXCX0.X # h.G.+Xf.f.f.j.+X+Xj.j.D.OX1X,Xu.y.S.a.oXF.S.+XG.9 zX0XF.Q.2XOXW.W.W.D.W.W.,XW.F.<XW.F.D.D.D.D.G.V.6 K Q.* . ~.~.uXlXlXlX9XzXcXzXzXzXdXuX0XzXiXdXtXdXdXdXdX8XhXNX- BX9XiXlXiXzXiXgXvXiXiXzXzX0XdXtXzXzXW.dXhX7XvXiXrXG.8 NXiXgXtXtXZXL e.CXNXgXhXNXNXhXNXhXBXmXNXkXhXjXhXfXmX,.2 mXDXmXmXaXfXbXnXnXaXaXZXmXmXmXjX#XmXaXoXqXqXoX#XnXZXgX- . nX<XF.2X,X,Xj.A.<X<X4XA.w.i.x.Q.A.E.2XyX2X1X8XlXuX9XE : VXtX+X[.+XUXUXk.[.k.q.e C ; : F.4XD.+XD.j.y.yX0.# % X q.u.u.a.q.J q.>...a.oX5.^ +X3X+X+XC.| 1.1.f.Z.^ < 8.s.a.d.d.Z.s.f.s.f.8.2.2.4.~ S W A 2 @ + X 4 e j H K *.` w 4 * 1         ",
"  8.& 8 Q.lXiX~.9X9X9X` & - G.>.| j.G.u.A.F.2XA.p.O.A.y.w.i.<X<XF.A.D...D.( * 0X0XW.W.7XW.W.2XF.V.6X1X2XW.W.V.W.g.u.F. .J q.y.Q.x.H 7 { E.^.~.~.9XzXzXcXcXcXdXtXzXtXdXcXNXxXxXxXhXdXdXsXhXjX2 DXdXjXdXNXBXBXVXxX9XxXzXgXzXcXcXzXiXdXzXxXvXvXhXhX[.4 . p.X.iXxXSXNXNXxXNXhXNXNXnXBXNXBXBXBXmXNXBXfXNXnXNX| < . JXDXmXBXnXmXnXnXnXnXZXZXMXmXmXMX<.Z.&XqX#X#X3XhX4X8Xe.#  .1Xj.F.j.<XxXCXNXxXgXtX2X<XxXdXgXnX+X<X3X3XS.i.V.h.j w wX[.XX2.2.].=.[.k.=.0.r.w.9 ; l 7Xu.1.Z.V.u.Z.g.$ & + 5 ~ ,.>...q ~  .u.OX,X.Xj.d.+Xd.[.f.1..X$XG.a.f.@ 3 +X.Xf.d.C.[.d.d.4.4.5.8.2.<.~ ;.*.^ L % @ 6 r w 8 w 6 . . . . w         ",
"  2.X 8 @.@.%.^.^.W.<X0.& C V.p.l X.A.H.%.o.o.X.9 . . . . : t.Q.) +.A.h.% # . . r P w.p.A.V.p.w.+.q.q.E 9 8 : r 7 7 : * ) A.i.w.I * 4 u . [ U p.z.V.g.p.h.V.W.W.<Xh.W.Q.Q.W.2X1X,X1X<XD.D.Z 8 BX7XOXF.2X8XiX2XQ.W.V.p.p.V.A.V.Q.A.A.V.i.A.w.h.+.t , 6 ( 2XdXxXBX8Xy.vXsXsXsX6X6XsXwXfXwX7X6X6XqXqX6XwXqX~ 2 X 4X1X3X#XnXnXnXmXnXbXAXaXfXnXmXfXS.^ S.fXpXC.jXBXnXAXa.p T Y i.i.@.E / i.r.+.t.<X4X*.tXeXnX<Xe.k.k.d.j.Y . 9 1 9  .~ -.=.&.l.l.*.l.' k.[.:.) 8 8 V.F.u.X.>.V.k p & % r & 6 m / ! H ( W ^ T ! ^ ^ *.W Z ^ ! ~ ;.;.^ ^ ~ 0 0 Q ^ Z A ^ ^ W Z q Z C M 2 0 :.f.:.:.*.' $ # + . X 5 I J P I I 0.].      ",
"  &.. p A.F.@.%.E.E.2Xa.+ H E.E.^.M.c M.M.n.b f l X.E = & . . . . r j j = X 9 #.y * @.p.$.V.!.Q.#.p.lX9XE.A.w.E.@.w.W.9 #.y k U 7 o o @.x.w.xXVXVXVXVXSXFXGXxX6X8XBXDXVXBXBX2XiXNXCXSXSXSX2 . W.sXhXdX4X8XsXgXiXg.,XxXxXtX0XW.W.9XrXzXxXNXxXyXQ.*.% ) g.k  .+.Y . . q F.CXNXsX6XfXhXmXfX3X$X+X4XqXqXOX,.( - +XNXwX#XfXnXnXfXeXwXsXnXfXnX8XsXDXCX7X2XVXcXrXfX*X[.W 5 . / NXVXCXVXNXcXxXCXCXVXVXvXQ.z.cXcX0X9XyX~.yXuXQ.yXi.% - i.G.j.g.q.0.0.=.*.&.*.*.;.T ^ X.>.@.H.pXxXV.T @.X.l o.l : 9 E 7 : e T K T ! J P L e e C m m r @ 3 0 0 2 2 @ 0 C L w 0 0 4 q , X + + @ :.f.f.f.,Xk.+ X X r.q.r.i.j.h.x.i.W.r       ",
"  2.X ( dX2X^.~.(.^.W.q.. # i.V.(.M.M.c d d s M.b o.9 X $ U l.[ y . . . & ) z.yXx.<X4XQ.X.o.) Q.1XW.0XxXlXVXiXdX!.8XGXA.g.gX9XyXUX5 U LXGX!.9XvXcXvXDXBXSXSXBXsXsXgXDXGXCXBXsXjXhXjXNXpXnX2 >.nXBXCXJXLXJXZXBXZX6XZXCXSXCXSXZXhXBXdXhXCXVXGXCXCXtX+ NXCXfXW.g.g.g.g.g.SXSXDXCXZXDXSXZXDXZXZXDXSXDXJXZXJXoX@ aXJXZXZXjXmXnXBXmXBXmXBXDXhXNXVXp.dXcX~.9XlXSXVXU 7 % % 9XLXGXCXVXVXVXVXVXCXCXxXrXgX9XQ.0XuXuXQ.0X9XuXvXuXvXuXo.A.cX6XA.yX!.Q.yXyXAX<X<X-.V.>.E V.V.a z >.F.k c M.X.z 9 u y u * . : E #.@.p.w. .( ` Y  .q.+._ r.,X<Xg.0.J - 2 ( ( >.e.+.*.:.*.q , 2 + 0 :.e.@.X./ h.$ & @ x.#.@.w.#.t.t.+.t.J S     ",
"  =.@ ` tXzXE.p.$.$.Q.g.# ,XzXp.E.f c M.s c X.z l O . : t.^.z.c.~.#.o o o U z.z.p./ H y.W.W.q.g.h.j.y.y.Q.F.2XW.V.S.A.OX6XpXF.7XNXe / LXVX2XdXiXxXiXxXiXdXxX!.dXxX7X7XsXpXkXmXjXnXaXeX&XaXa JXDX5X5XaXaXkX-X@X-X-X5X-X-X5XkX-XpXkX5X-XkX-XsXF.ZXJX2 ZXSXZXDXSXSXSXDXDXBXmXmXjXnXaXaX&XpXaXaXkXMXkXbXbXkXaX3 < -X=X5X&X#X$X5XqXpXaXqXaXpXaXfXp D.!.Q.~.E.Q.lXp.5 w 2 PXSXNXNXNXgXNXNXzX4XyXtXrXtXrXzX8XtXtXyXyXyXuXx.yXuX~.c.Q.GXNXt.#.} x.yX4XtX!.i.w.w.$.$.u.k E E E x h l h u : = O O > ; h >.o.X.V.V.u.o.@.@.z T 9 z T $.t.@.@.O. .k a @.w. . .Y J J 6 m 0 6 $ 0 :.:.k z Q.yX5 # $ j.+.@.w.#.@.@.O.O.K 3     ",
"  S , R 2X!.!.Q.p.0XyX` # yXiXh Y.Y.c O c b $.p.K : o O.z.c.c.c.c.~.9 X . k p.$.x.E # Q.dXQ.A.W.h.OXD.D.D.OX1X1XOX,Xg.1XG.1X4XwXVXp J PXGX8XdXgXjXhXmXkXsXpXjXkXkXjX7XsXjXpXaXaXbXaX&XaXMXG bXmX=XmXaXnX-XkXbXMXbXmX-XkXjXbXkXbXaXkXkXBX$XhXZXnXZX@ DXaXfXnXjXjXpXpXfXnXnXbXbXaXnXaXbXbXaXbXbX;XkX;X;X=XMX8 JXkXmX=X5XpXjXpXaXqXqXpXaXnXmXD.% y.A.0XuXuX0XQ.@.r q @ tXNXZXNXNXNXnXAXtXtXtXtXtXnXrXrXtXtXtXtXtX9XuXuXcXzXcXz.{ cXgXyXyXx.UXtXj.x.9Xj.) +.k o.c.} x x b b c x } U * % * - : X.M.M.X.@.@.@.$.o.%.O.E X.E $.@.$.E z p.$.@.o.a T w.r.@.X.( R ` H L W 0 m :.q.y.p.Q.<Xr % # x.t.t.@.{ O.@.{ +.Y 0     ",
"  3 2 K Q.~.E.Q.~.yXQ.r X X.8Xo.b Y.o h z z o.~.@.= j E.z.^.c.^./.uX7 o X 0Xp.z.Q.p.# +.i.0XW.h.g.G.g.S.j.+Xj.+XF.F.OXD.F.1X1XyXZXr p PXLXW.A.2X7XdXhXkXqXpXpXjX5XhXmXpXaX&XbXbXbXjXbXbX;X{.=XMXbX&XaX=X=XMXMXbX=XMXkXmXbXkXkXkXbXkXkXkXmXkXmXfXZX0 JXMXnXnXnXmXnXaXfXnXbXpXjXbXMXbXbXbXbXaXbXbXbX;XbXkX&XN @XmXnXaX&X=XaXeXpXaXaX5XfX5XfXpX@ 8 W.W.E.h.Q.Q.x.) % 2 T JXNXtXAXnXtXtXrXeXtXAXwXwXfXAXtXrXrXeXrX4XtXNXtXNXxX/ ] tXl.UXAXAXB ] yXj.y.Q.u.u.@.l l %.i i c.c.x l h = * i c d d l a s E p.p.A.Q.O.l @.o.E o.@.$.E O.O.z E @.t.$ k q...0.y.+. .r.q._ ' 0 P P / D.2XQ.Q.p & * Q.t.w.{ #.{ @.#.+.U 6     ",
"  q + K p.Q.0X~.~.Q.Q./ & % @.E > l h $.k k h k * = 7 @.#.#.$.[ #.} . . = ~.t.z.Q.x.% j.0X0XD.A.g.g.i.a.S.D.W.j.,XW.W.F.G.F.8XrXBXp q PXCXA.F.4XhXjXpXkXkXjXqXkXaXkXmXbXaXaXbXbXbXbXbXbX:XD |.MX=X-X-X=XbXkX=X-XkXbXbXkXjX=XjXaXkXaXjXmXBXjX7X+X*X2 ZXmXfXnXnXbXnXaXnXbXnXbXaXbXnXbXaXbXbXbXbXbXbXMXbXMX=XD MXjXnXaXpXaXaXaXjXaXaXnXfXfXmXmX- - C g.w.%.t.+.r.r.9 8 6 LXNXtXeXtXtXeXtXtXwXtXrXtXtXwXtXtXtXeXrXtXtXtXgXzXNXw.] IX] yXVXNXl.t P x.h.W.2X8X!.(.T.R.T.x h o.l = 9 c Y.L.n.P.b.g f f c o.M.Y.l X.o.X.o.E $.V.O.w.l X.E U p.{ X 9 w.+.) +.( +.+. ./ w e J j t.Q.2XQ.W.T X & h.+.+.@.#.t.@.+.t.R 2     ",
"  -.X ( h.vXlX(.~.0X0XtX% @ X 8 ) $.Q.p.$.#.[ @.r O . . X . . . X . 7 r : @.t.p.z.i.0.x.2X0Xh.A.A.a...e.G.D.D.,X<XW.1X5Xg.S.6X2XNXH 6 LXBX8XW.pXmXnXpXpXpXjX$XjXaXaXaXbXMXbX;X=X;X;X;XbX:XD |.DXMXMX=XaX;X=X-XjXbXbXkX-X-X-XmXmXkXjXaXkXmXmXf.tXAX, BXnXaXnXnXjXnXnXmXbXnXaXaXbXbXbXbXbXmXMXMXaXbXMX;XMX=XF MXMXaXmXaXjXbXjXaXjXjXaXnXfXnXNXX - 6 8 ^ ^ ) (  .q.e ` t gXeXtXAXrXtXtXtXfXrXrXtXAXnXtXfXtXeXrXtXgXgXgXcXcXVXo.#.GXcXzXp.U t.t.I +.j.i.Q.E.%.M.n.n.Y.^.M.#.: ; Y.T.I.U.K.U.m.m.m.U.I.I.K.m.d a z 9 U O.$.$.E K E O.U R U 6 * P O.) P p k ( K / ` ] P K K +.@.y.@.p.( X & p.+.+.@.{ O.[ t.{ U q     ",
"  &.X D.W.cX9X(.uXuXtXtX6 % r.O.{ { z.z.z.t.t.Q.{ # X O . : 9 u [ z.x.z.= y Q.z.i.p.i.h.D.h.g.D.h.g.u.D.<Xj.4X<X1X1X2X5XG.G.W.2XNXQ 8 LXCX1Xy.G.2XZXpXOXpXfX5XZ.aXnXbXbXbXMX;X=X=X=X=X&X;X>X|.KXMXMXbX=XbXbXMXMXkX=X=XkX=XkXaXkX-XaXaXaXpXnXpXnXAX0 JXjXnXjXnXnXbXwXbXAXbXbXwXnXaXbXnXaXbXbXbXmXMXMXMXMX;XG MXMXmXmXmXmXmXmXmXMXnXnXjXjXsXfXa.- 2 2 8 p p p 8 e 4 , % X t r.tXNXAXtXAXtXtXtXAXNXnXtXtXAXtXAXAXgXtXNXzXzXvX} p.VXyXUXyXx.tXyX] r B R +.M.M.M./.M.%.M.T k > z Y.P.m.m.U.m.U.U.m.U.U.U.P.n.n.d d ; > d i > : l o.o.z u 7 = 9 ) +.` 0.{ / +.) +.) ' ] ] P E @.i.p.i.Y X % W.{ { E U U U { U r 8     ",
"  M # W 1XV.V.V.^.!.Q.k.6 -  .O.l O.#.#.p.z.z.x.R # X X K #.#.#.#.#.o.z.k * Q.z.#.p.i.x.Q.h.h.h.g.g.a.2X<XG.D.D.,X<X!.!.V.H.iXhXVX/ 6 JXVXrX@.a.fXZX#XoX6XhXmXjX=XaX-X=XbX=X&X=X&X=X;X;X;X|.|.KXMX=X=X;XMXkX;XkX=XbXbXbXbXbX=XbXkXaXkXaXaXkXaXeXAX0 ZXmXaXfXnXnXwXbXbXbXbXnXbXbXbXnXaXaXbXbXbXMXMXbXMXMX|.F KXmXmXjXmXjXmXnXjXjXjXbXnXmXhXfXJX2 @ $ % L ! p 4 + + 8 ' I e . 6 eXZXtXAXtXAXAXgXgXAXAXtXtXAXtXtXAXtXtXtXzX9Xu 9 uX9Xx.[.<Xx.B Q ] ] x.Q.u.M.(.(.n.c c %.V.X.(.T.U.m.m.U.U.U.).K.U.U.I.P.m.f v b.v m.L.L.g n b b %.%.[ = 4 ` +.) w.w.i.) w.) E  ./ ) +.R Y i.i.p.h.q.. & ) R R U ] E ] R U : q     ",
"  M , % -  .V.V.$.$.V.2Xw % 8 X.E o.o.#.$.z.^.Q.U # & y k 7 7 i > u z h [ : Q.x.p.i.j.h.A.h.A.D.g.p.u.W.<Xj.: 0.,X2XF.A.H.!.dX8XnXT 6 LXBXdX6X5XfXqXOXOX#XaXmXjX$X=X=X=X;X=X=X;X;X;X=XbX;X|.F KX;X&X=XbX=X;XMX;XMXMXmX-X-X=X-XkX=XaXaXaXaXnXqXtXnX< ZXnXqXnXbXpXpXAXAXnXmXmXbXwXbXbXmXMXbXkX=XbXbXbX;XMX>X{.LXjXaXMXkXjXMXjXmXjXjXnXjXnXhXnXDXq % 2 2 - . . 5 E tXVXVXtXtXP & , eXNXbXtXtXgXAXtXtXtXAXgXtXAXAXtXtXAXgXdXcX7 [ cXtX9X0XyXj.x.h.@.0.t.,XR X.V.c d c b M.^.c M.m.m.U.I.P.m.K.U.U.U.P.K.P.b.P.b.m.g g b.v P.v d z u : o # 9 R R H k ) r.+.` +.R / E +.i.E 6 j.Q.Q.x.f.& X { ) { [ [ E [ E y & ~     ",
"  0 2 D.u.8 X.@.+.V.2XtXj , ..p E #.p.p.z.^.~.uX9 o X : 1 y y 6 7 1 # . o = U Q.h.E.D.Q.W.,XD.A.D.W.y.g.2Xw.O p ,Xw. .V.1XpX8XrXNXQ 0 JXNXBX6XdXfXwXpXjXnXmXaXqXaXaXbXbXbX%X;XbX;X;XMX;X;X:XD KX=X;X;XMX=X;X=XbX=X=X=X=XkX-X=XkXaXaX-XMXkXaXjXpXZX6 JXjXwXbXnXaXnXbXnXZXmXbXaXMXbXbXMXnXbXbX;XbXMXMXMXKXF D bXbXMXmXjXMXbXmXjXjXjXjXaXhXhXBX+X6 2 5 2 - % g.8XrXzX9XyXUXyXtXt # . SXeXtXAXAXtXgXtXAXtXAXAXAXeXAXNXeX<XyXW.* E NX9XzXcXzXtXzXiX0X9X9X<X<Xp.Q.E.E.%.%.o.o.h X f m.K.P.U.K.U.U.K.K.g v g g f f v g m.g m.n.b z . & & 1 5 & 7 6 9 8 8 9 r j p j j r r y e U h.Q.h.x.j.X X i.t.{ @.} @.} [ w.4 f.    ",
"  < P 2X!.A.V.%.E.V.p.Q.J 6 P 4 * E x.p.o.%.$.#.O # & 5 { { t.@.{ { y u * * 7 x.x.@.2XQ.Q.<X,XD.D.W.D.h.g.Y & X (  .g.3XoXOX,XD.qXZ Z SXBXNX4XdXfXaXqXfXjXfX&X&X&XbXbX&X;XbXaX;X;X;X=X;X;X|.>XKX;XkX;X-XMXMXMXMXMX-XkXMXMXbXbXMXaXaXjXjXmXmX5Xe.k.2 j.ZXbXnXeXaXnXmXnXbXjXaXaXnXnXbXbXbXbXbXbX=XMXbXMX;XV G -XaXmXbXbXjXmXjXMXmXmXmXmXmXmX$X. . . . X - 9 gXhXfXwX9XzXQ.yXyX<X1 & r.NXnXnXNXgXAXAXtXtXtXgXtXtX<XgX<X+.R 7 = X O.E @.@.w.p.i.E.p.h.x.0X9XuXiXQ.E.V.$.%.$.%.s n.T.P.K.K.K.U.K.K.g K.K.f d n g v v f n.K.f z > = : U E K j U ) U  .E ) E U E E U a 9 j t x.j.i.x.j.<X. . x.{ #.{ #.#.{ K Q.K a.    ",
"  @ ( 1XW.~.^.^.^.$.o.E.r , * # X . $ 6 7 9 : * # # % t u = O > u k k U I * : y k 7 h.W.x.,XQ.Q.Q.D.A.D.D.w.p J K <XrX<XeX<X3Xe.^ 2 q 4XOX+Xa.d.d.S..X+X&XqXbX#X%X;XKXMXbX;X;X:X:X:X;X:X;XD >XKX;X;X|.|.|.-X@X|.-X-X-XH.1.Z.H.H.oXC.1XoXH.y.a r . - . nX+XS.3XwX3X3X$XF.OX5X5XaX#X#XqXaXbXjXbXMXbXbX;X;XF D N.N.N.Z.1.1.1.1.1.1.>.1.f.a...p A.7XtX6X2 X . . f.D.<XyXzX0Xx.x.t.. 6 B yX<XyX<X,XUX[.x.<XtX<X[.yXrXyX8X8X<XQ.o @.#.R { #.} E [ E E [ @.%.$.$.%.%.%.%.o.E X.@.c c T.I.P.v P.U.R.U.K.K.v n n n b b g v P.n.c h h l p E O.@.@.#.X.) E ) { ( +.{ ) k U 5 7 0 tXw.h.h.j.r.. & <X0.{ E K y J y I 9 _     ",
"  @ e 1XA.!.!.~.Q.E.7X9Xw 6 w 0Xw.+.t.i.p.$.t.t.# # : y j y k p.@.{ [ E y o u p.Q.Q.Q.Q.Q.<X<XQ.Q.x.Q.<X<X<X<XrXgXdXdXjXrXrXNXNXfX. . +X3XeX3X3X3X#XeXbXqXbXMXnX:XbXMXmXbX=X;X;X;X;XMX;X;X>XV {.|.-XMXKXMXMX$XN.H.-XjXjX6X5X5X5X6XW.a.; ; o 9 U q.4 % 5 @.Q.Q.W.dXxXfX7XF.G.@.V.+Xy.,.>.>...;.1.>.Z.N.MX|.F =XbX6XaXkXkXaXkXkXjX5XsXBXBXLXLXPXPXLXLXLXLXzXA.: . U ] [ [ z = = 0XGXIX9X9XvXNXNXNXgXVXVXVXxXzXgXtXtX4XyXyXuX7 cXVXuXuX~.0X~.0X9XlX0X~.E.Y.E.E.E.V.$.$.V.M.E.h . T.v Y.g g K.U.U.g g f Y.d = > > s b n d > = 9 U 9 : 9 9 r j j U U E O.#.i.@.{ +.+.y * 4 4Xj.h.h.r.Q & # I 6 o * o * t r 9 r 4     ",
"  2 % C H p k Y U E t.UXw 5 k ,X+.g.h.Q.p.t.h.w.# O 4 9 : k #.O.E E K k 7 # U x.h.Q.p.y.i.i.y.p.i.p.g.h.Q.W.A.h.A.D.1X<XOX,XrXD.1X~ 8 DXBXjXjXkXnXpXjXkXaXkX$X&X$X=X-X-X%X=XaX-X;XkX=X-X-X:XG MXkX-XDXDXDXmXH.5XG.C.F.wXkXjX6XpX6X7XjX9 ; T j U y : X 4XcXvXVXBXGXLXLXLXGXSXjXhXJXLXLXJXSXLXDXaXjXkXZXJXF >XKXLXDXDXDXDXJXJXSXSXFXBXjXhXBXFXBXBXxXiXFXGXLXLXLX9X5 o #.@.7 cXIXCXcXvXvXBXvXgXtX8XyXzXyX0XrXwX4X4X1X4X2XyXyXk 0XuXuXuXuX~.uXuXuX9XQ.$.E.!.^.V.%.%.%.X.$.$.u.X ; Y.b d v L.Y.P.v v b n c > o = . > 9 > o - 9 I J t :.y.@.+.@.{ o & k u K E +.0.i.+.u # { UXw.r.i.i.B + + . I x.yX~.0XuXuXuXuXj     ",
"  0 2 H P /  .q.0.l.t i.6 6  .p @.w.@.i.@.t.t.*.$ * 5 K U k @.O.U @.[ { t 1 +.x.E.h.p.g.g.V.g.g.u.p.V.A.W.W.Q.1XW.W.D.j.j.a.D.a.G.a.p pX7X1X$X7X#XoXoX&X-XaX-X=XaX5X=X=X=X=X-X=X-X=X-X=X;X>X;XKXFXMXkXMXkXaXpXkXjXqX$XoXOX#XF.OXOX1X1XOX>.p 9 w 7 6 # 2XsXpX7X7XG.F.H.7XkXFXBXmXDXDXBXhXMXDXFXMXmXaXZ.mXF F ;X=XaXaX&X$XkXkXqX5XkX$X#X3X5XkX7X5X!.kXiXkX$X(.8XSXBXU . . VXNXrX4XtXgXrXrXrXrX4X4XrXtX4XeXeX4X3X<X,X1XF.F.W.7 uXvXcXcXuXuXuXuXuX!.l ; l o.d d d c s > O X . O c n.g K.f n n f v T.i h = #.{ r - O 9 8 - 5 p Z q m Z ,.f.q.( ) E 9 O r y 9 = 4 : 7 . 5 cXtXj.i.i.i.I X X X Q.~.^.~.~.~.uXz.E.9     ",
"  0 $ R y.D.2X1X2Xj.i.0.. $ ) r 0.q.+.) { { ' { 1 * H t.t.U #.t.z.#.{ { 6 5 { x.h.x.Q.A.Q.A.A.g.A.p.A.F.Q.A.A.D.W.h.F.W.OX+XOXa.1.G.>.DXG.$X5X$X$X&X-X-X-X5X-XkX-XaXqX-X=X-X=X=X-X=X-X-X;XB.:XMXMXkX-XkXnXDXqXaXaXpX5X#X3X#XOX5XOXF.Z.6XpX,Xw . 8 6 % CXhXrX1X7X7X6XpX7XkXkXjXDXLXDXpXkXkXjXkXkXbXbX$X$XJ.G ;X;X=X=X=XaX=XaXaX=XaXqXaXaXpXfXpXpX7X7X!.7X7X7XkXiXdXBXy i.VX8XyXtXtXtXeXeXrXeXrX4X4X1X3X<X,X#X3X1X3XOXOXW.0X: yXvXuX0XuXuXuXuXuXz.p a ; l z o.d cX@.@.+.P r . ; v v v n d d > d l > = K t.0.Q I m 6 2 t W _ ^ ~ ~ S C *.e.( O.U u t [ i.@.y { { { * ] cX0Xi.x.h.x.] + o X uX^.z.$.c.#.c.} a 6     ",
"  0 8 4 J K j K Y +.h.j.% X w ! q r.0.+.O.E { r.1 * ] i.[ k O.z.p.#.z.x.6 7 r x.A.A.Q.W.A.g.A.A.p.g.D.W.W.D.W.A.D.D.D.h.,X,XOXy.a.jXT BXOX!.OX$X7X$XpX$X5X5X&X$X-X-X&X=X=X-X-X-X=X-X=X-XkXB.;XMXkX=XaXkXpX$X$X5XfX5X5X3X5X3XoX#XOX7XF.F.F.sX+Xk.+ 8 X jX2X7X6X1X6X6X6X7XpXsXkX6XkXjXjXpX-XkXMXbXbXbX-X;XJ.F |.%XbXbX=XaXaX=XaXaX=XpXaXqXwXpXkXpXkXkX5X7X7X6XsX7XrXNX9 VXcXtXtXtX4XwXtXeXqX4XeXwXeXeXwX3XeX3X<XeX3X3X,X<XyX: yXcXuXyXx.uXx.UXh.u.j p . a : 9 zXSXxXxXNX9XtXBX+.= h n v g d x > : 6 & Q.t.0.r.{ *./ H m r Q ~ ..&.;.Z *.0.X.p = y E 9 t.w.y U @.: * t.8Xi.i.r.j.i.' + % X x.c.#.[ [ [ E U k 6 S   ",
"  0 q ) 0.) t.X.+.Q.g.w.$ # *.e.q.e.+.+.#.#.+. .6 $ U +.j k #.#.@.O.#.i.y 5 e Q.0X<XQ.Q.W.V.g.p.V.g.A.D.W.W.j.j.j.W.j.OX<X<X<XS.u.Z.2 F.F.7X$X7X5XqX5X$X$X&X$X5X-X-X=X5X-X&X-X-X-X&XaX&X=XV B.MXbXkX5XqXpX&X$X5X5X5X5XwXwX3X#XOXOX1XF.F.1XOXqXnX-.. X NX7XA.!.7X7X7X6X7X5XsXsXhXhXmXmXFXmXZXkX;X=XaX%X;X{.D |.%XMXbX=XaXaXaXaXaX&XaXpXaXjXfXkX5XkXkXkX!.7X6X6X4X<X2Xh cX9X8XrXrXrXwXeX3XeX4XeX4X3X4XeXwXyXeX<XeX<X<X<X4XdXj 0XzXiX0X0XyXyXp.Q.+.9 j k : r ) 9X+.g.W.1XQ.W.cXvXzX* u l x i . . . 0X= z +.E i.w.p.@.@. .T k X.;...u.Y R 9 X * y y } B U B r * * 4 # 9 g.f.h.j.+.+.] + # . = U E E [ [ E O.E 7 3   ",
"  0 6 0. .) +.) ( :.i.g.r # J j.Q.i.t.+.@.p.@.( 6 O U p.O.7 t.#.{ [ ) [ y * U x.Q.Q.W.Q.A.A.A.g.A.D.g.h.g.j.h.g.D.g.D.,X+XD.e.G.eX,X..g.!.5X$X5X6X$X$XkX5X5X$X-X$X$X$X&X$X-X-X5X$X=X-X-XaX^ 9.FXjXkXpXpXfX6XpXOX1X5X3X3XwX5X1X3XOXOXF.wX5X4Xa.+XnXNX- LXdXsXsXdXBXDXhXsXsXpXpX5XjXjXmXjXmX-XH.H.&X&X=XMX|.{.;XKXbXbXaXaXMXaX&X&XaXaXaXaXaXpXkXpX5X5X!.kX1X5XwX4X1X<XQ.zXtXrX4X8XwXeX4XeX<X4XeXeXeXwX4X4XeXeXeXyX<XyX<XyX8X: p.vX0XxX9X0X~.p.i.@.k #.D.Q.tXA.Q.i.2XA.E.V.W.!.0.<X9 % # X .  .i.Q.yXp.E R w.g.w.u.p.V.p.p.p.p.V. .r k j O k #.l.} { } { { U B 7 6 # % :.i.+.) ` { l.+ , o +.@.l U { o.#.o.O.9 ,   ",
"  M $ O : 6 6 6 5 w m e L % q 0.k q.@.@.+.+.@.r.9 % Q.Q.@.O.#.$.@.[ { t.l.7 y i.{ k +.x.j.D.F.g.g.g.S.g.j.j.j.D.D.g.g.A.g.S.a.+Xf.OX....wX6X7X1X$X5X6XkX$X$X$X$X5X-X$X$X&X$X$X&X-X-X&X-XkXB.-.MX5XpXjXhXmX7XaX5XpX5X5X5XpXpX3X5X6XF.F.sX1XOXF.q.NX0.- SXhXsXsXsXjXpX6XkXjXhXnX&XA 3.8.-.3.-XbXkXbXbXbXbX|.D KX;XbXbXaXbXaXbXaXaXkXjXjXjXpXpXpXkX5XkXH.F.6X5X6X1X4XgXp.vXrXrXwXeXwX4X<XeXqXeX4X4X3X3X4XeXeX<XeX<X3X<X<XyXW.8 z VXV.p.!.A.w.) ( t.u.w.V.6X7XhX7XW.A.G.V.G.g.g.k.j.( $ X R Q.hXDXVXdXg.T y.h.j.q. .u.p.u.p.p.Q.9X0Xh.{ O 9 } { U U { U { ] U [ ' ] % 6 j.<Xh.UXUXk.l.1 1 + h.X.y +.z.t.p.#.[ 9 $   ",
"  0 2 ` +.y.j.y.i.g.y.r.q # r >.( Y w.y.@.0.y.k.t * yXt.l p.t.{ t.z.t.@.) : y i.i.i.X E Q.D.h.i.y.g.g.a.G.j.D.j.j.D.G.D.j.A.G.D.d.;.Y p hX5X7XF.7X7X$X$XF.$X$X$XH.H.-X5X7X$X-X$X&X$X5X&X-XJ.F bXH.5XjXBXBXmXhXpXpX5X$X1X6X3X4X4X6X1XW.7XF.OXV.rXNXxXp SXsX2XW.F.F.F.F.6XsXdXpXaXN.aX=X-XbXbXMXMXMXbXbX;X%XG MXbXaXaX=XaX=XaXaXjXaXaXaXkXpXpXpXpX$X7XF.Z.F.F.2X1X,XtXK cX8X4X2XeXeX4X4XeXwXeXeX4X3X<X3X<XeX#X<XeX+XeX<X[.xX9 X.GX7X!.p.w. .q.w.u.A.g.,Xh.u.,XA.A.F.A.G.y.A.a.j.<XT % R 0X9Xt.E.VXh.p.g.y.f.j.i.i.i.p.t.V.V.p.V.p.x.9X9 6 U y U U B u 7 U @.E B ` $ 5 <XrXyXyXx.] [., 1 o 4 e ) { +.E k 7 u 9 2   ",
"  3 6 q.q.( ..,X<X<Xx.j.4 + 2 ` r g.A.+.w.i.0.{ 6 : { O.E t.i.#.t.#.t.{ i.u { t.p.) % { <Xj.g.a.g.g.j.h.j.j.,Xj.g.g.G.F.j.a.V.G.1XsX..p xXF.F.7X7X$X1XF.H.$XOX$X5X5X7X$XH.$X5X5X$X$X$X-X=X|.J.MX4X5XhXkX..( J fXsX7X1X6X6X4X1X6X4XwX4X<X4X1X1XrXtX' 8 BXF.!.F.7X7XiXjXhXNXhX5XH.7XmXmX=XaX@X-X-X-X-X$X=X:XG ;X*XaX=X=X=XbXaXbXaXaX&X5X5XpX5XpXkX7XH.7XH.Z.V.W.7X2XQ.E 0X6X5X6X4X4X<XeXeXwX3X4X3XeX<X<XeX3X<X+XeX,X1X2XrXVX9 8XiX1X6Xw.u.D.F.F.D.W.OXG.W.G.V.1XG.F.F.G.1XW.rX4XrX8 6 zX8XQ.H.@.F.a.u.a.g.OXA.g.y.u.w.u.a.V.y.p.Z.q.<XK * { O.[ { } [ R { [ U U U # 5 yXyXj.r.i.l.[.# # # <X{ E R U U #.t.} 9 %   ",
"  0 6 ( _ e.k.0.' 0.w.q.- X ` :./ y.@. .Y R ` R 4 $ K { ) { O.E E t.o.#.U h k E r o I l./ w.g.j.i.g.h.h.+Xh.j.j.g.g.g.A.A.V.G.8Xq.2XJ T rXF.7X5X5X!.OXF.G.H.F.$X-X$X$X$XoX7X$X5X5X$X5X&XaX-.A JXjXa.F.( X.Y ; 7XhX,X2X6XsXpX2X7XsX6XD.F.OX1X1XD.tX. . xX8XsXdXdXjXsXsXsXOXoXu.C.kX=XkX-X-X@X$X@X$X-X&X@X%XG KXbXbXaXaXjXbXbXqXqXaX5X5X5X5XqX5X5X$X5X5X$XH.V.sXiXW.2XV.E.!.F.4XqXeXeXeXeX3X3X3XeX3X3X#X<X3XeX<XeXqXeX,X<X4XK !.p.V.@...A.D.+X1X3XG.,XF.F.4XwXG.A.!.F.A.!.W.7XF.D.8 9 #.g.G.u.| 1.f.e.f.a.y.u.w.u.y.w.u.y.>.u.w.y.y.W.' # Q.r.u U [ R [ { p.O.k t X : 0X<Xi.j.UX] [., 1 o 2X{ k E [ O.#.#.#.9 #   ",
"  M % (  .~ H r p / / +.6 # L u.( r.y.w.@.) ` ' 1 % 1 r y { { @.t.t.k { { U 6 j 4 R 7 t . . p ) r.,Xx.[.h.W.W.j.g.A.g.G.a.g.y.7XsXnXT J iX5X7XwXkX1XG.Z.Z.$XH.$XH.H.$XH.$X$X$X$XqX-X-X$XjX..Z mX7X7XD.X.V.u.p sXjXeXrX6X4XsXhXNX6X2X,XOX,X6XgXrXNX5 1XBXW.A.W.A.g.f.d.C.oXpX=XaXkXaX=X;X;X=X=X=X=XbX;X-X%XD bX&X$X=X@XXX&XnXjX&XqX$X$XaX#XnXqXfXeXnX7X1XNXpXA.G.h.p.a X.k !.3X,X+X<X+X+X#X3X4X5X3X<X3X3X#X<X+X<X<X3XOXtXy.2 w.V.y.y.G.d.S.S.A.D.S.S.j.a.eX4Xa.a.Z.a.G.y.y.G.g.a.r 9 y.>.a.1...C.| >.1.>.:.u.u.a.a.p.g.u.f.u.u.y.y.j.( & U K u U ' { [ ' U U y y O 6 8X<Xl.t.UXx.k.1 , # y y / #.{ k k 7 1 6 *   ",
"  q 2 r.>.r. .Y 4 r e.j.2 # e :.0...q.j.g.w.` 0.4 # e y y [ t.p.w.E +.#.K j 6 X . H y ` U j X . & / j.,Xh.h.h.j.p.g.a.g.f.f.u.S.q.r.&  .OX1XG.F.F.F.G.Z.H.F.OXOX!.OXH.$XF.5X5XH.oXF.oXoX&X1.>.X.u.@.T p a V.a >.NXrXrXjXxXNXDX8X3X2X,XOXg.gXy.:.y.6 yXA...u.u.Z.OX&XAXbXfX&XpXaXaXaX-X=X%XXXXXXX&X&X@X-.|.G G 8.4.&X&X.XbXbXbXaX#X X#XaXnX#XmXJXZXNXmXCXDXBXa.S.u. .w $ u.u.V.p.Q.A.) ) w.g.a.V.<X#Xd.j.r.j.[.tX4X4X4X<X( X J q.Y  .y.r.a.G.a.a.u.u.q.u.u.u.u.y.u.w.>.y.....( / 6 % j q.@.a.>.a.( T :.q...:.q.:.q.q.( ) ( ....@.` q.( % 4 * 6 7 y B y y 7 : r y O 9 Q.] r.j.UXk.I , # 5 P E E k E { ] 5 U 7 6   ",
"  M 2  .k.f. .<X0.r f.h.% # e e.^ _ k.j.{ R l.r.4 , ` j.i.{ @.{ { [ ) +.U 9 6 w.x.<X9XyXyXi.i.U k . . R K +.p.q.r.u.p.a.a.f.y.S.j.+XX _ D.u.F.F.F.H.G.Z.G.F.F.F.+XG.F.#XG.a.f.wXpXsX,Xq.~ p T u...a a  .u...T A.i.rXtXnXgX7XxX2XD.<XG.g.a.D.D.+Xr.$ NXBXdXxXBXxXhXhXhXhXBXjXS.F.#XqXbXjXaXnXaX#X&X#X*X*X].G ;X=XaX&XbXbX&XqX=XpX&XpXqX5XkX5X$X7XF.H.$XG.u.Z.W.y.u.Y 6 X.h.$.k iXiX!.A.!.7X!.!.kX!.!.7X~.!.iXkXiX8XiXF.7Xu.Y 2XW.1X8XpXwXhXiX6X2X8X7XdXcX2X8X!.0X8XxXdXiXsX4XF.Y . +.h.A.F.G.q.u.....X.q.V.u. .u...q.u.y.u. .q.a.u.w.u.w : j 7 6 t 7 7 7 7 * * % $ 7 Q.i.r.r.r.t.=.1 # 1 U j 9 K { { k 9 u 4 5   ",
"  S %  .>.0.( i.e.w r.i.o X r r.~ e.f.a.{ r.r.k.1 # t K +.t.{ @.{ [ { +.{ 7 t.9X9X~.Q.Q.Q.<X9XQ.+.Q.@.w . o ( Q.h.S.XXG.G.A.A.A.4XNX. a V.u.7X6X6X$XF.7X5X3XoXD.+X.X.X+X+Xa.+XLXLXSXtXy._ r q T a X - ..e DXBX6XnXrXeX2XA.A.dXgXrX4XD.<XrXrXrXrX! # UXzXzXtXW.sXsXsXpXsXkXjXbXqXnX#XoXqX=XjXpX&XaXnXZXMXF G bXMXMXaXbXaXMXmXbXjXkXjXFXjXFXmXjXhXhXpXjXxXkXjXjX8Xg.X.; #.E.E.s V.z ~.^.V.~.^.V.V.V.^.!.~.iXiX(.!.iXiX~.NXu.) sXiX7X1X1X6XwX5X3X1XF.S.G.G.F.1XH.F.F.F.H.7X1X1X1X..% <X,Xa.p.Z.u.f.u.C.H.u.1.X.>.u.u.y.y.y.p.@.p.u.g.$.t.( & k w.{ U R U U U U B * # * q.y.j.UXx.k.B # + m K j U u 7 u B B t 4 5   ",
"  W + T _ q. .j.Q w 0.k.% X t y.r.u.e.y.j.i.L [., # r ) o.@.#.O.@.@.o.{ E = #.0XQ.9X@.) y ] i.cXi.q.D.h.@.6 . K Q.a.4.u.F.F.A.g.g.j.# R Q.Q.Q.G.OX3XpX5XwXeXeX3X<X<X#XoXoX&X#Xs.Z.Z.-.-.,.C @  .j.e.w . u.SXgX7X8X8X7XW.sXVXBXhXrXdXrX4XwXtXxXtX` & g.tXfXwXwXfXOXOXwXaXOXqXeX#XpXbX#XaXkX5X$XmXbXMXnXJXA G *XbXaX=X=XaXqX&XaXaXaX$X5X5X$X5X5X5X6X5X6XjX1XH.8X1Xg.X.8 u.A.W.V.u.!.!.A.8XhXiXlX!.!.kX7X6X7XjX2XdXxXu.$.xX .T #X$XoXOXF.F.S..XoXoXF.oXoXS.G.G.F.C.G.C.H.F.S.oXG.>.8 S.f.,.u.7.1.f.f.Z.H.| | ..p a.F...(  ...q.@.>.u.u. .R X E +.+.{ { { #.t.R y 0 & w g.,Xk.x.x.x.Q , 1 m [ k y k k U R E { r 6   ",
"  S @ / e.q.` e.r 5 0.k.$ @ w y.0.q.r.y.e.j.l.r., % m U K @.p.p.O.t.Q.i.O.: p.8XQ.yXO . ' P . w.zXQ.Q.K i.p.e . K V.O.u.u.y.y.j.,X4X5 e tXw.g.D.S.C.#XH.+X3XeXeX#X+XoX*XoX+X#XqX7XpX#X<.f.r 8 <X,XF.2X8 6XPXxXQ.dXW.W.Q.1XF.g.p.A.,XxXsX2X4Xj.4X:.# <XNX<XrX3XrX3X3XwXwXOXqXeXeXqXqXqXqX$X&XjXbX#X&X[.MXM M *X&X$XaX=X-X&XpXaXqX$X&X$XqXpXkX$X5X5X5X5X7XF.5XG.F.A.@.q BX1XW.A.,XxX8XhXxXhXiX(.kXpXsXdXpX7XiXsXsXsXsX..jXq.p 5XOXZ.oX$XOXOXG.G.oXoXOX$X+XH.C.C.C.Z.G.C.G.OXa.G.T q g.u.1.f.>.1.,.1.u.1.u.1. .^ X.( ..e.:.` .... .....( 0.X U +.) [ U #.{ { E j e & t <Xy.t.UXx.UX' , * # j : k U k U E { i.u ,   ",
"  -.+ J .._ :.P _ Z j.k.% & , / C C j.j.0.0.*._ @ # H E X.+.+.w.) / t.@.p.9 E.0XQ.uXU 6 ' B ] i.cXtXw.4Xi.i.t.* r w.Y y.A.V.W.W.j.8XP y SXp.j.g.:.f.S.+XC.S.S.S.#X#X+X#X#X*X#X3X#XeXeX[.~ 8 2 wXD.g.Q.F.xXSXxX2X2X2X2X1XD.W.2X6XdXgXrXrX<X4X<XtXy.X +.8XW.4X6X6X6XpXwXOXwXmX6X5XpXqXoXmX5XpXnXaXaXeX*XaXG G -.&X=X$X$X$X&X&X&XqX$X&X#X$X$X$XOXOXOX$X1XOX$XF.OX7XF. .8 NX4X2X<X6X1X7XwX6X6X1X!.sX6XwX7X6X6X6X5X7XsXjX3XrXS.8 qX$XoXoXoXOXOXH.oX+XF.oXG.G.OX$XF.H.F.H.C.OXF.a.a.T p S.Z.a.u.f.1.1.f.u.>.1.1.>.u.>.u.u.A.u.q.q... ...q.q.:.# 7 U I y y k u k U p 0 & 4 [.i.{ x.t.j.] , # t K j E k U E O.k 7 O #   ",
"  <.X / _ _ j.' j.` B Q $ % % ` :. .a.y.e.r._ / & & : 8 5 t 1 5 5 y U B U 6 i.E.z.Q.Q.yXx.r.uXyXQ.i.) +.{ i.R O j x.i.i.D.D.D.D.j.j.r 7 8Xq.j.y.u.u.X.a.OX3X+X+X[..X X[.#XeXeXqX+X*X+X2.< p w nX,Xe.<XhX<XW.8XiX6X8X8X7X8XrX8XrXxXxXrXyX4XrXtXgXe.+ tXrX2X4X1XnXjXsXhXhXnXhXjXfXfXpX5XfXeXOXbXMXbXbXAX;XG G F ;X&X$X$X*XqXpX5X&X#X5XqXqX5X5X5X7X7XOXF.$X$X7X5XOXF.q a 4X1X6X1XOX$X4X4X5XwX5X7XOX4X3X4X5X6X5XpX6X6X6X5X7XG.C #X$X$X$X$XOX$XoXF.H.H.Z.oXoXoXoXoX$X$XoXoXH.H.G.F.J k 6Xu.a.1.H.1.f.1.1.-XM.V.!.X.u.u.@.@.u.y.g.t.u.i.u.q.` * 4 . o 7 t u u = o . 9 % r i.i.l.i.r.i.=.# 1 B E k E k E U 9 u 9 6 4   ",
"  ^ . J ..e.r.K ( r ` { 4 # 0 r.:.e.k.y.y.y.e.*.& X w R ) ) { O.E E E { / # @.p.t.p.p.i.@.E t.@.@.+.{ +.{ ' 6 * 9 q.I r j E / j { 0.* 6 i.r.i.<X+Xj.e.D.<Xi.+X<XqX,X+XS.+X+X+X+X#XeXZXZXZXZXQ ZXI e.j.:.( 0.Y )  .w.y.A.dXtX4X2XrXe.k.<X4XtXrXtX0.X NXdXD.,XhX4XBXZXCXfXOXOX5XpXpXqXqXd.Z aXmXnXbXAXAX XM F F ;X&X#X#XqX&X&X&X#X$X#XqX$X5X&X$X#XoX5X#X3X5X1X7XG.F.X.g.1X1XF.OXOX3X#X$X1X3X4X5XoXH.$X$XoX#XOX7X$X&X5X7X$XjXp qX$XoX$XOXoX.XoX+XS.oXoXoXoX.X$XoXoX.XoXoXoXa.Z.D.- T rXg.Q.V.u.G.a.q.u.V.u.V.H.u.V.@.%.@.@.w.u. .@.f.w.0.` % 6 ' U 7 * 7 t y H P r # P k.0.0.i.i.x.] , 1 B K U U k y y r : : : 6   ",
"  &.q e r.:.2 w j.r y.*., % 0 e.L e.y.k.k.Q e.! # # ( O.O.@.@.t.O.O.E @.k & O.h.+.0.@.@.@.#.O.O.+.{ +.` i.` o . ` { e @.,X+.( e I ) $ j.+X' ! [.j.k.d.f.r.:.:.e.e.f.1.f.a.j.r.k.[.eXJXAXAXSXM eX<XeXyX<XyX4XrX6XrXrX<XD.4XD.j.rXLXNXZXZXfXgXgXNXr.# LXCXg.A.W.sXrX2XOXOX,Xj.G.a.d.<XqX+Xa.S s.+XoX X.X9.=.S < [.C.*X$X&X#X$X$X+X5X5X6XpX$XOXoXu.( Z.S.OXF.G.F.OXF.OXpXOXF.F.$X4X1X1X1XOXF.F.F.OX1X5X5X6X6X$X$X$X$X5X$X$XfXq #X$XoXoX$XoX$XoX@X+XoX$XoXoXH.$XC.$XoXG.H.+X5.a.S.Z - K r ` p k A.Q.~.iXV.@.p.V.>.u.u.u.u.w.q. ...>.`  .`  .O t t.w.) H ) r.0.) 0.i.X H j.' <X<Xt.j.] 1 t B 7 1 o . . o o % # X X   ",
"  M r 5 q + C :.[., 0.' 4 # 0 e.W k.y.r.y.k.k.:.X % { ) { o.E { E E @.E  .X K Q.Q.u.@.w.#.@.t.w.t.i.i.D.0X..X ` q.R K ( 2X4Xj.+.K r % K h.j.g.j.<XwXgXjX1X7XD.A.,X6XrXwXrXrXrXgXhXgX4X,XtXnX6 LXSXBXCXVXVXgXtXNXxXgXrXrXg.A.iXxXgXLXLXCXNXjXxXNXr.% tX2X<XcXdXQ.2XDXGXGXNXsXu.wXZXSXnXNXDXpX#XOX1.mXDXZX-.3 k.2.1.Z.C.oXC.oX#XoXqXpXqX1XnXwXwXwX4X4X,XG.e.u...W.g.y.4XD.u.G.F.OX4X2XD.D.A.j.g.j.,XOXG.F.Z.S.C.a.d.S.+XoXfXp 5X$XH..X$X$X$XoXoX$XoXoX.XoXXXH.H..XoXH.oXH.oX$X1.r  .+.X.- . U I . k p.( 7 y.p.Y q.u. .0. .+. .` ( :./  . .& 5 w.j.t.t.k.x.) ' y / X { 4X) x.j.y.x.' , 0 * o t U ) #.i.i.p.x.B &   ",
"  @ 2 q.e.k.~ *.k.q e._ 4 % w q.q.f.f.e.k.e.k.*.+ % H R ) U l E K l [ r ` 9 r 0X@.p.p.z.#.#.@.w.@.+.+.i.P w j tXg.4 Y T p T >.g.zXe X X 9XtX8X<X<XrXrX6X8X6XsX1X2X4X2X1X6XwXwXnXpXpXwXwXnX>.p NXiXzXzXcXvX9X2XQ.<X<XF.W.Q.1X9X7X!. .q.q. .T ` e r % GXsXrX6XsXwX4XOX5X5XOXnXF.fXpXwXeXeXOXpXjXjXnXDXmXZXA M JXMXaXqXpXjXnXpXaXqXqXOXoX+XpXjX3XnXfXfX5X6XwXrXh...g.g.h.D.D.1Xg.u.OXwXfX6XjXwX1X1XwX4X#X5XwXwXwX5X*X<Xf.<.oXZ @XH.oX@X.XH..XoXoXH.$X$XoXH.H..XoXH.C..XoX$XH.F.y.p p.R ) +.w w.h.e w.V.p.O.t.i.) @.q.+. .{ ` ` )  .0.r.q.R X * j.j.x.k.l.r.*.P / H & / Q.H r.j.t.j.' $ 4 4 * r.j.t.t.x.p.t.h.y &   ",
"  3 6 f.S.+Xj.j.j.m ! ' 4 % e f.f.k.e.f.k.,.e.*.X # { l.O.O.E { E E E U +.{ 7 0Xu ) #.t.t.p.i.#.y.w.+.g.R . w.w.) Y +.q...>.+X*.[.* & P 2XF.+XD.+X+Xj.+X#X3XqX#XOXOXOXOX#X#X+X#XOXqXqXqX3XZ q.hX2XW.yX,XyXBXVXNXrX<X4X4X,X3X,Xj.,X,XG.D.Q.D.y.<X' * SX2XOXOXoX#XS..XZ.+X+X#XqX&X#X#X#X*X*X+X.XoX+X2.[.bX-.S ZX*XC.$X@X$X-X&X$X$X$X$XF.$XOX$XH.pX+X#X$XOX5XpXF.1XgX..2X1X1XsX6X<X4XwXwXwX5X6XfX5XC.sX$X3XeXeX&XbX=X;X&X8.@XT ..@XH.Z.H.XXoXH.oXXXZ.H..XH..XoXoXZ..XH.@XOXZ.G.T T p.k k R U : * +.@.y. .@.) r +.w.+.+. .X.+.+.+.w.0.) ' H # 6 +.) 0.` 0./ ` / y w o r p.e  .g.i.j.] % , 4 7 @.) @.{ t.t.w.i.e X   ",
"  , 2 e.y.k.j.y.i.H ` ` , # q a.,.:.e.e.k.r.*.:.+ $ P U { O.@.#.t.$.@.k 9 { k @.#.t.{ +.+.+.{ +.+.w.@.+.w.+.. : h.A.D.1XOXj.<X*.6 j $ i.,XD.D.OX.Xj.C.OX.XoX.X+X+X+X+X+XoX.XoX#X#X+X+X#XeXZ wXhXS.<X2X3X4XOXOX,X<X4X4X2X,XeX1Xj.g.g.2XhXNXNXfXBXj.4 dXOXf.oX+XoXoX$XOX.X.X.X.XoX$X&X&X#XeX+X.XXXXX.X8.5.2.M JXeX$XZ.$XoXoX$X&X$X$X$X5X&X#X$X#X#X5XqX5XwX$X7XOX8X,XL <X6X1XW.6X6XrX3XOXeX6XOX4X5XoX&X5X&X&X&X*X*X&X*X&X#XC.A p -X@X@XXXH.XXXXH.Z.oXC.C..XoXZ.H..X#XoX..C.a.>.p E +.8 5 R K K j.x. ...@.w.R ) w.O.k j R ) E { @.w.w.R R e & % ` I ` ] / ' I B r U * 9 <X+.R q.r.,XP $ $ $ 9 @.+.w.w.l.w.{ ) w X   ",
"  M % Z ! P H ( j.` ! ) $ % r e._ ;.k.,.0.e.k.r.& 4 w.O.@.O.O.o.@.O.O.E K r.+.O.( i.y.+.y.w.+.w.w.@.w.y.+.p.i.( . E w.w.i.j.j.r . y & t.S.a.Z.+Xj..XC.C..X$XoX+X+X+X+X+X+XoXoXoX.X+X+X+XeXM CXaXOX3X,X,X,X,X1X4X4X2X2X2X,XeXeX,X4XtX3XeXOXwXgX4X.X:.~ 6XS.+X#X#X+X$X#XoX#X#X#XoXoX#X&X#X&X#X&XnXbXZXbXAX8.0 ZX+X$X$X$X$X$X$X#X&X$X$X5X5X#X3X3X3X3X#X5X3XwX5X1X4XtX4X4XwX1X1XOX<X4XOX,X#X#XOX#X3XeX*XAX&X&X*XeX&X*X*X&X*X&XS 3 5XH.oXZ.H.Z.Z.Z.oX$XoX.XZ.5.1.Z.C.oXZ.Z.oXk.*.8 Y p : * P I y r.R j R +.) ) w.+.R { k ) U U ) O.E R I U r & 6 U K K { ( ) { 0.{ U : 9 Q.q.r.i.y.h.j % & & : { @.@.0.{ [ ' ] t #   ",
"  M @ ( :.:._ :.j.*.e *.$ % e k.Z _ d.k.:.` r.*.# $ E +.O.E E E E E E E E @.O.p. .@.w.+.+.g.u.w.g.x.i.i.g.i.y.D.w.o . 9 j P r UX' t # yXu.u.G.C..X.XC.C.C.Z.Z.C..XoX+XOX+XoX+X.X#X&X#X+XAXm CXeX6XsX3X1XwX4X4X1X4X4X1X4X1XrX7X2XgX>.. . q _ * . 4Xf., u.+X.X+XoX#X#X+X#XqX&XqXqX&XoXC.$X#X#X.XeXJXJXmX#X[.N ZX&XqXoXoXOX&XpXqXeXpXpX$XOXOX3XwXqXwX4X1X5X$X1X1X7XrXq.tXfX7X5XW.F.<XOXOX$X+X3X3XeXeX*X*XeX*X&X*X&X*X:X:X2.8.-.; a.5.$XH.$XZ.$X&X$XoXoXoX$XZ.Z.oXC.C.C.&X+X*X#Xq 2 8 O w w 7 5 . 4 w K ` X.{ w.@.R ) ) ) k U ) ) ) K j K K & 7 0.+.P K ) ` 0.` K U * o +.t.w.w.0.i.e % # O : U ) O.{ { { [ H 6 %   ",
"  q % ..e.:.'  .j.! p 0.$ $ e d...,.e.:.k.e.e.' & $ w.t.{ { E E E U E E E @.+.y.$.@.q.+.q.q.+.+.@.0.+.0.q.q.q.q.y.y.& X j 8 j.NX4X+.K D.H.Z.f.C.d..XZ..X*X.XC.C.oX+X+X.XoXoX#X&X#XeXeX3XeXq ZXOX8XsX6X6XgXwX<X,X,X4X2X4X2X<X1XrXT . 2 q mXZXeXf.. m 5 . j.eX#X$X+XoXqXqX+XoX.X+XeX*X.XoX.X$X+X#X+X+XbXAXnXM eXeXoXoX$X&XqX5XqX5X&X1X5X5X5XwX5X1X6X5X4X5X5XF.1X1X4Xj.jX6X5X6XhXOX3X3XOXOX3X3X3X3X&XbXeX*X*X*X*X*X*X&X&X[.A A 3 | &XaXZ.$XZ.Z.&X1.&XoXoX$X$X$XC.Z.oX#X#XOX&XeXC 2 : Y K R y K r r K K k R ) w.{ ] K R H U { t.U y K K K U 6 k 0.r.r.] ) { ' H j r % : ) +.E 0.h.yXe # r & 6 ) @.+.) +.{ r.B r 4   ",
"  C @ :.e.q.0.) +X` Q 0.4 - e ,.,.e.,.e.e.' ' ! & * y k [ @.@.O.O.E E k E O.#.w.w.....) +. . .+.{ 0.+.0.q.r.y.e.,.a.T X r w.{ w.h.k O.8XZ.f.a..X+XoX X#X#XZ.f.s..X.XC.s.oX#X#X+X#X+X+X*XeX@ ZX,X6X4X6XwX,X,X<XOX,XOX,XW.,X0XsXa.2 u.S G.mXnX3Xj.1 1 5 J I nX#X+X.X+XOX#XoXoX+XoXoXoXoXoXoXOX.XoX.X+X+XbXLXq wXeXeX#X$X3X5XOX#X3X1X$XOX6X7X#X3X1XOX5X1X5XpX#X,X4XrXy.4X4XF.OXOXG.OXOX$XOXOXwXOX#X3X&X*X:X%X%X%X*X:X%X%X=X;X3 @ A qXbX&XXXoX<. XZ. X$XC.$X$X$XoXa.oX&X#X&XoX#X~ 0 r  .R j K K j w j w - 7 ) R k y K y y R { ) e R R K ] / H j 0.t.+.+.0.0.P 5 / R y : : ) r.) h.<X9 & w & y ) ) E ) ` { { y I *   ",
"  q @ ! :.r.e.q.F.` / 0.4 * p e.:.*.*.:.e.r.r.Q X % R R U [ E { ) O.{ [ l U O.{ w.X.(  .+.+...+.:.r.q.w. .@.y.g.r.W.h.o k cX{ U { k @.W.,Xf.Z.d.C.a.Z..X.XZ.s.Z.oXs..XoX+X.X+X#X.X.X+X+XbX3 JXeX!.7X5X7X4X3X2X4X,XF.,XG.1XsXa.e.fXnX&.mXJXmX<.. . . *.NXH r.3X+XoXOXoXoXoXoXoXC.oXoXoX+X#XOX$XqXqXoX&X5XfXC wXwX5X5X5X$X3XOX$X#X$XF.H.G.F.OX$XF.F.oXF.F.OXG.OX,XOX/ F.F.OXOX#XOX$XF.oXOXOXOXOX3X#X*X*X*X*X*X%X%X*X*X%X:X%X9.N -.bXbX&X&X=XoXN.aX3 | $X$XH.$X@XZ.$X$X XZ.Z.[.5.Z 2 r p 8 9 4 7 y / R # * y y U U K 7 * y ] k B E k r U ` j e +.q.w.' R +.0.0.w./ U * 7 Q.h.+.R { r # 7 * 7 j 7 6 w r y y % % *   ",
"  M $ 0.:.e. .+.f.Y Q *.6 2 r e.:.*.,.e.:.*.' I & % j u k E { E [ E E E k E { w.r.+. .q.u.q.+. . .) @.w.w.u.w.i.f.x.R : y t.i.+.7 : . 7 K D.S.5.Z.5.7.7.C.s.f.s..Xd..X@XoXZ.#X#X+X#X#X+XAX0 +XoXq.H.G.u.j.+X,X+X+X0.+X! e.6 . ZXmXnXZX+X:.& . #XAXeXw.0.P . S.+XoX&X*X+XoX.X@XoXoXZ.@XoX@XoXoX&X$XoXOX$Xs.W ^ eX#XoX7X$X#X3X5XwX1X6XpX$XpX5XF.OXOXOXS.F.H.G.F.2X4Xg.W.A.G.5X7X5XOXoXOX3XOXOXOX#X+X+XXX%X*X*X%X%X|.*X|.%X%X}.V |.bXaX&XqX=X-.*Xs.-.@X&X$XoXoX$X@XXX XZ.Z.2.s.].0 C ..w O w 9 U ) K 7 : y y U U U I u k * y R U { R j ' ) ) e 0.5 r r ( 0.` Y y R ) 9 9 w.y / x.i.e & 1 4 ` 6 o & . . . X X 6 6   ",
"  0 2 ,.:.q.(  .0.w ( *.4 $ q :.^ :.,.e.:.l.*.] & % u y ) { { E U k y j k U { t.h.@.@.w.t.w.@.+.( E (  .+.O.) +.i.) . : O : 7 * % & # O : W.Z.e.N.N.N.9.8.f.8..X+Xs..XoXZ..XoXoX+X#XoXeX2.2 . @ @ 1.>.T A S L Z Q ^ W C . # & t e.f.tXq . ! ZX+X+Xk.ZXtX0.j.j.OXG.#X@X#X$XoXC.oX$XoXs.oXoXZ.C.C.Z.Z..XS.oXZ r +X+XOX$XF.oXS.oXoX3XpX7X6XjX6XA.5X7XnX7XF.5X7XW.1X1X( xXW.F.5XOXOXOX$XOXOX$XoXoX#X&X*XXX[.|.*X%X|.%X*X%X*X%X|.D :X=X&X=X&X%X3 p A bXqX&X&X$XoX$XqX$X7.5.7.2.*X[.S A | ..J * 9 y * X r { w.t.{ y R t.[ ] U . . 7 y r / / ) ) P ) R H w.0.) ` R  ./ u U 7 X r t.yXl.t & 7 7 { 7 7 r $ & & . & & m   ",
"  3 + T _ :. .q.g.j ` q.6 1 r :.*.;._ *._ *.*.Q o % H / E [ E U k k U u y K K [ i.w. .X.O.@.w.t.)  .k k k p 9 +.y : * k K 6 . . . o : K ( T J >.>.a.a.f.d.d.f.f.S.Z.| C f..XC.C..X[.d.;.L 2 % ....~ <.a.f.a.Z.Z.Z.C.s.+Xk.X P % . 1 0 0 m d.d.. . X q a.JXnXqXZ.C.XX.XoXoXoXS.1X#X#XS.S.G.a.C.a.Z.S.oX.Xe.2 C bX3X3X1XOX$X3XF.Z.Z.a.u.Z.1.a.C.Z.a.G.a.jX8X4XW.F.F.T jX1XOXOX$XOXC.F.oX#XoXoXoX@X*XeX9.S -.&.{.F {.{.F ].;X|.D MX=XqX=XaX4.-.3.=X&X@X$X$X@XoX*XqX&X,.-.$X3XAX+XS A | L Y 5 : 4 % % k w.i.h.+.u B R R 7 7 * 7 y e j ) R P R ) q ) R ( ) Y ' H R K y H > 7 +.j.k.l.t # 7 * 7 1 5 t $ o 6 y 5 $ r   ",
"  2 @ ! _ e.( g.g.J  .+.5 $ q _ ^ W  .....e.' ] % * U k 9 z { #.{ o.[ [ U { { U K 8 R h.p.@.i.) k k 0XuXiXw 6 9 * } } y y { R U p % X & : 9 8 9 j p p H p T ( q.a.T u.....~ ( | | ..;...>.8 @ ..e.f.| | >.Z.Z.f.s.s.f.oXj.0 t . . . t 6 m Z / 6 % # 0 :..XwXeX#XoXoXOX+XC.S.g.Z.S.OXS.C.1.1.u.f.k.C.+XOXOXq J nXoX+XF.OXpX5X1X4XA.F.H.F.OXF.C.G.1Xg.5XwXS.F.G.S.f.C F.F.oXF.G.a.oXoXZ.S.C.OX$XoXoX&X7.3 S F F D F |.{.F 3.F D ;X&X$X$X@X@XXX&X&X&X*XoX XXXZ.oXXX-.Z.Z.<.d.OXC.S A A T j 7 7 r U y & y R / { U { [ { +.K  .+.q.) ` E ` R J J 6 ) i.0.0.0.) ` R U u y : 7 ( i.r.*.t % 6 % y t.w.U t.w.t.i.w.7 w   ",
"  3 % q.f.r.` Y R C q.0.5 , 8 :.:.;...~  .e.k.` # * R ) { k z U [ k y k u l [ p.#.9 U t.t.} ) R U uXuXE.xX0X: 7 y U u u = u k p.z.7 . y : . . : 7 # t / ~ a.oXOXF.G.pXF.$X..| ..1.u.>.F.OXe p S.D.G.G.a.a.a.1.a.F.S.e.pXe.2 f.4Xa.:.m , . w +X^ I # m W _ C.Z.Z.f.>.q.( ! 5 r q 6 w ! Y Y J H Y ..:. .( ] Q 5 j.y.e.a.j.j.g.G.g.G.u.G.F.D.D.F.F.OXZ.3XF.g.F.j.S.a.C OXa.C.d.#Xd.5XOX#XC..XZ.$XoX.X#X*X~ G F D F XX&XB.F B.G F ;X=X-X@XH.-X@X@XZ.@X.XXXXX X XZ.8.Z.f.Z.a.k.oX;.S A &.| q & y { t.{ U X . . y { #.R y R q.q. .0. ... ._ / J ( r P ( p K ` ' ] ` ' U U 7 * w.,XyXUX6 % 7 o u l E t.{ #.t.{ R 1 0   ",
"  M @ ,._ *.` ` q.( e.y.6 - q u.y.:.e.e.:.( *.! % * y ) k u k x.x.x.#.7 k [ [ #.#.#.[ #.k u h 7 t.GXQ.Q.Q.9XQ.: > c.u x } [ x.u t.p.K { h.OXOXf.' d.d.S.d.+XG.oXoXF.>.wX$X#X1.1.5.Z.5.^ oXr Z LXCXBXBXBXBXvXsX,X<X#XoXpX2.. mXZXNXnXAXeX+X*.. r ) B 1 Q J  .` ( Z 5 . . . y.D.F.OX( ,.f.;.C.OXeX+Xj.>.0.0.4 I +X+XOX+XS.+XD.j.j.y.k.f.e.,.f.d.a.a.u.>.a.f.f.f.( ,.q k.e.:.>.5.a.u.,.1.1.f.,.1.,.f.Z.N. X X].3.F F e.>.Z.|.F |.|.N.N.N.@X@XXX@X}.N.Z.N.7. XXXZ.Z.Z.N.s.f.d.d.,.3 S S m 2 X 1 { l.[ #.@.O.z.#.@.{ U u R E ` ! ( ! ! _ ' ` ` j.p 0.( q. .` r.` { { U { y u yXUXi.<X6 * 6 & y { t.O.] ) R { U 1 1   ",
"  M X J :.:.0.g.) ( g.i.2 % C e.` / ! :.~ H Q m 4 4 U U k y = U t.[ y E } l E ) R y U c.[ x z.k U VXyX9XcXzXz.[ t.z.t.z.#.{ NXy . k @.` S.eXeX+Xd.C.f.>.f.d.C.^ @ @ 8 >.6X6XZ.Z.Z.Z.bXAXmXZ T LXxX8XW.7XiXmX4XOX$X#X.XoX&Xk.0 ,.<XAXZXmXmXZX+X$ . H e k.{ 9 9 7 . X 6 $ +XmXaX$X&X$XaXaXaXqXqXwX#X3XZXeX3X6 f.nXrXeXeXeXnXeXfXfXqXfXeXeX3XeXrXnXwXpXwXeXeXeXj.S.,.^ eX#X#X#X#XAX+X.Xf.oX&X*X#X*X*X&XaX&XbXbX;X;XG F oXZ.Z.G F F A -.1.4.]. Xs.7.4.8.4.9.XXZ.6.8.s.1.<.[.2.d.5.2 M C 2 m % . t * U E #.p.#.#.{ E = 0. .) ` ' T L W _ _ 0._ ` H e ( R ' ` ' ] { U u k * 5 *.j.UX[.t % B * { w.[ k [ { { { { 6 %   ",
"  A X C ..:.y.w.) H ` +.% - q T P / I L , 6 4 0 w 6 K U U z u { t.{ } [ l O.k r p _ g.W.,XdX2XF.OXsX6XqXfXfXqXhXSXSXSXGXJXLXZXNX<X0 . nXaX$XoXoXC.C.s.C.oX#X#Xf.Q q . . T 4XG..X#X&XAX[.nXA C mXoXoXoX[..X[.[..XoX.X.XoX.X#XwXd.r q f.G.a.Z.+X6 2 5 _ ~ p.R 9 % # p 5 & 3XnXqX=X#XwXZXmXeXqXfXnXfXj.rXj.[.H a.oX.XC.C.oXoXd.d.d.S.S.OXG.s.d.d.a.C.C.oXoX+X.Xs.eX:.<.#X.X+X#X.X.XXXXXoX*XXX*X*X*X*X*X%X*X].|.}.%X|. XaX.X2.S F ;XbX&X*XXX*X@X&X&X#X&XaX&X XZ.8.f.s.1.1.C.d.^ Z 0 0 3 C ' : E Q.u * u y y 7 z . . +.w.P P ` P J r q J j p 9 6 j 9 P ' I I r J y u y u : 7 r.k.[.j.y # y o U t.O.O.{ { O.{ I 1 ,   ",
"  &.X w ..(  . .P 0./ e # & : r m 6 $ - r 8 w 7 4 4 ) t.o.#.U z.#.#.[ [ U y T ,X3XoX5XqXwXOXC.C.oXZ.$X#X$X.XH.C.f.Z.F.H.H.$XoXf.CXbX3 ZX$X1.s.7.C..X$X.X#XeXbXAXbXeXd._ % 8 u.5..XC.f.2.4.~ q XX.XoX$X*X*X&X*X.XoXXX*X+XZ.8.#XeXoXoXZ.oXoXoXf.W < 2 p r p j $ O r +.( @ Z mXaX&X;XZXJXJXnXfXwX3X+Xf.. 5 j.Z wXd.C..X+X+Xd.+XS.S.a.+XoXS.OXC.C.Z.G..XC.+XC.j.C.qXe.;.#XoX X*X+X*X[. X].[. X*X*XXX*X].XX*X*X}.*X X@X@XXX7.A N G :X%XXXXXXX}.6.6.B.}.}.N. X7.Z.s.Z.oX.XoX#XoXeX<X. , k.0.t.j E @.l } @.} u r 9 . { g.y.e.` ` _ Y ( _ *.! ' / U P / 5 P { 0.R K k k u u i k R { t.l.y * 1 o [ x.O.O.#.O.O.{ R 7 2   ",
"  -.@ @ 5 w H ] 6 5 w X # # + $ % % 5 I e r / 0.# 9 #.#.E o.z o.E [ { { K a ..f.1.5.1.1.1.N.Z.7.9.1.-.9.s.s.f.f.f.e.f.Z.Z.Z.oXC.@X,.3 mXoXZ.Z.1.4.5.Z.$X&XbXAX&XeXAXnXnXaXd.Z M 8.+XoXs.d.4.q aX@X$X*X*X&X*XXX7.XX*X[.].[.].7.[. XZ.oX@XoX*X&XbX3 - 2 r e w 6 ] +./ i.OXZ W qX*XZ.#XwX6Xj.u.Z 2 . W _ _ d.q +X.XZ..X+X+XC.S.C.d.+Xd.f.d.oXC.C.a.Z.C.a.C..X.Xf.s.~ Z OXs. X X].[.s.[. X[.[.[.[.XX].*XXX].].*XXX|.}.XX-.oX| S V :X|.XX}.|.}.}.}.3.6.3.4.N.].7.7.7.7.8.7.5.4.d.eX^ % :.i. .: Y K X.O.{ } y o . B i.` :...! ~ ! >.e.,._ / ( P Y ! r J )  .` 0.{ u u z h u u k x U U r B y = O.z.#.#.#.#.$.[ t.y #   ",
"  <.@ # o X & % % % & @ # # , 1 , % % , 4 p @.) 6 9 E #.[ [ z O.7 k ( j / J | Z.4.5.4.1.1.1.-.| N.Z.H.oXs.f.8.5.7.1.Z.7.7. XN.N.XXF S .XZ.N.N.N.5.s.1.7..X#X+X.X&XAXeX&X&XeXqXoX;.#XbX XoX8.3 nX#X*XXX.X[. X X}.}.].]..X*X*XXXXX}.Z.8. X XXXZ.eX:.@ . . . . . r 6 R t <X,XI + ! ..<.r . X : i.NXLXLXSXgX_ e rX+X+X+X.Xd.d..XC.+X.Xa.s. Xs.Z.d.Z..XC.C.C.d.oXs.[.k.A #X8..XZ.[.7. X X].].[.XX].XXXX].].XX].].}.}.*XXX8.7.;.1.V ;X|.].}.}.}.}.}.6.].N.6.6.7.6.4.8.7.8.7.Z.8.5.[.*X@ , ..J O ) E U l z U k o # i.' *.~ ^ &.~ _ _ f.( L H J j J C r r.] e j k H l l } } y u y u u y y [ * * #.O.[ o.@.#.p.#.t.R $   ",
"  2.< & * $ # & & & # X # , $ 6 $ $ 5 6 8 8 % : 6 9 R O.@.o.X.O.9 a  .K ..( | C.1.8.7.N.N.N.Z.Z.Z.oXN.Z.N.Z.Z.N.Z.N.Z.}.N.XXN.N.6.F F Z.-.-.9.| Z.s.| < s.*XoX X*X&XoXXX X7.7. X*X&X*X9. X.X@ &X7. X*XXX*X*X}.}.}.].XXXX X X%X*X4.7.7.Z.8.[.*XeXS 2 k.[.+X[.#X+Xj.[.d.q +./ +.] H 0 @ w e.>.G.BXCXZXSXPXmXL JXd.oXZ.d..X.Xd..Xs.d.s.f.f.a.d.d.a.d.d.d.oXd.f.[.d.f.Z +Xs.[.[.s. X X7.7.[..X X[.}.].].}.}.].}.]. X}.}.6.9.A S V |.}.].}.*X}.}.].].}.}.}.6.7.4.8.4.4.5.5.8.f.f.8.d.% W S.( 7 U k l l [ #.u # # k.] ~ =.=.! ! *.' t % H I U y B 5 ' P p C p k a z 9 > y u 7 7 : : 7 : u 7 9 u 7 = : > 7 = : 7 : *   ",
"  2.Z 2 % . . . X & X X % 1 t 4 % 6 6 4 6 2 X . . # - . X 6 9 8 p R 6 Y ....~ Z.5.N. XZ.N.Z.Z.N.Z.N.N.1.N.N.N.N.}.Z.}.XX@XXXZ.9.|.G F ;X=X%X&X$X&X@XA 3 < Z.oX X.XZ.[.}. X}.N.N.6.6.}.4.4.[.< *XN.N.XXXX*XXX%XXXXX}.[.]. XXXXXXX4.4.4.3.7.*XXX&X3 -.bXnXAXbXAXbXeXbXmXmXu.w p.w.r a u.G.G.1.T p a ..sXg.ZX2 +X.X[.f.d.d..Xd.C.d..X.Xd.d.d..Xj..X+XS.j.+X[.s.f.f.,.Z [.[.s.[.[. X[.[.[.XX[.4.7.Z.[.XX}.XX X].].7.}.6.3.XX].].V |.].].}.].}.N.].6.6.].6.6.6.7.7.7.8.8.8.5.8.8.[.f.@ C j.f.y E E k k k : X * # r.I W Q ^ ^ ! *.*.! _ ( H r I i.' Q ` ( +.E 9 k a 9 i > X . . o * * 6 r 7 # : O.[ U [ { [ p.i.) %   ",
"  2.q w y I I B r w 7 4 $ : # y ( J 6 8 r p J T p e 5 ( u.F.V...p.A.Z J ~ ~ p oXoX.XZ.XXZ.XXZ.1.7. X}.Z.Z.XX@XN.XX XN.Z.}.@XN.9.|.{.D %X@XZ.}.N.XX7.XX}.< 3 9.&XXX&X&XXX X}.}.6.6.6.].6.].].q *X}. XXX XXXXX%X%X}.}.XXXX%X XN.N.}.}.}.7. XXX*X=Xq .XXX].8.].].6.XX X&XmX^ + - 2 8 Z >.u.1.Z.e.5.8.-.q e.[.q .X.X XoX.XC..X+X#X+X.X+X+X.X1.+X+Xj.d.f.d..Xd.[.f.f.,.M [.s.[.[.d.[.f.[.[.].7.s.Z.7.7.}.].}.].].].4.].].].].3.].G :X}.}.|.].}.}.}.6.6.].N.].7.N.7.s.7.8.5.8.5.7.[.M @ T T ( J U y.@.[ k 7 : 7 o r.[.e.! ! ^ ^ &.^ _ *._ *.*.,.e.] :.0.i.{ k $.p.$.%.O.E o.{ y 7 X . o O O X x.0Xz.p.z.E.z.$.x.P ,   ",
"  =.% X 7 P U P Q ' / K ` 4 $ +.@.y.@.R q.q.y.p.w.q.J y.F.V.u.u.>.q...M Z ..M s.C. XXXXXXXXXXXZ.7.7. X7.7.@XZ.N.N.1.4.N.3.8.7.1.|.F {.B.4.4.N.9.4.8.XX=XN.@ + [.*X&X&XXX}.N.7.6.6.6.6.}.XX=XS ;X7.}.6.6.}. X}.XXXX*X%X%X X}.XX@XXX Xs.7.7.XX*XXXV ,. XXX*X*X*X*XXX X&XoXXXtXf.% 6 8 < ..a. .;.;.Z.N.<..X<X[.k.eXs.+Xf.1.d.d.d..X.Xj..X+XS.+X+Xd.d.j.d..X+Xf.f.[.e.m eX[.[.[.s.s.s.].[.[.8.Z.<.S 4. X[.}.].].].].{.].].].].8.V MX].}.].}.}.6.6.6.}.Z.]. X}.s.}.N.8.8.5.5.8.8.s.- p $.V.M.o.l h z z k . = } k o j.[.:.*.^ *.! ^ Q W Q W W W m Q *.' K = #.%.!.V.V.@.o.p.x.Q.p.k * o % * o { p.} #.} E ) K P 0 +   ",
"  @ + +.!.~.~.0XQ.yX^.uXyX* * U a @.u.q.u.%.w.u.V.A.p u.u.>...>...~ 2.C q Z.| | Z.s.f.N.Z.Z. XXXN.N.N.1.N.Z.A q 3 3 S 3 S B.N.| F F F }.4.9.6.3.N.N.N.}.7.-.~ S -.=X%X&X}.3.3.3.3.6.}.[.].=XA bX%X}. X].9.3.}.XXXX%XXX|.7.}.%X XXX@X6.3.XX].[.].< -.[.*X&X.XXXXXXXoX*XoXZXMXZXnX2 Q l., u.q ( qX#Xd.[.k.OXu.:.BXf.W Z ^ | &.-.;.5.5.d.+X[.s.s..Xd.C.a.S..XC.d.C.,.r .Xd.d.5.f.f.8.2.5.s.5.8.s.S -.*X7.6.6.6.6.].6.3.].3.].%XS ;XXX].].].7.].N.6.N.7.6.6.8.7.4.7.8.8.8.5.2.s.+XC k %.M.n.n.n.M.M.b b %.Y.E.x ; R r.' Q ^ Q Q W W W W W W L L L ] U O { %.u O.@.@.X.o.@.t.t.#.k u * = : X E z.#.O.#.{ +.K U 7 %   ",
"  + 8 A.E.9X(.~.^.~.^.^.t.6 : l V.W.V...V.G.V.t.8XgXa ..>.....>.f.2.f.<.q ^ | p f.8.N.XXN.N.N.N.N.B.N.N.N.B.N.3.B.3.9.| S -.-.-.|.D F %XXXXXXXXX@X@X&X%X@X&X=X=X=X=X:X;X}.9.3.4.6.}.}.].4.3.S ].}.XX}.3.}.}.}.}.|.XX%X@X%X%X}.}.}.}.}.}. XXX}.[.@ [.*X;X*XXX*X X*X*XMXDXeX#XAXnX[.+ _ W : ..2XwX+X.X+Xj.<Xr W 3X( +Xd.S.oXoXd.d.1.,...~ f.f.,.a.S.a.d.S.a.C..XC.f.m d.s.1.7.8.s.s.s.7.7.4.7.-.5.8.8.7.4.8.8.4.3.4.4.8.].].].A *X3.].].].}. X}.}.}.6.7.6.7.4.7.4.5.f.8.5.2.[.Z r 6 a z c d z c c %.d c Y.d b * X L Q ! ^ ^ ! Q ^ T Z Z L P J / Y Y j 6 o u > : 6 7 9 7 > > 7 = 7 o X o o O.p.) O.l.{ { ) k 7 :   ",
"  @ r T R @.$.M.E.^.(.^.~.U a #.X.#.@. ...+. .( Y a p C p q q T ^ | ^ | q q S A -.8.<.4.s.Z.8.9.-.-.F J.3.B.3.B.N.N.N.B.N.B.N.9.%XD F &X@X}.XXXXXX%XXX%XXXXX}.}.}.|.XX}.N.}.}.6.].].3.].].].q ].6.3.6.}.|. X].3.}.}.XXXX@X}.}.XX}.XXXX}.4.4. X8.< &X].&XaX&Xf.[.s.d.MXbX[.+X#Xs.+Xa.+ Y q.O D.,X+X<XeX*.! 6 . . 1XpX6XF.eXOXC.C.f.a.Z.C.eX+Xf.f.,.f.2.d.f.1.;.e.Y q S.f.f.a.5.f.f.a.d.s.4.<.~ 5.<.4.-.-.A &.&.&.A F 9.A &.< S ].3.4.].].6.N.7.6.8.N.N.8.7.6.4.7.5.8.f.8.[.#X@ X 6 a l %.o.l z l d d b d f z z * # k.` ( ~ T W W L Z C J 9 : 6 9 j e 9 O : : : > = : 9 9 9 9 k ( { y o o p.#.@.+.+.) E u : u *   ",
"  % e C E E #.p.E.^.^.(.Q.k 6 q.) 6 : T X.....y.y.e.2 ; @ . J ..| ..1.| <.| 8 A | <.| -.&.-.3.3.3.3.F F F B.3.B.B.J.B.B.N.|.B.F F D D |.F {.{.{.{.{.{.J.J.3.F J.F }.F F 3.3.3.F F 9.8.G -.2.V 9.9.9.6.}.}.4.].3.4.4.3.}.}.}.N.}.}.}.}.].6.}.].5.3 4.*X*X&X*X5. Xs.8.[.*X.X+X*XoXs.+X+XA 2 ^ W S.+X[.*.m + @ r *.,.~ e.C.f.,.,.,.>.1.u.f.2.f.f.;.&.,.,.:.d.,.^ m H 8 e.,.<.e.f.<.~ A Z ~ ;.,.5.8.,.5.5.1.9.&.A A | -.^ A S 3 S 9.2.9.&.9.-.-.;.-.<.<.-.| | ~ ~ <.f.f.5.f.f.m 2 8 8 l %.M.b %.L.b b c d n.b n l O % j.' J k j k K r 9 k a H L e r ( q._ 0.q.q.:.>._ _ / Y ^ ..>.q.{ 7 * o w.@.@.) E ) R ' U 7 7   ",
"  , _ H K R t.w.@.$.V.h.0.r 5 P ' P 8 w.W.!.9XsXrXA...q ( T Z | ..e.#XaXbXeX< -.Z.XX&X@X%X;X&X&X@XH.@X@X:X=X=X;X-X=X@X%XH.@X@X9.V G V D F |.|.|.|.|.|.|.|.|.|.|.|.:X:X%X|.}.6.3.4.B.6.9.-.S 3 3.}. XXX}.].XX XXX*X]. X X6.8.-.3.8.8.[.XX[.[.-.2.q m [.s.*X.X X].7.7.[.*X X.X.X[.XX[..XC.-.1..XoX+X*X+X*X;.@ +XeXd.d..XeX#X.XoX.XZ.f.S.d.S..Xd.f.d.C.d.+X+X.Xf.:.( q d.a.a.+X3XOXe.,.;.>.f.8.oX#X+X$X.X$X.X&X#X&X@XoX*X.XoX3 ;.&X$XoXoXoX$X$X#XoXf.| S <.,.5.,.f.d.d.d.,.e.! 5 w O O.$.%.o.b Y.Y.Y.b b b b l 9 * # J 9 % 8 j e y 9 : 6 # OX+Xf.1.>.,.>.a.u.1.1.u.>.1.1.....1.| L P % = . U O.k [ { { #.l.U u u   ",
"  + 2 Y y K { t. .@.@.0.5 8 e :.e.` :.` E u.w.+.w. .u.Y >.1...| 3 a.eXZXZXoX8 -.Z.N.Z.N.N.B.3.9.B.-.3.@X@XH.@XN.N.N.N.N.B.| B.3.S D G G F 3.].XX XXX}.}.@X}.|.%XXXXX|.|.XX}.@X@XXXXX}.XX%X&.< %X%X%X%X%X:X%X%X}.].].}.}.}.}.}. X X7.*X&X:X:X*X=X3 3 &X*X%XXX.XXX[.].s.*X*X.X X.X X[.Z.s.Z.5.5.f.s.5.f.+X-.3 f.5.-.5.5.2.9.3.6.3.4.4.5.,.<.<.<.4.5.,.5.s. Xf.<.k.~ J d.f.S.f.f.S.1.;.,.:.>.,.| <.| -.<.<.;.4.9.<.9.Z. X<.s.3 | 4.9.9.4.4.4.4.4.4.8.<.<.8.f.s.2.2.2.k.| ;.e.j.J t & : U y h u d x > x b b z h * o * X 8 ) i.i.+.+.>.( . . j.1.,.f.1.;.;.~ | | ..;.| >.>...>.>.^ X.( t # o E #.E O.} U U U = U 7   ",
"  , w _ R / P 0.g.0._ r $ r C W d.L k.f...u.+.C J C L ~ ^ | | 1.eXSXnXAXmXAXq ;.oXoXN.1.N.N.B.N.M.B.Z.N.N.N.N.N.N.N.N.N.H.B.J.D V V N N 3 V G |.].}.}.N.3.3.3.3.6.}.B.4.}.}.@XN.}.@X}.@X*X].3 ].XX}.XX}.}.].].].].].].3.6.6.}.}.].7.}.[.]. XXX*X3 M bX&X*X*XoXXX*X X7..X&X.X.X.X X Xs.d.8.5.,.4.5.s.2.s.1.Z OXs.s.<.2.].4.4.3.3.4.4.<.1.9.4.4.<.4.2.4.5.8.s.f.f._ ! u.u.e.~ ( Z e.e...&.| ;.1.;.-.| | 1.1.-.-.| 9.-.7.<.1.3 5.7.4.1.8.8.4.5.8.<.9.5.2.4.-.1.2.2.4.1.-.;.~ ! L _ X . . * l x b v.v.b o.x i . . + . .  .i.@.u.u.@.p.!.9 p C.u.>.1.1.>.>...| ..| .. .>.>.1.>.| X.../ w # o k #.[ { { U B u 7 u 7   ",
"  M q ! Q ` R k.x.j.k.1 X 2 e M _ L P E X.A.Q.w.e.~ ;.~ ^ ;.~ oXmXZX3XoX.Xs.M ,.&X.X1.9.4.4.9.N.B.N.N.N.B.N.1.N.N.7.N.B.N.N.B.|.N V H.H.H.^ G ].|.%X|.3.9.3.9.6.6.3.9.9.9.3.8.B.}.}.XX}.].}.3 ].*XXXXX|.%X].3.3.3.].].3.8.6.6.].].].].].].].].].&.M bX*X*XXXXX}.s.7.5.5.7. X X XC.[.Z.].7.5.4.4.4.8.4.s.2.Z f.8.s.4.9.].4.8.3.9.-.4.5.<.4.4.4.3.2.4.4.4.f.d.2.f.Y P e.f.f...~ ( ~ | ,.<.;.A ^ S.eX#X1.A | 1.| 8.<.<.4.<.s.S A 5.4.4.2.4.4.4.4.4.4.<.-.9.-.<.-.9.2.;.-.2.W ^ ! k 9 %.Y.Y.Y.v L.K.Y.K.v.L.%.l i z %.o.a l 8 ..F.o.@.$.T q.q.| | <...>...| ..<...<...;.| ....>.1. ._ 6 o X y { k 7 y y u U y y :   ",
"  M , =.*.' t y.h.i.l.6 + , =.0 ^ Z 4 @.u.R (  .u.| | | ~ ~ | 1.&.<.A -.-.;.C 1.H.Z.<.<.9.-.1.N.B.N.B.1.N.X.B.9.3.1.B.B.1.B.|.-Xc A H.T.-XFX; 3 F B.N.F | F 9.9.&.F F -.<.-.3.6.N.XXXX6.6. X3 4.].].8.].].].3.].].].3.2.3.].].3.].9.].].].].].].&.3 &X[. X].7.7. X7.s.8.8.7.Z.Z.8.s.7.s.8.6.4.2.4.4.7.].3 + Z [.].5.4.9.8.4.3.-.&.].2.<.2.4.2.4.4.9.1.1.5.5.f.e.L Z a.u.f.:.~ :.^ A A | C Z +X+XqXs.,.1.a S 4.8.1.4.3 <.7.M M 5.-.<.4.4.4.4.2.9.4.<.4.<.2.2.2.<.2.-.<.W *.f.p X.c.Y.Y.v.g v P.K.m.K.K.v n n n v.} %.x v.b x 7 i = = . r y.,.<.>...| ..| 1...;.| X.| | | | | ..( ' U % o 1 o o o o o 7 U u y o   ",
"  S , Q =.*.r r.i.j.j.t + % 0 W *.6 e u.g.@. . .>...| | | | | -.-.9.9.<.2.<.q 5.Z.1.N.Z.N.N.N.1.1.| 9.9.1.B.| N.N.9.| N.N.M.-X/.(.c f B.; c H.M.H.a T A | 9.3.9.S &.2.].3.9.-.-.3.3.N.6.].XX3 7.].].].].8.].].3.2.].].].].4.2.2.].9.9.2.9.].].].[.3 &X]. X].7.s. XZ.s.7.4.7. X8.1.4.4.4.4.4.6.8.4.4.4.5.<.2 A [.s.8.4.8.4.6.].9.2.].].*.9.2.8.2.2.4.f.5.f.5.1.a.T p F.>.>._ >.` T p r 2 p a.+XOXs.d.a.>...A T ^ | | S | 5.S M s.&.2.2.2.<.-.<.<.-.<.<.<.<.<.&.<.<.2.<.W m T p %.b m.v v K.K.m.K.v.m.v v v v.g v v.v v.P.Y.v.x o O & 1 j f.......| | ;.....|  ...| T | X.X...p Z ] t # o y * 7 7 = o 7 y 7 7 *   ",
"  S 2 *.' :.r t.p.V.h.e & + m +X[.Z 9 ..q.u.q.w.>.>.| | -.-.| >.<.4.5.4.5.<.8 ,.1.1.Z.1.1.Z.H.N.1.>.N...A -.1.N.| T J.X.M.T.M.T.).T.T.T.T.I.n.T.(.H.a V 5.7.6.9.F [.*X].4.4.9.-.A 9.4.6.].].3 <.].6.].6.].].].4.].8.].].].].].].2.].].].[.].2.[.*X< [.].7.7.7.}.s.7.8.8.5.4.9.9.9.<.9.2.9.4.8.7.8.8.8.2.-.3 &.8.4.9.9.8.3.9.9.3.9.].2.2.2.2.4.f.5.1.1.1.y.a.w.j.R J u.( T j ..e.>.( a - ..&XF.f.S.a.a.<.F.Z q | W ^ ,.W f.&.q [.2.7.2.<.2.<.<.-.<.<.<.2.<.2.,.<.,.*.^ S Z Y 9 c v b.L.v v.K.K.K.K.P.P.v.T.c.R.L.P.g g g g v.x = . . * 6 X Z X.| T | ! ..| X.T T S T S T Z p Z X.r X X X * 7 : * = u u 7 y t 7   ",
"  S 0 *.! ( r h.A.g.p.y + % w *.C C | J j.>. .u.u.>...| | -.-.-.-.<.1.1.,.-.0 1.f.Z.1...X.N.X.N.N.Z.1.N.1.| 5.H.Z.H.Y.M.n.).).R.T.)._.n.n.n.n.M.n.T.T.n.a | A ^ &.].9.A -.| F -.A | -.4.s.[.2 5.[.7.6.8.3.2.].4.5.].5.5.].2.8.].].2.2.].].].2.].4.0 A [..X7.s.[. X].7.4.4.4.1.4.9.4.4.9.9.7.s.].].6.8.8.4.M 2.7.8.9.9.3.].].9.9.9.9.9.].8.2.5.2.^ p ; 9 E ) ] U 7 8 ( ..J 6 p L ( ... q OXF.( | >.| ..~ 8 @ q | q C oX<.2.-.M f.<.-.-.<.-.<.-.-.<.-.-.-.<.<.*.-.<.<.;.M Q >.%.M.L.Y.P.K.g g K.K.P.K.K.m.P.P.U.K.g K.g I.K.x v.Y.o.: k O . X T ~ ..Z p p T Z p p p a T T p T T a p r 7 7 y y u : u 7 u y 7 7 *   ",
"  M 2 ' L Q P g.D.i.+.5 + # , + e T >.Z @ q.u.u.w...^ | | | | | | ;.<.<.;.;.2 1.1.H.Z.N.1.N.| X.>.1.1.a.1.| H.C.N.N.M.M.n.M././.T././.I.c n.n.n.n.R.T.H.: r f.| -.&.S -.| -.| A -.A A N.8.5.q | 8.4.6.4.2.4.].2.5.].5.].4.8.8.8.].4.].2.2.].2.2.].M < [.2.2.8.s.7.4.2.3.4.4.9.9.3.4.3.9.3.].].6.8.8.].9.&.2 &.8.].&.&.].2.2.2.-.9.9.2.2.<.9.:.0 . - : U ) 7 o o & $ E Y C e C T ( ~ q.>.+Xf.Y ( ....C q T | _ Z S 8 e.~ &.;.0 5.^ -.;.-.<.-.*.<.*.-.<.*.<.*.*.-.&.-.W W Q y.V.b Y.n.P.P.v f g K.K.K.n m.K.K.I.L.v.g v K.v R.Y.L.M.l > ; k Y % E ..@.T ....T T T T T | X.X.| X...T T T a 9 l E U u = 7 k 9 7 *   ",
"  0 , 0 w 2 w j J / J 5 + , , 1 Z  ...T L p ( q.....| ..;.;.;.| | | ,.1.s.1.2 ..Z.N.1.H.H.V.Z 1.1...1.1.1.Z.Z.1.M.T N.M.A a M.X.X.M.n.H.n.n.n.n.T.T.m.n.X.- T 2 M A -.| A -.-.-.<.4.-.| ,.s.2 -.2.2.4.9.4.8.].4.].8.].2.].6.8.8.2.8.5.].].2.2.[.[.S S k.M <.s.2.5.f.s.].8.8.1.3.4.4.4.4.6.6.8.3.3.3.3.3.9.N -.6.9.].F 9.].].].9.9.F 9.-.2.2.0 + % 7 j 9 > 7 7 u : O . 4 J ....p T q.q...:...! W ! ;.;.>.y.1.u.| 1.f.2 | *.&.0 ;.-.;.-.;.:.<.-.-.*.<.-.*.<.-.<.-.-.*.<.^ ! ) : = L.K.P.P.g b.U.K.U.K.g K.K.K.n v.v.b g v.L.P.K.v.n.n h 9 X. .O X R ( ....| T ..>.| X.S p T T ..1...T T r 5 : 7 > * 7 9 { B { *   ",
"  3 W ~ *.J C p t t t + 1 1 1 , J y.q.W y._ p y...q.>.1.1.>.,.<.1.1.1.1.f...- ..1.>.Z.u.%...a.u.F.^ u.H.u.1.q.V.H.V.B.c s a M.M.c c c n.n.n.c n.n.c c c a z ; 2 &.<.-.^ | -.9.5.<.<.^ S C <.0 ,.5.5.2.9.2.].].2.8.8.8.2.8.8.7.4.8.].2.2.].2.].[.[.&.^ e.Z Z &.-.2.].].s.8.7.3.4.4.6.N.6.3.3.3.9.9.3.3.3.].D 3.6.9.9.F 9.].].].9.3.9.9.3.4.2.3 , $ 5 8 = : u u u k 9 9 k ..D.+.8 :.( J W ~ ( p L _ ..:.;...| ..^ ..~ L C -.;.q 2.-.-.*.-.*.-.&.;.*.-.*.-.*.;.-.&.;.| W L 6 . O c.Y.Y.L.b.K.K.K.K.K.P.n K.n v.v v.n n g g g g n n > 9 : 9 $ . X 8 q 8 T p k ....( K K l T E | ( @. . .k : a E z 9 x } k k u U =   ",
"  + 3XtXD.j.W.,Xi.l.] *.1 + 1 % X $ 5 w , r . 5 r r r C r 8 q q C J T C p p 3 T ^ | X.E Z.Z. .T a.G.u.1.%.p p ^ A 1.X.s B.A >.M.M.M.c f X.c f J.c s z a %.V.9 2 _ f.| Z ~ -.,.f.5.-.| ~ <.*.2 *.2.2.<.*.2.-.*.2.2.2.s.8.8.[.8.7.8.k.].2.[.[.2.2.k.M Z 2.Z M A ^ A A <.4.7.].Z.7. XN.6.N.].].3.9.9.9.F 9.F V -.4.2.].9.].&.&.=.=.&.=.F &.&.&.q , $ & 8 : : y u x k k a Y E K j J ( ( T ( _ J L ` .._ ( ( W L Z ! ~ ~ A 2 C r q &.&.^ ~ ^ ^ ^ ^ ^ ~ ^ ~ ^ ^ W ! ~ ! + 8 k z.b v v.K.L.b L.b.b.b.L.g g v v.v.n n x u u $.$.c.E.z.o.o . # X O j p k l C p Y T ..X.{ ( R p p 9 r 9 : r 8 & . 9 j 9 u y u 7 * * # #   ",
"  @ +X<Xq.w. .w.A.Q.j.UX' # # + P H 5 2 L W _ ' m m H m L ..+X3XOX1Xg.y.f.e.- y.a.Z.S.4X,Xg.: ..V.A.u.u.>.u.X.,.3Xd.f.a.,.>.X.o.B.M.s a a a c $.z : T o.o.z 9 Y J r.p 8 r 0 q q q q Z Z L q q q 0 H Q Z q Z Z ! >.,.5.,.;.| <.;.<.<.<.*.<.2.:.Z q # + 0 6 Z &.*.Z A &.-.-.,.5.4.2.9.2.-.9.9.9.9.-.-.G F D G G F =.S &.].G =.A N S A &.&.&.&.A *.p 6 5 : u * u U k 9 : = : 7 j ) J R / ( L Y ' ] P U H 5 w e C C e C 0 r 6 2 , q 0 0 q C Z Z Z Z Z Z Z Z Z C M q - l Y.c.T.v v g d g n f c g b b M.%.k K yXtXyXW.i.j.<X4X<XNXUXQ.) { y p.O U O.@.u.@.u.@.X. .X.E k ) ) O.E U K j e 7 1 & 4 * * : 1 * 1 1 5 # #   ",
"  + M k.T r 4  .,XD.yXk.l.+ + # j.j.w.:.j.oX[.k.f.y.r u.u.a.D.F.G.G.G.a.a.1.6 a.f.a.f.,.,.~ ,.,...^ F.u.;.,.1.| 5. X3.4.s.G.k 9 f a s 3 > z k 8 6 4 : 6 O 9 p p H . 6 u.u.f.e.f.>.^ 8 . J & 6 h.i.:.( :.i.j.f.e.,.j.D.+Xe.~ ! ( ! ^ ! W p W m m 2 5 m ^ Z ! e..X[.+X#X+X5.S A ^ <.2.5.[.s.8.4.-.A Z F G F G G F F &.&.&.&.&.9.9.&.F F &.&.F -.^ S Z 6 : 9 7 u : o * * 7 u 9 k K J j H J J J K / B r H w C C C Z L L Z W Z H # m L ^ S m m ^ <.:.*.*.^ _ _ *.I 6 : Q.E.^.Y.M.b x n b f n b h l $.p.) Y ..q.! / .. .` *._ Z ! _ :.e.{ 5 k K k p k l E X.T E P P C J R  .` ( ) ` _ Y / H & r K K y k K K B y # X   ",
"  # W Q 0 C m L e.^ e._ *.+ + B  .f.q.f.e.f.e.1...| 1.a.Z.u.>.u.u.u.G.Z.u...2 u.a.f.,.>.5.f.,.5.>.>.>.1.-.-.-.2.-.2.s.,.1.... a c ; s s > a > b Y.E.$.$.k . X . 4 - J g.:.f.>.>.f.>.e...8 , 5 e.( ! L W _ :._ :._ ~ ^ _ :.<.>.>.>.e.,.e.e.( _ ! # H :.2.2.<.2.<.;.-.^ &.-.A -.<.8.[.[.[.[.].5.&.4.4.| F F G V A -.9.9.&.-.-.-.-.-.&.-.A &.&.C e e K : h %.n.v.b x z i * 7 # . # y 6 H k K e I H I 0.Z q L ^ ^ ^ ~ ~ _ :._ :.0 Q *.:.*.*.! ' _ *.^ Z ! L j.4 w + . # u $.^.E.n c b c b z O O : e.! *._ :.~ ( ` :...l.r.y.j.q.:.` _ ' X C ) +.+.( .. . . .:.:. .( ( ! J Y T ( T ( R P B X B y y K U U U I r o X   ",
"  @ e :.:.^ ~ ;.k.0 e.e.W # + *.:._ ~ >.>.e.>.e...e.j.y.a.u.>.1.>.1.1.>.,.X.2 u.1.<.1.,.,.<.,...1.| | | ^ ,.f.<.k.;.m y.X > u.V.X.8 ; s a z n.Y.n.Y.b $.V.%.z k p 6 . C <.-.~ ~ ;.~ S.j.P , 2 [.e.:.:.~ ~ _ :.&...*.| :._ ..>.<.<.;.<.<.*._ &.=., Z &.5.<.-.2.4.<.<.8.7.8.2.9.-.&.G -.].-.-.S S 3.1.1.<.| V N N.=.9.2.2.-.&.A =.&.9.^ &.&.W Z q.h h z b Y.P.K.P.K.b b %.z d o.z > u U t.` K t 4 L Z p W Z Z Q Q ~ ~ ~ _ L ! C C 2.k.,.2.*.S q K 9 b %.v M.b d b M.b h y o.$.n z c d = 6 o X : r.e.q...>.*.:._ *.*._ :.k.:.! ..:.( Y 2 L :.d.:._ W Y _ ` ` ` ` ` Y ! ! Y W L L P I I B o K I e K B U I r B % X   ",
"  @ . ~ W ^ ;.:.f.,.[.k.m + < *.,.^ *.| ;.>.>.:.:._ q r j ..:.| ..1...>.;.| 6 ,.| ;.1.;.,.,.2.,.u.f.s.~ ;.,.e.,.! f.Q . O y.%.>.T > a h s c n.Y.T.v Y.g v b c E E { +.. :.>..._ _ _ j.+XUX# 0 e.<.;.:.*._ ;.^ ..&...;.:...( ..;.>.>.,.;.*.<.&.e.2 *.[.2.2.&.&.<.8.8.-.9.2.-.-.-.&.&.3.&.-.9.p 8 A <.[.[.}.q 3 | p N N G M a q 3 3 q Z S C ( 0.) X.Y.Y.Y.K.R.U.v.K.v.v.L.b v Y.b d z %.#.{ r % m Q *.*.] L L W Z L Z m Z Z Q ^ 2 ,.2.*.*.a %.M.M.n.b.P.P.K.T.b.K.K.P.Y.P.g b z > o.#./ ' B I Q *.;._ ..:.0._ :._ ! _ ^ ( W / _ / P ! q ~ *.[.k.&._ Z Q ! ' { ' L L I Q W L Z W H m B t # ` / U H B B B t t 1 X   ",
"  @ + ,.~ ^ *.~ _ &.*.*.1 # 1 *.Z ^ ~ ~ ~ ..1...:.q @ # 5 ` ..~ | ..| ^ | T - f.f.<...1.f.~ :.1.,.;.;.;.;.;.;.f.,.k.d.^ 2 W.T @.T s z c s s c n./.(.Y.L.d h d h > ~.lXU : R H K J J ..:.] , L k.:._ _ _ _ ~ ~ ..~ *.:.>.f...( _ _ _ <.>._ &.W *.< &.,.&.2.2.-.^ &.&.&.A &.-.-.9.9.-.-.&.A -.3 V 1.4.-.9.| 3 a X.M.n.c n.X.c d c c n.c %.h z E h b Y.R.T.K.U.P.P.P.U.K.P.K.P.g K.v.n n x : . . r Q ' Q m m L W Q W Z W Q ^ L W , *.L 0 X M./.R.I.b.f f b.b.b.m.b.m.g g f K.P.b d h i.r.' *.k.l.e.*.*.*.*.*._ _ _ ! ! ` ! _ _ _ ! ! _ r C m &.k.+X+Xj.m r ] ` / I J m H m m W Z m m B % $ ` P I H y k B y e 1 X   ",
"  + @ :.^ Z ^ ~ Z Q L ! # , t k.&.^ ^ ~ ! ~ ~ ( ( T q 6 r 6 J ..| ..| ~ _ J - .Xf.a.,.;.;.| :.,.| ;.<.,.5.;.| ,.,.^ ,.f.>.D.+.p.c > s d > s > z $.v s > > u > : k $.o.l z.: o . . . X . . 4 *.e.:.<.*.*._ _ ~ ~ ~ ~ ~ >.` / `  .:.~ ! _ *.&.L _ # ' *.-.e.,.<.2.-.&.&.&.-.&.2.9.<.-.-.9.-.9.-.a ^ A A M 3 ; c J.c M.T.n.n.n.n.n.n.M.n.n.n.n.x v.Y.R.R.T.v.v.K.K.K.P.U.v.I.U.U.I.K.m.b.v n 9 i . # 6 t t m Q W ! Q Q Q Z I I I m 6 . o l M.b.R.n.g d b n.f g f v g m.m.g m.g v n O @.*.*.l.*.0.l.r.*._ *.*._ ! _ / ! ! ' _ _ ` ~ ^ ' 2 m W =.:.e.e._ / P H I Q Q I P L m r m Q P y I X % K K e H I B U y B 1 X   ",
"  + # C L Z ! ^ Q ^ Q ' + # m k._ ! W ^ T T Y ~ Y ..Y ( j . . - 8 >.1..._ Z 8 C.>.5.f.;.>.,.;.~ ;.,.,.<.<.~ >.;.*.;.;.:.....@.w.h s d a h ; > h o.z > x h z [ : k 7 * 9 r y k k U E j K P 6 Q :.:.:.e.e.:.~ _ _ Z ! :.( Y T P C L Z ! _ *._ *.[.4 [.2.k.2.&.&.<.&.A =.&.-.&.&.2.2.2.2.-.&.2.4.A @ @ 8 8 3 M.n.f m.n.n.n.m.b.n.b.g g b.Y.P.Y.b v.c.v.P.T.I.P.K.m.v.m.K.v.P.K.R.U.U.K.K.K.v K.L.b z c 9 % 0 m q C C C m q m e m 0 e O.o.z c c b b a z f c c f b.g v b.f b.g f b n > h.` :.:.*.*.0.*.*.~ _ _ ' _ _ _ _ ^ _ / _ ' _ _ _ q q W *.! *.:.` Q / H ' P m B I I C Q Q L H H I # 7 I C H B e r B r e 1 X   ",
"  + % / ~ W ^ ~ ~ *.*.` X + r k.H ! ! ( C r y.>._ ..q.y.y.( X . 7 f...! ~ q q u.>.,.,.>.:.>.~ _ e.,.,.:.,.;.,.| ~ ,...~ a | p X.z > s c d s > ; 9 9 > 9 > : [ : X o o . k E E o.#.@.o.+.e., e r._ :.q.:._ _ ~ L C T Z L L P ! ! Z q C ! k.*.' <X2 j.,.e.-.*.&.&.W A &.&.-.^ S <.4.;.-.~ -.~ 2.2.2 , Z Z a X.c f n.c b.c n.n.n.n.M.v b b b c z i c b v.L.L.v b v v g g g K.K.K.K.T.m.L.P.K.K.P.K.K.Y.x n d d x > 7 t 6 j p $ 6  .o.X.l h s > X X . ; ; = z s f d f b n.g f n v Y.i @.:._ *.:._ *.! Q ~ _ ! ! *.*.*.*.Q _ ! ' *.&.! ] q m ^ S W &.] Q ' m r L L C Z m C H L L K w t = X 7 Q I w r L I I H I 5 .   ",
"  + + Z ! ^ W :.:.P _ >.X + 4 ' L ! W ! ! @ j.:._ r.>._ C 8 6 p ! ~ ~ ! ! - q e.~ ~ >.;.;.;.~ ;.;.;.*.<.;.;.~ ;.;.~ | A Z X.>.%.X.s c c d z d l > O O : E 8 l h u +.$.$.%.h > d h l o.k U 4 I *.^ _ ` ! _ ( ~ L W C Z L ! _ ( ! e e L Z C ! _ *.2 _ ~ ~ *.&.&.&.^ =.&.&.<.*.W ~ -.^ ~ &.-.-.&.&.=., . 2 T M.T a T a a a p a > a c h z %.b Y.Y.T.T.v L.L.K.L.v v.v v.f b.P.Y.L.P.v v v.g v v.Y.g L.g n n n b b b d = u U r 9 p k a X.t.$.%.%.z o.M.V.M.Y.E.c O > X : z d > h v.x = P ,.^ ^ *.*.*.*.&.^ Q ' _ _ ! ' *._ _ ! ! ] Q W ! m q k.*.Q W Q m $ w 0.' e I C I J H L C 6 4 X . X 7 B ] B y w P P e e 6 X   ",
"  @ # L ! ^ A ~ ^ W ! ! + & 1 ] P ! L _ ~ C ' , Q P 5 . . _ >.~ W >.~ S J # C | ~ ..~ _ *.~ ;.;.~ _ ..:.;.;._ ;.~ ~ | T | ..@.y.c > V.c T @.$.$.c X.X.@.U a V.E.{ @.%.E o.l 9 9 h z z l K 0 6 k.:._ _ ! ( ! L ! W T _ _ _ L C W W Z m w I W _ _ 5 W ~ &.;.&.*.&.&.&.&.A ^ ;.2.;.q S ^ &.&.9.2.2.;.2 @.E.H.M.M.M.M.M.H.(.Y.M.%.M.%.M.(.R.Y.P.P.P.K.b.K.Y.T.v L.g L.b v v.v.v n g b n n n g n b v.v n z > i d i > > u 9 e Q :.( >.V.H.E.V.^.V.V.!.V.^.^.Y.Y.^.$.> O O : o.x o.l h 7 0._ ' &.*._ &._ *.=._ *.~ ! *._ _ ! ! ! Q Q =.Q ' Z , e.*.! *.:., & 6 0./ r P P P P P Y J 5 r 1 X X U U { U r K U 7 6 y 1 +   ",
"  # % C Z q r ~ Z C Z e & + + I Q ' Q P _ r.0., . . . 0 ( q.( Z ^ ^ ^ ! ! @ ~ ;.~ | ~ | ~ ~ ! ! | W A W ~ _ ~ ~ ~ ^ ~ ^ .. ...i.T 6 k ....| | Y ..u.w.u.q.r T A.z ; h 9 a k U u 9 l E z K w , *.W P ! / J L J m J L C m q e m C L L L Z w C H r w ~ ^ ^ ~ *._ &.&.^ ^ Z A ^ &.&.C Z S &.&.^ -.5.W a !.V.c c n.n.n.n.n.n.n.M.Y.M.Y.n.L.n.b.n.n.L.K.P.v v K.v f v g g v.v K.v.v.v.b c d z i x x i O = o > 7 u = % R r.r.e.e.;.T X.p.u.%.u.u.u.$.%.%.@.X.o.%.X.@.: O O X %.{ E E E t ' *.=._ *.! Q *.*.*._ Q *.! ! ! ! W Q ^ ~ ' _ *.Q &.@ _ Q L L Z 0 . . + $ q I C C p m 0 L ` H # o X ] U k y e K B 6 7 1 $ ,   ",
"  # + q 6 0 J ! ^ J ! p X # # # e ' *.6 L ! m X % X . q ! P ! ! C Z A T L % ~ ;.A A ! ^ ~ ~ ~ ~ ^ W | ..*._ :.;.:.! _ ^ ~ :.:._ K : ~ ..T ! .._ ^ ( ....Y W J J H $ o & 4 : k k O h E z R L 6 e C j H C L Q ' ' / P I I J C L K p J C Q H B Q I 8 m H P L ! ^ W Q ^ ^ A W S A Q W C ^ -.~ ~ &.f.q p p ; z %.X.%.%.o.c d c b c b b c f d d d f b.b v P.v Y.P.v n.n L.P.v n v g Y.d > h > = : X o . . = 7 z } 7 r =.Z &.=.=.Q &.I L ! J ( Y Y q r a A ( _ H ` q.( / ` r . U j u K r P H W Z ^ ! Q ~ _ *.' ^ _ *.W W ^ ! ~ ! ' W ! Q L :.2 Q Q W m m m 0 X . m ] P 0 , 1 r I P I y # X o # # . . . . . . & 1 # ,   ",
"  + % 0 0 t r 0 w p w 5 # # + 1 4 w r :.r 5 r e r r 6 # X w e 8 q p L 8 e , C L p e e p I L W Z W L ^ _ ^ ^ W ^ ~ ^ ~ _ r L J w 6 & p Y L T (  ...Y T ( ~ ( _ q.y.f.P & . $ o ) K a h U R P e W Q ! p e H I Q ' / Q L I C p r C p P / P r C H q r m 0 0 q r 0 q Z Z L L Z L S Z S W q Z W Z m 2 Z ,.1.X.M.H.M.$.X.X.K a T X.c X.x c c c d h d c b n d d b v f c v v v v v.v n b n i 7 O X # = o r = o * . 6 Q &.*.Z S A ^ A &.q k.k.*.Q ^ _ :.:.! ~ ..:.:.e.e.0.y.G.i. .8 - R 9 * P Q ! &.W Q Z Z W W _ W ! L H W B W Q W Q Q L ! Z m , m W Q 0.l.l.I + X r.Q . t P ] U e t B r 1 X X X . 0 e e m C m I t 1 !   ",
"  # % 0 w q 6 w 7 e H r # # X 0 I e M e.L / *.J L ! ! _ P w 0 r w e. .` ` % 5 S ! L L L W ^ ! ~ :.^ W ^ _ _ _ _ ! ~ e.e..._ ` ` J . ( u.g.y.a.V.g.V.a.y.w.( ..a.e.S.+XS.! 4 $ 9 k h a k R P w ` :.Q C C B Q ' ` Q P C C H 4 4 C L _ _ / / w I m m H H C p q 2 w w w w r C w J ] ! r $ p L  .@.q.t.X.o.%.X.X.T E X.u.@. .X. .X.O.X.X.X.X.%.%.o.l h d s s z d > d z d d d d s z d > > : 7 k y y = U } ] U 7 r *.W &.=.Z W =.W ! 2 *.*.*.=._ ' &.*.:._ W C _ _ ! / / _ :.e.*.` ) 9 7 ] / ' ' *.&.*.*.W W *.W *.=.*.*.L Q ^ W Z ! _ _ r I . W :.:.e.k.' $ . . * & ] ' B y t t t % # o + X . 5 _ *._ *.*.^ ! 2 # -.  ",
"  @ # % ' e 1 *.e.! I H , 4 , 6 ' H C L C L L Z Q Z W I P _ _ *._ ,.*._ :.. r ~ T T Z ! ^ ^ ^ ^ ~ ^ ^ ^ ^ ~ ~ ^ ^ ..! ( ( 0.:.` H . ( ..>...X.......) ......T ..Y ^ ( ,.i.<XK O . 7 9 k E 6 w *._ Q ! L W I L P H J H L Q Z I L ! / P L *.^ ' e P H r P P e T P / ` 0.0.0.P r w 4 r :.+.q.+.X.@.o.p.u.o.@.q.k T @.X.) E E E K E E E E E E ..o.E T l a > z s h > > 9 ; > O > 9 = = * > } E y U r X * B I ~ ^ W A ^ A ^ S A W ! < ,.:.` ^ _ *.Q L ! ! ! Z C L L ^ ^ ! _ _ ` k.0.4 : 0.L Q W ! Q Q ! W W S *.^ _ ^ Q &.Q ^ *.Q ! ^ ! Q *.+ L q e * . . * 6 # . r i.{ K U U U ] U B # & & . m ' ^ Q Q ! W L 1 ,     ",
"  , 1 % w t , :.*.0 q m $ , 0 1 _ Z q m q m m Z Z Z W Z Z Q Z Z Z M Z m q + 0 L C C Z C I L C C q r C Z Z L T Z ! ! . j J Y P J J . J Y ( ( T T T C T T T T T T Y ( T ^ .. .k 9 * o y { U 4 Q ' W L B m m I L L H I H H Q ! ' W ! P C C ! _ / m C ' 0 ! /  .` )  .+. .` ` / % X . ` q.` ( k 4 r 0. .T K ) K j / ) / E / R R K T Y E / E R R E ) )  .) E T : 9 7 O : > 8 7 O 7 y r . : {  .L W W W q S =.=.2.-.=.=.A =.^ A A =.0 2.,._ _ *.! Q Q W I L W L L I W ! ! ! ' ! *.! % % ` m ! Q W Q ^ W Q W W W W W ^ W L Q =.^ W Z ^ *.m =.+ &.+ q B U U U } l.U y { U u U U U y ] y o o + X L _ W Q Q Q Q B , %     ",
"  2 & # X 5 1 , 0 Q C w , , 0 , ! t q e q m C M m L W W W Z C Z Z m m m I + 6 I m 0 m m W I Z e C Z Z L Z Z S Z P e Q C C L C H e X q T p Z k Z T T T Z T T T T T T p T ( U : l 9 O t i.r e ! W m L Z L Q Q Q P Z I C I Q ] P Q Q I W L Q ! / P H _ C 5 H ) ) ) ( R R P H P P w w H R J e y J Y K / ) ( j I ) R R R P K H K Y U R U P R K T P R K R / ` ( R 9 & . % 6 8 # # k k { U . : ] L _ ~ W ^ Z W =.2.&.S S =.=.^ W W &.0 :.:.! ! ! ^ W L ! W L Z C Z I L L P L L Q L W t & 7 C Z m W ^ W Q ^ ~ W Z W Z W W W Q W W W W Q ! I 6 X &.6 P H B U B U y U ] } U y ] y y B 9 o o 1 * X H ! Q L Q I =.m % &     ",
"  0 + & , r r 2 Z ! L m , # , , Q C m L W q r W W Q W W C J Z Z L Z S =.W # r Q W Z m m Z m I W W W S Z Z A Z / ` P ..J T T J K I X k ..p Z T Z Z Y Y T ( T T E T T p k U u [ [ 7 o . K & B L C m Z Z B B Q Q P I I r H ] ] ] P P m P ' ! ! / Q e ! / r J E / / R P P P P ' R / { / Y I m H P P P / ' ] r 4 P H K Q ] I J R ) { 0./ / ' Y ' R ! Y Y U ] R / Q H t X & X . o 7 K y K o . % ^ W W S S S W &.&.&.M A W =.&.! &.*.% W W r C Q W W Q ! ! Q Q W ! ! Q I H C L Z W ' I . H Y Z W W W *.^ Q ^ ! =.Q W W Q W W ^ W W W ^ Q r t , =.m r B y y U y U U U B U I U B I 1 X t t t t o 8 / Q Q =.Q Q B % +     ",
"  < + X 4 H H w 0 m m q % X , 4 q e e Z W C 0 m Z m Z Z W S Z L Z W W W Q @ 0 =.Z W W S L m _ Q I Z L Z Z Z p P p 5 ! Z p r C T r X ( Y X.k Z T X.T T T T E | T p p k a > x h z u O o X * e I L m m m m m B m t 5 , $ 6 * : * * 4 4 4 6 5 5 w w 5 0 t 6 5 6 5 7 5 9 5 r r e r e e e r r 6 9 w w w 8 0 4 6 % 1 0 6 6 6 6 w w w t 7 w y r 9 r w r e e m P Q P P ] e # # & & 1 1 t # X & # P ! m m B m C Z S =.W Z Z S A W W Q B < m r C B I W W I m m L P Q ! I W Z C Z L L ! _ ] # ( P L W W ! &.Q W Q ^ =.Q W Q W W W W Q L L Z m , 0 , r L B y y B y y U B B B y u y u 1 % m B t t 7 o 5 / I W W Q =.m 1 %     ",
"  3 + # 1 I H 0 W m r 0 % 1 t # H C L Z Z 6 0 q M q m W W W =.=.^ W Z Z Q # , ^ Q L W Q Q _ ' m P m m C L L p Z # 1 R T r t y 1 7 8 R ( | 8 p T T C J T T L Y ( P / U > z x u u B = * # 1 1 m I B t 1 o t t * 1 r y r m m m H m e e r K C p w q r m e t r t 0 r 8 5 6 % % % 4 1 $ * # % X % . @ + o X + X # . . . . . X . . . . . . . . . . . . . . . . X . . . . . . . X . . . . % X . # 6 1 1 , % # % + + X 1 # + o % 1 1 # $ . . $ $ 1 , , , 1 1 , 1 1 1 4 0 0 4 6 0 t 0 6 , & X w B Z W m Q Q W W W ^ Z Z L L Z Z Z W Z L H 4 , e X m m m Q U I I ] M B B B B U y t t B t X $ 1 1 0 6 r Q B I I W 1 t # =.  ",
"    + + , L t 2 L C 6 , P B & + m Q W Q A q =.S m 0 Z Z Z L S W m m L Z Z + + I Z m m Z Z Q m t 0 H L ^ ~ ! ' r.6 * e w X o * : 7 $ 9 e T a C C p J j T J p C P P j k . h d u i * o . . . X o % # o ] l.j.l.y U <X<XUXyX<X<X<X+X[.UXj.[.j.j.y.k.k.d.j.[.[.j.[.UXD.j.+X<Xj.g.j.j.j.j.[.+XF.j.j.k.j.[.UX[.UXk.r.eX+Xk.j.[.4XeX<Xj.[.[.j.j.j.j.j.k.k.j.j.j.[.j.6 + # P k.B # UXr.] I I ] { ] ] U I ] P I B B B I m B r m $ 1 , , 1 B m m r t m m B m m I I B m m m r w r r t t $ . . . . t Q Q m m m m m W ! W W W L Z I L C 4 t 0 1 . X , m m M M =.] I M S M m =.B t M m m m W Q Q ! *.Q Q m 0 m m B m M m + Q   ",
"    X + 4 w 0 e H q r m 0 0 0 < % W m Q m 0 Q H m r L m M m Z Z M M M m Z 1 + m m M m m m C m Q 0 m :._ W ' ' r # * 7 5 $ e U U k B . . : 5 8 - w H P K J P H 5 & O = i > d h i o $ j.yXj.. . o # 7 j.j.{ B t t 0.j.UX[.j.j.k.j.j.k.j.[.+X<X<X+Xj.j.2.k.k.[.[.UX[.<Xj.d.+X<Xj.j.j.j.+X4XyXr.:.2.[.[.<XeXAXk.m AX+X[.[.[.+X<X#XeXeXeXyX+X[.yX4X4XeXyXyXeX<XtX, . . <X<X# + tXUXi.j.x.k.j.j.t.r.r.t.i.t.i.r.x.x.i.i.x.j.{ 0 e.1 d.j.j.k.j.k.j.j.i.k.r.[.k.r.r.k.j.k.j.i.j.k.k.l.B & 0 ] i.*.m W I I m *.0 w Q L e C e q 6 4 4 m H e B 1 . , *.=.=.=.&.=.m =.=.=.=.=.=.=.=.Q =.Q =.=.W W =.W I , B I B m I I o :.  ",
"    + # , w e m q 0 M M 0 t m 0 0 6 0 , # # . . 0 ] m w M m m S Z Z Z Z C 4 X m M M m m Z Z r L r % t 8 m t . . # ] ' U u l [ U u U E k & . . . . X : : $ 5 . O d x o v.P.v.x = = 1 yXtX<Xx.5 o o # r.I t y t t r ] ' B Q W I H I H P ' =.' *.' *.Q B r B ] Q ] ] ' r . J Q U e Q P ] ` Q Q m Z m m B =.[.I + m M 0 0 < . . 0 W *.=.*.=.=.=.=.*.:.e.e.r.k.k.m # e.[.j.B . 9Xx.r.i.{ t.t.l.+.w.{ ] y ' r.i.x.t.j.t.t.j.U t <Xt <Xj.k.r.r.t.r.w.l.r.t.l.r.r.r.{ i.:._ 0.:.` { l.] , l.P *.*.L L Q 0.e.=.m P *.P I Q H ' P Z W I Q m ] *.m X k.*.M =.m m m M M M M m m m m m =.Q Q W W m m m M 0 B m B B =.5 + +X  ",
"      + o # 0 t m m M t q M m 0 m t 1 # + + + . % M 0 0 M M M M M M m m m 5 . 6 M m m M m m q M q m 4 o . . . # 7 y 1 y y x U y 9 [ [ [ k 6 * X X . o % * o.c n g g n > n n i > o # X K ' t.r.o + + Q m M t t t m B I ] B ] I I B m t t y y t t B H *.' ' *.] ' ] ] B 6 # B *.W =.S =.*.Q Q B I m t B t # @ , =.! m M M M m M 0 3 3 0 m 0 1 0 0 , M 0 M M 0 m 0 ] ] ' t 1 { y y B y U B U ] U U 5 t r y B y U U U t y y 5 ] e ' ' ] J U ] Q U Q ] { I I ] ] ] l.l.' ` ' Q B ] l.] I H ] I m m Q ! I W I m m L Q I m Q W m M M t 0 m P 6 X 0 1 t m M t 0 M t t t t B B t t m Q B B t B t t t y t t B y 6 t k.*X  ",
"        3 o + , 6 q m t 0 m t 0 0 m M 0 + + + 0 m Z m m m m m m m m M M e $ X $ m Z m m m M 0 m 0 r e e 4 & r H R [ B y * * y u y U E { E U U y # # t # * x x n d n v n i n i > . # o * t.{ { o o . B 1 # , t t t B B B B ] { ] ] ' ' ] ] B t # 7 B Q _ ' l.l.r.*.l.*.Q + B e.! Q *.*.l.l.k.l.*.=.] ] t + # # e.l.2.&.=.].].].=.*.*.=.=.=.=.' =.=.*.*.*.*.=.=.0 Q ' Q 1 t I ] *.l.B ' ] U ] ] { { R U t y B y U U y t X 6 U 1 . 7 t H ` *.{ ] ] B B t t B m B B w y w w t y y t t o X 1 B P Q W m 0 M t 0 0 0 m m m m m m , t t r t . . $ B y m m t t t t t 0 t t t t t t y y y B y t t y y t y t 1 4 L [.      ",
"            N , o + , 1 1 5 t 0 t t 0 4 X o + t 0 0 M t q q 0 0 0 2 0 1 # X o o 5 M t m 5 t r m C Z j 9 : $ r : t 0 u 7 # . . . o # * 9 5 6 : 4 = $ B o O O . = = O d x i = o . k 6 o o I U . . X I yXk.0 . * * t y y B t y y y r u y y 7 1 o o o X o o * 0 t m B m y t + 1 t # 1 1 , 1 6 1 * * o o . . . . . . 0 m m Z =.B =.B P P H r m m m B B B =.B M M t o 1 1 o = o 1 , o o o o * * o B U U I B 5 B t B B e r r o 1 r X o . 6 j m H P U I m t t r 1 & 5 5 y 7 : t y y e e t o . * w B C H m e m t r q m y B I m w 1 0 m 1 5 # . X . # * $ 1 1 1 1 7 7 t 7 1 1 1 7 t t 7 t t t t 7 7 7 * * 6 G             ",
"                G 3 < # o o . o o # * , $ 1 , , @ < < @ @ @ < < < < < < q 2 3 3 < 2 2 < < 3 < 3 q < < < < 2 < < < M S S A S N N < 3 < @ @ < < < < < < , r 8 - < , , 2 < * 1 6 m e.' 5 6 < @ 4 0 *.:X      G 3 3 0 6 1 6 1 t t t 0 2 , < , , 1 0 0 2 0 1 , < # # . . X o 1 1 1 3 < 3 3 3 3 M N S M S A &.&.2.2.*.3 @ + + + + + + . + @ < < < 3 N 0 N N 3 3 3 3 N S =.-.=.=.W 0 3 0 0 3 2 2 2 3 < @ < < < < < @ < < < @ 2 , < < < 2 < < @ @ + + + o o o X . + , < < @ < @ + + @ @ 0 r Z Z M < < < < < < < @ @ 2 < < , @ @ , , , , < 6 m L I q 0 1 1 o o + X . o o o * = 1 * * * * * = 7 1 1 t S &.                ",
"                        F 9.2.2.3.{.].                                                                                                                                                                                                                              {.F ].].|.                                                                                                                                                                      F 2.d.].                                              :X                                  :X].2.<.2.*.2.e.e.l.k.k.k.k.k.k.k.l.k.[.                          ",
"                                                                                                                                                                                                                                                                                                                                                                                                                                                        %X:X                                                                                                                                                    "
};
