/* XPM */
static char *out[] = {
/* columns rows colors chars-per-pixel */
"296 150 256 2 ",
"   c None",
".  c #010001",
"X  c #090808",
"o  c #140907",
"O  c #171509",
"+  c #090C12",
"@  c #0A1617",
"#  c #141314",
"$  c #1C1B1B",
"%  c #171817",
"&  c #0F100E",
"*  c #231B19",
"=  c #25160A",
"-  c #1A231B",
";  c #16250E",
":  c #28261B",
">  c #302F11",
",  c #191C22",
"<  c #0A1C24",
"1  c #241D23",
"2  c #052628",
"3  c #1A2626",
"4  c #163335",
"5  c #242323",
"6  c #2C2C2B",
"7  c #282827",
"8  c #342C29",
"9  c #2A332B",
"0  c #37352A",
"q  c #292C33",
"w  c #2A3536",
"e  c #333434",
"r  c #3B3C3B",
"t  c #373837",
"y  c #342D34",
"u  c #433C38",
"i  c #443B2B",
"p  c #483A19",
"a  c #3A433B",
"s  c #36472F",
"d  c #36451A",
"f  c #4D5016",
"g  c #6B7217",
"h  c #474728",
"j  c #47453A",
"k  c #575838",
"l  c #515230",
"z  c #655436",
"x  c #586830",
"c  c #747928",
"v  c #6B7131",
"b  c #5B6311",
"n  c #383C43",
"m  c #2B3B44",
"M  c #123C43",
"N  c #443E43",
"B  c #174B4E",
"V  c #3C4344",
"C  c #3A4749",
"Z  c #3A5758",
"A  c #324C4E",
"S  c #086C74",
"D  c #356C6F",
"F  c #225C63",
"G  c #434443",
"H  c #444B44",
"J  c #4C4B44",
"K  c #444B4C",
"L  c #4B4C4B",
"P  c #474548",
"I  c #534C47",
"U  c #4C534C",
"Y  c #475449",
"T  c #53534C",
"R  c #595749",
"E  c #444C52",
"W  c #494D53",
"Q  c #4C5354",
"!  c #4D5B5B",
"~  c #485657",
"^  c #535453",
"/  c #545B54",
"(  c #5B5B54",
")  c #535B5B",
"_  c #5B5D5B",
"`  c #565557",
"'  c #524E53",
"]  c #645849",
"[  c #625D55",
"{  c #6A5545",
"}  c #4A635B",
"|  c #5C635C",
" . c #57645A",
".. c #58674B",
"X. c #66664A",
"o. c #636354",
"O. c #63645B",
"+. c #69695A",
"@. c #726C5A",
"#. c #6A735A",
"$. c #767659",
"%. c #707547",
"&. c #495C63",
"*. c #575D63",
"=. c #464A62",
"-. c #496768",
";. c #546363",
":. c #5B6463",
">. c #586A68",
",. c #5A736B",
"<. c #566C72",
"1. c #4A7778",
"2. c #547474",
"3. c #547B7C",
"4. c #5B7C7B",
"5. c #597775",
"6. c #4A6F70",
"7. c #646B64",
"8. c #6B6C63",
"9. c #636C6B",
"0. c #666866",
"q. c #726D64",
"w. c #6C736B",
"e. c #677469",
"r. c #73746C",
"t. c #777868",
"y. c #687976",
"u. c #747C74",
"i. c #777A76",
"p. c #686D72",
"a. c #625E63",
"s. c #847B69",
"d. c #837D75",
"f. c #847554",
"g. c #817A38",
"h. c #798631",
"j. c #798517",
"k. c #78894D",
"l. c #58827C",
"z. c #518379",
"x. c #7A846A",
"c. c #6C837C",
"v. c #68847A",
"b. c #7B8375",
"n. c #73837C",
"m. c #7C847B",
"M. c #7C8A7D",
"N. c #758778",
"B. c #718E74",
"V. c #739855",
"C. c #35817F",
"Z. c #848937",
"A. c #8A9230",
"S. c #98A435",
"D. c #9BA52F",
"F. c #8C924E",
"G. c #96A84F",
"H. c #A9B350",
"J. c #87856A",
"K. c #838B7D",
"L. c #868778",
"P. c #88937A",
"I. c #96967A",
"U. c #91906E",
"Y. c #96A86F",
"T. c #ABB36C",
"R. c #A39C7D",
"E. c #B7C556",
"W. c #B9C76B",
"Q. c #C8D370",
"!. c #CAD665",
"~. c #1D7A82",
"^. c #557D81",
"/. c #4D7D82",
"(. c #6C7D82",
"). c #2F8C90",
"_. c #228B90",
"`. c #548384",
"'. c #5C8483",
"]. c #598A8A",
"[. c #559090",
"{. c #638483",
"}. c #698A86",
"|. c #738B84",
" X c #7B8C83",
".X c #778886",
"XX c #6A948A",
"oX c #7C9285",
"OX c #74938B",
"+X c #7C948B",
"@X c #78988A",
"#X c #689895",
"$X c #789A94",
"%X c #6C8D91",
"&X c #6BA399",
"*X c #79A499",
"=X c #77A28C",
"-X c #52AAAC",
";X c #79AAA4",
":X c #6FB0AD",
">X c #5C9EA1",
",X c #6FC6C7",
"<X c #838D83",
"1X c #878B86",
"2X c #849384",
"3X c #8B9384",
"4X c #84948B",
"5X c #8B948B",
"6X c #849A8C",
"7X c #8B9B8C",
"8X c #899985",
"9X c #949B8C",
"0X c #9B9D8C",
"qX c #959786",
"wX c #839C93",
"eX c #8C9C92",
"rX c #889795",
"tX c #939C93",
"yX c #979C97",
"uX c #8E8D89",
"iX c #A39D8D",
"pX c #9AA28C",
"aX c #8CA49B",
"sX c #87A698",
"dX c #94A394",
"fX c #9CA394",
"gX c #9BA49B",
"hX c #96A89B",
"jX c #8CA994",
"kX c #A4A58B",
"lX c #A2A593",
"zX c #A4AB9C",
"xX c #A7A999",
"cX c #AEB29A",
"vX c #88ABA3",
"bX c #97ABA4",
"nX c #88B3A8",
"mX c #98B4A7",
"MX c #94B8B4",
"NX c #A6ACA4",
"BX c #A8B5A7",
"VX c #B4B8A8",
"CX c #B5BBB4",
"ZX c #A9B7B2",
"AX c #949CA2",
"SX c #B9C4B7",
"DX c #ACC4B5",
"FX c #9CC4AD",
"GX c #C5C7B7",
"HX c #CCD787",
"JX c #B4CDC6",
"KX c #95D0CC",
"LX c #CCD4CB",
"PX c #DCE4E0",
"IX c #BCBEB5",
"UX c #857F82",
/* pixels */
"                                                                                                                                                                                                                                                                                                                                                                    S S nXnXFX].D S S D D S ~.                                                                                                                                                                                                                  ",
"                        /.S S D B F F Z &.D ~ Z Z Z &.~ ! ~ ~ Z A 4 *.V >. .u.w.e.} e.| m.K.8.b.| u.r.b.K.P.3.D S >X).S S D F D 9.p.C e.B.x.N.3X| } ,.y.y.i.5.(.1.                                  ~.~.~.~.~.~.~.~.S ~.~.~.S ~.~.S S ~.S ~.~.S ~.~.~.~.D ~./.~./.~./.~./.~.~.D D ~.~.~.~.~.S ~.~.~.S S [.[./.~.S ~.S S F D D D D F F D ~.F F =.F <.<.B C L x.P.Y.J.V.W.W.HXT.T.W.W.T.Q.W.T.G.W.Y.jXB.FXV.V.k.Y ~.                                        >X[.>X).~.S S S S S S D S S S S S S S S S B S S S S B S S B S S B S S S F S D ).D S S S S S S S S S S S S S S S S S S S S D S S ~.                    ",
"              S B w $ lXR.= i p L.yXrXrXyXNXZXBXNXxXyXNXxXNXzX3X0Xr.8 L.cXpXP.U.U.Y.U.U.cXkXY.Y.kXR.R.kXI.kXxXP.o . 9 J.f.cXHXHXHXW.T.HXQ.HXW.HXHXcXj 8.lXlXiXiXiX3X X2X2XdXi.n 1 < =.n + 9.y.i.w.w.<.p.p.i.i.i.y.n.i.n.i.u.y.i.i.d.L.i..X<XUXi.' * = r.qXlXiXyXAXxXlXiX3X3X1XK.K.d.u.2XL.i.r.r.d.UX1X(.1 1 o 1 p.(.AXvXMXAXAXAXAXNXAXyXAXZXAXAXUXy X L.T.T.HXQ.W.Q.HXHXE.!.E.!.Q.Q.Q.!.Q.Q.Q.Q.HXHXQ.HXHXQ.E.E.W.Q.Y.z.OX  _.S F B A a w w w 9 G T w.i.j * 7 7 O o.L.x.L.U.3XL.J.U.L.3Xq.L.uXL.3XP.4XtXJ.I.3XqXuXL.kXkXiXiXiXlXcXVXcX] J i q.d.s.U.i.L.t.t.L.d.L.3XJ.d.d.1Xd.qXd.0.u T [ @.N B                 ",
"        S 2 6 O. Xy.t zXI.: z > uXyXtX.X|.N.u.P.yXNXxXNXxXBX9X7X5XgXL r.pX..x.V.P.F.%.$.Y.Y.U.F.F.F.F.Y.J.X.k 5 3 J.U.HXH.T.G.HXQ.HXQ.H.W.W.H.H.Q.HXX.> j 0 s.@.o.pX3X9Xx.K.yX&.X ' y * i.LXCXNXCXNXCXJXCXLXCXCXZXBXCXVXVXSXVXCXVXSXSXVXSXCXCXCXUXr R L NXlX3XiXxXxXVXVXL.qXL.P.L.P.P.K.uXlX0X9XuXqXiXyX` . . NXAXAXvXbXAXMXAXAXrXuX5XzXuXAXNXVXCXI d LX!.!.H.E.W.W.!.W.E.E.!.!.Q.E.S.E.W.!.!.E.!.Q.HX!.Q.!.!.!.!.!.!.G.h 7 X.8 i.u. .| +.X.l #.J.P.lXlXI O o . qXcXcXpXkXcXVXGXkXcXVXpXt.I.$.I.kXqX9XcXGXGXVXkXkXxXzXGXkXcXGXLXGXLXLX9 & 9XqXr.cXVXGXGXkXcXlXI.P.qXlXkXiXcXcX0XlXq.j VXL.uXd.d.O.Z             ",
"      + n 1XtXbX.Xe.5XxXiXi j qX+.O.u a ` ` t *.uXAXNXAXuX0.G K E n % < V 3 0 ..| 8.0XT T _ [ 8.e.d X...o.9 . t.R.T.Y.H.g G.H.W.S.T.W.Q.H.T.T.Q.T.HXHXkXh +.J.s.L.iXiXVXqXuXd.* u d.u = NXCXxXNXcXNXGXVXVXVXVXBXCXVXNXVXVXCXVXSXCXVXSXSXGXIXVXLXGXi.@.O lXP.U.xXiXqXd.@.r.r.r.r.t.x.x.L.P.qXL.K.K.I.J.d.yX8 T lXL.I.qXP.gXiXuXuX1Xd.1X1XqX5XqXuXAX0.h F.F.D.Q.!.E.!.Q.E.E.!.Q.Q.W.!.S.H.E.!.!.E.D.!.!.E.E.E.E.E.E.H.G.H.W.Y...9 V bXtXP.P.x.x.x...Y e.fXj : O #.kXkXI.Y.T.T.cXR.R.qXR : J K.O.zXt.s.#.h X.o.d.P.1XqXr > o l t.uX0XzXyX% 9XGXcXqXlXlXfXzXlXcXxXfXP.#.J.P.uXI.qXu.t.b.K.L.s.I.t.d.1Xt.u A         ",
"    + :.yXrXQ / C X zXfXd.u u [ e . r L e *.q P NXLXPXNXZXbX^ PXPXLXAX< @ 3 rXyXu.gXPXLXCXCXLXCXVXgX@ 3 8.9 0 J.Y.Y.HXQ.S.A.H.H.T.Q.Q.Q.Q.W.Q.HXW.W.T.Y.f.j i X.@.a.s.s.d.f.= u s.s.p = R CXlXU.0XqXqXiXI.I.I.P.K.3XK.3Xi.m.L.P.L.P.P.I.J.uXiXyXd.VXO y [ xXIXVXIXcXiXuX0XqXfXxXkXlXpXcXpXkXkXpXiXiXkXlXcX[ @.IXkXcXkXkXiXuXI.L.s.s.s.J.L.U.L.r.i.8 > z c A.E.H.H.E.W.!.E.G.E.!.Q.!.HXE.E.E.E.S.D.E.H.!.E.G.H.E.g c A.G.k.X.P.- 3 ZXK.L.P.K.P.b.x.P.J.uXq.: * #.U.J.J.%.$.X.%.z X.T $ < 9 ( | _ 1X7Xw. .^ r.3XtXqXi.m.9.r.p.p.r.8..XuX% zXVXK.gXrX0.P Q 7.( U | ^ _ ) _ _ *.L P ' e r r.i.q.+.+.[ [ q.` % D     ",
"    . mX+X4X4X7XbX@ r.lXuXr I 0 8.yXJXCXVXCXVXNXuXZXGX[ 1XNXu.SXLXPXPXm + rXPXLXSXBXSXSXeXNXCXbXhXVXfXx.s Y.k.%.%.T.HXT.G.b G.G.H.Q.HXQ.E.H.T.Q.T.G.T.T.T.R.U.U.@.{ p = I i z { s.f.i = : t.L.I.I.kXqXqXqXiXiXiXqXqX0X0XuXqXuXqXqX0XJ.lXkXJ.iXiXyXCX* * o +.d.1Xd.d.<Xq.q.M.r.r.x.N.b.P.x.x.L.J.J.P.3XqXxX+.u VX0XI.pX0XkXxXxXxXkXkXkXlXlXpX0XqXi.8 X h F.D.g D.E.E.E.E.!.!.E.E.D.H.!.Q.E.!.Q.D.D.E.E.H.S.E.S.h.A.G.g k.l h b.5 9 7.: i > i h j l  .o.h R . . . l x l h h j j i I & E JXZXbX:.. CXCXZXSXNXVXgXBXNXBXVXSXSXSXCXCXVXCX2X% zXVXpXfX9X0.8.i.7.u.r.w.r.u.m.i.i.K.i..Xi.n 5 yXP.t.s.q.r.s.[ 8.G o     ",
"  < Z rXrX4Xm./ y.C _ qXL.i : uXZXNX3XzXBXgXBXgXNXAX1XyXuXrX5X5XrXAXSXSX+ bXCXbXSXCXBXCXbXNXCXCXzXzXY.kXT.cXHXkXW.T.T.G.c c S.T.HXHXW.Q.T.H.W.Q.G.H.H.T.F.Y.F.cXcXcXs.s.s.{ 1 8 d.{ I 0 1 . 1 ' q.q.@.[ [ [ o.q.+.[ T T I [ O.[ O.o.7.L.1XO.* d.UXd.% * * . . o 8 ' T tXpX8Xe.+.#. .#. .e.e.i.p.w.7.[ 8.r.u % r r 1 e : 6 ] q.q.8.8.#.q.r.8.[ ] o : { v z f g D.!.D.E.!.!.H.!.!.!.H.E.!.E.E.S.j.E.H.j.D.E.V.j.h.H.A.c > h d 9 - & 8._ a.d.r.w..XrXbX X(.y.(.9.C X & Y x.t.q.q.iX^ % *.JXZXZXNX:.ZXBXhXbXhXzXdXfXpX9XpXxXzXfXzXzXpXBXe.O dXzXpXzX0XyXzXgX9XzXzX0XfX9X1X0XlXzX0XxXyXn # 8.q.@.#.+.@.+.@.8.u +     ",
"  < t 4XrX5X1Xd.I a NX3Xt.: 9 fXNX7Xe.hXtXdX4X2XCXNXM.bXhXNXmXdXZX X1XJX@ bXn.eXBXBXzXbXNXbXCXAX8XP.P.T.W.Y.F.k.T.G.G.F.b S.H.W.HXHXQ.Q.W.W.W.T.H.E.A.R.F.H.R.R.T.R.U.f.R.R.U.X.. = 1 u * # 1 1 y o * 8 8 y 1 1 * * 1 8 8 i y i 8 1 8 = = 8 u I N o * * 1 8 u i I I I 8.q.[ ' ` T T T ^ ` [ ` P ' n q 1 + 1 1 y 1 # , y P u 1 = 8 8 1 * 8 { i i : I f.p = g.E.D.E.E.!.!.E.D.!.E.E.!.!.E.j.S.S.E.E.j.H.D.j.g h.A.F.h.k.p O : t - a.ZXAXyXNXVXNXSXGXLXSXLXLXLXGXGXmXx.J.P.l 7XSXLXj - } JXbXaXBXmXmXBXsXhXzXgXbXdXdXdXdXdXeXtXbXhXhXzXM.& bX9X3X3X9X9XfX8X8X7X8XM.3XBXP.pXpXcXkXkXBXH % u.q.t.@.@.q.@.o.j - %     ",
"  + . .X+X.XtXbXM.M.5XfXuX8 j BXNXdXhX7X4XeXeX4XhX X4XaXaXdX6XhXNXbX4XZX@ bXoXmXbXhXjXhXhX4XbXaXoXpXDXY.HXW.h.H.H.H.W.H.G.E.W.T.T.Q.T.F.H.T.HXHXHXHXQ.W.H.g.W.T.F.T.F.Y.f.F.R.R.J.I # o * N u o 8 8 ' ] I { [ { I I I { { +.[ { [ { { { { N u I u 1 o = = u 8 1 . . . 7 * 1 1 8 u y t y y 8 y y 1 1 % 1 1 1 $ 8 1 1 N ' ' N N I u I u i u { 0 8 = = . o g.D.D.D.H.H.E.E.E.E.E.E.D.D.D.D.j.j.h.H.j.E.E.b h.b h.c G.k.k.x > / 6 - 1XyX<X9X3X9XI.pXqXP.3XY.jXpXzXBXcXDXDXzXpXVXDXgX9 4 -.JXbXmXmXhXbXaXhXbXhXhXhXsXhXdXjXsXeXaXeXhXBXgXbX- CXdX7X6XeX5X8X7X2X7XM.P.b.x.P.dXP.x.P.B.dXH 7 / K.J.t.#.+.[ [ u % 6     ",
"  @ w w n y.+XrX.XyXu.K.K.8 9 7X2XdXeX5XeX4XoX Xy. XmXBXhXeXwXmXmXsXaXmX4 |.aXwXmXhXjXeX6XjXdX7X2X8XFXY.jXV.Y.G.T.G.G.T.W.G.H.W.E.H.H.H.U.T.H.H.T.H.E.W.H.T.H.U.T.T.F.R.F.T.U.F.U.I.[ 8 { N q.{ o * u P I { I u u u u u I ] q.q.{ u z = 1 # 1 o o 8 y y y i y 8 i 8 8 = = 1 * i I 8 i 8 u P 1 u N y o * $ # = u j i 8 p u i u I l u ] u 8 o . h v z g c A.A.D.D.D.g A.D.S.H.S.j.A.S.A.A.j.h.S.j.S.E.h.h.h.A.h.c S.b > x J 7.% @ bXrX X9XfX9XdX9XdXpXxXzX8XpXzXpXY.pXpXcXDXzXfXhX; 4 ~ DXaXhXhXaXhX6XsXhXjXhXhXhXaXhXaXsXaXwXjXbXbXeXZX; BX7XM.dXdX XP.oXM.K.8X8XK.M.M.K.K.t.r.x.n.3 @ : L.t.$.X.@.@.R * % w     ",
"  + @ ! P V . V V .Xu.i.r.t 9 tXtXdXdX4XeXhXrX4X6X|. XaX+XaXjXbXhX|.wXbXy.>.aXyXmXBXhXbXzXZXZXmXBXDXpXB.d h.G.W.h.h.T.H.Q.T.F.F.F.H.T.W.H.Q.E.A.A.D.H.E.E.H.W.F.T.G.R.T.U.T.T.R.%.J.J.I * @.uX@.o . ] L.L.UXs.s.s.s.d.s.q.s.s.q.a.s.f.f.{ o o N { { { { { { { { { { { { u * o I @.s.s.@.@.f.s.U.{ { 8 . . 1 s.t.@.@.$.s.f.f.f.f.X.@.$.f.{ o f g.A.D.D.D.A.H.D.D.A.D.j.A.A.W.A.b A.E.D.A.S.S.j.S.D.V.j.G.G.h.f h.v l s s : - 3 V yXrXtXjX9XdXpXdXdXpXjXhXcXzXdXfXhXfXjXzXBXjXoX5X@ 3 >.MXaXvXsXjXbXvXsXsXsXhXaXhXaXjXhXhXaXbXhXbXjXsXZX3 ZXoX6XoXoXK.oXM.M.8XM.8X2XM.M.8Xn.M.N.u.m.9 @ 9 s.t.@.@.@.R : T $ E     ",
"  @ &.4XyXyX<Xw.. a 3XP.q.t 9 dXyXgXdXtXhXeX6X4X+XsXwXaXjXeXaXbXsXaXbXmX$X;.BXmXBXmXBXmXBXmXmXzXBX7XzXBXP.k V.Y.f k.F.T.G.H.E.E.E.H.H.E.H.H.D.c T.E.Q.H.S.H.T.W.T.F.F.U.U.T.T.U.F.J.U.$.h q.d.u * q.L.I.s.s.I.R.R.d.R.s.U.s.f.U.s.R.R.cXVX* z { { { z z z z z p z u { { u = % 1 L.qX#.X.%.%.f.J.] u d.I j 8 R +.I.kXs.J.s.f.f.F.f.J.U.R.i = G.D.D.D.D.D.D.D.E.D.D.D.D.D.D.H.A.S.S.D.S.S.D.S.j.H.j.j.j.V.j.h.H.Z.O d > - w ~ 9 eXdXgXhX8X8X8XdXpXdXpXhXdXgXzXhXjXhXBXhXzXjXhXbXmX2 3 >.MXbXnXnXbXbXmXmXjX*XsXbXnXsXjXjXvXbXZXmXmXaXjXBX3 hX2X7X7X6XM.M.8X8XM.M.8XP.8X2XM.K.2XK.K.4X5 % t L.t.q.] i : l 0 % Z     ",
"  , (..X3X3X9X1X# u.9Xu.O.7 % 7X0XdXhXhXjX|.6XwXeXbXbXjXjXsX+XmXDXmXmXZXvXC JXmXBXhXmXhXbXhXhXmXdXhXbXzXgXpX#.> d l W.T.G.H.G.H.Q.E.F.A.H.W.HXH.H.H.g.H.T.Q.T.F.Z.f.H.f.F.F.U.%.k.J.J.R.j O.qXuXd.d.qXd.s.s.s.d.R.d.f.R.s.U.iXiXR.R.f.d.iX= { z { { z z { z z { z { z { u * o 1 3X@...$.$.#.X.@.iX` U.kXU.$.0 %.cXcXX.k @.$.$.s.$.f.J.U.p > H.A.D.A.A.D.D.D.D.E.D.D.A.D.D.D.S.S.A.g j.j.j.h.A.S.j.j.j.h.v b v x d : ..,. .e.+ aX7XdX7XK.8X8X8X7XdXgXdXjXjXdXBXjXhXhXdX6XjXjXjXFX4 2 Z mXvXaXsXnXnXMXmXmXmXsXsXsXnXnXsXsXsXnXjXbX6X6XbX4 jXjX6XdXzX6X=XP.7X7X7X8X2XoXK.8X8X3Xb.u.7.q @ 0.#.I u . 0 I j * + &.    ",
"  , p.<X8XK.K.r.s dXfX#. .; & jX3X XhX2X7X4X4X.XbXjXeXbXhXsX6XmXmXZXmXMX$XA DXnXvXhXhXjXhXjXmXhXhXbXhXdXzXBX..R ..%.Y.g h.W.F.F.S.F.b A.H.Q.D.H.E.g.A.F.F.S.c g F.F.g.z f.f.v g.z z @.X.o d.s.f.d.s.s.d.R.s.d.f.d.s.s.s.s.R.s.s.d.s.d.d.iXz { { { { { I z z z { z { i { i * = u o.R t.X.] @.@.L.L.i X.kXk.%.f.U.$.l R k k ] R @.@.q.] q.I i f z Z.j.D.D.A.A.S.D.A.b g D.D.S.A.g A.j.h.h.j.G.j.G.b b h.x ; 0 0 i 0 9 8.w.4X+X@ dX2XK.8X8X8XdX8X8XzXhX8XjXjXdX6X7XjXdX6XjXhXjXjXmXA 4 sXMXvX=X*XsXvXnXnXmXvXnX*X$X=XvXsX=XsXsX*XsX+XsXmXB.|.hXaXjXhXoX2XjX6XoXB.M.M.2XM.7X6X2Xw.L.n.w 3 : + O j X.] ] 7 * X -.    ",
"  < E y.K.L.b...e .Xu.e. .3 @ 4XjXjX7X6XdX7XeXaXBXhXjXmXmXjXmXmXaXmXmXMX,X).KXmXmXFXnXmXmXbXbXbXhXhX7XeX7Xu.M.8Xx.Y.G.k.F.h.h.j.g.A.z z g.g.g.A.g.g.g.D.g.Z.F.H.S.f.T.g.p p l i i h 8 o : o.s.U.s.s.U.U.s.s.R.s.R.s.s.s.s.s.s.s.s.R.s.s.uXf.* u { { { z z { { { z i z u y 1 # 1 #.+.k X.$.$.%.$.s.l o U.%.v v v J.F.%.k k ] k +.[ q.a.[ i : X = p f j.A.c Z.v g g A.g A.D.D.g h.h.g h.g h.A.j.h.h.f d X O O - - : . E y.+X,.9 dXoX8X4X8X8X7XjXmXhX7XjXdX7XjX6XsXjXwXsXjXmXmXmXFX} A JXnXsX*X&X$X*X*XvX*X$X*XsX$X*X$X2.l.].XX@XsXoX$XMX@XA ZX=XsX@X+XoXM.N.B.|.M.oX2XM.N. XpXpXM.y.6 3 7 o.@.s.f.o.] * # X -.    ",
"  @ ~ .XuX3Xi.0 H u.7. . .9 @ u.6X6X8XM.2X9XdX8X@XjXM.B.B.B.oXOXOXOX@X*X-X_.KXaXbXmXmXbXjX$XsXhXhXwX6XdXoX2XM.b.kXk.%.G.F.h.G.F.G.H.f > G.H.A.c b c v g G.A.G.H.c k.F.%.> > . = . o . X . ] iXqXs.s.d.R.s.U.s.R.U.s.s.d.s.d.d.s.d.s.s.s.R.iX= = I I { { { { { f.{ { I { 8 8 8 u L.U.J.@.J.J.J.v s.iX= p J.%.v c k.Z.F.F.v f.%.k.k 8 i 8 O * 8 i = z c g c g.c g.g.H.b f b g g A.h.h.c c b h.F.h.h.> l h - % 0 . . Y c.tX$X;.C 8X7X7X6X8XjXdX7XjXhXsXjXwX6XjXsXbXjX6XvXjXjXnXjXjX} B sX@XjX;X*X=X*X*X$X#XvXnXXX;X;XnX*X=XnXnX*XvX;XV.z.Z F nXB.=XB.B.B.*X@X@XjX+X6XoXN.M.M.e.M.7.y.3 # $ O.X.] I j o . + % 6.    ",
"  < ~ <XuX3Xb.0 T r.H s w 9 - w.u.w.t.m.M.M.N.e.e.#.x.,. .-.} >.,.,.,.,.S _.1.,.y.B.oXOX|.oXn.N.n.n.n.M.P.P.tXM.| . f v k.f b h.T.H.c G.F.T.G.b f v v z g.F.v z %.z o . 0 0 $.l z v U.F.+.8 @.q.[ d.qXd.s.s.s.d.R.I.R.s.s.f.s.f.s.s.s.s.d.iX{ o . = u { I u u = * o X o . . . = k z R.I.J.$.%.$.%.s.8 i U.z x f.U.T.F.U.U.F.v s.d.{ I i . o { o = > v g.F.c Z.Z.A.F.b f j.h.S.g h.b g Z.F.c v h s d x x > $ 0 | w. .,.}.}.3  .dX2XP.P.P.6X6XeXoXN. XrX+XwXsXwX+XsX$X*X=X=X=X*X=X-.A *X=XB.;X;X;XvXnXnXMXKXFX*X;XnXnX;XJXMX&X$X=XB.B.&X~._.B.B.B.=XXXB.v.v.oX|.|.v.,.|.$X,.,.y.>.eXV $ % . . . . + r P 1 5 6.    ",
"  < q 4Xw. .O Y 3X7X5Xi.~ - $ V J b.K.<X<X<X X3X7XjXhXhXsXjXhXbXhXjXhXMXD _.&X@X@X6X6XbX6Xc.|.jXjXcXBXBXBXBXhXhXgXdXK.x.k d h.h.k.g h.v f f g f b > > x = . p i i = : %.U.G.S.H.A.H.H.G.T.U.= i o @.d.d.q.f.s.f.s.t.#.$.f.s.t.J.d.s.s.s.@.f.s.a.N X o y X * P AXNXNXNXIXCXCXVXVXCXNXU.iX@.k X.l ] @.8 o : j [ o.h ] ] q.@.d.d.1Xs.UXr.a.[ q.a.@.] u X o . > c v A.c b h.g E.g f c f f x v v v . f x x $.h : : T ) V w ~ ~ m w y.y.v.,.v..X4X(.rXaX$X2.z.y.(.}.^.4.2.Z Z D } D D D D S D C.[.z.,.D -.`.#X&Xz.&XB.'.z.z.XXz.[.>X[.-XC._.).~.D C.C.z.[.Z Z 5.C C Z A 3 ~ Y s A ~ ;.>.q # . L 7.q.q.r.qXd.* $ Z     ",
"  , 3 i.J k 0 #.K.zXgX XV 9 C dX2XK.7XK.7X8XdXdX8XpXjXjXdXjXhXDXBXFXFXFX).~.DXFXBXmXbXmXmXaXDXDXcXDXDXSXcXDXdXzXzXBXzXxXpX3Xk.h.G.g v b b x f k v > > k = : j u o O f.U.G.j.A.A.D.H.A.A.v s.o z iXU.s.f.d.R.d.iX0XP.9XfXiXcXxXVXVXcXiXcXxXVXiXiXNXAX+ X yXLXPXPXLXPXLXPXPXPXLXPXLXPXLXGXIXU.. i J.R > 0 . . 7 u d.1X0XCXGXGXGXGXCXVXIXGXGXGXGXIXVXIXNXiXi.= h v c b g j.g h.g x x ; h ; O G.d v x l O 0 0 s o . - .XeXrX3 @ + c.zXhXmXmXvXMXBXMXmXMXvXFXMXJXJXMXFXMX=XnX,X:X:X-X_.-X,X,X:X:X,X:XvXnXKXJXKXFX&X=XM D =X*X:X:X;X-XnX=XC.~.-X-Xz.&X>X[.-.=XmXJXMXaXmXy.,.,. . X7./ e $ # 1XP.P.L.t.q.q.] y # B     ",
"  w % 9 T T - / w.K.M.7.w r  .5XtX7XK.2XK.N.N.<X2X6X2X2X4X6X6XoX6X7XjXjXXX).nXnXsXsXB.@XhXmXhXsX=X8XM.2XjX7X8XpXK.P.3XL.P.lXkXX.x x f b f f f X.8 = . 1 r . 8 8 : o l c G.G.Z.S.S.S.Q.H.T.Z.F.U.Q.f.f R.s.I.uXs.#.P.8XP.b.qXJ.0XL.J.k.U.I.iXI.0XuXNXX (.PXLXCXAXuXuXuXyXuXiXL.L.I.qXqXiXlXxXd.J +.h 0X3X0 xXgXlXBXlXqXlXNXxXiXiXlXxXlXlXcXcX0XcXiXiXxXlXIXNXa.. = f v c b g v U.= X O O > %.x F.x . X @ # $ w Y  .y.|.y.3 - % v.8X@X=XjXoXoX6X=XV.&XB.V.=XB.B.B.=X*X=X=X*X=X;X>X_.:X&XnXnX,XFXnXnXKXKX=XB.&Xz.C.z.:X&X[.=Xz.B.:XB.-XB.C.&X:X;X;X=X=X$X@XXXMXJXl.}.}.XXv.B.aXmXhXK ; & u.L.b.@.X.@.+.] 0 # B     ",
"  Z @ 5 / Q H | 8.u.b.m.t 6 7.<X3X8XM.K.2X2X2X2X2X6X+X+XoXoX@XoXoX@X@XsX=XD -XnXsX=X|.aXnXbXsXsXmXjXhXjX7XdXdX7XdX8XpX8X0X5X0X0X> h f d > > . . . % (.(.AX*.+ # . i X %.c g H.D.H.!.Q.T.H.Z.H.S.A.c = $.I.iX0X0XqXqXL.qXI.L.L.P.pX9X7XpXuXqXpXkXgX(., PXPXZXyXNXAXZXNXNXxXcXxXxXlXxXxXlX3XtXCXSX1XH SXqX0 NXfX9X0X1XuX5XuXUX1XL.yX0X9X0X9X9X5X0XlXuXxXiXuXcXVXd.. . > h x h > . o # . . . . h l h ..& @ e m 4.v.;.<.4Xc.3 @ -  X*X=XsX=XjX=X=XjX=X=X;XnXFXnX:X=X=X&X=X&Xz.&X;X)._.:XB.&XnX=X=X=XXX=Xz.&XB.&X&X&X&X=X&Xz.&X[.-Xz.&XB.).).&X&XB.[.[.].[.XXXX$X}.l.}.v.l.2.z.}.>.c.n.@ X  Xw.P.x.q.+.[ ' 6 % B     ",
"  <.@ t | | / ( m.3Xb.O.e w e.3XK.M.2X2X2X2X2X2X2X2XoX6XoXoXoX@X@X=X6X@XXX).:X*XbXv.@XsXbXsXsXsXhXhXjXjXdXjXpX8XpXdXfXpX9XqXfXzXj ; k h ; > % % | .XAXAXrXAXn 1 ` _ O d f F.A.A.Z.Z.b b g v c S.Z.%.k.L.kXlXuXI.0XI.I.kXcXBXxXkXpXpXkXxXpXI.I.dXAX=.=.PXLXAXbXZXNXNXNXNXxXxXVXcXVXxXVXVXxXxXcXVXGX8.cXVX: u.qXfXzXzXzXzXgXtXyX0XdXgXgXfXdXzXzX0XlXL.qXxXuXiXgXyXj . & X . . 7 [ NXNXuX8.r.R : X.l | & s >.-.4.v.{.<.rXi.@ 3 3 c.@X@XsX=XhX=XjX*X=XjXFXnXB.&X=XnX*XB.;XmXB.B.,X)._.KXnX&X=X&XXX&X&X&X&X&X-X;X=XB.=X&X&X&Xz.-X=X:X&X-X_.~.z.&X&XXX#X].%XXX].'.l.XX}.XXl.v.2.5.} }.,.& + u.b.L.t.+.R o.W , < B     ",
"  (.& H M.i.8.#.<X3X9X3X9 t 7.5X<XK.K.<X5X7X6X4X6X6X+X6XsX@XsXc.c.v.4.,.6.C.&XsXmXsXsXsXvXsXbXhXvXjX@X7XdXgXdXpXpX9X9X9XpXpXqXcX+.O 0 : j 7 e C rXbXvXZX(.(.y 1 [ : . . > f v f > p X = ; > > %.f F.kXkXlXqXqXiXkXqXpXpXkXxXkXxXcXkXpXcXcXkXpXpXZXq UXPXJXAXzXBXNXNXNXVXNXxXxXVXcXVXcXcXxXBXxXxXVXfX..5XO L.dXfXfXyX0XlXzXlXqXyX0XfX9XfXfXfX0XfXlXNXxXuXxXiXd.I P W . % q.NXNXcXNXxX5X1X5XL.0 & % 7 - >.,.,.} 6.^.(.+X~ @ C @ vX*X=XsXsX=XsX=X=X=X=X=X=XFXnX=XnX=X=X=XnXnX=X:X_.-XnXnX;XXX=X&XXX&X[.&X&X:X;X&X&X&X&X&X&X&XB.-XV.B.&X_._.[.z.>X&X#X#X#X#XXXXX}.XX'.'.l.2.3.5.,.Y OX@ @ & t.s.%.] R j r P , F     ",
"  <.+ e w.b.u.L.9XfX0X<X6 e w.3X3X2XK.2X5X7X9X8X6X6X4X6XsXmXoXZ } Z B m -.~ XXjXmXnXjXsXjXsXjXmXhX6X6XjXP.jXjXhXdX8X9XpXP.pX8XzXY : . R j . 6 + n >..X4X*.e * # ^ 5XuX1X*.` # . : X l l f z > v > X.kX0X0X0XlXxX0XpXlXqXxXcXkXkXkXxXcXkX0XkXpXpXfX7 JXPXVXNXxXcXVXxXxXcXcXVXcXcXcXxXxXxXNXiXxXxXcXcX. 5X% w.fXgXzX0XyXlXyX9XyXqXzX0XgXfX9XfXyX0XyXVXVXi.T L O u 7 yX@.d.VXI.K.d.(.i.i.i.3X5X| 5 . @ 3 -.v.-.6.D 5.|.V . 9 9 3 rXsXsXmXjX@X=X=X}.=X=X*XnXFXmXjXjX=X=X&XnX=X=X:X_.[.nXnX;X=X&X&X&X&X[.&X&X#X&X;X$X&X&X>X&X&X#X&X[.&X-XC._.&X&X&X&X*X*X&X#X;XXXl.3.l.'.z.-.z.,.} ,.mX+ % K b.#.k z X.] h [ $ F     ",
"  -.+ t n.K.t.+.P.tX9X1X6 9 8.K.2XK.K.9X8X3X2X2X2X4XM.oXhX$Xs 4 -.$XvXmXsX4 c.sXbX6XsXsXsX6XwXaXsXjXdXdXjXjXkXkXdXpXjXY.pX9XpXzXY : 7.7.w.w.u.r._ G . . r _ * . 5XyXrXyXyXNX1XK.O = v h z f z U.= j +.I.lXlX0XxXkXlXlXlXxXpXI.fXkX0XI.pXpXqX8XfXfXe PXLXVXzXzXVXcXNXxXcXzXxXxXcXxXxXxXxXVXiXxXxXVXVXo.i.: q.xXlX0XtXiXyXqX9X9XfX9X9X9XgX0X0X0XxXiXiXcX0X. : 0 T d.P d.xXGXd.i.uX9X5XK.i.r.5Xr.. Q w.}.B.-.l.=Xv.>.Y / q.pXqX- 5.$X@XjXjXsX6XjXsX@XjXvXjX=X*XnXnX=XB.B.FXB.=XFX_.:XnX&XnX*X*X#X&X&X&X&X&X&X#X&X&X[.>X&X&X>X&X&X&X&X~.).~.-X&Xz.[.#X&X#X#X].'.#XXX3.1.-.1.6.v.} v.rX# @ $ j 0 J J [ ] 0 0 *       ",
"  6.+ a 5XK.#.I 3X5X5X1X5 6 7.K.K.8X3X3X8X3XM.3X8X4XoX@XsXc.A ;.FXDXmXmXvX3 @X6X$X@XsXjXjXwXjXjXdXhX8XdXdXpXpXhXpXpXpXpXdX9X0XBX9 J GXSXVXNXxXNXgXyXyXr.. 9 7 ` 1XrXi..XrXyXtXCXd.> z p o : { = . 0.7.t.VXcXqXxXkXxXkXlXI.pX0XpXlXI.kXpXkXlXqXzX1XG PXGXcXlXcXVXVXVXNXVXcXxXNXxXxXxXlXzXNXxXxXiXcXVXI.#.O j NXtXtX9XyX9XtXzX9XtXzXgXfXNXfX9XxX0XqX0X0XxXj % $ * 1 # i.cXyXJ.qXqXqX9X7XtX5XqXT i AXZXBXBX.XwXZXBXY k kXkX0XcX6 ! jXjXsXsX@XsX6XsXjXmXmXjX=XjX=XsX=XB.*XB.jX=XB._.&XnX@X$XsX&X=XXX[.&X&X&X;X&X].[.&X&X>X&X[.[.:X&X[.)._.~.z.&X[.&X&X#X[.XXl.XX}.z.l.l.l.-.2.-.-.,.0.. & $ X % , . . . t L 6       ",
"  -.+ a b.m.#.| 3X0XtXuX6 e r.qXqX9X9XK.K.9XdX2X7XM.8X6X2XB.jX6XZXFXhXzXaX3 +XoX6XsXsXjXaXhXhXjXjXjXjXhXhXBXjXpXhXzXpXjXpXpXxXNX; <XVXfX<Xu.b.K.K.L.0XcXd.` d.NXAXrX.X.X.X4X5XtXq.i : i : = o.[ r .XtXe.8.qXNXlXpXxXVXxXlX0XkXlXkXqXkXSXkXcXcXVX` u PXcXfXlXVXVXxXxXcXNXVXVXxXxXzXcXlXxXxXcXcXxXqX[ fXfXa H zXtX5XyX9X5XlXfXfXgX8XfXfXgX0X9X9X3XuXyXfXlX5X5 . . & r IXNXcXcXt.P.pXxXtXfXlXxXR t 0 j U ! ! C ~ L % o.U.U.J.I.J ) sX@X=XnXmXsX6XhXmXjXjXjXjXjXsX=X=Xz.jXjXFXB.s S ].vXsX=X=XXX&X&XXX&X&X&X&X;X;X&X&X>X>X[.>X&X&X].&X:X)._.>Xz.&X&X&X#X#X].].].l.l.'.4.2.5.,.-.(.>.L T $ . + & q I T I d.+.r       ",
"  -.X Y .X<Xw.t.qX9X5XuX9 t b.b.b.#.K.fXP.b.b.N.x.oXM.7XM.6XBXBXjXmXmXjXvX3 +X+XjXsXjXvXhXhXhXhXdXdXhXdXdXP.dXhXfXpXfX9XpX9X8XfX5 M.b.u.w.m.m.m.K.L.9X9Xi.1XyXyX1X1X1X.X4X1XyXuX0 = i l = 0 p.i.0.1XAXi.. : t.BXxXxXxX0XVX0XlXxXkXpXxXcXcXcXlXxX0.5 LXIXiXxXxXNXVXxXxXxXNXNXxXNXlXxXzXlXcXfXq.L.o.R GXP.s 9 pX9XdXfX0XtXtXfXgXfXtX9X9XdX9X8X8XdX9XqX8X3XqX<X( ( % 8 cXI.cXIXU.I.9XqXK.P.L.i.O.7 q i.4XrXuXq . . : @.{ f.f.{ a.` |.}.XXsXjXsXaX$XjX=X@X=X@X=XsXB.=X=X=X=XjXB.s 4 s nX$X=XXX$XXX*X;X=XXX&X&X&X$X&XXX[.#X&X#X#X>X&X&X:X_._.&X[.].&X#X#X#X#X].].`.].z.2.2.1.6.} A >.j R - 1XL.x.L.L.iX0Xi u *       ",
"  <.X ^ <Xi.8.( M.K.m.b.t 0 8.O.a / s b.#.Y .. .k ,...v.B.oXjX+X} c.7XXX.Xa B.hXhXhXhXbXjXdXjXjXdXdXdXdXfX3XpXzXdXe.r.7.b.K.P.xX- j 7.H 7.7.e.8.i.L.P.i.L.yXuX X.X.X(.UX(.yXyX` = j 8 = 0 0 9 ;.>..X1X[ $ : . / 0XlXcXlXcXkX0XkXpXkXkXkXpXkX0XlXa., 0.PXNXyXlXNXxXxXNXxXxXxXxXxXzXlXlXxXfXkXqXkXxXiXt...Y X zX8X9X9X9X5X9XfXfXfXtXuX3X5X5X2X8XpX3X3XP.8X8X0XfXVXy u IXcXcXiXiXqX9XK.L.qXi.<XdX| 7.bXZXNXZX(.# # i { f.R.iXR.N y } y.,.OX*XOX{.+Xv.B.B.B.@X6X@XB.jXM.P.jXB.=Xz.Y 2 sX+X@X@X*XXX*XXX&X&X&XXX#X#X;X&X&X>X>X>X&X#X#X&X&X).~.>XXX&X&X#X[.#X].z.z.].z.z.z.1.Z -.Z A 4XH O 7 uXt.t.t.q.q.q.y u 5       ",
"  &.+ a 0.q.#...R b.b.m.e 9 J R ..Y k  .j  .e...} Y Y  .| .. .#... .s Y } A >.7Xy.M.hXhXhXjXjXjX7X7XdXdXhXhXhXdX3Xb.1XK.k t.0XfX. 3XuX<Xu.u.<XK.t.L.q.0XNXNXrX4X4X1XuXrX1Xi.j i R @.X.+.u I J | ~ (.(.u : 5 : . | VXVXlXkXI.pXkXkXpXqXpXkXkXpXlXa., . LXVXxXVXVXVXVXVXVXcXxXxXxXxXxXxXxXpXlXzXxXcXcXJ.O.U & 1XgXgXzXyXNXNXgXNXNXBXlXgXzXhXfXgXhXgXgXgXgXdXhXlXNXr.u GXxXiXxXlX0XfXqXI.I.P.zXVXN.e.bXdXtXNXNXX o X.f.f.s.R.uX= u y..XA A OXbXvXrX=X@XoX,.sXmX=XoX8XB.B.mXjXB.d ..} } =X=X=XsX=XXXXX}.XX].#X;X&X&X&X#X[.XX&X>X[.#XXX-X_.~.[.[.z.XX[.].`.`.z.z.D z.1.1.6.6.5.-.a 9 @ 5 . _ uX@.q.@.q.8.I r 5       ",
"  &.% <XuXuXd.m.r.e.i.i.j 7 ..#.o.t.u.r.e.x.b.L.x.x.M.M.b.7.v.N.M.N.v.e.Y 9 A a s Y >.2X|.|.oXoXv.y.M.B.N.N.e.9.| . >.i.a t ( J O u G 8.#.+.q.1Xs.+.7 ` 5X9X<XeXeX1XyX1X[ . . u u . l @.. o 0.bXi.UX1 . . . : . j VX0XxXzXVXcXcXVXkXI.pXP.I.I.I.5X. . . qXqXiXqXiXiXxXiXiX0XqXqXqXqXL.K.K.K.L.t.t.L.u.0.6 : r yXyX1XuX1X1X1X1Xi.y.i.i.y.w.7.8.w.w.e.w.u.u.w.p.<.W q NXuXd.0XbXyXtXeX7X8Xb.xXSXdXM.jXeXeXAXVXa.8 s.f.s.f.f.s.8 ' y.<.&.9.rXbXy.i.oX7X8X6X7X6XB.hXhXjXM.pXhXz.x Y x P.k.x.v.v.v.v.l.l.].}.#X&X#X#X&X#X&X&X[.[.z.z.z.&X).C.C.C.D D 6.D 6.F Z D 6.1.Z D -.4.2.4 4 @ 3 . U L.x.( o.+.O.[ P N 1       ",
"  A H BXVXGXVXxXNXxXuXtXH : e.o.#.x.+./ ....../ #.#. .#.d Z a Y Y  .N. . .- @ Y w.b.K.x.3 w w Y r.t.w.w.e.b.L.M.<Xw.8. .I u.L i.| X.q.$.t.J.d.8.@.0 o 1 t I o.w.j o I [ [ +.+.d.VXVXVXcXVXIXO Q IXVXVXVXNXNXxXlXlXqXP.VXIXCXGXGXGXlXK.zXVXL.uXxXu.0.xXGXIXGXCXVXVXiXd.uXI.fXfX3XlXlXBXVXxXBXzXL.pX9X[ L t 9 $ . G uXAXyXzXyXbXgXyXfXtX5XBXBX9X3X5X5X5X5X2XuX<Xi.o o P [ q.p.0.y.i.u.u.i.8.m.K.tX7X2XK.<XuXuXyXq.[ { { { z 0 O | j 9 / j ....s s > s Y #. .H s j  .s 0 R s h %.x h.V.V.V.h.x b x B S x D S D } D } Z Z -.z.-.B D D _.~.F -.} Z Z } -.} '.{.'.%X}.-.}.6.4.@Xy.@ @ @ 9.3XL.L.L.o.( a.` ' r 5       ",
"  w r 3XuXVXVXpX0XqXuXK./ : j 0 t 0 9 ( i R J j ; ; 9 j a k ,.7.,.8X5X2XM.C ; 7.K.fXfXpXe.@ # BXSXSXDXVXcXSXSXcXBXVXBXcX9X8XgXK.J #.xXo.o.J 0 : * y 5 . ` . J I xXK.xXIXGXVXGXGXGXGXGXVXLXGXO R IXVXVXkXxXzX0XxXlXqX0X0XxXI.3X9XuXqXlXxXxXxXxXBX. 5XPXLXGXPXGXGXGXVXxXGXSXxXcXSXGXCXcXSXGXGXGXGXGXSXVXfX: G $ 1XCXJXCXJXSXDXLXSXZXBXgXhXBXBXjXhXhXhXhXBXBXNXyXxX7 [ 1Xr.3XlXfX<X5Xi.5X1X0XlX0XVXVXVXcXVXVXNXxXVXVXNXuXUXP . t.SX7Xx.x.e.x.I.I.I.3XdXP.M.P.8Xb.x.. O j p > %.U.k.h.b b j.h.V.V.V.j.V.V.j.x x z.B.z.z.XXnXnXvXjXnX;X#X4 B &X&XXX&X&X&X&X#X*X#X'.XX@X}.s >.4XaXy.< 3 4Xe./ L.J.t.o.[ q.0.J 8       ",
"  4 - O.q.L.I.t.q.J.3XK.8.: : r & - t $.o.l : Y  .>.>.v.B.OX|.|.B.c.|.,.,.C 3 eXgXhXfX7XdXY ;  .BXfXpXpX9XM.3X8X8X8XqX8X3X5X7X7.V / j = . . : : X o o u [ lXlXxXVXkXkXkXqXiXkXxXlXxXlXVXVXL.& lXcXxXpXkXxXiXqXfXfXqXqXxXiXxXlXlX0XfX0XpXfXlXpXSXe t SXfXkXGXlX9XtXNXiXxX8X8XfXxXxXgXVX8XfXpXzX9XzXfXdXgXV m $ AXSXDXSXCXBXBXhXoXoXaX4XrX.Xc.sXeXjX6X6XmXeXeXyXgX9 NX3XM.t.J.pXqXO.q.xXzXcXcXVXcXcXcXkXxXiXfXxXcXxXxXxXxXuX% 0.ZXB.B.jX=XP.x.b.pX9XzXzXP.P.x.x.pXs.0 0 d : k v x x V.H.V.j.V.S.S.V.G.G.G.x B } D B.XX@XnX*XvX=XXX=X@XM 6.'.1.`.'.].}.'.XX}.XXXX}.OX}.Z c.|.|.v.- - ~ / 7.+.o.O.#.O.i.[ ' 8       ",
"  3 - j +.t.t.u.L.L.qXx.b.# h I X # 7 j #.8 r.m.M.v.v.c.c.|.|.c..XOX@X+X.X3 3 SXhXtXeX9XdXgX XK.dXpX8X8X9X8X9X9XqX8X3X7XdXtXeXyXH : : O % 8 o j l L.d.lXxXxXiXkXxXiXlXkXkXlXkXkXpXpXlXzXlXR X GXVXkXkXxXkXxXxX0XpXqXlXxX0X0XxXlXqX0XfXzXzXlX9XgXw / VXzXcXlXBXBXBXNXxXyXzXzXgXfXzXzXBXBXBXfXzXBXgXfXfXgXQ , 3 mXZXBXmX6XoXv.>.} hXmXrX$X+XhXaXaXdX4XbXhX+X4XyXyXX 3XzXcXP.[ w.t.i.L.qXkXiXlXkXlXlXkXfXiX0X0XiXxXiXiXiXxXyX0 ` JX|.6XsXoXP.Y.Y.F.U.P.x.M.x.} M.P.pXL.> 8 0 h x V.h.h.G.H.V.G.S.V.S.G.S.V.V.V.k.} z.XXl.*X$X*X=X*XOXOXB vX#X#XXX`.].[.}.}.].].}.%X].{.l.@Xv.v.v.< @ ) 7.7.8.( 7.| 0.[ P L 8       ",
"  w q ( R #.x.t.t.q.x.#.t.t : O o % O : j 8.w.9.c.y.v.v.N.|.|.|.OXOXOX.XrXQ 7 ZXrX7X9X6X7XK.9X8XdXdX9X5X7X5X3X5X3X3X3X3X9X8X7XzXj j | ; o . s.I.L.cXkXiXqXqX0XiXlXkXfXkX0X0X0XlXkXlXfXlXzXqX: GXcXcXkXcXfXkXxX0XkXcXcXlXzXzXlXkXqXqXlXxXlXqXpXfX7 7.BXBXzXzXzXzXxXBXzXgXgXzXhXBXcXBXBXzXgXzXgXzXgXfXhXzX_ 3 P LXDX$X*XOXv.vXsXmXbXzX8XB.B.mXgXaXdXhXhXhXaXgX+XQ G 5XqXI.P.d.t.d.t.L.L.J.L.L.I.qX0X0X0X0XyX0XyXyXiXlXlX0XqXI ) LXmX6XM.B.B.x.V.B.V.x.8XM.B.e.B.B...P.l X > x U.G.h.h.V.h.G.G.V.S.S.V.S.V.V.x s Z v.OXOXvXvXvX%X%X%X}.4 #XXX%X#X}.}.].'.'.'.}.}.].'.'.%X{.5.c.|.@ @ } e.O.| / / O.` ` I P 8       ",
"  w u.b.$.R t.J.$.#.x.b.q.@.0 : . O o e  Xn.y.n.n.n.y.u.c.|.}.n.M.|..X X+Xp.a ZX8X5X4X2X2X3X2X3X8XP.8X7XdX9X<X3X3X2X3X9XK.8X5XtXH ; 9 8 = U.iXiXiXiX0X0XlX0XlX0XlXiX0XlXfXfXfXlXfX0XlXlXBXi.j VXxXkXkXxXkX0XcXxX0XlXxXlXlXcX0XqX3XP.0XlXkX3X9XfXa 1XSXBXfXNXzXNXzXVXVXNXzXzXzXBXBXBXBXBXzXhXhXzXzXzXfXfXy., C JXsX-.=XhXv.9 mXLXSXDXhXB.2XBXZXZXn./ r.NXgXaXhXy.hXfXx.P.qXuXL.1Xq.t.L.L.J.P.P.t.qXL.uXqXuXuXuXqX0X0XlX0XxXi.7 CXb.b.2XN.P.P.8Xx.N.K.M.L.M.e.P.Y.V.#.d j O > x x h.V.V.h.G.G.G.V.V.j.V.V.d d V.z.$X%X$X$X$X$X%X{.XX'.Z &X}.[.}.#X#X}.{.'.'.'.}.}.{.l.OX$Xc.v.v.;.@ t w.u.t.q.[ [ [ [ I ( 6       ",
"  w / L.L.t.[ ] j u $.t.q.q.8 . $ ^ j _ N.>.Y y.n.n.e.c.c.y.v.n.c.|..Xy.n.} a BX5XK.5X X3X2X2X9X3X2X2X3X5X<X3X3XK.m.<X2X1X5X3XdX9 O j I p cXR.iXiXiXiXiXlXpXkXlXlXkX0X0X9XlXlXlXlXxXlXxXNXuXl VXkX0XkXkXpXkXxXfX0XcXxXfXxXlX0X0XqX0X0XfXfXfX0XfXt i.BX1XzXBXNXZXBXCXVXNXBXBXzXfXBXzXBXBXBXbXBXBXxXzXzXBX1X3 rXJXwX! ~ -.} v.@XhXSXDXjXbXBXZXCXNX7 5 . _ NXgXbX2X XNXL.J.P.L.3XP.+.#.i.L.P.P.L.r.d.xX0XuXuXI.uX1X3XqXqXqXzXt.% NXuXqXqX0XgXP.P.b.x.x.x.x.x.k.k.k.X.k = { s R d d x b x h.h.k.v h.j.x x b d F V.z.|.}.}.{.}.%X#X%X'.Z Z ;X#X].#X}.'.{.{.'.4.4.{.%X}.}.{.|.B.,.,.v.< @ 7.O.t.#.o.+.+.O.I I 7       ",
"  C T ( J j 0 0 0 j u 0 0 t . r i.m.i.y.y.y.p.w.|.c.e.n. Xn.y.y.u.y.|.u.n.9.U NX5X4X<X2X2X2X2X2X<XM.<X2XK.K.K.2XK.2X3XK.K.3X<X<X9 * t o = iXiXqXiXkXlXlX0X0X0XkXfX0XlXxX0X9XfXpXlXzXfXlXxXxX0 VX0XkXiXfXpX0XlXlXxXzXzXkXzXlXpX0XpXxXfXJ.qX8X<XdX) 7.zXNXgXZXVX4Xi.5XJXNXzXzXBXBXBXBXmXzXBXBXhXdXhXhXdXbXi.7 JXDXaXmXjX@X=XFXaXA ,.sXhXhXhXM.eX5 . 9 e . yXbXmXdX4XuXu.t.uX0XL.i.m.b.d.0X0XuXuX0.i.lXK.3XqXuX3XqXqX3XqXuX9Xq.: BXxXyXtXNXP.N.x.K.B.M.x.x.x.J.G.k.= O j L.w.jXY ..d ..d d d d d d d d d S S V.B.z.(.$XOX}.}.}.OXOXB.B Z $X{.{.}.}.{.{.'.v.{.4.4.v.4.y.y.{.v.5.y.y.$ 3 7./ I [ O._ [ [ [ P 3       ",
"  Z r u j ] ] [ [ O.o.R = . j u.u.>.y.u.y.u.y.y..Xn..Xp.9.n.|.|.|.n.c.n. X:.r NX9XtX2X<X<X4X4X X X2X XM.2X3XK.<XK.3X<XK.K.<X2X2X- - O o 0 kXkXR.0XiX0XfX0X0XqX9XlXlX9XlXlXfX0XfX0XpXfX9XtX8.0 GXkX0XlXcXcXlX0XzXNXxXcXzXxXlXqX0XlXpXpXb.K.K.K.hX0.G ZXVXCXZX/ $ . . 9.CXzXhXzXBXBXzXbXBXmXmXhXhXhXjXhXBX4Xw JXZXmXZXDXmXBXZXbXbXbXMXbXtXaXhX5Xn.:.E aXi.n.y.hXw.w m tXyX9X0XzXlXlXfXyXzX0XBXlX3XlX0XlXlXyX0XqX9XqXqX3XqX5X7.: NX9..X+X1XCXZXAXAX.X5XM.<XJ.pXJ.%.U.I.P.B.5XbXP e t.x...s  .x.......d s  .y.|.y.<.^.}.}.(.{.$XOX'.l.4 Z }.v.'.4.{.{.}.{.}.}.^.4.3.2.2.5.y.y.y.y.w.@ 7 % 3 5 : - 6 6 y e * 4       ",
"  <.@ $ O o o . . . . o * * <X Xy.y.y..X(.y.y.y.y..Xy.y.(.|.i.n.c.N..Xn. X ./ yX3X3X3X<X2X2X<X<X<XM.K.M.2XK.<X<XM.<X<X3X<Xb.2Xb.O . O o J.kXI.R.kX0X0XuX0X0XyX0X0X9X9X9XfXfX0XfX9X9XdXtXdX7.s SXxX0XxXVXzXpXqXlXcXzXxXzXlXlX0X9XqX3XK.8X8X#.P.xXe.a VXNXAX$ . 3 7 9 . SXBXBXNXNXBXbXBXBXzXbXBXmXhXhXhXBX>.a LXSXmXmXhXbXmXbXvXbXAXvXbXbXaX6XhXmXbX2XhXBXbXoX4XC @ w LXNX1X9X9X5X3XqX9X9XuX5X0X0XuXI.lXlX0X9XqX9XqXqX9X9XtX7.1 yX+X:.p.(.(.rX(.(.%XAXrX.Xw.#.b.fXDXdXN.e.tX.X3 X a M.e.} Y u.B.N.} } } >.y.{..X{.}.y.}.{.v.OXwX{.4.w w XX}.l.'.l.{.}.{.{.y.y.4.(.5.<.3.y.}.p.y.~ - 5 t V t e r 1 5 1 7 5 /.      ",
"  <.@ X L _ 0.8.r.i.i.L # # i.u.(.y.y.y.(.i.(.i.y.y.p.i.u.,.y.N.n.c.|.u.u.9.0.3XP.K.K.K.2XK.M.K.2XK.K.3XM.<X<XK.M.M.m.K.M.M. X/ . G $ o R.I.I.iXkXiXlXlXlXlXzXlXqX0X0X0XqXtX9X9XdX9XdXyXdX9Xa BXfXpXzXpXpXpX9XfXzXzXpXfXlXlXlX0X9X8X3XqXpX9XfXBXy.r DXzXtX) + + . . V ZXBXBXhXbXBXNXbXmXzXmXmXBXsXhXbXbX,.C PXJXmXbXvXbXbXvXvXbXaXbXmXmXbX,.sXjXaX6X+XhXoXOXAXrXr 3 NXNXuXgX3X5X5XtX5X5X1Xi.L.0XqXqXqXuXqX3XqXqXqXpX0XqX0X+.8 yX(.1XyXyXZXAX(.' ! m m w : Y 8X7XgXp.u.<X(.r.V $ . U #.~ ; Z  .~ }  .<. .5.y.y.%X.X}.(..Xv.v.5.y.^.A 2 $X{.{.v.y.{.l.v.4.{.^.^.(.6.-.2.4.4.<.~ , # 3 H V G r 6 V N 7 5 5 >X      ",
"  <.+ 5 yXcXVXVXVXCXCX0.& # i.n..Xy.p.y.n. X1X(.i.n. X4X Xe.w.n.e. X|.n. Xn.8 zX3XK.K.<X<XK.K.M.b.K.3X<Xm.m.2X2XK.m.m.M.N.m.x.7 H L.: . I.R.R.kXkXpX0XlXlXlXlXfXlX0XqXyXfXfXfXdXfXpXhX9XgXmX: BXdXpXkXdXxXdXfXcXpXfXfXxX9XfX0XlXfXP.fXzX7XcXfX9XM.9 NXdXgXtXyXZXE 9.CXNXbXhXBXNXhXmXhXBXmXhXjXmXbXbXhXmX,.4 MXFXmXmXaXsXbXvXAXvXaXMXmXmXmXvX+XMXsXOXwXsX.X4XbXZXbX- . NXuXm.uXK.K.L.i.<X5X5Xb.8.t.d.J.L.J.3XuX1X2X9XlXiXiXR > CXyX<X(..XUXUXp.(.p.9.r j ; 7  X2XM.<X(.i.w.1X7.% ; X 7.9.e.e.>.C e.>.} y..Xy.! .X+X.X.X}.-.2.,.4.y.} 3 5.v.y.{.{.{.v.4.y.4.4.2.6.5.&.C Z Z 3 % + X 5 r a G L _ a.e 7 , 1         ",
"  5.+ 6 L.kXpXI.0X0X0XO.# $ B.>.! .X(.r.i.K.8XM.u.o.b.w.8.r.L.1X Xn.N. .n./ * qX9XK.K.8X<X<X5XK.b.5X3X<XK.K.b.M.u.w.K.:.H 7.8.M.d.G 8 o.s.I.I.I.pXlXpXxXxXxXfXfXyXyXfXzXBXgXgXzXgXhXhXjXhXhX3 DXhXdXhXzXNXBXcXzX9XzXfXfXlXzXzXlXpXfXgXzXzXcXgXgX.X, X w...fXhXSXbXzXbXBXbXBXbXbXBXmXmXZXmXbXmXmXvXmXbXmX-.3 . JXFXMXmXbXmXnXbXvXbXmXZXMXmXMXmX-.v.$X$X+X+X4XhX7X9X7.% >.2Xu.m.i.1XgXCXNXgXgXfX3X1XzXgXlXzX.X1X1X.Xn.w.x.d.j 0 5X(.}.<.<.=.<.a.(.` :.0.w.0 - Y 8Xe.>.e.B.e.N.u.$ & + 9 / >.>. .w ! >.,.oX+X|.y.(..X(.}.y.5.}.XXN.y.5.2 w }.{.y.{.|.}.(.y.5.5.4.3.<.-.;.;.&.~ K < % q r e 9 e 7 . . . . e         ",
"  <.X 9 +.o.#.U.L.P.K.0.& a x.x.k R J.x.%.X.X...0 . . . . * r.L.( +.L.u.% % . . r J #.t.J.x.t.#.| #.7.R 0 7 : 0 8 9 * : ( L.r.8.P % 7 u . R R t.t.L.x.t.b.x.M.K.<Xm.M.K.m.<X7X2X2X2X1X.Xi.Z w BX6X XoX2X7XdX7XM.2Xx.x.r.x.i.b.b.b.b.x.t.b.e.N.+.y 1 3 ..qXfXzXBX9Xu.cXdXdXeX6XeXjXaXhXeX7XsXeXjXwXwXaX+X} 4 @ rX4X+X@XbXvXbXMXbXvXvXvXaXbXmXaXc.~ c.bXjX{.hXZXbXAXy.s Y Y u.r.0.T ^ r.8.O.8.1XrX*.yXrXbX4X9.p.p.u.i./ . e 5 e :.! -.=.&.(.*.*.*.*.p.(._ ( 9 0 x.P.e...,.t.H r & % r @ 5 C ^ Q j / Y ~ E Q ~ ~ *.Z C ~ ~ } >.>.&.&.-.w 4 ~ ~ Z ~ ~ ~ E A w A C V 3 w ;.y.>.:.*.) $ @ + . X 9 P P L P G 0.).      ",
"  &.. a M.M.#.X.J.J.8Xw.+ H J.J.I.k.x k.V.h.x b k X.] $ & . X . . t j j = X 0 +.u * 8.t.t.t.I.L.$.t.kX0XJ.L.#.L.+.q.L.0 @.u j I 8 o o +.i.q.NXVXBXVXZXSXSXDXzX7X7XBXDXVXBXBX8XdXNXVXDXSXSX4 .  XdXhXhXrXrXgXgXdXy.1XlXzXyX9XK.P.9X0XzXzXNXxXqX<X_ $ ) i.H  .O.U . . w M.DXBXhXeXaXbXmXhX6X+X.X+X$X4X+X5.-.3 |.bXaX4XvXbXbXaXwXeXsXbXyXbX8XaXSXZX8X8XSXfXdXhX.X(.K 6 . T xXVXVXVXNXzXzXCXGXVXVXNXJ.d.xXlXqX0XuXP.uXiXuXL.t.# - w.n.u.i.9.*.0.*.=.=.*.*.&.Y Y .. ...B.hXhXx.Y #.o.k ..I 8 0 ' 8 7 r J J Y Q K L K n n V V n m < 4 q 9 9 3 < q C E w q w q m , + + @ < *.y.y.r. Xu.& + X 8.0.8.u.r.i.d.r.K.t       ",
"  <.X ( fXP.U.R.I.U.P.7.. & q.t.R.k.k.x d f f k.x v 0 X * I a.[ u . . . o ( d.uXd.1X5Xb.....( b.3XL.3XNXlXcXfXlXP.8XSXb.u.gXtXqX1X8 L LXGXP.9XcXzXcXDXBXSXDXBXdXdXhXDXSXDXBXhXjXmXsXBXeXbX3 ,.bXZXZXJXLXSXFXBXZX6XDXCXJXZXSXZXbXBXhXhXZXVXGXCXZXAX& bXCXdXK.u.u.u.y.n.SXSXDXZXZXZXSXMXDXZXMXZXJXJXJXMXDX.X2 vXJXMXMXvXmXmXmXmXMXmXFXZXbXBXDXt.fXzX3XqXkXSXNXT y % % yXLXLXCXVXVXCXVXVXSXVXzXdXfX0XK.qXiXkXL.qXiXiXcXiXcXiXX.L.zX7Xb.L.L.I.9X5XyX1X4X:.n. ...x.x.j a #.M.j x k...k 0 i i i : . : R #.#.u.e.| /  .Q | e.| _ w. X<XN.>.E 3 7 } ! >.w.:.;.:.! m 3 3 , q ;.9.O. ./ i., & @ L.8.O.#.q.q.q.o.q.J F     ",
"  =.@ _ fXkXx.s.$.t.K.i.# UXgX$.U.b x k.f l X.l k O . : f.d.d.s.U.@.o o o I s.s.t.^ G w.2XK.7.u.i.i.w.w.L.M.8XK.x.n.N.2X4XjXN.8XNXn / LXSXP.fXdXzXpXmXpXdXzX8XhXmX8X8XjXjXjXbXvXvXaXrX$XaXB JXDX=X=XvXaXjX=X=X@X=X*X*X=X=XsX=XsX=XjX=XhX@XjX|.BXJX3 ZXJXZXDXSXDXSXDXSXmXmXbXvXhXvXrX;X*XvXvXvXnX*XvXnXvX$Xw M =X*X*X$XOX$X=X$XsX*XsX*XsXhXaXC b.P.P.3XJ.L.lXr.9 w 3 PXSXNXNXNXNXNXNXyX5XrXyXyXyXyXxX9XyXyXuXqXuXiXd.I.iXiXs.L.GXxXq.@.{ d.qX5XyXuXq.w.8.$.+.t.j R R ..k h k h i : = O % 8 ; j #.X.| x.x.$...#.#.l R s l R t.8.#.e.o...Y 0 #.e.|  .T Y H 6 n q q 3 q >.:.a k L.uX7 % $ i.[ +.q.+.+.@.o.O.L 4     ",
"  A , T uXP.P.L.t.P.uX[ # uXpXh k.F.l ; k v %.t.J : o O.s.f.f.g.J.R.0 X . u s.$.d.T # <X0XL.b.<Xn.K.m.N. X X2X<X X2Xu.2XN.2X6XtXBXV C PXLX8XdXfXhXhXmXjXaXjXjXaXjXhX6XhXnXsXvX*XvXvX$XvXMXD :XMX*XmX*XnX*X*XnXnXnXnX=XsXhXsXjXvXsXjXjXmX8XhXBXbXZX< ZXsXhXbXhXbXaXsXaXbXmXnXvXvXnXvXvXvX;X;XnX;X;X;X;X;XnXM DX*XnX$XsXaXvXsXaXsXwXwXaXvXmX.X- e.b.qXkX0XqXL.#.t w % yXbXZXNXNXbXbXyXyXyXyXyXtXaX5XyXyXyXyXyXyX9XiXiXxXiXiXs.+.iXgXyXuXd.UXyXd.i.qXi. .O.j X.f.X.z { g.z x z { I * * $ % ; X.%.%...#.#.+.e.o.#.+...Y R #.+.#...j t.8.+.+.a Y 7.8.7. ./ U _ C E E q n :.7.w.t.L.1Xt % # d.q.q.+.@.o.+.( o.U w     ",
"  3 3 J L.I.L.P.qXqXd.t X / pXX.v F.O h l h X.I.+.O j J.s.U.f.U.R.kX8 o X qXt.t.L.t.% [ r.9XL.i.y.b.i.u..Xi.i.m.M.m.M.M. X X3X5XVXa a PXGX XM.6X6XhXmX6X*XsXsXvX6XvXmXsXsX$XvXnXvXnXvX;X:X_.>XnXnX@XvX*X=XnXnX*X*XnXjXmXjXsXsXjXnXjXvXjXmXhXmXbXZX4 JXmXbXvXbXmXvXaXvXvXvXaXvXvXnXvX;XvXvX*XvX;XnX;X;X;X&XB &XMXvXvX=X*X*X$XsX*XvXwXaXwXjXjX< 9 M.1XL.t.L.1Xi./ % 3 Y JXNXbXyXAXyXAXyXrXtXyXyXyXbXrXyXtXyXrX5X9XyXxXyXAXNX^ L yXa.UXAXAXN ' uXi.w.L.e.q.#.z z %.p p f.g.k z h O * p x f f x f s R t.e.L.L.o.I +.o...X.+.t.R o.o.k U @.t.- G 7.| 7.r.O.| 8.9._ ~ e P L / b.3XL.P.a & * 1X8.8.+.[ [ +.8.O.J q     ",
"  4 @ J t.L.I.I.U.L.L.` & % +...> k h $.l l j j * = 8 +.@.$.$.] @.{ . . = I.q.s.L.d.% i.qXqXb.m.u.N.w.y.i.n.<Xi.<X<X<XM.N.M.7XyXZXV w PXCXN.M.4XhXhXsXjXjXbX=XsXsXsXnXvX;X;X;X;X;X;X;X:X:X_.[.MX;X&X*X*XnXnX*X*X*XnXnXsXnXsXnXsXjXjXjXmXFXaXoX.X.Xq ZXMXbXbXvXbXbXaXvXbXvXvXsXvXvXvXvXvXvX;XnXnX;XnXnXnX:X_.:XnXnXvXvXsXvXvXvXvXvXnXaXvXbXBX2 4 C u.e.8.8.7.w.8.e 9 9 LXNXtXyXyXyXyXyXrXtXeXrXyXtXyXyXyXyXrXyXyXyXyXxXNXNX8.T CX' UXCXNXa.y P d.i.K.8X7XP.U.G.G.G.z l X.R = 0 v F.Z.A.A.h.g b f v x k.J.x ..X...X.R #.s.+.#.I ..R R w...X s 8.| / | / 7.7.| ^ t r P G r.b.3Xd.K.Y X & i.O.+.+.+.q.@.+.q.I 9     ",
"  <.X / u.cXkXY.I.qXuXyX% @ . 0 ] $.L.s.@.@.[ @.i O . . . . . . . . 8 u : +.q.r.s.t.0.d.uX3Xb.b.b.u. .9.m.n..X1X<XK.2X6Xn.N.5X<XNXC 9 LXZX7XM.jXmXmXwXsXsXvXoXbXnXsXvX;XnXnX:X;X;X*X;X:X-X_.[.KXnXnX;X*X;X*X*XnXnXjXsX=X@X=XFXsXsXvXjXjXmXmXy.aXAX< ZXbXaXvXbXvXAXbXbXvXvXvXsXvXvXvXvXvXnXnXnX;XnX:XnXnX>X_.nXnXvXnXvXvXvXvXnXnXbXvXbXnXbXmX@ 4 9 w Y .. ./  .9.a _ e yXrXyXAXtXyXyXyXyXyXrXtXyXAXaXyXyXyXrXyXAXAXgXlXcXVXX.@.GXxXlXt.I q.q.P 0.d.q.L.x.%.V.V.A.F.U.x.#.9 = F.G.S.D.A.A.A.g A.D.S.S.A.j.f s k 0 J X.f.$.k J ( o.I R T 7 : U | ( L a j / H ( _ ^ L J L O.O.e.@.t./ X & b.0.O.+.o.O.] q.[ I w     ",
"  =.X i.P.xXR.I.0XiXyXyX6 % 8.| [ o.s.t.s.@.q.L.[ # X # . : 8 i ] s.J.q.= u U.s.r.t.r.i.L.b.u.b.b.u.e.m.<XK.5X1X5X2X2X6XN.N.2X5XNXY w JXZX4Xe.N.6XMXsXOXsXhX=Xv.*XnXnXnX:XnX;X;X;X:X&X;X,X_.-XMX:XMXnX&X;XnXnXnX*X*X;X*X*XnXjX*XjX*XsX*XsXbXaXbXAXw JXvXmXaXbXbXvXvXvXvXbXvX*XvXvXvXvX;XnXnXnXnXnXnXnXnX:X_.:XnXnXmXnXnXnXmXmXnXnXnXsXsXaXsXv.- 4 3 4 C V a w t 5 3 % + y 0.yXbXAXyXbXyXyXyXbXNXbXgXgXyXyXAXyXbXyXNXxXlXcX{ $.VX9Xd.uXd.yXuX' 0 u ` o.x.%.F.T.F.v k.Y j : l F.A.j.j.D.j.D.D.A.A.D.D.A.A.v f f ; > h f > > I X.X.k i 7 = e ( O._ 7.O.^ 0.| _ _ ^ Q T J ( q.q.t.r.U X % K.[ [ R I J T [ I r w     ",
"  m @ L 1Xt.x.B.U.P.L.r.7 - | o.j +.@.$.t.s.s.d.^ % X X I o.s.o.@.@.%.s.j * I.s.+.t.r.d.m.u.u.i.r.u.u.2X<Xi.(.m.<X2XK.P.B.B.pXhXVX) 9 LXZXdXe.v.hXMX+X|.sXnXmXnX*X*X&X*X:X;X&X&X&X;X;X:X-X-X_.KXnX;X;X;X;X;XnX;X;X;XnXnXvXnX;XnXvXsXsXbX*XsXaXrXvXq ZXmXaXaXbXvXvXvXrXvXvXnXvXvXvXvX;XvXnXnXvXnXnXnX:X,X-X).KXMXnXnXnXvXnXmXvXjXhXvXbXmXvXbXSX4 @ 3 - C / C 7 @ + e ^ P r . 6 rXZXyXAXrXAXyXAXAXyXyXyXAXAXyXyXAXyXyXgXyX0Xi i 0X9Xi.i.1XUXN L ' ^ i.L.#.V.Y.Y.v x x %.x.x T.G.j.j.j.D.D.D.E.A.A.D.D.A.j.b j.h.c c Z.Z.v b v v %.@.R = 7 ( O._ 8.8.8._ 8.( R O.R ( [ U T r.u.t.t.7.X & / T R I ' I T T I : B     ",
"  m 3 % - O.x.x.#.$.x.5Xe % 9 ..R X.X.@.$.s.U.L.I & o u j 0 > i > i l i ] 5 d.d.t.t.i.i.L.b.b.m.u.u.e.M.<Xi.: 8.K.5XP.B.M.P.hX7XbXC 9 JXZXdX7X+XaXsX+XOXOXsXnXvX$X*X&X;X;X;X&X;X:X;X;X:X,X-X_.KX:X&X:X;X;X:X;XnXnXnXnX=X=X*X*X=X=X;XsXsX=XmXwXeXbX< ZXbXwXbXvXaXrXAXvXbXmXbXvXvX;XvXMXvXvX;X*X;XnX:X:X,X-X).KXnXjXnXnXnXnXvXmXvXsXnXvXbXbXbXDXw - 4 3 - X . 7 / gXBXCXyXyXL # , rXNXbXyXyXbXyXyXyXAXAXyXyXAXAXtXyXyXgX0XxX8 [ xXiXyXuXuXi.d.i.+.0.8.1XR R x.l b x v k.U.x V.h.j.S.S.D.j.j.D.D.D.A.h.A.h.A.h.j.g g j.c A.v f l i : o # 0 T I j H ( 8.O.O.( T ^ ^ O.8.( 7 i.K.L.i.w.& X [ ` [ ] ] ] ( R u # -.    ",
"  q 3 m.e.0 ..#.+.J.qX0Xa ,  .a R @.t.s.s.U.I.iX0 & . 7 5 u u 7 8 7 # . o = I L.t.L.L.K.d.<XL.i.m.K.w.u.2Xe.O a <X8.| B.4XjXtX5XbX` q JXNXNX7XhXsXrXrXvXvXMXvX$X*X;X;X;X:X>X;X:X:X:XnX:X:X-X_.,X&X:X;X;X:X:X&X;X;X;X;X*X;X=X*XnXvXsX*XmXjXsXbXaXMX9 JXbXwXbXvXaXvXbXbXMXMXsXvXnXvXnXnXnX;XnX;XnXnXMX:X,X_._.;X;XnXMXnXnXnXvXnXnXmXmXsXvXvXmX.X9 q 9 3 3 - u.7XtXgX0X5X1XuXyXy + . CXtXAXAXgXyXzXyXAXyXAXAXAXtXAXNXrX<XuXL.* ] zXqXxXlXyX0XlXfXqXyXqXuXL.t.L.J.J.%.X.%...h & b j.A.A.A.A.D.A.A.A.g c g g b b g g j.g g Z.v h . o o 5 6 & 6 8 0 7 9 e t u t j j t r a u T i.L.i.d.i.+ X r.q.[ { @.@.] ] @.7 4.    ",
"  < L 2XM.b.b.%.J.t.t.b.P 7 L 5 * T d.t.X.X.$.@.O O # 6 [ [ q.[ [ [ u i * * 8 d.d.+.1XK.<X<X<Xm.m.K.m.b.u./ & X /  .u.4XN.@X1X|.rXA A JXBXmX6XhXaXvXsXvXvX;X$X*X$XnXvX>X;XnX;X;X;X&X:X;X,X-X-XKX;XnX:X*XnXnXnXnXnX=X;XnXnXnXjXnXsX=XvXvXmXFX+X,.y.3 y.ZXvXvXaXsXnXMXbXvXvXsXsXnXnXvXvXvXnX;X;X;XnX:XMX,X_.~.#X*XnXnX;XnXnXnXnXmXnXmXmXbXmX$X. . . . @ - 9 hXgXgX5XtXlXL.uXuX1X1 # e.NXhXgXbXAXAXyXyXyXyXyXyXyX1XyXuX0.T 7 * X o.( O.#.#.u.t.J.t.s.d.9XqXlX0XU.J.$.t.%.$.X.d h.G.A.A.j.A.D.A.j.g A.g.b b b g v c b Z.h.b l d * : L R J j T ( R | R ( R T R ( J s 9 j y i.r.i.L.u.1X. . i.+.@.+.+.+.[ P L.J y.    ",
"  @ / 3XL.I.I.J.U.$.X.L.t * : & X . $ 8 0 0 : * # # % 0 i = = > i j j R P * * j j 8 i.P.L.1XL.L.L.m.i.m.b.8.a L L 5X5X1X4XrX4X>.~ 4 V 4X+X.X(.(.}.}.(.%X$X*XvX&X-X:XKXMXnX:X:X-X-X:X:X-X-X_._.,X,X-X>X-X-X-X>X-X:X=X=XB.5.l.B.XX|.c.+X|.B.y.s s . 5 . bX.X|.4XsX4X4X+XN.@XwXsX$X$XOX;X*X*XnXnXnX;XnX:X,X_.~.[.'.l.].z.2.z.2.,.z.2.,.l.y.,.s n.2XjX6X3 + . + y.M.<XuXiXqXd.d.r.. 7 N 5X1XuX1XL..X(.i.1XyX<X.X5XyX5XuXyXL.d.= +.@.{ [ o.{ R ] R R [ X.#.$.$.X.%.@.$.X.k k #.x x G.S.A.c S.D.E.H.A.A.g b z v v v g j.Z.h.v h h k h R ( o.#.+.( ( T [ ( ( O.o.( j T 8 e y yX8.i.i.i.8.X + 1X[ [ R P u P r G t /     ",
"  @ r K.M.P.P.I.P.J.3X0Xt 7 t uX8._ q.r.t.$.q.q.# # * u u j j t.[ o.] R u # i q.L.L.L.L.L.K.1XL.L.L.L.<X1XuX1X9XgXdXgXgXtXyXNXNXwXX X .X+X4X+X$X+X+XvX$XvXvXnXnX:X:X;XMX:X:X:X:X:X,X:X,X:X)._._.-X&X,X,XFXnX&Xl.z.=XFXvXjX6X6X=XjXM.v.- - O e U 0.7 $ 9 O.L.M.K.dXbXhXwXM.x.>.n..Xy.<.<.,.,.-.1.,.c.^.;X-X_.#XsXsXsXsXsXsXsXsXsX$XjXBXFXJXLXPXPXLXLXLXLXfXb.: . T I [ R l = = qXGXIX0X0XVXNXNXNXxXVXVXVXlXyXyXyXyX9XqXuXyX8 xXcXiXiXqXI.I.qX0XkXpXI.U.F.J.J.J.$.x.$.x.x.J.h . G.c F.g g j.D.A.g g b g.f > = > f v x f > * 0 I y : t i t j j J R R O.+.t.+.[ O._ u * 5 uXr.i.d.8.L + # P 7 o * o * 0 u 0 t 5     ",
"  3 % V H a H Y T T q.UXe 6 j 2XO.r.b.L.t.q.i.0.# # : 8 : j +.+.I ] j J 8 # I d.i.L.t.r.t.t.e.r.w.r.u.b.b.P.m.u.b.m.<X<X.X XtX X4X! 9 DXmXbXhXaXnXsXsX*XsX*X*X=X*X&X&X*X&X*X*X*X:XnX=X&X:X-XC.:X*X*XFXFXDXnX=X=Xv.|.c.sXsXaX6XjX7X6XhXs ; U a T j : & 4XzXBXDXBXJXLXLXLXLXDXjXmXJXLXJXJXJXJXDXsXvXvXMXKX).).KXKXDXKXJXKXDXJXDXJXFXBXhXmXmXmXBXFXhXpXVXSXLXLXGXfX8 o +.+.8 xXGXVXxXcXNXVXzXlX0X9XuXlXqX5XtXrX5X5X4X5X3X5XqXj qXlXiXiXiXiXqXiXiX0XL.#.J.P.J.V.$.$.%.X.#.$.#.X O F.c f c Z.S.A.c c v b z > O O . > 0 > X : 0 H P e 7.e.7.O.O.o.X O j r j R O.+.w.[ u o [ 1X8.8.r.r.N + + . J d.uXI.qXqXiXiXiXj     ",
"  q 3 G L T O.O.0.[ y r.7 5 | a O.8.#.w.+.q.q.[ * * 6 J I j @.[ R +.] [ y * +.d.L.t.t.u.u.u.x.u.w.t.x.b.K.<XK.1XM.K.m.m.i.y.n.n.B.y.A jX6X@X@X=X4XOXOX*X=X*X*X*X;X*X=X&X;X;X&X;X&X&X&X&X:X).-XKXFXnXnXnXsX*X=XvXvX*X@XOXOX@X|.+X|.+X+XoX,.a s e 9 6 % 4XdXdXP.2XB.M.B.7XjXFXFXmXFXDXFXnXFXFXFXnXMX*X].MX).).,X:XsX*X=X=X*X*XsX*X*X=X+X$X=XjX6X6X@XjXjXjXB.Y.dXSXBXT . . VXBX9X5XyXzXtXtXtXeXrX5XrXyX9XrX5X4X5X4X+X<Xm.K.L.8 yXcXxXiXiXiXiXiXiXU.l : l X.f f h x d > O X . # x Z.g g.b b b b v G.p h = +.[ t * # 9 9 : q a C w n C <.w.7...R R 8 O i j 0 = 7 8 8 X 7 xXqXi.i.r.r.P X X o L.I.U.I.R.R.iXs.s.e     ",
"  q $ T w.m.3X3X1Xi.r.8.. % _ e 7.7.O.| o.[ ` a.1 * P 8.q.R +.q.s.+.[ [ 7 6 [ d.t.L.m.b.K.i.b.b.x.u.b.m.L.b.b.b.K.b.L..X X X Xv.,.N.>.DXB.8X6X@X@X$X=X=X=X*X*X*X=X=X*X*X&X*X&X&X:X=X*X&XnXz.-XKXnX;X*X;XnXDX*XsXsXsX$X@X$X+X+X+XoX|.v.7XaXoXt . e 7 $ ZXhXjX4X8X2X6XjX6XjXjXjXDXJXFXsXsXsXnXnXnXnXnX#X&X)._.-X&X&X;X;X;X;X*X*X*XsX*XsXvXsXsXsXsX6X8XoX6XjX8XjXdXfXBXu r.VXtX5XyXrXyXrXeXtXeXrX5X4X4X1X1X4X+X1X4X1XoX XK.qX: uXcXiXiXiXiXiXiXiXd.h s ; Y l %.h lX#.O.0.L t . ; h.c c g p p p f x > = I q.a.W P n 7 , e E ` ~ ! ~ C V *.>./ O.I u 8 ` t.+.u [ ] @.* I xXyXr.d.i.d.' + & . iXU.s.f.@.@.f.{ j 5 F   ",
"  q 9 5 H J a J U O.i.i.# + e ^ e 0.O.O.[ R [ 0.1 * ` r.] j o.s.s.+.t.d.8 8 t d.i.L.L.L.m.b.b.b.r.u.b.K.m.L.<Xm.m.m..Xi.<X XoXe.v.hXY BXoX@XoX+X@X$X*X$X*X*X=X=X=X;X*X*X*X&X&X*X=X:X=X&XnX).-XnXnX*X*XjXvX@X@X*XaX*XwX6XwX$X|.+XoX6XM.oXM.aX.X<.@ 9 @ bX8X4X7X2XdX7X6X+XjXsXjX=XnXbXbXsX=XvXsX;X;XvX$X:X-X_.-X#X;XnX*X;X;XjX*XvX*XsX*XsXsXaXaXsXjXjX6X8XjX8XjX8XeXNXr VXyXyXyXyX5XtXyXrXeXrX5XrX4X5XrXrXrX1X+X5X5X4X1XL.uX8 L.xXiXL.d.qXuXUXu.e.j a . s : 0 lXGXzXzXNX0X0XNXO.O h f c v f z : : : O K.q.0.8._ O.^ G n e E / -.;.>.C *.:.( j = u ] i 8.8.r I [ 1 % r.0Xt.p.p.r.r.*.X % X d.f.@.X.] ] I I l 7 B   ",
"  q 9  .0.( q...7.L.u.8.$ # *.9.0.8.7.O.8.#.+.[ 7 $ I +.u j @.@.o.o.@.r.u 6 u L.qX1XL.K.L.b.r.u.t.b.b.m.K.K.i.m.m.n.m. X1X1X+Xn.y.v.9 N.B.+X@X6X=XsX$X@X=X$X$X$X$X*X=X*X=X&X=X&X$X=X*X*X*XS -X:XnXsX=XsX$X$X@X$X6X6XwXwXwXwXoX+X|.4X XoXoX4XwXvX-.. + hX7XM.2X8X6X7XjX@X$XsXjXbXhXmXmXmXFXFXnX:X*XvX&X:X_._.-X&XMX;X*X*XvX;X*X;XsX*XsX*XsXvXsXsXjXjXjXP.8X7XeX5X<X4Xj cX9XtXtXyX5XtXrXrX5XrX4XrX4XrXrX9XrX1XrXrX1XUXuX5XyXj 3XlX0XqX3XqXuXt.L.+.0 j j : t ..yX[ i.K.1XL.K.cXBXlX% i z z h . . . qX= j #.R t.8.e.+.8.O.U j  . .} 9.U T r . = u u I N I N t * * 7 # 8 u.w.i.r.0.O.' + # . = k R ] ..] X...T 8 4   ",
"  q 7 O.[ _ O.( / O.w.i.t # P u.m.r.8.O.#.$.0.T 8 # I r.o.8 q.@.[ ] ] _ u * I d.L.L.K.L.b.b.b.N.u.N.u.u.i.i.i.i.i.N.i.1X X|.w.n.wX X .n.4X6X@X6X6X@X+XsX*X=X*X=X=XXX#X$X&X=X&X*X&X*X&X*X*XZ 2.FXvX*XsXsXaXsX=XOX$X6X6X$XwXwX+X4XoXoXn.jX4X4Xu.|.bXNX3 LXfXdXdXjXBXBXhXaXjXjXsXwXnXmXnXvXnX=Xl.B.#X#X;X,X-X_.,XMXnXnX;X;X;XvXwX*X*X*XvXsXsXsXjXsX6X8X=X6X+X6X7X4X4X4XJ.kX0XtX5X5XtXrX5X5X5XrX5X5XeXrX4X5XrX1XrXuX1X5X1X1X9X: t.cX0XlX0XqXuXq.r.+.j q.L.L.fXb.L.r.2XL.b.x.L.K.O.1Xt % O . . | r.L.qXt.k T 8.u.7.q.r.x.t.t.t.t.b.o.s j h % I q.q.{ @.{ a.] I N 8 7 % % | u.O._ _ [ *.# 1 + [ +.j I ] o.$.] o.8 4   ",
"  m $ # : 6 7 7 8 9 r r K % 9 7.H O.8.+.O.O.0.0.8 # d.P.@.o.@.@.@.] [ q.a.8 j r.[ j [ d.b.n.m.i.u.u.b.u.i.i.i.i.i.i.i.N.i.i.u..Xy.+X)  .7XjX4X6X6X6XsXsX@X@X@XXX@X$X=X@X*X$X@X*X$X$X&X&XnXz.1.nX*XsXnXmXmXwXaXsXsX6X$X6XaXjX4XwX6X XM.dX2XM. X>.NX>.- DXhXdXjXhXhXjX7XjXhXbXnX@X} 1.z.6.z.XX;X;XnX;XvX:X-X~.,X,X;XnX;XnXvXvXsX*XnXvXnXjXsXsX6XjX=X6XB.oX6X6XeX4X5XgXt.xXtXtXeXrXrXrXrX4X4XrX5XrX4X4X4XrXrXrXrX1X4X1X1X5XK.0 k BXb.x.K.L.t./ / 8.q.e.u.5X3XgX8XK.b.b.x.x.N.u.w.p./ $ X T L.fXSXVX0Xu.Y w.i.i.8._ q.t.t.#.$.L.qXqXd.o.& 0 { [ I N [ [ [ { I ] ` ' % 7 i.1Xi.UXUXp.a., 1 o i.[ j O.s.q.t.@.] i 3   ",
"  q 3 _ 7.w.r.w.p.i.w.p.9 @ r 0./ U 8.t.+.7.8.r.y : uXq.j t.q.o.@.s.q.+.( * u r.t.r.X T K.i.m.u.r.u.y.u.i.i.n.n.m.m.b.N.i.N.c.n.y.>.U a hX8X6XM.@X6XoX@XM.OX@X@X@X@X=X=X@X@X$X@X=X=X=X$X&X)._.;XB.6XjXBXmXmXbXsXjX6X@X4XwX4X6X8X6X2X X8XoX<XN.tXNXbXj SXdX7XM.M.M.M.oX6XdXhXsXsXz.*X;X=XnX;XMXnXnXnX:X>X>X~.,X;X;X*X*X;X*X;X;XaXsXvXvXsXsXsXsXsX=X6X@Xv.M.oX8X2X1XtXY zXtX5X4XeXrX5XrX5XrXrXrX4X4X1X4X1X4X4X1X4X.XrX<Xi.NX0 ..GXP.2Xt.7.O.7.#.e.b.i.M.b.w.<XN.N.M.N.N.u.b.u.i.uXU % T qX0Xq.b.VXi.u.u.w.y.i.r.e.w.x.e.x.b.t.x.x.d.qX0 8 I u I I N 8 8 N +.I J ` $ 6 <XtXuXuXd.' (.1 1 + 5 r ( [ [ I I 8 i 0 3   ",
"  q 6 8.7.^ | <X1X1Xd.m.5 + 3 _ e u.b.+.w.t.0._ 6 1 [ o...q.q.@.q.@.q.+.q.i ( q.i.[ # [ 1Xi.u.r.u.u.i.i.n.d.m.i.u.u.N.M.n.w.x.N. XhX;.a hXM.oX4X4X2XoXB.M.@X@X@X=X@X=X@XoX@X=X$X$X=X@X*X*X[.).KX$XjXhXjX,.Y C hXjX6X2X6XeX6X4X6X6XeX5X4X4X2X2XeXyX! 9 BXM.M.2X6X6X7XjXBXBXbX$XXX=XFXnX*X*X=X&X=X&X*X#X;X>X~.,X%X;X;X*X*X;X;XvXvX*X*X=XsXsX6XsXsX=XB.jXoXv.B.M.P.3XL...qXdX6X4X5XrX4XrXrXeXrX5XrX4X4X4X1XrX4X4XrX4X1X5XrXVX0 qXpXP.9X#.e.m.M.m.N.<XM.N.M.N.N.2XN.b.K.B.2XM.dX3X5X9 7 pX9XM.x.O.M.u.e.y.i.<Xb.u.t.e.8.e.u.x.w.t.x.0.uXL * ( o.] [ ] ] R [ [ j ' I % 6 3XuXi.q.p.a.(.# # # 1Xo.R I I I +.s.[ 8 %   ",
"  4 7 / ) 9.u.:.^ O.8.0.- X _ :.^ w.O.| I Y ( ' 5 * J [ [ o.+.R R q.o.+.R j j R 0 o P 0.T 8.u.u.r.i.N.i.m.(.i.n.b.w.u.b.i.N.B.dX7.8XY Y dXM.8X6X6XoXoXoXB.v.oX$X@X@X@X@XOX@X@X$X@X@X$X=XsX1.D JXhXv.M.} ....- 7XbX2X5X6XdXdX6XoXgX4XM.M.oX2X1X XyX. . NXpXpXjXdXmXjXjXsX+X.Xe.v.sX*X*X*X&X#X#X&X$X&XXX#X-X~.KX;XnX*X;XnXnXnX$X;X*XsX=X@X$XrX=X6X6X=X@XoXN.x.dXdXK.3Xx.b.P.oX5XrX5XrX4XrX4X4X4X4X4X4X+X4X4X4XuXrX4X5X3XuX5XH K.x.u.#. .N.N.M.5X5XN. XM.M.5XeXu.M.oXK.N.2XK.2Xm.K.7 0 q.x.M.e.} ,.y.9.y.w.e.e.w.e.e.8.e.e.>.e.7.y.w.1X/ & L.q.i I ] ( ] [ s.[ u 0 o * 9XuXr.i.UX' (.1 , o uX[ j R X.o.@.+.@.8 %   ",
"  w % Q :.Q r t V ^ ^ 0.5 % K e./ 7.w.8.O.( _ ^ 3 % * t u [ [ +.q.q.j o.[ I 8 r 5 T 6 y . X a  .8.<Xm.i.d.K.K.i.u.b.u.u.u.N.y.2XjXbXY H dX8X8XjXjX2XB.v.v.XX|.B.B.@XB.B.B.@X@X@X=X$X@X@XnX} A hX6X2XM.} B.#.a jXhXeXeXeX8XdXhXBX6X3X<X X<XeXaXtXNXw <XBXK.M.K.N.n.y.y.}.OX*XsX*X*XsX;X;X;X*X*X:XnX:X;X&X-X~.:X&X$X#XXX}.*XvXvX$X*XOX$X*X$XvXwXvXwXbX2X6XmXjXN.M.b.r.s ..l M.8X<X X1X X.XoX4X4X5X1X4X4X1X1X1X(.(.1X4X XyXe.3 e.u.e.e.i.y. Xu.n.M.n.M.y.u.6XeXw.n.N.w.N.w.e.N.n.y.t e u. .e.e. .n. .,.,.>.:.w.e.y.r.u.u.e.e.e.e.w.w.r./ O ' j u J ' ] ` R I I u N O 7 tX1Xa.p.UXd.p., $ % j r T @.] u J 8 : : 1   ",
"  m - e.:.w._ Q 3 t 0.i.- # r :.7._ 0.i.u.q._ 0.1 # t u u [ q.t.@.R O.8.j j 6 . . G u _ ' u . . & ^ i.<Xi.i.i.i.u.u.u.y.y.w.w.u.9.0.& | 2XoXN.M.oXoXc.c.B.oXoX XoXoX@X@X@X@X6XoXoXOXOX|.$X,.,...e.#.Y Y s e.s >.bXtXaXgXbXBXVXdX4X5X X Xu.gXe.7.w.7 5XN. .e.e.N..X$XAXvXsX$XsXsXnX*X*X*X#XXX[.}.#X#XXX1.[._.D `.1.;X#XXX;XnXvX;X$X}.$XwXbX$XmXJXZXmXmXZXSXmXu.N.e.| e $ e.e.t.r.m.b.( O.7.u.u.y.rX1Xy.u.9.(.1XAXrX5X5X1X/ X H #.U | y.w.y.n.v.w.e.e.7.w.8.e.e.e.e.e.+.e.>./ _ ^ 8 % a e.9.y.>.y.Q Y | >.| | 9. .O.9./ / _ ) | 7.| 7.^ % 5 * 7 8 u P u u 8 7 0 u O 9 L.I 8.i.UXp.P , # 7 I T ] j I +.I y I 8 7   ",
"  m 3 O.p.u._ 1X:.r w.m.% & r p.Q ) y.i.0.T a.p.5 $ [ i.r.[ O.[ [ ] ( O.I 8 8 8.t.uXyXuXuXi.t.I G . . T J O.u.8.8.w.r.u.y.e.y.N.i.(.& _ N.e.M.oXM.B.N.v.B.M.|.M.|.n.|.4Xe.n.y.yXjX7X X9.} a ~ e. .a s  .w. .Y N.u.tXyXgXhX8XhX3XN.<Xi.n.y.N.M. X0., NXBXfXgXBXmXmXhXhXhXZXhX}.XX$XwXvXvXvXnX*X$X$X$X%X$X[.~.:XvX;X*X;X;X*X;X$X*X$XsX=X6XjX6X@X@X|.|.OXB.e.c. Xw.e.U 9 ( t.#.l pXpXP.x.P.P.P.K.dXI.P.P.8XP.jXhXpXdXpXM.8Xe.Y 3XK.2X7XdXeXgXdX7X3X9X7XdXxX8X8XP.9X9XxXfXpXdX8Xm.U . O.m.u.M.N.e.e. ...} 7.e.e.#.e. .7.e.w.e. .e.w.e.e.8.t : G 8 7 i 8 7 8 7 * * % * 6 K.r.p.0.q.p.P 1 + 1 I j 8 j [ ] u 0 u 5 6   ",
"  A % _ >.:./ r.0.e 0.w.X & t 8.Q ,.p.u.O.0.0.p.1 % e J 0.q.[ +.[ ] [ O.[ 0 8.iXiXuXJ.L.J.1X0Xd.O.L.7.0 . X R K.i.c.#XB.N.b.b.b.5XNX. a x.e.2X7X7XoXoX6X6X4X X|..Xn.}..X@Xc..XJXLXSXdXw.) r w Y s X - >.a DXBXtXbXrXtX5Xb.M.fXgXtX9Xn.<XtXtXtXyXQ % K.gXzXfXM.dXtXjXjXsXjXhXaXwXvX$X%X$XjXvXsX*XaXnXMXMX~.~.:XMXnXnX;XvXnXmXnXhXsXvXFXhXFXFXjXmXhXjXdXmXdXjXhX7XN. .- #.L.J.d x.k I.P.J.I.P.V.x.V.P.P.I.pXpXY.P.pXY.I.BXe. .fXdX8X8X2X6XjX8X4X2XM.b.v.N.N.2XM.M.B.2XoXoXoX6X4X| % <X2Xr.v.v.e.e.e.N.N.e.e. . .e.w.e.w.e.t.+.r.e.t.t.w.R X j +.[ I ' I I I I P $ O * 0.w.i.UXd.p.=.# + u P j R u 8 i P u 8 5 6   ",
"  Z @ K ) 7.:.i.K e 0.p.% X e p.w.9.:.w.r.w.P i.% # r ` [ +.@.o.+.+.o.o.R O @.qXP.0X@.( u ' r.NXr.O.i.L.+.6 . J m.y.1.e.M.M.i.u.i.m.& T K.L.K.b. X+XsX6XwXrXrX4X1X+X.XOXOX+X$Xy.v.v.-.;.<.V @ >.u.,.e . e.SXgX8XdX8X2X2XdXVXZXfXtXgXyX7XtXtXgXyX_ & i.yXaXrXyXaXoX.XaXaXOXwX$X$XsXvX$X*X=X$X$XnXnXnXnXKXD ~.>XAX*X;X*X*X*X$X*XvX*X@X$X$X@X@X6X6XjX6X6XhX4XM.6X2Xe...9 e.M.K.x.8.2XP.b.qXkXkXkXY.2XtX8X7X8XfX8XfXhXe.e.fX .~ +XoX|.|.|.M.n.}.n.|.N.OXoX|.M.N.N.c.N.c.N.|.c.|.M.>.9 |.e.,.e.y.,.y.y.c.B.}  . .C e.M. .Q | :.7.#.7.e.e.| T & R +.8.[ [ @.@.q.I N 6 & y i.<Xa.d.d.UXW , 1 n ( j h j J I T ( [ t 5   ",
"  A & / 8.>._ 0.t 6 0.p.$ # e w.0.0.p.w.w.r.a.p., % u L J #.$.t.+.q.J.q.o.: x.qXL.uXO . ` L . 8.lXL.K.J r.t.r . J b.+.e.w.e.w.i.m.5X6 t 0Xq.u.m.|.c.+XN..X4XrXrX4X.X%X.XOX%X+XrX+XsX+X<.y.a 9 <X<XM.8X9 7XPXzXM.fXK.K.M.3XM.x.r.b.K.zXtX4X1X X5X:.@ 1XNX1XeX4XjX4X4XwXrX+XwXeXwX$XsXwXsX=X$XvXnX$X#X{.nXm m %X&X$X;X*X=X$X;XsX;X=X*X$XsXsXsX6X=X6X$X6X6XoX6XB.oXM.+.w BXK.<Xb.2XzX9XhXzXhXjXjXpXeXdXfX8XdXjX7XdXdXdX7.gX9.a 4XOX}.|. X|. X|.n.|.|.oXOX.XB.c.B.c.v.c.N.N.M.u.N.Y 9 u.w.,.y.>.>.,.,.5.e.,.>.,.U }  . .9.7.) )  .| |  ./ 7.X J [ ` R I +.[ [ ] j t X y 5X8.d.UXd.UX` , # * j : j I P k R ] t.u 3   ",
"  &.& C  ./ :.L ) P i.w.% + $ ^ V V i.y.0.:._ ` # # J T ..O.O.8.` R q.0.t.i d.qXJ.iXT 7 ` N T r.NX0X8.uXr.t.r.= 0 q.U e.M.N.<XK.<XuXL a CXt.i.u.| y.}..Xn.n.|.n..X+X%XOXOXOX+X$X+XrXrX(.! w 3 6X<Xi.m.m.zXSXzX3X3X3X3X2Xm.M.3X7XfXgX0XyX<X5X1XyXp.X | 9XN.eX7XeXeXjXeXoXrXmX$X6XeXsX}.mX+XvXvXvX;X;X%X;XF ~./.$X*X#XXX#X$X$X$X*X$X$X@X@XOXoXoXoXoXoX@XoX@XM.oX2XM.+.9 zX8X5X2X6X2X4X7XeX7X2X2XdXdXeXwX8X7X7X6X6XjXdX4XjXn.w 6X@XXX|.oX XoXB.|..XB.|.c.N.oXOXM.XXM.B.|.|.M.u.v.J a n.v.y.e.,.5.>.y.5. .v.,.,.e.7.e.e.N.e.7.7.O. . .7.:. .# 8 I N u u u u j I j 9 # 5 .Xq.( d.q.p.' , # q I u T j I R o.j 8 O #   ",
"  >.+ U  .) u./ i.*.n L $ % % *.:.| u.w.7.w.*.W & + : 6 6 y 1 8 6 u ' u L : t.J.s.L.L.uXi.q.iXuXL.r._ o.O.q.T O j m.r.q.b.b.m.m.i.i.r 8 9X8.i.i.e.e...w. X4X.X.X(..X{.(.+XwXrXrX.X%X%X<.2 t t bX X9.4XzX<X<X9XdX7X9X9X8X9XtX9XtXgXzXyXuX5XeXyXgX9.& gXtX3X5X2XbXhXaXhXhXbXmXhXaXvXsX$XsX$X$XvXbXAXvXvX;X~._._.:X&X$X$X@X*X*X*X$X@X$X$XsXsX$X$X@X2XoXoXoXoX6X6XoX|.w s 5X4X6X<X<X4X6X6X6XeX6X2XoX4X4X4X6X6X6XjX7XeXjX4X6Xn.C $X@X@XoXoXoXOXOX|.B.|.|.|.|.|.|.|.oX+XOXB.c.B.c.M.C C eXe.x.,.N.,.e.,.#.B.x.x.P...#.#.+.+.e.e.u.q.e.u.8.9.( $ 5 . = 8 y i p = o . e % r w.r.0.r.q.r.' , 1 u T J ] j T I 8 i 8 7 5   ",
"  ~ . P _ 9.0.L / t | a.7 # q 0.*.9.y.p.p.w.0.*.+ & 0 U ( ( ( o.R R T o.T % +.t.@.r.t.r.O.R @.O.+.[ _ O.[ ( 8 * 8 0.G t j T R j 0.0.$ 6 u.8.r.(. Xi.p.|.1Xr.n.1X4X4X|.n..X.X X(.rXrXZXNXZXZXW ZXP 9.i.:./ 0.T R o.e.e.M.dXfXqX5XtX7.w..X5XtXtXyX0.X NXfXM. XgX4XBXZXZXbXoX XsXsXvXrXwX{.A vXmXnXvX;XvX(.F ~.~.;X*X$X#X$X$X$X$X$XXX$XwX$X6X$X+X$XOX$X+X+X6XoX+XM.N. .N.oX4X XoX X6X+X6XoX6X4X6X|.|.@X@XoX+X+X@X@X$X6X6X6XaXA sXOXOX@X|.OX|.|.|.}.|.|.OX|.N.OX|.|.|.|.B.|.c.v.N.- U 9Xu.M.x.e.N.u.#.e.B.#.e.8Xe.x.#.#.+.#.e.8.| +.r.9.7._ % 8 ' J 8 * y y u G J r % L p.a.[ i.r.i.' + y N I j ] j y u t : : : 7   ",
"  &.e n 9.:.5 e i.e w.*.1 # q 0.K 9.p.r.w.~ 9.` + & ( O.o.O.#.q.+.o.] +.j X O.u.O.8.[ 8.+.@.+.O.[ 0.O._ p.( X . | O.u 8.<X0./ r j ` $ r.(._ ! (.y.p.i.p.p.:.0.:.9.9.9.y.y.i.p.p.(.rXJXNXAXCXm rX1XrX1X1XuX5X9XrXtXtX2Xi.uXm.i.rXLXZXZXZXgXbXgXNXp.# LXCXu.b.M.gXeX4X X X Xc.c.y.y.+XwX|.y.Z ^.%X%X(.(./.=.m M %X{.%X$X$X$X$XOX$X$XwX=XsXoXOXOXe.} c.N.oX|.M.M. XM.oXeXoXM.N.2X6X2X2X XoXM.M.M. X2X6X6X6XwX@X@X@XoX6X@XoXsXs @X|.|.XX|.OX%X|.|.OXOXXX|.|.XXOXB.|.|.c.}.oX4.y.i.K $ J t | a H b.K.8XfXx.#.x.u...e.w.9.8.7.7.|  .7.) | _ | o e r.8._ u ` q.O._ :.r.X G i.^ 1X1Xr.r.' 1 q N y * X . X o o * % X X   ",
"  A t 6 w + C :.(., 0.^ 5 # q w.U p.8.p.p.y.w.*.& % _ ( [ [ R X.R R +.R | . J b.<X8.8.8.@.+.q.q.w.r.u.m.9X_ . | 0.^ U ( 5X7Xi.| J t * G i.i.u.i.uXrXgXhX2X8XM.b.2X6XtXtXtXtXtXgXbXgX5X1XaXNX7 JXSXBXCXVXCXlXyXzXgXgXgXtXu.b.pXcXfXLXLXCXbXgXzXNXw.# gX1X<XzXfXL.8XVXLXSXBX7Xw.jXVXDXbXmXDXAXOXOX,.MXZXMX6.M <.2.4.{.{.}.}.OXOX.XwXaX+X4XaXyXrXwXwXrX Xn.e.9. .2Xu.w.6XN.w.n.M. X4X4Xm.M.n.m.u.n. X Xn.|.c.c.c.y.(.}..XOXvXa sXOXv.}.@X@X@XXXXXoXOX|.|.|.}.XX|.}.}.c.B.OXOX|.>.t | |  .- . ' P . j t.R 6 r.r.Y 8.8.| O.| O. ._ / :.^ | a.& 8 8.r.r.r.p.d._ ' u ^ X [ 5X( i.i.r.i.` , y * o y I ( [ d.r.t.d.N X   ",
"  @ 3 9.p.p.! *.p.w 0.) 1 % e :.>.y.w.0.p.0.p.` + # G I R R I R J k R u :.0 i qX+.t.t.t.q.@.+.@.+.O.O.r.K 0 J yXw.: Y Y s Y :.i.gXr X X 0X0X5XuX<XeXtX7X9X7XdX<X5X8X5X2X8XeXeXbX7XjXtXrXgX>.a NXpXlXlXlXzX0XuXK.1X<XM.K.K.1X9X8X3X| 7.7.O.Y ( r t % GXfXtX6XhXeX4X2X6XoX.XhX|.vXwXwXrXrX.XvXsXhXnXZXMXDXZ m JXbXvX$XsXvXvXsXsX$XwX@XOX|.sXhX+XbXhXaX4XeXeXtXn. .u.u.m.m.m.2Xi.e. XeXhXeXhXeX4X XeX6X@X6XaXaXaX$X%X%Xy.<..XA XXXXXX@XXXXX}.B.XXXXXXoXXXB.|.B.B.XXc.|.OXoXB.|.x.a u.R R +.0 8.t.a O.L.t.o.e.r.( 8.8.| ( | _ | ( | 7.8.7.U X $ i.i.d.p.a.0.:.W ^ G & ' L.j 8.i.r.i.^ $ 3 5 $ r.r.q.q.s.t.q.d.u &   ",
"  3 7 w.i..Xi.i.i.n ^ ` 5 % t y.y.9.p.p.y.a.p.*.X # _ 0.+.[ ] R R R R R +.[ 8 qXi ] @.q.q.q.r.#.q.8.O.r.T . 8.7.( U | 7.| >..X_ K.% & J 5XK. Xn..X.Xu..X.X6XwX4X+X X.X X+X+X.X+XoX4XwXwX4XK e.zX1XP.1X<X9XBXVXNX5X3X5X5X.X5X<Xn.<X<XN.b.K.m.u.1X` , CX8X X XOX+Xc.|.v.OXOXOXrX$X$XOXOX$XOX%X%X}..X5.^.vX6.A MX#X}.@XOX@X$X$X=X@X@XXXXX@XOX@X|.sX|.oX@XoX4XjXM.K.gX .5X2X2XdXeX3XeXrXeXeX6X7XhXwXc.sX$XwXrXrX$XsX;XAX;X^.|.} 6.XXv.XXv.v.|.XX|.B.}.v.B.}.|.B.}.c.|.B.OX|.c.c.} Y t.j j J T : $ O.| t.O.#.| 0 O.8.O.| | | O.O.O.8.0.` ` G # 7 O.` 0.O.a.^ _ ^ u t & i u.t [ i.r.i.' % * 5 8 0.( O.O.8.r.8.q.r X   ",
"  3 3 7.9.y.i.w.w.P *.) $ # e y.,.>.9.9.p.p.*.*.+ $ I I R +.+.#.t.@.o.j 0 [ J [ 8.q.o.O.+.O.[ O.O.8.+.O.8.O.. 7 i.b.b.4X1Xu.1X*.7 r $ u.<Xn. X.X(.i.c.|.|..X{..X.X.X|..X.X{..XOX+XOX.X+XrXA eXgXN.<X5X4X5Xm. X<X5X5X4XuX1X4X4Xu.N.u.4XzXNXNXdXBXu.7 dXoXy..X|.}..X|.OX}..X}.{.|.$X$X$X+XwX|.}.%X%X}.^.^.<.m LX;X@X}.OXXXXX@X$XOX@X@XsX@X@X@XoX+X6XwXwXwX+X2XoXjX<XG 4XeXoX2X5X6XeX4X+X+X6X+X+X4XOX$X+X$X$X#X%X$X$X#X#X%X{.Z s =XXXXXXXXX}.XX}.}.XXv.}.|.}.}.|.}.OXOX .v.v.>.a U o.9 e T L P i.d.O._ O.7.R / 8.O.J j R R R [ +.8.8.T T u & % ( L _ I ^ ^ P u t I * 0 1XO.^ 0.q..XK * $ $ 9 @.+.8.8.[ 8.[ _ t X   ",
"  m @ K / K G ^ i.) ^ ) * % t p./ ;.p.>.0.9.p.0.& 5 8.O.+.o.o.[ o.+.X.I P 8.O.+.R t.8.0.8.8.O.8.8.O.8.w.+.r.r.R . T t.7.p.i.i.t . u & r.N.e.n..X|.(.n.c.|.OX.X.X.X.X.X|..X}.|.|.|..X.X%XrXm CXAX X4X1X1X<X<X2X5X5X1X5X2X<X5X5X<X4XtX4XrX X5XgX6X|.:./ 6Xn..X+X+XOX|.OX.XOX+X+X%XOX@XOXOX$X$X$XbXvXMXbXAX5.M MX|.@X@XXX@X+X@X@X$X$X@X+X6X@X4X+X6X2X$X6X4XaX4X4X6XtXrX5XeX4X2X X<XrX<X+X.X+X+X+XwXAX%XAX>X$X%X$X;X%X#X#X(.&XA 4 $XB.XXB.XXv.{.}.XX@XOX}.{.5.,.v.c.}.c.v.XXp.&.q Y j : - U J u 0.^ j L O.( R 8.O.T [ J ( I I [ [ / I J L t o 7 I J L _ T _ [ 0.[ I * 0 K.8.8.r.r.i.j % & # : ( +.+.+.[ ] [ ' e #   ",
"  m @ / :.:.) :.i.*.a _ $ # t y.C ) y.9.7.*.0.0.# $ R O.o.] R R R R ] R T 0...t.O.O.#.O.7.i.w.7.u.d.i.t.u.w.r.b.q.o . 9 j L r UX^ y o uXe.e.|.y.y.}.c.c.c.4.v.c.n.|.|.+X.X.X|..X.XrX.X.XrXn SXeX7XdX4X2X5X5X5X4X5X7X2X5X2XtX5X5XgX:.. . e / $ . 4Xp.3 w..X.X.X.X+X+X+XOXwX$X$XrXwX.X{.OXOXOX}.rXJXJXbXOX(.m ZX$X=X}.OXoX$XsXwXrXaXwX@XoX+X4XeXwXeX4X4X6XoX2X8X2XyXO.dXdX6X8X X X<X.X X.X.X+X+XrX;X%X%XAX%X$X%X#X#X#X;X/.l.-.3 z.z.OXXX@Xv.#X*X@X}.XX|.OXv.}.XX}.|.v.@X.X+X$Xa 3 9 % e e 8 y . 5 e L | ( O.8.8.T ( ( ( u I ( [ T J G J P & 8 0.O.I P ( _ 0._ P I * X [ r.0.q.0.r.r % # & : I ( O.[ ` [ ` G 5 %   ",
"  m % | 9.:.^ 0.u.^ n 0.$ $ r y.:.>.9.:.9.9.0.` X * +.@.o.[ R R R I R R R @.o.w.q.+.7.+.7.O.O.O.O.0.[ 0.7.7.7.9.w.w.& X G 9 i.NX5XO.' m.n.v.y.n.y.|.c.|..X|.c.}..X.X.X|..XOX+X+X+XwXrX4XrXw ZX X7XdX7X7XgXeX<X<X<X3X1X5X3X<X<XjXU . 3 w mXZXrXp.. n 6 . (.4X+XOX+X|.+XeX.X|..XOX$XOX}.|.|..X.XOX.X.XvXbXbXm rXvXOXOX+X$XrXwXwXwX4X+X6X+X+XeX6X4XeX6X6X7X6XoX2X2X5Xn.hX7X4XdXhX X4XoX XOX4XwX+X$X$XAX;X(.%X%X#X#X$X;X#X].D ~ 4 -.$X*Xl.@X}.l.$X2.$XXXXX@XXX@X}.v.OXOX+XOX$XrXA 3 9 T U I a P 0 t J J j R ( q.0.I J R j I [ q.I j J I J L 7 j 0.0.8.T ^ _ ^ G j t O % [ O.T +.i.uXr & e O 8 T +.O.( O.[ q.N 0 5   ",
"  V @ | 9.0.| [ (.) L 0.3 : r ,.>.9.9.p.p.Q ) W & * j j ] +.+.o.[ R R j R +.@.8.w. . . .O.| | 7.| O.O.0.7.e.w.p.9.w.Y & t 8.[ 8.b.H o.qXB.5.y.}..X{.(.OXOX{.y.y.}.y.(.y..X.X.X+X+X.X.X%XrX< NX X7X5X7X7X<X2X1X X<X X<XK.<XqXhXw.3 ,.Z N.MXbX$Xi.1 1 6 P P bX4X.X.X|..X$X|.|.}.|.|..X|..XOX.X}.OX}.%X.XbXJXm rXwX4X+X@X$X$XoX+X+X+XoXoXjX6X@X4X+XoX6XoX6XeX+X<X6XrXy.5X4XM.M. X|.oX+X+XoX+XwXoX4X%X$X$X$X>X$X>X%X#X#X#X;X$XB < &.vXvX*XXXXX6.XXl.{.$X}.$XOX@XXXv.|.$X$X$X.X+X&.9 w | U j J J j e j e - 9 T T j u J r u T O.( r I T J U ^ G j 0.8.0.[ 8.0.L 6 I ^ j : 8 ( 8.( i.3Xe & t & u [ ( T ` _ [ a.u P *   ",
"  w @ Q :.9.8.7.i.:.Q 0.5 * r 9.>.*.:.:.:.w.0.W X % I R I [ R [ R O.] [ k I O.o.8.( / | 7.O. .O.O.7.7.7.O.8.w.u.9. Xi.o j xX[ I [ j o.P.<Xy.y.c.c.y.v.}.}.y.y.v.}.v.|.}.|.|.+X+X.X}..X.XAXq ZXwXM.8X8X7X4X6X5X5X<Xm.<XN.<XaXu.9.dXbX&.mXJXBX-.. . . *.NXV p.1XOX|.OX|.OXOX|.|.c.|.}.OX}.+XOXOX$X$XOX6XwXaXC aXrX6X6X6X@X+X+X+XoX@XM.|.B.M.|.oXM.M.|. XM.oXc.oX<X X^ M.M.M.oXoXoXoX|.|.oXoX|.+X+X%XOX%X#X%X%X>X%X>X%X>X%X#X6.B ~.;X;X$X$X;XXX'.*X4 Z *X$Xc.@XOXv.OX%X{.}.v.{.p.A 3 a a 9 0 7 y u ^ I % * u y J R J 8 * u I J N R j 0 ' _ j r ( 7.7.( ^ | 7.0.8.^ J * 0 L.i.O.I _ t # 7 * 8 j 8 6 e 0 P u % % %   ",
"  m $ :.7.9.) 7.u.Q L *.7 3 r 9.:.*.>.9.9.*.` P & % j t j R ] R [ R R T j ] [ +.7.#.| O.8.O.O.| | ( 7.#.#.8.8.r.r.m.R : j q.r._ 8 : . e J n.n.5.v.5.4.4.v.y.4.y.}.y.c.OX}.y.OX X.X.XOX.XvXm .X.Xe.B.N.e.u..X X X X9.n.) 9.9 . BXbXbXZX|._ @ . 4XAXrX8.O.L . n.+X.X+XOX.Xc.c.XX}.OX{.OX|.|.|.|.6X+XOXOX|.y.E ! rX+XoX+X+X.X4XwXwXoXjX7XM.aX8X|.oXoX XN.N.B.N.M.3X6Xu.M.M.N.4X6X6XoX|.oXoX+X+X|.+X+X%X%X%X>X%X%X#X%X>X>X>X>X[.~.-X:XvX;X*X;XD #X4.2.XX*X$XXXXXXXOXXX}.v.}.2.4.^.m C  .e % e t T _ I 6 : u I I I I J i J = u T I [ ' j ^ ( ( r O.e t t ( O._ L r T R u 8 @.u ( L.r.r & 5 5 [ 7 o & . . . X X 5 6   ",
"  4 3 9.:.0./ | 7.e ^ | 5 $ e :.E :.:.p.:.*.*.' & % u j ] O.[ ( J J u u j R ] q.i.#.+.w.e.8.#.| / / R  .O.O.` O.8.^ . : o : 8 : % & % O 7 M.u.5.l.v.3.2.5.y.4.|..Xy.}.v.c.}.}..X.X.X|.+X<.3 . @ @ ,.>.Y E A Z C ~ ~ E C . # & y p.y.yXm . ` MX.X.Xp.ZXyX7.i.n.|.}..XOXOXOXOX|.|.+X|.v.|.XXv.c.v.v.v.n.}..XC V .X XOXoX|.|.|.|. X+XhX6XsXhX6XN.6X2XNX2XM.4X8XK.3X5X/ zX2XM.4XOX XoX+XOXOX+X|.|.@XOX%X].%X(.>X[.>X>X>X#X%X[.>X~.-X:X$X$X$X$X4 B Z vX*X$X$X$XXXOXsXOXl.4.4.^.%X(.A Z }  .H - 8 j * o t [ 8.q.[ u I q.' ] ' . . 8 u t ^ ^ ( _ I ( ^ G 8.O._ ` T O.( t I 8 X t p.uXa.y # y 7 [ y y y $ # o . & # n   ",
"  3 + L ) :.| 7.r.a | 0.7 1 w >.) >.*.:.) *.*.W & $ j ' T R R I l j J u u P P [ r.8...| O.o.q.e.( | J j j j e [ j 8 = j J 7 . . . o : J R Y H +.7.y.v.y.y.(.<.y.|.v. .C p.(.|.|.}.}.i.>.K 3 $ ;. .! >.y.y.y.y.c.y.{.y.(.p.X L # . 1 7 q n (.i.. . + q y.JXgXrXy.c.|.{.|.|.M.n.oX4X.Xc.|.c.y.|.y.y.c.|.c.y.3 w vX4X4XoXoXoX4XoXv.v.e.e.v.e.y.v.n.y.v.N.hX7X3XM.oX XY dX2XoX+XoX|.n.}.|..XOX%XOXXX%X*X<.F D /.)._.).).)./.>X-X_.,X;X*X*X;X1.6.'.*X&X@XXX#X@X}.#X$X$X6.-.OX4XrX.XA Z } E U 7 : 5 % % j 0.r.i.+.i P ' R 7 8 * 8 r r j ( T U T / e / T / ( T ` G T G j j : 8 O.r.r.a.8 % 8 * 8 1 7 0 * o 7 r 8 % t   ",
"  4 @ Q ) 7./ u.i.H | :.6 3 q | ~ Y ;.:.:.:.*.' % $ I j 0 k ] @.[ o.] R I [ [ T J 9 T m.i.+.r.( j j uXiXpX0 6 t * ] [ j j R ( I a % & & - 0 0 s j a a G a Y / ,.y.U e. .} } / ! } } >. .>.9 @ | 9.e.;.} ,.l.v.y.y.v.y.c.y.y y . . . y q t K Q q $ # 9 >.|.eXwXoX|.|. X.Xn.n.y.v.n.|. Xy.e.e.9.y.9.c..X+X Xq P bX|.N. XoXdX4X2X4XM.B.M. XM. Xn.N.2XN.5XjXN.M.N.n.y.a M.B.OXN.|.c.|.|.c.}.}.OXOX|.OX$X^.M B )._._.[.-X_._.`.D _.,X#X#X&XXXXX[.&X;X#X$X#X'.}.}.OX}.-.}.{.,.(. X{.A Z Z ~ a 8 7 t I r O r T ( ] I [ [ [ +.G | O.7.| | T _ T H H 7 ( r.0.0.0._ _ T I u u : : T r.p.[ y % 1 * u @.q.I 8.8.t.q.q.8 e   ",
"  3 % 7.p.w._ U T a 7.7.7 3 9 :.;.:.;.Q | 9.p._ # : T ( o.j j I { j i k h I ] t.@.0 I q.@.[ ( T I iXiXJ.zX6X7 : j { i i = u j r.d.8 . r 5 . . : y % e Q ! y. X|.M.n.jXM.oX! }  .,.e.,.N. Xa a n. Xu.c.v.y.e.e.y. X|.9.aXp.3 y.4Xy.0.n , . w .X~ P % V E ! c.c.c.e.<.7./ Q 6 r t 6 e Q ^ U C H Y | >.:./ ^ W 9 i.p.9.y.n.n.i.N.u.u.y.n.M.n. XN. XoXy.4X|.n.M.u.i.u.C OXy.n.y.+Xy.+X+X@Xc.|.c.|.XX}.$X%X-.Z )._.).].#X[.).)._._.-X;X=X#XXX&X&XXX'.#X}.XX}.].].l.l.v.4.v.v.y.}.>.A Z } } e & N [ r.O.J X . . u [ q.[ u T 7.O.| O.| ( | ) ^ H / t L / a P ( ` ' _ ` I I 0 * 8.1XuXUX7 % 8 o i I R @.[ @.q.R ' 1 q   ",
"  m @ >.) *._ ) 7./ 9.w.7 3 w 9.w.:.9.7.:./ *.Q $ * u ( k i k d.d.L.+.8 l ] ] +.@.@.] @.k i j 8 q.GXK.K.L.0XL.> > @.u z ] ] d.i q.t.J O..X.X.Xp.) y.i.n.y..X|..XN.M.>.eX4X+X,.,.y.v.5.~ |.s C JXDXBXBXBXVXBXdXK.4X4XOXeX<.. bXZXNXbXAXrX1X&.. t ` N 1 L H  . ./ V 9 . . . y.n. X X} ,.,.>.y.+XrX.Xi.:.>.:.7 C  X.X+X Xi.(.L.n.y.w.p.w.9.,.w.y.y.y.e.>.y.9.y.y.) 9.w p.>.;.>.p.y.p.,.,.,.y.2.5.2.4.^.{.'.{.^.`._./.3.,.].-X_.-X-X`.z.z.XXXX#XXX].`.'.].'.}.XX'.{.l.v.y.y.(.}.<.4 A Z n 3 + 1 [ [ ( @.+.O.s.o.@.[ I 0 T R _ Q / Q Q ) ^ _ _ i.a :./ 0.| _ 0.[ [ ] I [ u u uXuXp.uX7 $ 7 # j o.@.O.' R R [ I 1 5   ",
"  m X H :.:.0.u._ _ w.u.- % V 9.| / Q :./ C W n 5 5 J I u j * N q.] u R X.I R ( T u R t.z R t.l I VXqXyXlXlXd.[ q.s.q.s.q.[ cXG . j O.O.i.wXwX.Xy.}.5.<.y.c.v.} @ < 9 >.eXjXv.z.v.c.AXvXmXE Q LXzX9XK.8XjXzX6X+X.X+X}.}.rX^.q >.1XbXmXmXMXZX.X$ . G V p.a.0 t 8 . + 7 $ .XbXjX+X6XOXsXaXsXwXwXwX4X4XZXrX4X6 p.bXyXwXrXrXvXyXaXbX4XAXwXeXrX4XtXgXeXaXeXrXeXrXi..X<.~ rX+X+X4X+XvX.X}.4.|.$X}.$X%XOX$XvX*X;XnX:X-X~.~.%X{.l.D _.D D 6.z.3.'.].`.`.3.3.1.1.].{.'.3.l.3.5.{.<.y.<.3 V m 4 r $ . t * I { o.t.@.@.[ R * O.| ( _ ` Y K E ) ) 0.) _ G r ( U ^ _ ` ` [ I i u : 7 *.p.UX(.8 $ N * ( +.R I [ [ [ a.[ 7 #   ",
"  Z X C  .:.w.w.R H | :.$ - e Y K ^ K P - 7 5 q t 5 J R k j i +.q.@.] R k [ j t V } u.M.2XfX2XM.oXjXrXwXaXhXsXhXDXSXSXSXSXJXCXbX1X4 . bXbXOX}..X|.{.v.{.|.OX+Xy.Z w . . E 7X|.|.OX$XvX(.bXZ A bX|.|.}.c.}.(.(.}.%X}.}.|.{.4XAXy.t w e.|.y.c..Xq 3 9 ;.! u.T e % % a 9 + 4XvXwXwX+XrXZXmXyXwXhXbXaX(.yXi.i.V y.}.|.v.|.|.(.y.n.c.}.n.M.n.y.y.c.y.n.c..X}..X|.y.wX<.:..X.X%X+X}.}.%X{.%X%X}.%X%X%X%X%X>X%X%X^.[.>X&X[.;X}.^.F _.:X;X#X>X%X#X#X#X>X#X*X;X$X}.{.5.4.y.4.5.}.y.&.C w q 4 V ) : T L.i * i u u 8 k . . | 8.U L _ Q H e e C j a 8 6 j e L ^ J P t G u i u i : i a.i.(.p.u # u o I q.[ [ [ [ o.[ P 1 $   ",
"  &.X e  .) | :.L 7.^ r # & : t r 7 - 3 t 9 t 9 1 5 ( q.o.$.I s.+.+.X.[ R r Y +X4X|.4XsXwXoXv.|.oXv..X$X%X|.v.}.y.v.OXB.XXOXOXy.DXvX4 ZXXX,.y.4.}.{.@X}.$XrXAXvXAXvXy.;.- 9 e.4.{.c.y.<.<.-.w XX}.%X$XOX%X$X%X}.}.}.%XOX{.5.%XwXOX|.v.XX|.|.p.Z < 3 a t j a - O t 7./ @ Y mXvX$XvXMXJXJXbXaX7X4X.Xw.. 6 .XC rXy.y.|..X.Xy..Xy..Xi. X|.n. X}.y.v.|.c.n.|.v.n.y.rX,.;.+XOX(.%X.X%X(.}.(.'.}.%X%X].%X[.(.>X>X[.%X[.[.[.}.l.-.B ~.-X>X%X[.#X].`.`.`.'.].`.}.`.}.l.}.}.}.XX+X|.rX+X. , p.0.8.h ( +.k o.{ { u i 9 . O.i.w.7._ _ / U ! ) *.Q / ^ T L ^ 6 L O.a.T P j j i i i j I [ q.a.u * 1 o ] d.X.+.@.o.o.[ I y 3   ",
"  ;.@ + 6 e P W 7 6 e . # # + $ % , q P r t ^ O.% 8 @.#.R X.l #.R X.[ ( U s } v.2.l.,.2.5.l.l.l.,.1.6.6.y.y.4.y.y.,.y.v.v.{.XX}.+X;.4 bXXXv.v.z.5.4.v.OX$XbXvXOXrXrXvXbXvX(.A t 5.%X}.y.y.5.w vXOXOX%X#X$X#X%X^.%X%X^.^.{.^.4.}.}.l.XXXXXXOX$XvX4 $ 3 a r e 7 ' 7.^ w..XC ~ $X%Xv.+XeX6Xi.9.C 3 X C / *.u.w .X(.v.n..X.Xy.n.n.c.|.{.y.(.|.c.c.c.c.c.y.c.(.(.y.y.) C +X^.}.}.^.}.^.{.{.{.{.{.%X%X^.%X[.(.^.>X#X/.[.XX1.XX-.A F -X[.%X[.[.[.[.`.`.z.`./.`.`.'.`.3.z.l.4.4.2.(.rX=.@ >.r.| 5 Y U  .X.] { j o . P r.| >.*.E ) ~ >.9.9.) / ^ K U Q t L / _ [ +.[ u 0 l h h i j k { I i N u O O.s.+.@.$.+.s.R q.j %   ",
"  <.@ @ O . # % $ % + # # + 1 3 , # $ , 7 V 7.( 9 0 ( @.] X.j o.9 J R H  .C ;.v.2.5.2.,.,.,.6.-.z.XXv.@X'.v.4.4.4.4.'.l.l.'.v.'.].).F }.|.l.l.l.5.l.2.4.%XOX%X}.;XAX$X$X$X*X$X%X-.$XvX}.%X4.4 nX#X%X}.}.{.{.{.'.{.^.{.}.%X#X%X}.{.{.5.{.{.}.{.rX;.2 . . . . . r 6 T e 1X1XP + Q ! >.a X & 5 w.BXLXLXSXgX! V yX|.OX%X(.y.}.}.(.|.{.y.y.}.y.v.y.c.{.c.c.v.}.}.y.(.p.C OXy.(.^.(.4.{.}.^.^.^.%X^.%X^.[.^.%X^.^.].[.[.#X^.`.6.`.S -X>X[./.[.].].[.`.`.`.`.`.3.z.3.3.4.3.4.{.4.2.(.$X$ 3 ;.K # ( R k R j R j o # r.` ) ! ~ *.! ) ) w.Q K G H j H V t 0.L r j P j l k { { i i i i i u u [ * * @.o.] X.@.@.$.+.@.' $   ",
"  <.< & $ * % o + & # X # , , 6 - $ 6 7 9 9 % : 7 0 U o.+...| o.0 a  .H  .! } c.,.4.'.l.z.l.v.v.}.XXl.l.l.{.{.l.'.].}.].l.].'.'.`.).D XX1.6.1.-.v.l.} 2 (.%X%X{.%X$X%X%X'.'.l.].%X$X%X1.{.{.@ #X'.'.%X}.#X%X].].].^.}.].}.}.#X%X3.3.4.{.^.^.%X$XA 4 <.(..X(.%X.Xu.(.y.e 0./ O.U C 9 @ e 9.,.v.BXZXZXSXPXmXK JXu.|.{.y.|..X(.{.y.y.(.y.y.y.y.y.y.u.c.y.|.(.y.(.y.p.C .X{.y.(.^.{.}.4.^.{.{.}.{.'.[.[.^.%X^.[.^.].].[.^.1.=.F F -X[.[.[.[.`.[./.`.`.[.`.`.3.3.3.3.4.3.2.4.4.4.5.y.$ ~ c.! 8 I j k z R q.i # # p.=.! =.=.! Q *.^ y $ G P I u P 6 ^ L V V a j j l i 8 i i 8 8 1 8 : : u 8 i i 8 = : : 8 > : 8 : 3   ",
"  <.C 3 % . . . & & X X % 1 y 7 % 5 7 7 7 3 @ . . % - X & 9 9 s a / 9 / ;.>.-.v.l.l.'.}.v.l.XXl.v.l.l.l.l.l.].].].}.].}.XXXX].1.)._.).:X$X#X#X$X*X}.D 4 2 '.#X{.%X{.].{.].'.].`.`.^.]./.^.].4 $X'.'.#X].%X#X%X#X%X].].'.].}.].}.z.3.3.1.{.%X%X$X4 -.vXMXAXvXAXvXrXvXnXMX9.e i.8.e s 9.M.v.e.Y a a  .dXu.NX3 .X}.(.y.y.y.u.y.{.y.y.|.y.y.y..X(..X.X|.y.|.}.y.y.y.<.C }.(.(.{.(.}.(.^.{..X}.5.^.{.^.%X^.[./.%X^.].].^./.[.>X/.S -X/./.[./.[.[.`.`.`.`.`.`.^.`.`.4.3.3.3.4.2.4.{.y.@ C u.w.u T ] j l I : . * # a.P E W ~ Q Q *.*.Q ) ) j t P p.^ ' _ / O.J 0 h i d > > o . . o * * : r 7 O : [ ] I ] ] ] q.r.( %   ",
"  <.w y N P P G t e y : $ * # j  .H 5 6 t a H U a r 9 ~ e.M.N. .e.n.E V } ! A }.%X{.].}.}.}.l.l.'.'.'.'.}.XX}.'.}.].].].].XX`.1.-X_._.>X#X].].'.}.].%X'.2 4 2.$X#X#X#X#X].].`.`./.`.`.^.^.^.m %X'.].}.].].#X%X].].].}.#X%X].].`.{.'.'.'.}.}.%X;XB {.%X].1.^.^.^.].}.$XMX~ @ - 3 w C ,.e.e.v.e.5.5.;.a >..Xm (.c.{.|.{.c..XOX+X.X{.|.(.|.9. X.Xy.y.y.y.(.y.(.5.p.9.w }.p.(.}.y.(.(.(.(.{.^.y.{.l.^.].^.[.].]./././.[.`.[./.)._.>X^.>X[.^.[.].`.`.^.^.`.`.'.'.'.'.3.5.3.5.2.4.(.m < Y ~ ~ K ' r.0.R J 8 : 8 = 0.i.9.! ^ ! ~ ` ~ ) ) ) *.*.0.9.Q *.0.r.[ k #.t.$.#.X.X.[ [ j 8 X . o % O X d.qXs.s.s.J.s.@.d.I %   ",
"  ~ , X y J J L W ^ ^ L _ 5 : _ +.u.| / 7.e.r.v.9.9.C x.M.B.e.e.e.,.;.A Z  .C 4.{.{.}.%X[.XX[.XX'.`.].`.].XXXXl.l.z.z.l.1.l.`.z.-X_._.[.1.z.z.1.1.`.[.;X[.2 2 '.#X$X$X}.].'.`.`./.`.`.].%X&XF ;X].].`.`.].].[.#X].#X#X#X].].#X#X[.].'.`.'.}.%X(.w 3.{.{.%X#X%X$X].{.$X|.OXrXy., 9 q - } e.>.} >.v.l.6.(.+X(.p.rXy..Xy.<.y.y.y.|.c.(..X.X|.|.|.u.u.(.y..X.Xy.y.(.p.n +X(.(.(.(.^.^.(.^.^.4.{.1.A 5.{.^.%X[./././././././././.F MX/./.[.[.`.`.`.`.].].].].'.'.'.'.4.3.4.5.3.3.(.3 j e.t.k.v x f l l h . = X.u X UXi.:.&.! =.! Q ~ E E W E E n E 0.^ J = +.#.P.x.x.+...t.J.d.t.j * o O * o [ t.] @.] ] ( J L q +   ",
"  @ + O.P.pXI.I.L.P.J.0XqX: $ R s ..e.e.#.e.e.#.x.b.s ,.v. . .,.;.! <.A A {.-.-.{.{.l.'.'.].XXXX].z.l.`.XX].D B 4 B B s F l.z.D )._._.[.3.1.`.^.`.`.].].'.1.Z Z 6.&X#X#X]./.D `././.]./.^.;XD ;X#X].[.`.D 1.[.%X%X#X#X[.`.[.#X].[.%X^.1.].^.].^.2 <.%X%X#X}.{.%X%X%XOX%XMXMXZXNX3 W >.< e.t } rX%Xy.(.p. X9.;.NXy.Z C ! ! ! ;.-.5.5.y..X(.y.y.}.y.c.u.n..Xu.{.y.<.V {.y.{.5.y.(.2.4.5.4.5.4.l.Z -.%X^.4./.^.^./././././.^.&XA ;X>X/.].]././.]./.'.`.`.`.l.3.3.3.3.4.5.5.5.4..XC j %.V.h.h.h.V.k.v v %.F.J.k * T 9.~ E ~ Q Q W W E K E E K C K L J % [ +.0 X.#.X.X.| X.t.q.+.j i 1 = 1 X ] s.+.o.+.[ O.J I 8 $   ",
"  @ 9 b.J.I.R.U.I.I.U.R.@.7 : Y x.P.M...w.b.b.w.7XhXa >.,. .>. .5.5.y.6.s Z } Z l.4.l.}.].l.`.`.].z.z.`.`.z.z.1.z.z.1.D Z 6.1.1.[._.).>X].#X[.[.#X#X&X:X#X#X;X:X&X;X;X:X[.1./././.].[.]././.A ].[.[.`.`.].[.].[.[.[.#X#X#X#X].].].].].].%X%X%X^.< ^.%X;X%X%X%X{.%XOXMXZXwX+XAXAX(.@ *.W 5 | 5XrX.X.X<Xp.1Xa Q 4X^ .Xy.}.OX}.y.c.,.,.;.! y.y.,.y.|.y.v..Xy.}.n.n.y.a y.y.,.5.5.4.^.y.y.^.2.4.-.5.^.^.l.l.3.^./././.1././././.D #X/.^./.[.[.].].].].`.^.3.`.3.3.3.3.4.4.3.2.(.C t 9 s k k l l l x %.h v J.f v : X P Q ~ ^ ~ W ~ E E C K K L J ^ U T r > O h 8 : 8 8 0 8 > > 8 = 8 o o o o o.t.[ [ @.[ [ R j 8 :   ",
"  @ w U Y #.$.J.J.U.U.U.I.I 0 $.R e.#.O. .#.| / } s a a a a C Z } ;.! -.4 B Z Z -.4.6.z.'.'.z.1.C.6.D z.`.[.C.[.`.[.[.[.`.z.z.z.[._._.#X#X[.[.#X[.#X#X&X].].`.].{.].[.`.`.`.[.`.].`./././.^.B ^.`./.`.`.[.]././.].[.#X[.[.].].].[.%X#X]./.1.].^.2 *X^.$X;X*X4.(.y.(.mX;X(..XOX(..Xy.@ U ,.O i.<X.XrX1X<.Q 7 . . 4XdXeXM.wXoX}.u.e.v.y.y.rX.X5.y.,.p.<.y.5.,.>.>.U w |.y.y.y.e.5.v.v.(.4.2.2.&.3.<.2.-.D D Z -.D D -.6.D /.M B ^././././.`.`.^.^.z.`.`.3.4.3.3.3.4.3.4.4.^.+X@ + 9 s k #.@.l l k f f x f b l k * @ r._ ) Y E E K Y V V a e : 8 e j r 0 O * : : : = : 8 0 0 0 J R [ u o o q.#.O.0.[ ( T u > i *   ",
"  % V a R R +.t.J.U.Y.U.L.j 6 7.( 6 5 Y  . . .w.w.9.9 2 @ X E  .} >.,.;.<.} w Z -.2.-.-.-.D /.[.`.).)._.).).).[.).).).).[.-X).)._._._.-X).).)._.).).).).).`.).).).).)././././.D /.D /.D 1./.B 6.D 1.`.[.].`././.1.3.1.].].].].].].]././.3.].'.3.M 1.%X#X$X%X4.}.'.5.}.%X}.%X%X%X(.+X|.Z 3 ~ E .X.Xy.<.A + @ n *.>.} 9.c.y.<.>.<.>.,.y.y.<.y.p.>.*.>.:.<.y.9.! n H q ,.>.:.5.y.>.~ E A ! ;.2.2.y.5.5.4.2.-.-.&.&.} D -.Z Z 4 A /./.6.6.<.6.6.1.6.6.2.-.-.-.-.-.>.5.y.5.p.(.V 3 9 : k $.k.x v F.v v x b c v b k O $ (.' G j j j L t e j a j K t t / 7._ 7.7.O.9.| ) ) ^ U ~  . .7.O.8 * o q.#.+.R ` T T [ I 8 8   ",
"  3 ) G J R q.8.+.t.J.x.O.e 6 U / U 9 9.K.P.9XdXtXm. .w / Y Z } ;.5.@XaXbX$X4 2.'.XX$X&X#X:X&X>X&X>X#X&X&X&X:X:X;X:X#X&X&X&X[.z.S _._._.).-X-X>X[.>X).-X-X-X-X-X-X-X-X:X#X[.`.z./.`.`.D 1.F M /.[.%X[.].^.%X[.%X#X^.].].]./.6.1.^.^.^.%X^.^.6.<.m m {.^.%X}.{.^.^.^.^.OX}.}.}.(.}.{.}.v.-.,.}.|.OX%X.X%X;.@ OXwX(.y.}.rXOX|.}.|.c.y.c.N.i.|.y.y.y.}.i.}..X.Xp.>./ w u.v.y..XrX.X5.,.;.2.4.y.}.$XOXXXXXOX|.$X$X#XXX%X#X{.XX4 6.*X$XXXXX}.OX$X$X}.5.} Z ,.<.4.<.y.y.y.y.,.9.! 9 t - R $.#.v x F.F.F.v v c v k 0 * # J e % e j a r t : 5 O <X.Xw.,.>.>.>.y.y.,.,.,.>.>.e. . .,.} Y L % # . ] [ l ( [ [ a.q.I i i   ",
"  + , Q u J ( q...O.7.:.9 e V :.9.) :.| ..e.e.O.e. .e.! ,.,.} } 4 v.wXMXMX}.4 -.{.'.'.l.].z.3.1.z.z.z.[.#X[.XXXX].l.`.z.z.D z.z.F _._.S D 1./.].[.[.[.[.[.XX`.[.[.[.[.[.[.[.[.[.[.[.[.#X#XD 4 #X&X#X>X#X#X>X>X].].].].[.].].].].[.^.%X;X;X;X%X;X4 4 $X$X#X}.].%X}.^.{.%X%X}.{.{.}.^.{.v.v.4.3.y.(.5.4..X;.4 5.5.-.5.5.<.<.1.1.1.6.2.4.<.<.6.2.<.2.2.5.y.{.y.-.p.! K c.y.|.9.y.c.,.>.>.>.-.>.} 2.} 6.>.6.6.2.2.6.1.l.{.2.l.M -.1.1.1.1.3.1.3.1.3.4.2.2.3.4.4.5.2.5.(.-.;.<.i.K q % 5 L u j j f z > z X.v k i * o * X 9 ( r.r.O.O.#./ . . y.,.<.5.>.>. .} ~  . . . .7.,...>.>.~ / / y = X I @.I @.[ I { I * u i   ",
"  , t / ^ ^ I 0.i.0.` t 3 t V E i.E y.p./ w.| G K V Z ! } -.} 4.+XJXmXAXbXvXA -.%XXXl.3.z.`.z.`.z.[.XXz.].l.].z.].[.].`.&Xz.z._.S _.S S S S ~.>X[.[.[.[./.1.D `.`.].`.[.`.].#X].].[.[.#X[.^.4 ].[.[.%X[.[.].[././././.`.`.`.].].>X^.^.[.^.[.%X#Xm m vX$X%X%X}.%X%X{.^.{.$X}.{.}.}.}.y.(.5.5.2.2.3.y.5.y.2.A OXy.4.2.1.^.2.2.3.1.1.3.2.2.2.2.2.<.2.2.2.2.5.^.4.y. .U y.9.,.! ! C 9.>.;.;.} ,.,.-.>.-.} 2.l.6.6.6.6.6.'.1.5.4 3.'.3.1./.4.3.3.3.2.1.3.5.3.6.,.,.2.2.2.-.-.! ~ E _ X . . * z k c g.v v v { h . . + . . | t.#.e.#.#.t.P.0 a n.w.>.e.,.>.>. . .} }  .>.>.>.>. . ... .^ e # o k +.] [ I I u i i i 1   ",
"  q m ~ W ` ' q.(.i.p.1 X 3 t m &.K L / ..m.K.w.9.&.;.} Z >.} B.MXZX$X|.}.^.a 5.$X}.3.6.`.z.1.`.z.z.z.z.z.z.z.z.z.z.`.].z.z.).).S S XXB.v.D D ).>X[.[.`.D `.D `.`./.D 1.D z.`.z.].#X[.].].[.M `.%X%X[.[.>X/././././././././.^.^.^.^.^.^.^.^.^.^.D M nX%X#X#X}.'.{.4.4.4.(.'.}.{.^.}.^.{.^.3.2.2.3.4.3.^.<.A (.4.y.1.<.5././.1.6.-.2.,.,.2.6.1.<.1.<.2.5.5.y.y.p.Q K 9.y.w.:. .! ! ;.<.>.;.Z ~ |.rXOX,.Z } 2.} 5.2.2.2.2.'.A Z 5.3.3.2.2.3.1.2.3.2.6.6.-.6.6.6.-.2.-.>.<.~ ~ Q H s %.F.F.F.c Z.Z.F.c Z.g.v l h k X.X.h Y 7 / M.o.#.#.J 8.>.} } >. . .;. .} >. .>. .} }  . .,.,.| / 7 o X t [ u 8 u u y I u u :   ",
"  m , =.&.=.y r.i.p.0.7 + , ' q Z C 9 | e./ /  .e. .} -.~ } } 6.-.-.! -.6.6.A 2.@Xv.1.1.1.6.5.l.z.z.z.z.z.1.z.1.z.1.z.z.z.[.-X=X} Y V.=XV.FXd B C.z.z.D D 1.D /.D -.D 6.1.D 1./.].].[.`.`.].M 3.].^././.].]././././././././././.1././.^././.^.^.6.M $X(.].].`.4.{.'.y.4.4.l.{.{.4.4.^.4.3.3.3.2.1.3.3.^.M + A {.^.4.2.1.3.1.1.-.&.^.^.&.2.2.2.2.2.<.2.5.4.5.w.9.K C w.y.9.>.!  .! C Z } C C OX.X$Xv.2.2.a A z.3.2.2.4 6.4.A A 1.6.6.1.^.1.<.2.1.<.2.<.6.<.6.<.6.<.-.<.E ;.y.C T F.F.Z.Z.g j.A.A.A.A.j.g.b g z g.z { { c g.z 8 p = = . t p.>.;.>. . .} ;.>. .>.} }  .} } ~ }  ...` I # # 8 o X o o o 8 { i i #   ",
"  A , W *.*.t 8.t.r.i.y + % m W &.q a e.u.+.| >.>.>.} -.} -.-.,.-.6.6.6.2.<.w ,.,.,.l.v.l.z.z.z.1.3.6.1.1.z.6.z.z.1.6.z.z.z.=XjXY.x B V.d z.V.V.B.F Z Z 6.1./.1.A D /.^./.1.6.1.1.1.'.'.].].4 ^.].^.].^././././././.^.^./.^.^.1.1.1.^./.^.^.^.^.(.4 %X^.{.^.4.{.{.'.'.l.2.'.'.l.1.5.4.3.3.3.3.3.3.2.3.4.-.4 =.}.^.3.3.1.3.3./.6.<.^.^.<.<.2.4.<.<.2.v.,.,.,.,.y.Y V N.#.,.) 9.&.E A a 3 C y.|..Xy.{.y.>.} Y ~ } ;.-.Z -.2.Z m ^.-.2.2.<.6.6.<.6.6.6.<.2.<.<.<.<.<.<.<.Z m Y a %.v g.c c g.g.c c j.c j.c g.g.g c g.c c A.f.A.z o O & 1 j y. . . . .}  .! >. . . .} Y } } .. .C Y ' y # o u * 8 8 = o 1 u y 8 *   ",
"  A q *.` :.t q.u.t.u.t # + C .X(.C e  .7.e.7.e.,.>. .-.-.-.-.-.<.2.5.5.5.>.w 5.,.l.l.,.z.B.v.v.2.,.z.5.Z 6.5.l.6.} -...G.V.G.Y.Y.G.V.E.V.V.V.V.Y.V.s F z.].^.1.6.^.%X/.1.1.1.D D -.3.3.^.^.M 6.^.^.^./.^.^.^.^.3.^.^.^.^.^.^.^.^.^.^.^.^.(.^.^.%X< %X^.'.3.^.}.'.'.4.3.3.3.2.6.2.6.1.6.1.1./.^.^.^.3.1.6.4 -.^.4.1.1.3./.1.1.1.6./.<.<.2.<.<.5.4.,.,.,.y.n.w.m./ H 9.} U G  .w.,./ s -  .wX Xy.c.v.v.>.|.Z s ;.Z Z <.~ ^.&.m }.5.4.2.-.2.2.6.<.<.-.2.>.<.-.<.<.>.-.&.C C Q s x v h.Z.c A.A.A.A.j.A.A.g.D.f.H.A.S.j.g g g c z = . . % 9 X C ..} Y Y ~  .} Y Y Y j Y a ..C a C Y t X . o * 1 : = = i u 8 i y 8   ",
"  A q *.Q ) t i.L.x.t.r & # w ` N V ! H u.>.O.e.#.,.} } ;.-.-.-.-.,.2.2.<.-.w 5.v.5.l.,...z.,.z.l.v.l.5.z.} 4.|.l.B.V.P.h.T.E.G.G.W.W.V.j.V.h.V.V.H.V...a Z Z -.1././.&.6.6.-.6.} D 6.2.^.}.w 2.^.].^.^././.^./.^.^.^.^.^.^.^.^.^.^.<./.^.^.^.^.^.4 Z (.}.^.^.{.'.'.3.1.3.2.2.1.1.1.2.1.1.3.'.'.^.^.^.1.1.A 2.^.3.1.1.1.^./.1.1./.&./././.<.^.5.~ C ; 9 / ( U I 9 w /  .H 9 V Y }  .. s  X|.} } >.;. .} w 2 4 } s A .X<.<.;.m ^.-.6.<.<.<.-.-.-.-.<.-.-.<.:.-.-.<.>.;.m ~ 7.#.k.F.A.A.g.g g j.A.D.A.g.j.g.A.H.j.g g.g S.Z.z g.F.X.: j O . X Y }  .Z a a Y Y s a a s Z Y s Y Y s a e 0 8 u u i > i 8 i u 8 8 1   ",
"  m 3 Q E W L u.b.r.O.e + , , + a Y >.C < ,.8.e.e. .~ } } } } } -.;.,.-.>.>.4 >.l.B.v.v.z.v.} }  .l.,.l.,.-.|.B.B.z.V.k.x V.Y.W.Y.T.Y.V.x h.h.h.V.H.G.V.9 a 5.-.6.&.Z -.Z -.D -.-.Z D l.4.5.A ;.5.1.1.1.1.2./.2.^.^.^.^.3.3.3.3.2.^.^.<.^.<.^.^.^.A 2 ^.2.5.4.^.4.2.2.1.1.1.1.1.1.3.1.1.3.`.'.`.^.^./.1.6.4 -.1./././.D ^.<./.-.D /.6.<.6.<.<.w . - : U R 8 o o O - R U V a V Q / / ,.| M.y.~ ! ;.| C s A ;.;.A C 4 5.} ;.<.4 p.-.-.-.<.<.<.;.<.>.-.-.<.:.-.;.-.-.-.Z C Q w.x.v Z.Z.A.A.c b j.j.g.A.g j.g.j.D.g.g.g c Z.c H.F.F.g.k > O k U % R  .8.Y }  .Y Y Y Y Y Y } } .. ...Y Y / s 0 I R I i = 8 j i 8 *   ",
"  m , q e 3 e H L ' P 6 + , , 1 H  . .K H a ( 7. ./ }  .>.;.-.-.} -.,.,.4.,.4 } v.,.l.v.x.z.Y ,.,.>.,.,.,.v.l.,.} ..z.V...x ....x V.V.V.V.V.V.h.G.G.j.V...3 E 3 A Z -.D -.-.-.-.2.2.-.-.2.4.3 } 4.^.<.1.2.^.^.^.5.^.5.^.^.3.3.3.^.<.^.^.^.^.<.^.(.A =.<.m <.y.2.4.^.^.^.3.3.1.5.1.3.1.z.^././.1.1.1./.1.D B 1.3.6./.&././.^././.6.6.6./.2.<.q @ 3 e j t 8 0 0 i : # X 7 H | / a U 9.9. .:.;.Q Y ! ;.;.,.y.,.y.} y.w.4 ;.;.&.w <.-.-.-.-.-.-.-.-.;.<.>.-.*.<.<.-.;.;.*.! Q  .: = F.h.A.A.g j.A.A.A.A.j.g.A.g.g g.g.c g g.A.Z.g.g.Z.x h h / | O X T /  . .Y /  .>.}  .C j j ~  .,. .Y Y 0 : : 0 > = 8 0 [ u [ *   ",
"  , E ) :.H V a t q 1 + 1 1 1 , K w.>.U p.` a w. .e.>.,.,.,.>.>.,.>.,.,.y. .-  .,.,.B.e.#. .N.e.|.} v.B.e.e.,.B.B.B.z...s s z.k.x x h.h.h.V.x V.V.x x x s l - 4 &.-.-.} -.-.6.5.<.-.-.A A <.4 2.4.<.<.1.5.^.^.<.^.5.<.^.4.5.3.3.<./.^.<.(.^.^.(.(.&.&.p.A A -.-.2.^.(.^.3.'.1.3.3.^.l.z./.1./.D 1./.1./.).S `.`./././.6./.^./.<.<./.1././.<.4 < - 6 e - : u i i j 0 9 j | N.+.9 :.! H Y / ) C K ! | ;.;.} ;.! ~ ;.} Z C ;.-.4 5.-.;.-.-.>.;.-.;.;.;.-.-.*.-.&.&.;.-.~ C 5 . O f.F.F.Z.Z.Z.A.Z.A.A.A.g g.g g g.c f z g g g b g b = 0 : 8 % . X 9 9 9 Y s Y /  .T J J Y R T ../ O. . .j - i ( l 0 z { j j u J =   ",
"  + +XyXm.i.<XK.i.a.` a.$ + 1 % X $ 6 e 3 n . 9 t t t C e 9 w w C K Y C a a 3 } } ~ } } v.B. .Y e.N.e.#.,.a C ~ Z ,...s z.}  .V.V.V.x s x x f V.x d l s %.B.s 3 ;.y./ Z } ;.,.5.,.-.-.! >.) q -.<.<.<.-.<.&.<.<.2.<.^.5.(.^.4.4.<.^.^.p.^.^.<.<.4.m C <.A A Z &.Z &.6.3.4.'.{.^.].].`.`././././.D /.D /.)._.1.3.&./././.6.6.F =.D &.D &.D &.m q 3 # 9 : : l u j j j j Y T Y H H /  .E / ) C K _  . .) / U K E Y ~ ! C w C m w *.&.&.~ ~ &.~ ~ &.&.! ~ ~ ~ ~ &.! ~ @ 7 k J.v v Z.g.g.c Z.c h.j.Z.g g c c c z z z p p $.@.f.U.s.{ O . % X & j a j J j a / Y ( | O./ T a s t t 0 : t 0 & . 9 j 0 h u u 8 : * o #   ",
"  @ .X4X8.8.| 8.b.L.i.UXa.# + + L G 6 3 K P =.' n V C V E :..XrXM.4Xu.w.w.9.3 y.y.v.N.6X<Xn.3  .N.b.e.e.>.e.} ,.4Xy.y.y.>.,.| #.V.k.9 d s h ..x.h : Y X.X.l s Y P w.V 9 a 4 w w w a A V K t w w y C ~ K w C C ~ >.<.5.<.;.;.-.;.>.<.;.-.<.2.>.C w , + 4 q C -.! Z Z -.6.&.2.3.2.2.1.<.6.1.6.1.1.6.6.D D _._.C.C./.F D ^.=.=.F m A &.D D &.&.Z -.a 9 9 : t : e I j 0 6 * ; 8 j ( H / U Q K U ) T L ' j e t r V V V C w n 6 3 3 w q w m A V V C C C C C C C n m n - R J.F.F.v v g f g b b b v v v k.#.h J 3XyXuXL.t.i.uX5X<XNX<Xd.( [ r t.O I o.+.e.#.7.+.o.( ..R J R o.| R I J j t 8 5 # 5 * : * 7 * 5 1 6 # #   ",
"  + m p.U t 5 | <Xi.uXy.*.+ + # i.i.7.:.i.|..Xy.p.w.t 9.e.y.N.M.B.c.n.n.v.e.9 e.y.y.y.,.>.! >.9.} / M.y.>.,.,.} 5.{.2.3.{.|.l > a s s 9 > j j 9 9 5 7 9 O 0 a V V . 9 e.p.w.p.y.>.! 9 . P & 9 i.p.:./ :.y.i.y.w.9.u..X X,./ ! ! ! ` ~ Y a Q n n 3 w C ~ A ~ p.}.}.}.OX|.5.Z Z &.<.<.^.(.^.^.^.-.D F _._._.~.~._.~.=.6.&.D /./.6.D -.D -.D 6.-.&.A Z 9 : 0 8 h : % : * 8 j 0 j J H j H L H L L ^ N t G e C V C A K E C W C P % n C ~ C V C ~ >.:.;.*.&./ &.*.P 7 : L.F.U.F.F.v v b v b z v f k $.u.( Q | 7.Q / _ | O.:.^ C W _ *.7.O.8 j I j a j Y Y ..R U U L V H R ( | / ( _ ) L ^ N & t P J u j j P N u # X   ",
"  # P W q C n K 9.~ 9.` *.+ + V *.u.7.p.e.w.,.9. . .,.v.B.e.,.e.,.e.v.x.e. .3 e.y.5.>.>.5.y.,.p.>.,.,.,.;.-.-.2.>.2.4.>.,.... 9 ..> d > > s > v U.x.k.@.Y . X X 5 - C u.>.y.>.>.w.,.,.:.q 3 6 9.! Q C Q ) ;.;.:.&.| Q ) >.;.>.>.>.<.<.w.9.~ ! Q % C >.<.2.>.<.<.;.-.&.-.D &.-.6./.^.(.^.'.].3.6.2.1.6.D C._.S D <./.6.D 6.6.&.D -.D 6.D &.-.C V a J 9 s %.k.h.v l l p : 8 # . % u : P j J r J G K :.C w E ~ ~ ~ ! ! } :.! >.q W *.<.:.&.~ &.) &.~ Z Q K r.7 y + . 1 0 @.U.U.f z v x v l o % 5 0.^ ) ) >.Q ) *.:.a.0.p.p.i.7.>._ ) ` + G / 7.O./ | +.:.| | :._ / / U K U Y T Y / ^ L N X u u u I I I I P n o X   ",
"  @ n :.;.~ ~ ;.p.q <.p.W % + &.>.) } >.>.>.9.9.} >.i.w.w.e.>.>. .,.,.,.>.} 3 e.,.>.9.,.>.<.>.;.>.} ~ } ~ >.y.>.p.;.V p.& > e.e.Y 9 > > h x v F.h.F.v $.J.X.l Y j 5 . C -.-.! ;.;.) i.y.K 3 3 (.w.:.>.! ! | ;.&.) &. .;.| ;.>.>.>.;.<.;.;.*.&.! , C *.5.<.-.<.2.6.<.2.4.2.2.1.6.D =././.6.6.Z B 2.1.6.6.D F B z.&.6./.<.6.D &.=.-.6.&.Z &.=.C 0.l s h k.F.A.h.Z.Z.v v %.l f X.l 8 h j +.( L y 3 K C V E C C E ~ ~ ) ! &.K ! V V p.p.<.<.*.C w L i x %.%.k.v b x %.v h j ] $.b l x f = 7 o o - w.9.9. .:.*.:.) :.) ) *.w.:.Q _ :.^ U 3 C  .u.>.` L Y / | _ | :.) Q Q Q L E K K L L P N o J J n G P J N u N # X   ",
"  @ . ` E ~ ;.:.p.:.(.p.y # , *.:.~ ;. .;.;.:.>.:._ e t a  .;.}  .,.-.>.>.~ 9 >.;.;.,. .,.>.,.>.e.y.y.-.} 9.p.>.~ p.W . # w.+.#.x > d h d x k.G.G.h.F.g c v x k ..( O.. :.>.| / } ) y..XUX# q p.>.;.:.:.&. .~  . .;.;.>. ./  .;.>.>.<.>.;.:.&.<.3 <.y.<.^.&.&.<.4.^.-./.2.6.-.-.-.D /.6.6.6.B B } 2.'.'.B.B 4 } B B B B A a B 4 M B C Z C ! #.| ..J.G.F.A.H.S.Z.Z.A.Z.g.v v F.c p z %.@.[ r % r W *.*.! C K K C E C n C V ~ =.7 <.>.*.>.t %.k.V.Z.j.A.F.Z.S.h.A.A.S.A.A.g v l > X.@.T ( N P W *. .) | ;.0.*.) ) ~ / / Q K Q ) / K Q 9 ) <.p.p.*.) E W W ` [ ` P K K W K C C W P t N y # _ T P G u P u y y 1 X   ",
"  @ @ :.! ~ ;.! ! *.*.*.1 # 3 *.A ~ ! }  .;.,. .>.e @ @ 9 _ ;./ Y ,.~ /  .Y - p.,.>.;.>.y.! >.<.>.>.;.;.;.;.;.p.>.p.u.~ 3 K.U #.k > l x > f x c T.Y.G.Z.f h h h > I.lXR : T P P H K | :.' , K 9.&.) _ &.) ! ! ;.) &.| ,.p. ./ / /  .:.>.*.&.=.*.< *.<.&.<.5.-.~ &.-.=.Z -.6.6.6.6.6.&.&.Z } A B 1.3.6.<.} 4 s z.V...h.h...x s x x ..x %.s l ..h v F.G.G.g.S.S.A.A.A.Z.A.A.A.g g.c g z z : . . t L ` W n C E W W E C E W ! C E , *.P q X k.T.G.S.h.b b h.j.h.j.h.g b c g A.A.v f j t.0.*.*.p.a.9.*.*.*.) *./ ) ) Q ^ ) ! ) ) ) Q ~ ) t V C *.<..X.Xp.r r ^ ` ^ P P n N n V E P m n G % $ _ T P P N u N u n 1 X   ",
"  + @ :.~ C ~ ! C ~ K ' , % y p.&.E ! ~ Y ! ! ! / K e 9 t 7 K  .}  .} } } K - |.y.y.<.>.;. .;.>.}  .>.>.2.-.} ,.>.~ ,.p.>.N.O.t.k > d l > d > l %.g.> > > h > > j t.k k d.: X . . . X . X 5 *.9.:.;.*.*.&.) ! ! ~ ~ ! :. .T _ :.*.! Q &.&.&.E ` + =.;.>.<.<.>.2.-.&.D &.-.6.6.<.6.6.6.6.-.6.6.a Z ! Z A 2 4 Z V.h.V.G.V.h.V.h.h.V.h.h.h.k.k.k f.F.H.H.G.g.g.A.A.A.A.A.A.S.D.D.H.A.c c c b 0 > . # 7 y y n E W ~ W W ~ V K P K n 6 . O z %.h.T.h.b f c h.b c b c g j.g g c c c l O +.*.*.a.*.:.a.p.*.) *.*.) ~ ) Q ` E ) / *._ / ` ) 3 V E ' ;.p.9._ ^ L G L ' W P P P C t n W K u P X # L J u G J N I N u 1 X   ",
"  + @ V E C E ! ~ ~ W ` + + n p.` *.E ~ E Y Y  .Y  .Q / j . . - s >.>.) ) C 9 c.,.e.9.>.>.<.;.! ;.<.<.>.:.;.>.&.;.>.! >. . .#.#.l d f d l ; ; l X.h > z h j ] * j 8 : 0 i u j l J R j I P q W :.:.9.9.0.| ) ) ) K ~ >./ Q U K H E V / ! ) ) :.(.7 (.<.p.<.;.&.-.-.=.=.&.-.&.-.<.<.5.<.6.&.3.z.Z 2 2 4 w 2 V.V.x x h.V.h.j.h.V.h.h.j.h.F.F.A.v v F.g.F.G.S.A.g.j.c j.g.A.A.A.S.D.D.j.A.A.c Z.F.c l k 0 % 6 n y V C V n w n t n 6 a o.] l x x h.v d l x b x b j.g c h.b A.g b g b > i._ :.*.>.` 0.*.*./ *.) ) ` ! ) ` ` ` ~ ! ` *.) ) w w E =.E *.:.) Q ^ G ^ L n N K P V W W K P P P # 8 L n N n u t N t r 7 .   ",
"  @ # ' ~ Y E ! / ;.*._ + + t p.G Q Q / V V w.7./ ) 9.w.w.Q X . q u. .~ ! w t p.>.>.>.>.:.>.) &.p.9.,.:.>.;.>.! ! >.;.! s } Y ..x > d f h f > ; 0 s > 0 : : ] : X o o . j R ..%.@.@.X.O.0., n 9.) :.9.:.;.) Q Y C K K K K E Q Q C w C Q w.*.*..X3 i.9.<.-.&.&.&.Z Z &.-.<.~ Z -.2.6.-.-.-.Z 6.<.4 < C A s ..x x h.x x v k.h.h.k.k.h.x v x x k d x v c F.Z.v c c h.g g g Z.c A.j.A.c A.A.A.g.A.A.g.F.z l f h z > 8 0 9 j r % 9 o.o.X.R f d > X . . ; = > l > b b x c Z.g b b c f.0 +.| ) ) :.! *.! ~ =.) Q ` ) *.*.*.Q ` ' ) ) ) W ` w n ~ C E &.' Q ' n t K K n P V C G K K L e e % o 8 L P e t K P P G N 6 X   ",
"  + + G ~ ~ E >.>.E / 7.X + 7 ` E Q K Q Y + u.*.) w.7.) H 9 6 s Q ! ~ ~ Q % w ,.~ ) >.;.;.;.) :.;.:.&.>.;.;.;.;.;.!  .Z C  .......d x x f l f k > O % - R 0 k h i +.q.$.@.h > h h k X.j L 5 P :.Q ) *.~ ) ) / E Y V C E / / / Q a t P K V Q ` :.3 !  .! <.-.&.&.Z =.&.&.:.-.~ &.} &.-.&.-.-.-.<.=.q X 3 Z k.} Y s s h 9 a s d s k l k k.v U.F.G.G.c Z.F.Z.Z.c c c g.b c A.G.A.F.g.c g.g c A.A.c Z.g b b b c c z f > 0 I t e a j s ..#.$.#.%.k X.k.x.k.k.J.x ; > X = l f > h f.v * I 7.Q ! *.*.*.*.' ~ ~ ~ *.*.Q Q *.! ` =.~ ! W W W n w p.:.E E W n % t 7.) t K V P G G L a 7 5 X . . 0 N ' N u e L I r t 7 X   ",
"  @ @ K ~ ~ C ;.~ E Q Q X + 1 W L Q K ) ) n Q 3 W K q . . ) >.! Y ;.! C H @ V } } | /  .) &.>.&.! } ;.;.;.>.! >.! ~ } Y ~  .7.t.R > J.x Y #.#.#.k X...+.T s x.L.X.o.%.R X.k 0 > h l l k I q 7 9.:.) / Q ! U K E E E / ) ! E C W ~ C n w K E ) ` q E ! &.*.&.;.&.&.! -.Z ! -.<.-.m A ~ &.-.<.-.*.;.3 7.B.B.V.V.V.V.V.V.Y.x.k.#.k.%.k.Y.H.k.G.A.A.A.c h.Z.A.Z.h.c Z.c g Z.g.g g z c b z b g g z c g.f z p p h p > > i 0 r W :.} #.e.B.L.J.P.J.x.P.x.U.U.F.F.U.$.> ; X > X.{ %.l i : q.*.Q &.*.Q ! *.*.` ! ) ` ) ) ` Q Q Q Q W W ' W *.C 3 9.*.! *.:., # 7 :.^ r K K L K L U K 6 t 1 o o N ' [ I r P J 7 8 u 7 X   ",
"  @ $ G C w a ! C V C r + & + P W ` W L ) p.0., . . . 7 / 7./ C E ! ~ Y ~ % ! ;.! } ! } ! ! ~ Y ! E E E ~ ! ! ) } ~ ! ~  .7.| w.U : H .. .}  .Y ..e.+.e.#.t J x.l ; s 0 h j I i 0 k R l J e 1 *.L Q U ^ K K K V H H C n w r r C K K P C e V P t t ~ ~ ~ ! *.! ;.&.&.~ A E ! &.&.V A A -.-.&.<.^.~ a Y.x.x x v h.V.h.V.k.h.k.F.V.F.k.Z.h.h.h.h.Z.h.A.h.c Z.h.b c x g g.g.A.c g.g.x v f l p z z p = > o = p i % % ' 7.9.0.<.*.E ..x.#.#.#.#.e.#.#...#.o...#...o.: O O X #.R R k { y ` *.=.*.*.! W *.*.! *.E *.Q ` ) ~ W Q Q *.Q &.&.Q ' @ *.C K P C q . . X $ e P G n V a 6 P _ G % X X ' J u u u P P 7 8 1 , ,   ",
"  @ + y 7 q C Q Y K Q r X # # % r Q *.7 P ^ n X % X . e ^ E U Y C E C Y E # ! ;.E Z ~ Y ! ! ! ! Y E ! ;.;.) ;.;.:./ ! ~ / >.7./ J - / ) H Q  ./ ~ / } _ U Y K C P * # X 7 * j j O h R j T K 7 n n G j C W ' ^ ` ^ K P P P G K H V K V L P V W P q a C W E ~ ~ E ~ ! ~ Z Z C Z ~ C V ~ ;.;.&.&.4.m m C ; l k.%.....%.x f v v x v %.v f f b f x c v c A.c F.G.c h.g Z.A.c g g v f.f p h > = 8 X o . . O 8 z ] 8 e =.A &.=.! Q *.C K Q H ^ U E t t s U / ) G _ 7.) ^ ( t . U j u j e L P E C ~ ! E ! ) &.*.W *.&.W ~ ~ ' Q Q ! W ! W P :.3 ~ W K P n n q X X n ' W q 1 1 n P L P r $ X X # % . . . . . . & 1 # ,   ",
"  + # y e q t q e r t 6 # # X 1 7 e n ) t 6 t r t t 6 + X y r e w a Y w t 3 G K V a r V P K E C ~ E E / Q ~ E ~ ! Q ! ) w K H e 6 O H Y H Y  . . .U U / ! / / 9.p.y.L & . % o [ J s h k T L t W Q W a r n P W ^ ` Q K G V a t V r L Q L r n G q t n q 6 w t q w C C K E C E E C Z E m A E A n 3 H >.9...x.v.t.$...O.Y s Y ......x x x x d h f x v x f b v v b x v g c h.g.c b c b i 7 o . o * o u O o * . 1 E *.<.A C C W Z &.q p.p.&.Q ~ ) ;.:./ ~ ) 7.:.7.0.7.w.i.u.:.7 - T 0 1 J Q Q ~ W W P C K W *.K ' P C E n E W P E W P W C n , n K E *.a.0.P + X a.P X 6 P ' I r e N t 1 X o X . 6 r r n G n E y 1 Q   ",
"  , % q t y 7 e q r G t # # + y P N r 9.K ^ :.G K Q Q ) W e q t t 0.*._ _ % q K ~ C K K E ~ ~ )  .~ E ! ) ) ) ) Q ! 9.9._ ) _ | G . / e.u.u.w.N.u.u.u.e.8./ | w.9.|. X.XU 5 * 9 j h i j T T y _ *.W C r N Q ^ *.^ K G V G 3 7 r K ) _ ^ ~ t P n n G G n V w 5 w e w e e V t C Q Q r - a K O.+.#.e...#.#.....Y ....e.7.| | ..R ......X...%.#.X.x h h d > f f > f k f d f f > z f > > = 8 j j u = I { ' ' 8 t *.E =.E Z E ~ ~ =.3 *.*.*.*.) ^ ) ;.:.*.K C ` ) ~ ^ ^ ) ;.9._ _ ( 8 8 L Q ` *.*.` &.*.W E &.W :.) *.*.P E ! E C Q ! ) n K . K *.:.w.0.*.% . . * # ' _ N u y y y $ # # X X . 6 ) *.) *.*.~ ~ 1 % 6.  ",
"  + % % ` u , :.0.Q P G , , $ q ^ V V K C C K C Q C E P L ) ) :.&.9.) ) :.. e ! Y Y E Y ~ Q ~ ! ! ! ~ ~ ~ ! ! ~ ~ ) Q ) ^ 7.:._ G . /  .| |  ...| | .. . . .Y  .U Y ! :.u.<XI O . 0 0 j T 5 e *.*.W Q L K P L K G G G P W P C E Q / K E *./ ) t L G r L L a Y L ^ _ 0.0.:.L t e 3 r *.7.7.O. .+.+.#.#.X...e.j Y #.O.R ..R R I / T T R / R ..X.R k k h > l d h > > 0 > > O > p = = : > X.I j I t X * u P ~ ! E Z ~ ~ =.C Z C ~ , :.:.*.~ ) ) =.C ~ Q W C C K K ~ ! Q ) / *.p.8.7 : 0.L W K Q E Q Q C E C &.=.! W ~ =.Q ~ *.W ~ ' Q W *.+ E y t $ . . * 7 # . y r.[ N I I I I I N o & & . n ) Q ~ W ~ K P 3 %     ",
"  , 1 % e y , :.*.q w n , , q 5 ) V w n w n n V E n E C C ~ C C C m n n m + y K n C C V C K C n w n C C C Z K C ~ ^ . a H U U G H . H U /  .Y H Y H H Y Y Y Y Y U / Y Q } | h 0 * o u +.I 5 W ) K P N n n P W P C G P G W Q ` E Q L C V ^ ) ^ V G ` q Q ^ | ) ( | 7._ ( _ / % X . ) 8. ./ J : t 7.| U L ( H j ^ / / ( T T T Y J U T R T T U T ( ( | | T R : 0 0 O : : 0 8 O 8 u t . : [ :.K E E W w A =.=.<.&.=.=.Z =.=.Z E Q q >.>.) ) *.! ' W E E P E K K K K Q Q ^ Q ! *.W % % ( V E W E ~ ~ E ~ W E =.E C ~ K E E =.W C C ! &.n *.+ =.+ y G I I I { [ I u [ I i ' I I u ' u o # o X P Q W E =.W W N 1 #     ",
"  3 + # X 6 , $ 6 E V e 5 % 5 , ~ e e n t m C n n C E E K C V C C C n n P + q V n q n N K P C t n C C K C K K V K r L C H H V G r X e Y C a C H Y Y Y H Y Y Y U H Y j U / R : I 0 o 0 p.t r ^ K E C C K P W W E G P G G W ' L W W G E P W Q ^ K C ) V 6 G ( _ ( ( L T L G L L e e G L L r a C U L ^ / ( j P / ( ^ T L H P L U J T L T T J U U ^ U U R ( T Q 0 X . # 7 0 O # j J ] I . 7 L K ) ! ~ =.C C &.&.&.A A Z ~ ! ~ Z *.3 :.>.Q Q Q W E E ~ W K n C C P P K K L K ~ K P y & y H C C E E E E W ! W E C E E W E ~ W ~ E E W ' P 5 X ! q W j N N N I N I ' I I u { u u P 8 o + * * X G ^ W E W E E N % +     ",
"  q & & % t r 5 C Q E n , @ 1 1 W C n E ~ t w E E Q W E V C C C C C C E W + y ~ E C n m P t K K E K K C E A V U _ U  .K H K H H G . H ) a Y Y j a Y U Y / Y Y Y Y Y a J j i { ] 0 o X j # N P C n C V V P K W W K P e P ' ' ' L L n L ^ Q ~ ^ W r ~ ` t P T T T T L L T L ^ Q ^ | ^ ^ P N G L W L T Q U t 3 L P P L L P P T ( O.O.^ T ( U ^ T T I U ^ ' Q ^ ' G y . X + . o y j u P o . $ ~ K E A C Z E &.&.&.m =.=.&.=.&.=.*.< W K r n W E E W ' ~ ~ W K Q Q W C G C K C K ` P . G E V K E W &.~ E ~ ~ ~ E E E W E E W E W E Q W t q , &.t n N u u u I I I I I P I N N N 1 X y 8 y y o e U Q E ' W =.N % +     ",
"  < + X 6 G C e q n C y , . , 5 e t t C E n 4 n C n C C E C K C P E Z E W , q E C E E E E n *.E K C C C C C V L a 7 Q V a r G U t O / Y Y a C Y  .U Y Y Y / } T a j s s 8 z l l i o o X * r P C n n n n n N r t 7 3 $ 1 * : * * 5 5 5 q 6 6 e e 6 q y 5 7 9 8 e 6 6 e t t r r r r r t t 7 9 t e e e y 6 1 $ 1 q 6 5 6 6 e e e y y y u t e r t e r r n L W L W W n # % & # 1 * y % X X # L ^ n n C n n n E &.~ C C C C Z E W N % n r n N P P W C n n P L W Q W E P V V K K W *.' & / U K W E =.*.~ E W =.E W E W E E Z E E E E n n 1 q , y E n u u u u u I I N N u i u u 1 $ n N y y y o 7 ^ K K E E W n , %     ",
"  B & + 1 P G w K n t w % 5 e + P V E C V q q w V m n C C W =.=.~ E C K W # , ~ E K C E W ) Q N K n N C C C V V % 1 U U t y u 1 8 9 T .. .9 a Y Y V H Y Y E Y / L T J > f z p i I = # $ 1 7 n N N y 1 o y t * 1 r n t N t P G V u t t N V n t y t n n e y w y t 9 6 6 % % % 5 1 $ * & % . - . + X + X + X + . . . . . . . . . . . . . . . . . . . . . . . . . . . . . . X . X . . $ . . % 7 1 1 , $ # # + + X 1 + + + % 1 1 # , . X $ $ 1 1 , , 1 1 , 1 1 1 q 7 q 5 q q y q y % o X e N P W n W W E E E ~ K C E K C C C E V K P 1 , r X n n n W ' I P ' n P P n N I N y y N r X $ 1 6 7 q t P G P E N q y % =.  ",
"  F + @ , P y , K V 3 , P N + + n W E W E w ~ C n q C C C C E E n n E C n + + K C V n E C E G q y N K ~ ) / / 9.1 * u e X X * 8 8 * y r Y a C a a H a Y H r C P L j j . h l i p * o . . . X o $ # o ' a.r.a.N I 1X1XUXuX1X1X.X1X(.1X(.UXi.u.y.9.p.i.i.(.(.i.(.UXi.m.m..X.Xu.i.i.i.i.<X(..Xu.i.i.y.(.(.UXUX(.p.1X.Xp.y.(.4XrX Xi.(.(.i.(.i.i.i.y.p.i.y.u.UXp.7 + # P p.N # UXp.' N P ' ` ' ' L J ' P P N n N P n N r u * 1 , $ 7 n N n t y y n N n n E n n u n t t e y r y y % . . . . y W W n m n n n P ~ E P E K C P P C 5 e q 7 . o , n n m n ' =.N m m m n =.n n q n n N n K W Q =.*.' n y n n n n q y # W   ",
"    X + 7 e q n V e n n q q q , % E n W n q W n n y P m n C A n m m m n C , + N n m n m n V n E q n :.! W ` ^ t # 1 8 7 * r I I j N . . : 7 9 : e G U J H J j 6 # % = p > f h p o % i.uXr.. . o # y i.i.' N y y 0.i.UXi.y.(.p.p.p.i.y.(.(.1X<X.Xi.y.p.p.p.(.UX(.(.5Xi.i..X1Xi.i.u.i.(.uXuX0.>.<.(.(.1XrXAXp.n AX.X(.(.(..X1X4XrXAXUXrX(.(.rXuX1XuXrXuXrX1XAX, X . UX1X% + yXd.p.i.d.r.i.i.r.q.a.r.p.r.r.q.d.d.i.i.d.i._ q 0., p.i.p.p.r.y.i.r.i.p.a.i.p.p.p.p.i.p.y.i.r.i.r.*.N # 6 ` p.*.n E P P n *.q e L L n n n t 3 7 5 r P r n 1 . , *.E =.<.=.=.C =.=.=.=.=.=.=.W =.E =.*.=.E E =.E =., N E N n =.P + *.  ",
"    + # , e r n w q m n q y n y q 3 q , # # . . q ` n w n m n C C C C n C 5 X n n m n n P C t E t # y 9 n y . . # I [ I t k I z i I T j & . . . . X : * : q . O f z = v A.g.z = = 1 uXyX1XUX6 X o # 0.N u u y y y ' ` P W W K N P G W ' ` ` *._ *.E P y V ' W ' W ^ n . G L L r L W ^ 0.W W n n n n N =.p.W + n q m q < X . q E *.=.*.=.=.W =.*.>.0.q.p.p.p.n # 0..Xi.N . yXi.q.t.a.q.q.a.[ 8.a.' u [ a.r.d.q.r.q.q.r.^ y uXy uXi.w.p.p.p.q.0.0.0.r.a.r.q.a.a.r.:._ 0._ ^ _ a.' 3 *.L *.) K P Q >.0.=.n L *.L P L G ` E C K P E n ' *.n X p.=.m =.n n n m m m m n N m n n E W =.K P n m n y q n N N N P 8 + .X  ",
"      X o + q m n r n y y y n q n n , < X + + . , m q q m m m m m m n n n 7 . 7 n n C m C n m y w n 5 o . . . % 8 u : u u I ] j 0 R ] [ N 8 * o . . X # = X.z b g g b = b z p : o o X I ` r.0.o X X W n n y y y n N ' N N N ' N u N y y u u y y r P ` _ ' [ ` *.' ' N 6 # N ` W n =.*.=.P =.N N N y N 1 % @ , *.W m m m A m m m 4 < q m q q q 1 q m q m m q n q ' ' ` y 1 [ N u N u I N u ' ' I 8 y u u u u I ' I u y u 1 ' r ' ` I P L ' W L ' ' ` P L ' ` ` a.a.` _ ` ' N ' a.' N P ' P n n W =.P P K n n K W P n W E n q m y q t W 7 X q 1 y n n y q m y y y N y N y n N W N N N N y y y N y y N N 7 y p.%X  ",
"        4 o + % 1 y n m q m n q y y y y # X X q n P n n n n n n n n m m n , X , n C n m n m m n q r r u 1 # t G ` I I u * 7 8 u u k I [ R I I u # % y # 7 z z b f b g.z b p p > . % & * q.[ [ o # . N 1 + , y y y N N N ' ' ' [ ` ` ` ' ' N y # 6 N W ` *.*.a.a.*.a.*.W + P p.=.=.*.*.*.a.p.p.a.=.' ' y + + @ p.*.<.&.=.^.*.=.^.*.*.=.=.=.=.=.=.=.*.*.*.*.~ =.q ' ' ' 1 y P ' [ a.N [ ' I ' ' [ [ I J y u N u I J u u X 7 ' 1 X 6 t N ` a.[ ' I N I y 8 N n N n y u t e y r u y y o X 1 N W W W n y w y q y q n n n N m n , y n n y . . $ N n n y y y y y y y y y y y y y N y u y y y y u u y y 8 1 5 C %X      ",
"          ~.m , o o 1 , 5 7 q q y y q 5 + + o n y q q q q y q q q 1 q 1 o X o o 7 y y y q q y t n V j 0 : = y 5 y y 8 8 o . . X o # * i 7 : : 1 o # N o o O . = = = f z p = o . G 8 o o P I . . X P uXp.q o = * y u i N 8 u u u u y u u 8 1 o o X X o o * q y n N n N y X 1 y # 1 1 $ 1 1 1 * = o o X . . . . . y n n n N =.=.N P L P t y n N n N N N N m q q o 1 * o = o * * o o o o o = o u L I N N y u y N N u t y o 1 y o o . 6 N r N P I P y 8 y t 1 # 6 6 u 8 : 8 y u u u y o . * y N V P N N n y e y n N N V N e 1 y y 1 6 o . X . # * $ 1 1 1 q 8 8 y 8 1 1 1 8 y y y y y y 8 8 8 8 * = q F             ",
"                S 4 < o o o X o o o # @ % , , < < 2 < 2 2 2 2 2 < 2 2 2 w 4 4 4 2 4 4 3 < 4 2 4 m 2 2 2 2 4 2 2 2 m A Z &.B B M 4 2 2 < 2 2 2 2 2 4 < q a 9 3 2 2 3 3 < = 1 8 N 0./ 9 5 @ < 7 q <.>X:X    S M 4 q q q 3 q n y y q 3 , 2 , 3 q q q q q 3 < , # # . . . o * * , 4 3 4 4 M M m B F A F Z -.-.<.4.*.4 < < @ + < + < @ < 2 2 2 M 4 M M B M M M M M B B =.&.D =.E M M w w M 4 4 q 4 2 2 2 2 2 2 2 2 < 2 2 2 4 3 2 2 2 3 2 2 2 < < @ + o o o o . X , < 2 2 2 < < < @ 2 4 n E A m 2 2 2 2 2 2 2 2 2 3 2 2 3 < < < , 4 , < q n K P w 7 7 * o o + X . o o o o = 1 = = = = * = 8 1 1 n Z -.                ",
"                      ).D 6.<.1././.).>X                                                                                                                                                                                                                          ).)./.[./.[.                                                                                                                                                                    ).~.^.(.^.                                              >X                                -X>X^./.<.<.>.<.>.9.p.(.a.(.p.p.(.p.p.i.p.                          ",
"                                                                                                                                                                                                                                                                                                                                                                                                                                                        #X>X                                                                                                                                                    "
};
