/* XPM */
static char *out[] = {
/* columns rows colors chars-per-pixel */
"296 150 256 2 ",
"   c None",
".  c #010001",
"X  c #090808",
"o  c #140806",
"O  c #171509",
"+  c #0A1516",
"@  c #141314",
"#  c #1C1B1B",
"$  c #181817",
"%  c #0C0E0F",
"&  c #231B19",
"*  c #26120A",
"=  c #1A221C",
"-  c #132410",
";  c #28261B",
":  c #302F10",
">  c #1A1C22",
",  c #0C1A24",
"<  c #241D23",
"1  c #06282A",
"2  c #1A2626",
"3  c #133334",
"4  c #242324",
"5  c #2C2C2B",
"6  c #282827",
"7  c #342C28",
"8  c #2A332B",
"9  c #37352A",
"0  c #292C33",
"q  c #2A3636",
"w  c #333434",
"e  c #3B3C3B",
"r  c #373837",
"t  c #342D34",
"y  c #433C38",
"u  c #443A2B",
"i  c #483A19",
"p  c #3A433B",
"a  c #35462F",
"s  c #35471F",
"d  c #4D5116",
"f  c #6B7217",
"g  c #474728",
"h  c #47453A",
"j  c #565838",
"k  c #515230",
"l  c #655436",
"z  c #586931",
"x  c #747827",
"c  c #6B7130",
"v  c #5B6310",
"b  c #383C43",
"n  c #2B3B44",
"m  c #163C43",
"M  c #443E42",
"N  c #16494B",
"B  c #3C4344",
"V  c #3A4749",
"C  c #3B4B52",
"Z  c #3A5657",
"A  c #2D4D4B",
"S  c #325C65",
"D  c #076E77",
"F  c #3A6768",
"G  c #347074",
"H  c #2F635C",
"J  c #434443",
"K  c #4C4B44",
"L  c #444B4C",
"P  c #4B4C4B",
"I  c #464746",
"U  c #534C47",
"Y  c #4C534C",
"T  c #475449",
"R  c #53534C",
"E  c #585749",
"W  c #444C52",
"Q  c #4A4D53",
"!  c #4C5354",
"~  c #4D5C5B",
"^  c #485657",
"/  c #535453",
"(  c #545B54",
")  c #5B5B54",
"_  c #535B5B",
"`  c #5B5D5B",
"'  c #565558",
"]  c #524E53",
"[  c #645849",
"{  c #625D55",
"}  c #6A5545",
"|  c #4A625A",
" . c #5C635C",
".. c #576559",
"X. c #586A4C",
"o. c #66664A",
"O. c #636354",
"+. c #63645B",
"@. c #69695A",
"#. c #726C5A",
"$. c #6B7359",
"%. c #767659",
"&. c #707646",
"*. c #575D63",
"=. c #4A5B64",
"-. c #496868",
";. c #546462",
":. c #5B6463",
">. c #5C6B64",
",. c #576A69",
"<. c #5A736B",
"1. c #4A7778",
"2. c #547B7C",
"3. c #587777",
"4. c #4D6D71",
"5. c #646B64",
"6. c #6B6C63",
"7. c #656968",
"8. c #726D65",
"9. c #6C736B",
"0. c #677569",
"q. c #73746B",
"w. c #777868",
"e. c #687976",
"r. c #747C74",
"t. c #777A77",
"y. c #686D73",
"u. c #635E62",
"i. c #847C6E",
"p. c #837653",
"a. c #807630",
"s. c #788631",
"d. c #778518",
"f. c #768B4D",
"g. c #5A837C",
"h. c #4C827B",
"j. c #79846A",
"k. c #6C837C",
"l. c #67847A",
"z. c #7B8375",
"x. c #73837C",
"c. c #7B847B",
"v. c #78887A",
"b. c #728F75",
"n. c #739D59",
"m. c #3C817A",
"M. c #899032",
"N. c #98A435",
"B. c #9BA52E",
"V. c #8B924E",
"C. c #96A84F",
"Z. c #A9B350",
"A. c #88856A",
"S. c #838B7C",
"D. c #868778",
"F. c #89937B",
"G. c #96967A",
"H. c #91906F",
"J. c #94A96D",
"K. c #ABB36C",
"L. c #A29B7D",
"P. c #B8C556",
"I. c #B8C66B",
"U. c #9AC26A",
"Y. c #C8D371",
"T. c #C9D564",
"R. c #057B85",
"E. c #2E7D84",
"W. c #4A7D82",
"Q. c #567D82",
"!. c #6C7D82",
"~. c #0C868F",
"^. c #308C92",
"/. c #2AAAB1",
"(. c #21A1A9",
"). c #4B8688",
"_. c #538384",
"`. c #5B8484",
"'. c #548B8C",
"]. c #598A89",
"[. c #599696",
"{. c #549190",
"}. c #688986",
"|. c #738B84",
" X c #7B8C83",
".X c #778886",
"XX c #6A938A",
"oX c #74938B",
"OX c #7B948B",
"+X c #799688",
"@X c #679896",
"#X c #7C9C93",
"$X c #759A95",
"%X c #6C8D91",
"&X c #5CA39B",
"*X c #69A49B",
"=X c #78A59A",
"-X c #75A28E",
";X c #52ADB0",
":X c #69A9A5",
">X c #78ABA5",
",X c #79B2AA",
"<X c #72B6B2",
"1X c #5B9DA2",
"2X c #4FBBC2",
"3X c #60C7C9",
"4X c #44BEC2",
"5X c #838D83",
"6X c #878B86",
"7X c #849284",
"8X c #8B9384",
"9X c #84948B",
"0X c #8B948B",
"qX c #849B8C",
"wX c #8C9A8C",
"eX c #8A9985",
"rX c #949B8C",
"tX c #9B9D8B",
"yX c #959686",
"uX c #8C9C93",
"iX c #869994",
"pX c #939C93",
"aX c #979C97",
"sX c #8E8D89",
"dX c #A39D8D",
"fX c #9AA28C",
"gX c #88A699",
"hX c #9CA393",
"jX c #97A699",
"kX c #8EAC94",
"lX c #A4A58B",
"zX c #A2A594",
"xX c #A6AA9A",
"cX c #AEB299",
"vX c #88ABA3",
"bX c #97ABA4",
"nX c #87B3A8",
"mX c #97B4A8",
"MX c #90B9B4",
"NX c #A5ACA4",
"BX c #A8B4A7",
"VX c #B4B7A8",
"CX c #A8BAB3",
"ZX c #B4B9B3",
"AX c #949BA2",
"SX c #B8C5B8",
"DX c #ACC3B5",
"FX c #9BC4AE",
"GX c #C5C7B7",
"HX c #CCD787",
"JX c #B3CDC6",
"KX c #91CDC8",
"LX c #CCD4CC",
"PX c #DAE4E0",
"IX c #BEBDB2",
"UX c #847F82",
/* pixels */
"                                                                                                                                                                                                                                                                                                                                                                    ~.D nXMXMX{.G D D m.^.D R.                                                                                                                                                                                                                  ",
"                      ^.^.E.R.G D S H S F F =.S S Z =.^ =.~ ^ Z Z 3 *.V >.>.e.9.0...0.>.c.5X5.w. .r.w.z.F.v._.^.~.1X/.R.D E.G F 3.e.A 0.j.b.b.wX>.| ,.e.3..X3.}.3.(.                    /.(.~.~.~.~.~.~.~.R.~.~.R.~.R.~.~.R.R.R.R.~.R.R.R.~.R.R.^.E.~.R.R.^.^.^.E.^.W.E.^.E.^.E.E.R.E.^.^.R.R.R.R.^.R.R.1X).^.E.R.R.D R.E.G G E.S E.E.S S E.S S S W.4.N V L v.F.J.A.f.K.I.HXU.Z.I.I.K.HXK.Z.C.I.J.nXb.FXn.f.f.| ^.                                (.(.(./.;X1X1X^.R.D D ~.R.R.R.E.D D D D R.R.D D D D D D D D D D D D D D D D D D D D E.W.^.R.R.R.R.R.R.R.R.R.D R.R.D D R.D D D D R.E.D R.E.                    ",
"              D N A # hXL.* i : i.AXiXiXbXNXBXBXNXzXjXNXxXxXNX8XaXw.7 6XcXfXF.H.A.J.F.H.cXlXJ.fXL.fXL.lXG.lXlXF.. . 7 A.V.cXcXY.HXK.K.Y.HXHXI.HXHXlXh 9.zXdXdXtXtXsXS. X9XuXx.n 0 , Q b X y.t.t.q.y.y.e.t.i.t.t.!.t.t.r.t.w.r.t.t.t.t.i.t.D.UXt.] * * q.sXtXaXzXzXdXdXdX6XF.6Xt.D.A.w.S.D.t.q.q.i.UX6Xt.< < o * y..XAXAXMXbXAXAXAXAXaXAXAXNXAXAX.X0 o D.K.I.HXY.I.Y.HXHXT.T.P.Y.Y.Y.Y.T.Y.HXY.Y.Y.HXY.HXHXY.P.P.U.Y.U.f.XX  ~.E.H H A V q q p q K E 4.t.y & 6 ; * o.z.j.6Xi.D.D.p.D.D.8Xw.D.8XD.F.8X6XtXH.F.8XyXrXF.tXdXlXlXdXxXcXVXcX) K u #.i.i.H.w.D.w.#.A.A.A.F.i.w.i.D.6XtXi.7.u ] { #.M N                 ",
"        R.1 8 +.OXe.w xXL.; l 7 sXaXpX.Xx.c.z.5XaXNXxXNXxXBXwXwX7XjXP q.hX .f.n.J.A.&.&.J.J.J.V.V.V.V.J.A.o.E 2 # D.H.HXK.Z.K.Y.Y.HXY.Z.I.P.Z.Z.Y.HX&.; h 9 i.#.O.tXeXfXj.S.pX` % ] b * !.JXZXNXZXBXZXJXZXJXZXZXZXZXZXDXVXSXVXZXVXGXSXDXSXSXZXZXUXy { U VXzXF.dXcXxXIXVXH.yXF.5XS.6X8XS.sXaXtXrXsXyXaXtX' . X NXAXaXvXbXAXNXAXiXiX0XsXzXsXAXNXCXZXY i LXT.T.Z.P.T.I.I.T.P.P.T.Y.Y.P.N.P.T.T.T.P.Y.Y.HXT.Y.Y.T.T.T.T.I.C.g 0 +.; r.r.....@.X.k $.w.F.aXjXU O O . yXcXcXxXlXcXHXIXcXcXVXlXw.yXw.H.lXyXyXcXGXGXVXfXxXzXcXSXlXcXGXLXGXLXLX8 % pXyXq.cXcXGXGXfXVXxXyX8XtXxXdXzXcXBXaXzX8.h cXD.sXi.i.*.F             ",
"      , B .XpXbXOX0.yXxXyXu U yX@.+.h p ' ` r *.sXAXbXAXsX7.B L Q n > , B 2 r X.O.6.aX( R  . .6.0.s $.E X.8 . w.lXK.J.K.f C.Z.P.C.Z.Y.Y.Z.K.I.I.K.HXHXlXg #.i.i.i.dXdXcXtXsXi.< y i.y * NXZXzXNXBXxXIXZXBXVXVXVXZXVXNXZXVXZXZXSXZXSXGXVXGXVXVXLXIXi.6.O zXF.G.dXdXyXi.#.q.t.q.q.w.w.j.F.F.G.D.D.D.sXA.i.aX5 R xXD.G.yXF.AXdXsXsX6Xi.6X6XrX0XyX6XAX8.g A.N.N.T.P.I.Y.Y.P.Z.I.Y.Y.T.I.N.Z.P.T.P.P.B.T.T.I.P.P.P.Z.P.Z.C.Z.I.J.@.2 B bXpXD.D.v.j.j.X...9.fXh 7 O $.fXfXfXJ.lXK.cXK.L.G.E ; K S.+.NXw.z.$.g X.+.D.8X6XyXp ; O h w.8XpXxXaX- rXGXcX8XdXxXhXxXhXcXzXhXF.$.A.F.F.yXyXw.r.t.F.S.w.G.8.i.6Xq.r Z         ",
"    % :.AXuXY _ p X jXaXi.y U { r . e L w *.0 W NXLXPXNXNXbX' PXPXLXAX, + 2 iXaXe.bXPXLXZXZXLXZXZXxX+ 2 0.w 9 H.J.J.Y.I.N.M.Z.Z.K.Y.Y.HXY.I.Y.HXI.I.K.K.%.y i #.8.#.i.i.i.p.* y i.p.i * E ZXxXD.yXtXL.dXG.G.F.G.F.6XD.6Xt.D.D.S.D.F.H.F.D.sXdXdXt.ZXo 7 { xXZXVXIXcXdXsXtXsXzXzXlXcXfXcXfXlXlXfXdXdXlXlXVX{ #.IXlXcXlXlXdXyXyXi.A.i.i.A.A.H.D.w.t.7 : l c M.P.Z.Z.P.P.T.P.Z.P.T.Y.T.HXP.P.P.P.N.B.P.Z.T.T.N.P.Z.f f N.C.&.&.F.2 2 CXD.6XF.S.F.z.j.b.j.S.#.; = @.H.V.A.&.p.o.o.} O.Y 2 , 8 `  .` 6XrX9. ./ t.6XfXrXt.c.9.9.y.9.q.9. XsX$ jXZXF.jXaX7.L ! 5...Y  ./ ' *._ ` *.Q I ] t e q.w.w.@.#.{ { 8.' > G     ",
"  D . bX9X9X9XwXbX+ t.zXF.y h 7 7.aXJXZXBXZXBXNXAXZXLX .6XNXe.SXLXPXPXn + AXPXJXZXBXSXJXuXbXCXbXjXDXfXj.a J.j.X.&.K.HXI.C.v C.C.Z.Y.Y.Y.Z.Z.K.Y.K.C.K.K.K.L.H.H.#.} i * U i l } p.i.u & ; w.6XG.G.dXyXyXyXdXdXdXyXyXtXtXyXsX8XyX8XfXA.zXzXD.dXzXaXZX& & o +.i.sXi.UX6X8.9.z.q.9.w.z.D.b.j.D.D.D.A.F.G.yXdX6.h cXtXyXfXfXzXlXxXcXzXlXlXlXzXhXdXtXt.7 o d M.B.f Z.Z.P.P.P.T.T.P.P.B.Z.T.Y.P.Y.T.B.Z.P.P.Z.n.Z.N.s.M.C.c f.k g v.; 8 5.; u : g g h k ..O.h ... . . k X.k g a j h u U @ W JXCXbX:.. ZXZXCXCXNXVXjXNXNXBXBXSXGXSXZXZXBXZX6X- xXZXfXjXsX7.9.t.6.r.q.9.q.r.t.c.t.D.t.!.!.y 4 zXsXw.w.w.i.q.{ 6.J o     ",
"  1 W uXiX9Xc.( e.V *.yXD.a 6 sXBXNX0XBXBXjXBXjXAXaXc.pXuXuXpX9XiXbXDXSX+ bXCXNXSXSXBXZXbXNXZXZXjXxXJ.lXK.cXHXK.K.K.K.C.c d.V.I.HXHXI.HXK.Z.I.Y.Z.Z.Z.J.V.J.H.K.cXcXi.i.i.{ < 7 i.#.h 9 & . < [ 8.w.8.{ @.{ { #.@.O.E R U { +.O.+.+.6.D.D.O.& i.UXUX& & ; . . o 7 ] ( rXtXwX0.@.0.X...$.>.0.q.y.q.5.` 7.q.y $ e e < 7 ; 7 ) 8.8.@.6.6.8.w.7.{ ] o ; o.l l d f B.T.B.P.T.T.Z.T.T.T.Z.P.T.P.P.Z.d.P.B.d.B.P.B.d.s.Z.M.f : k s 8 = % 9. .7.t.8.9..XuXAX5X.Xe.e.7.C - X T r.w.8.6.pX~ @ *.JXCXCXmX>.BXBXmXbXjXjXjXjXfXfXkXxXxXjXjXNXfXVX0.+ fXxXfXxXpXpXxXjXrXjXxXhXhXrX8XhXhXxXzXxXpXb @ 7.6.%.#.@.#.@.#.#.r @     ",
"  , r iXiX0X6Xi.R p xX0Xw.; 8 jXBXwX9.jXkXpX9X7XZXbX XbXbXmXbXgXCX.XOXJX+ bXx.uXCXBXmXbXbXbXZXbXqX7XJ.J.I.J.V.f.K.Z.C.V.v M.Z.U.Y.HXY.Y.K.I.Y.K.Z.P.a.Z.H.Z.K.L.K.L.H.A.H.L.G.o.. * 6 9 & & < < t * * 7 u 7 7 < & & & 7 7 y 7 u 7 < 7 * * 7 y U M o < * 7 7 y t U U U 6.6.{ / E ' ] ] R ' { ' Q ] b 0 < X < < t < @ & b M y < * 7 < 7 & i U i u ; E p.: * a.P.B.T.P.T.T.P.B.T.T.P.T.T.T.d.N.N.P.P.d.Z.B.d.f s.s.V.s.f.d O ; r = y.NXAXjXNXBXBXSXSXLXSXSXLXLXLXSXmXj.D.F.j wXSXLXV 2 | JXbXjXmXmXbXBXgXjXmXjXjXjXgXkXjXjXqXgXbXjXjXNXv.+ bXfXeX0XwXrXjXeXwXwXeXS.eXBXF.fXfXlXkXlXBXI - t.q.w.$.8.#.#.O.K = $     ",
"  + . .X.X.XjXbX5Xc.rXaXsX7 p BXbXhXjXiX9XuXuXqXbXOXOXuXgXjXiXkXbXbXOXCX1 vX+XmXbXgXkXbXjX9XgXbX XfXFXfXHXI.s.U.Z.C.I.I.C.P.I.I.Y.Y.K.V.Z.K.HXHXHXHXHXI.Z.a.K.K.V.K.V.C.p.V.L.L.A.U * @ & M 7 o < 7 ] ' M ] } U U U U } } { [ { { } } } } U y ] M < o * * y 7 < . . . 6 < < < 7 r 9 y t t t t t < < $ < < < > 7 < < M ] U M M U y } y y y } 7 7 & * . o a.N.B.B.B.P.P.P.P.T.B.P.B.B.M.B.d.d.s.Z.d.P.P.v M.v s.s.C.V.f.z ; ( 8 = .XaX9X0XeXrXeXfXF.F.fXkXeXkXhXBXcXFXBXjXjXBXDXhX8 3 -.JXvXmXmXjXbXvXkXmXjXkXbXgXjXgXgXgXgXuXuXbXmXjXbX= CXgXwXwXkXqXeXuX7XwXv.7Xz.z.S.kXeXj.G.b.rXL 6 _ 8Xw.#.#.#.O.{ r # 5     ",
"  + q q b !.OXiX.XuXt.5XS.5 w wX7XgXuX9XiX#X9X Xe.oXmXmXjXgXgXmXmXgXvXmXq }.gXiXmXjXgXuXqXgXgXiX7XeXFXJ.kXn.C.C.K.C.C.Z.I.C.K.I.K.Z.Z.Z.C.K.Z.Z.K.Z.K.I.Z.P.Z.H.K.K.A.L.V.K.H.H.H.yX{ 7 } M #.u.o & y U } ] } U y y y y j [ 8.8.} y } * < * < . o 7 t t 7 u 7 u u 7 7 * * < & u U 7 9 7 u M < M M t * & > @ * u j u ; u y y y y y y } y 7 X . g l f a.f M.M.B.B.B.f B.B.N.Z.C.d.M.B.M.M.d.s.N.d.N.U.s.s.s.M.s.c M.z : X.T 5.$ + bX0X XkXhXfXfXuXhXhXxXxXrXkXxXfXeXfXfXBXFXxXjXjX= 3 | FXvXjXnXgXvXiXgXvXgXvXgXbXgXjXgXgXgXgXgXmXmXiXCX- BXwX XgXuX XS.7Xv.v.eXqXS.v.v.F.v.z.r.j.x.2 + ; D.w.#.o.#.#.U & @ n     ",
"  + + ! L B . V V .Xr.t.w.w 8 jXpXuXjXqXiXjXiX#XiX|.OXgX+XgXgXgXgXoXiXvXe.4.gXvXmXmXkXmXmXCXCXBXNXDXkXJ.s c J.U.s.f.Z.K.HXK.V.M.V.Z.K.T.K.Y.Z.M.M.N.Z.P.P.Z.I.V.K.H.Z.K.H.K.K.K.V.%.A.U & 8.UX} o . } i.sXD.i.i.i.i.i.i.8.i.i.8.u.i.p.p.] o o y [ } } } } } } } } } } } u & o U #.i.i.%.%.p.i.G.} U < . X < i.w.#.#.#.i.i.p.p.p.&.#.%.#.} o g M.M.B.B.B.B.Z.B.B.M.B.f M.M.P.M.v M.P.B.M.N.B.d.B.s.B.s.N.C.s.v c c k s s ; 4 2 V AXuXpXwXjXwXuXfXkXkXhXkXBXjXkXjXxXkXfXmXmXkX+X#X+ 3 3.FXvXgXgXgXnXvXgXgXgXvXkXnXgXvXvXgXvXvXvXjXgXgXCX3 CX+XqX+X+X X+Xv.+XeXb.eXqX Xv.eXz.v.z.r..X8 $ 8 A.%.#.#.#.E : R # W     ",
"  + =.9XaXpX5X9.. p 0X7X8.w 8 jXpXhXjXgXjXuXqXOX#X=XiXgXgXgXgXnXvXgXmXmX$X4.mXmXmXmXmXmXmXmXmXjXmXqXbXBXF.X.f.J.k f.V.I.C.P.P.P.K.Z.Z.Z.Z.Z.B.a.P.K.T.P.N.Z.K.I.I.p.V.L.V.L.K.V.A.f.A.%.g 8.i.U < 8.sXD.i.H.i.i.dXi.L.p.H.i.p.i.i.L.L.cXVX* l #.} } l l l l l u l l } } y * @ < D.yX#.o.&.c &.p.{ y i.U h 7 E @.G.L.A.A.p.p.A.V.p.A.H.L.g * C.B.B.B.Z.B.B.B.P.B.B.B.B.B.B.B.M.B.Z.B.B.B.B.N.d.C.d.s.d.n.s.s.Z.s.O s : ; r ^ 8 gXjXjXjXqXeXwXrXkXfXjXkXjXkXmXjXgXmXmXmXbXkXgXmXmX3 3 4.MXnXnXnXnXnXmXnXgXgX=XmXvX-XnX=XgXvXmXmXmXgXgXmXq bX#XqXuXqX+Xv.eXqXb.eXqXv.wX7Xv.5X7XS.5X5X2 + r D.w.w.[ 9 ; j 9 $ ^     ",
"  , !.6X0X8XyX6X$ r.wXj.5.8 $ qXpXjXjXjXgX|.#X#XgXbXvXgXgXgX#XmXFXmXMXMXvXZ JXMXmXmXmXmXmXjXmXjXjXbXxXmXxXkX$.: s j K.J.C.C.C.Z.Y.Z.C.M.Z.T.Y.Z.Z.Z.V.V.K.Y.K.V.M.p.Z.p.H.C.H.p.%.A.A.L.h #.yXG.i.i.yXD.i.p.H.i.L.i.p.L.i.H.L.dXL.i.p.i.dX* l l } } y l } l l l l U } } M * @ < F.#.X.%.#.#.#.#.dX} H.cXG.%.9 &.cXcXo.[ #.p.%.%.p.p.A.H.9 : Z.M.B.M.M.B.B.B.B.P.B.B.B.B.B.B.N.N.d.f d.s.d.s.N.N.d.d.d.d.c v s.z s 8 ..>...<.+ pXjXwXqX XeXeXqXwXkXjXkXgXjXgXmXkXkXmXkXqXkXvXgXFX3 3 Z MXvXvX=XnXmXMXMXnXnX>X=XnXnXnXgXnXnXnXvXnX#XgXbX3 -XkXqXgXmXeXeX+XqXeXeXqXwXb.v.7XwXeXv.z.7.0 $ 7.@.E e . 9 U h # % -.    ",
"  , y. XeXS.S.w.a jXhX@.| - + gX7X XjX+XgXqX#XoXbXgXgXmXnXkXgXmXMXMXmXMX$XS FXnXnXkXnXgXvXgXmXnXjXbXmXkXjXBXX.T z f.J.f f.I.V.V.V.C.v M.Z.Y.N.K.P.B.M.N.C.V.a.f V.M.p.l a.p.l c l l #.o.o i.i.#.i.i.i.i.L.i.i.p.i.i.i.i.p.L.i.H.L.i.i.i.dXl } } } } } l l l l l y } l u u < * y { X.w.O.O.$.#.D.H.u [ lXc &.V.H.%.k j h j E [ #.@.#.[ 8.j u d l M.M.B.B.M.M.N.N.M.f f B.Z.N.M.f B.s.d.s.d.N.d.C.v f s.z - 9 9 a 9 : 6.e.OX+X+ gXeXv.qXeXqXqXqXqXmXjXqXgXkXgX#XgXkXgXgXgXnXkXnXnXZ 3 >XMX,X*X=XvXnXnXnXnXnXnX=X=X=X,X=X=X,XgX=XgX-X=XnX}.oXkXgXgXgX+X+XqX#X Xb.+X+X X XkXwX7X9.v.x.q 2 ; + @ g @.) [ 6 & % F     ",
"  , Q e.S.S.j...q x.x.9...8 + 9XgXkXgXeXgXeXiXgXCXgXkXmXnXgXmXnXvXmXmXMX3X(.KXMXnXFXmXnXnXmXvXbXvXgXqXqXwXx.5XeXj.F.C.f.N.s.s.f a.M.f l p.a.a.a.a.a.a.p.a.a.N.Z.N.p.K.a.i u k g g g 7 o ; @.i.H.p.i.H.H.i.i.L.i.i.L.i.i.i.i.i.i.i.L.i.i.sXp.& y } } } } l } } } l u u } t < * < #.@.j o.%.%.&.%.i.h O H.&.&.c z H.V.&.l E E j #.{ i.u.{ 7 ; . * i i d.M.c M.x f M.f f M.B.N.v s.x f s.f s.M.s.s.s.d s X O O ; = 2 X W }.OX<.q jX+XuX+X+XqXkXkXmXkXqXkXgXqXgX#XgX-XgX-XgXnXkXnXFXF H JXMX,X=X*X@X*X=X>X,X$X*X>X*X=X*Xh.g.].@X*X=XoX=XmX$XZ FX=XgX#X-XoX+X|.b.|.|. XqX Xb. XwXfXv.e.q 2 6 O.#.i.p.o.[ & $ . 4.    ",
"  + ^ .X0X8Xz.9 V j.5.|  .8 + k.wXqXeXv.qXgXkXqX+XqX-Xb.l.XX+XXXXX+XoX:X/./.3XgXnXmXmXnXgX=XgXvXvXgXiXgX+X7X Xc.hXf.s.J.f.s.C.V.C.Z.d : C.Z.M.x v x f c C.V.C.C.x a.V.&.: ; . O . o . . . [ yXG.i.i.H.sXi.H.i.L.i.i.i.i.L.p.i.i.i.p.i.i.L.dX* * y } } } } } } p.} U U } 7 5 7 h D.H.A.#.A.A.A.&.p.dX* 7 A.&.c x V.x V.M.c V.o.p.j u u 7 O & 7 u * c x f x a.x a.M.Z.v d v f f s.s.M.f x v x V.s.f.: k k = O w . . ^ k.iX#X;.C qXqXwXqX+XkXgXqXkXkXgXgX=X#XgXgXnXgX=X=XnX>XnX=X>XF H ,X*X,X,X,X-X:X:X*X@X,X,X&X>X,X,X=X-X,X,X=X,X=Xb.h.H R.nXg.*X-X-Xb.*X$XoXgX-XqX+Xk.v. X0.v.5.e.2 $ > @.) [ j y o . X $ 1.    ",
"  , ^ 5XsXsXz.w Y r.T r q q - r.x.9.9.v.v. Xx.0.l.<.l.$.<.-.-.<.g.3.h.h.(./.'.3.l.|.+XoX|.$Xl.k.v.k.x. X XeXkXv.X.X k c s.d v s.K.C.s.C.M.K.Z.v d z c l x V.x l %.o.o . 9 g %.l l c H.H.#.7 #.i.#.i.sXi.i.i.i.i.L.G.L.i.i.p.i.p.i.i.p.i.i.dXu.* . & y { y y y * : o X X . . . * j l L.L.A.%.&.&.o.H.7 u H.l z %.H.K.H.H.A.V.c w.i.} U 9 . o } o * : l p.V.x V.M.a.V.v d d.M.N.f s.v f M.V.s.c g s s z E ; = 9  .0.;.<.|.}.3 ..kXeXv.7XqXqXgXiX+X|.XX=X#X=XgX#X$X=X-X=X-X-X-X*X-XF H *Xb.h.,X,X,X,XnX<XMXKXKX*X,X<X,X,XKXKX&X*X-X&Xn.&X^.(.*Xb.b.-Xb.b.g.l.XXXXk.l.3.|.#X<.3.e.<.iXB 2 $ . . . . + y I < 4 W.    ",
"  > 0  Xq.X.O T 8XrX0Xc.( = 2 V T z. X7X X X+XqXqXkXkXnXgXgXgXnXkXnXmXnX(.(.&X-X#X$X-XnX=Xl.oXgXkXmXBXmXBXBXjXxXjXpX5Xj.z s f.s.f.d.M.c d d c d z : : v * . i u u * ; o.C.V.C.Z.N.Z.Z.C.L.H.* y X #.i.i.p.p.i.p.i.w.$.%.p.i.8.D.i.i.i.i.u.p.p.u.M X o t o < ] AXNXZXVXIXZXZXIXIXZXxXi.dX&.j O.k o.#.7 O ; h { O.g O.[ 8.8.i.D.6Xi.UXt.u.{ 8.u.#.[ y X o . : c f M.x v M.f P.x v c d d z c c c . d z z f.h ; 8 Y ..V B =.^ n q l.l.l.<.l.}.oX}.#XgXoXh.h.}.}.%X`.`.1.F F m.m.m.m.m.^.~.^.^.&Xh.h.G 1.].@X&Xh.&X*X{.h.h.*Xg./.;X/.4X(.(./.(.E.m.^.^.[.H H 3.Z Z Z Z 3 | Z a A ^ ;.,.q + X P 6.7.q.q.sXi.< # G     ",
"  > 2 x.Y T 9 $.6XjXjXv.V 8 V gX7X XwX XwX9XjXkXqXkXuXkXkXnXnXFXFXmXFXKX^.(.KXFXmXmXvXMXmXvXDXFXFXDXDXDXFXBXkXmXbXBXNXxXrXeXf.s.V.f c v v z g l c : : j * ; j y o O p.H.C.d.f M.N.N.M.M.c V.. l dXH.i.p.i.L.i.dXtX8XeXhXdXcXzXVXVXcXlXcXcXVXdXdXNXAX% X aXLXPXPXLXLXLXPXPXPXLXLXLXPXLXGXIXG.. u A.j : 9 . . 7 y i.sXyXIXGXGXGXGXIXNXIXGXGXGXGXIXVXIXxXtXt.O k l x v f f f s.v z z - g - O J.s c z d - 9 9 a O . = x.$XiX3 , + k.mXjXmXnXvXCXMXMXMXFX=XKXMXMXKXDXKXFX*XnX3X;X3X/./.4X3X<X3X3X3X,X,X,XKXKXKXFX*X:XN h.:X:X,X<X<X:X<X<X^.(.4X;X;X&X;X&Xh.=XMXJXFXgXbXl.<.<.,.oX0.| w # $ S.6XF.D.w.q.8.[ t @ N     ",
"  q $ q Y Y ; ( 9.5Xc.5.q B ..9XpXgX XeX+Xv.k.+X7XqX#X+XqX-X-X-X-X-XgXvX&X(.3XkX=XgXXX+XvXmXvXgXF.kX+X+XwXkXeXwXv.7XeXS.5XzXzXo.z z d d d d d o.: & X < r . < 7 ; O k x C.C.M.B.Z.N.Y.Z.K.a.V.V.HXp.d L.i.sXG.i.$.eXF.F.D.G.A.yXA.j.j.H.G.tXyXtXUXNX% !.PXLXZXAXsXsXsXAXsXdXD.D.G.dXyXyXdXNXi.K O.h tXF.9 NXzXjXNXdXtXaXNXdXdXdXzXzXlXlXBXcXtXcXdXdXxXzXIXVX{ X * d x c v f c H.* . O # : &.z V.z . + + $ , q Z ..e.|.e.2 = = l.-X-X-XkX#X+X-X-Xn.*Xn.b.*X-Xn.-X*X-X&X-X,X&X,X&X/.2X*X,XFX<X<X<XMXKXKX:X&Xn.h.h.n.<X&Xm.&X&Xh.&X-X*X&Xm.&X,X>X>X*X-X=X*XXXMXKXl.XXXXXXl.l.gXmXjXT + + z.b.A.$.o.#.#.R 9 @ N     ",
"  ^ + ; / ( J ..0.r.z..Xr 8 7.7XwXeXv.v.7X7XOXOX+X#X+X#X#XoX#X+X$X+X-X=X=X^.2X,X=X=Xl.nXnXnXvXgXnX=XgXgXwXkXwXwXfXqXfXeXhX8XrXfXs g d s : : X . . # UX!.AX*.@ @ X 9 X &.x f Z.Z.N.Y.Y.K.Z.M.Z.Z.M.x * %.sXdXyXdXyXyXF.yXeXS.D.8XfXfXfXfXG.yXlXdXAX!.> PXPXZXaXNXNXNXNXNXxXVXxXxXzXxXxXzX0XtXZXSX6Xh SXyX9 xXhXrXaX8X6XrXsXsX6XD.aXhXrXaXtX0XyXfXzXsXxXdXsXxXZXi.. . : s z g : . O O . . . . g k g X.% + w p l.l.-.3.OX!.2 , 2 oX-X=XgX-XgX-X-XkX-X-X:X,X,X,X&X,X-X*X*X*Xh.-X,X/./.4X&X*X<X*X,X*X&X&X&X:X&X;X*X&X4X*X&X&X&X&X&X&X&X&X^.(.&X&X[.[.[.{.[.@XXX*XXXg.].`.g.h.g.|.4.l.|.+ X  X9.S.D.8.O.O./ w $ S     ",
"  3.+ r >. .( ..v.8Xz.5.q r 9.9Xv.v.+X7X9X7XqX+X+XqX#X#X+XoXXX-XoX-X-X=XXX^.3X=XnXl.-X=XnXgXgXgXkXvXgXkXgXjXwXqXkXhXhXfXfXeXhXxXh - X.s - : # O  ..XAXAXAXAXn < ) { o s v V.M.M.M.a.v v f c x N.M.x f.D.dXzXyXG.yXG.yXlXxXcXcXtXfXfXxXlXfXG.F.tXCX] b PXLXAXbXCXNXNXNXNXxXdXVXcXVXcXVXVXxXxXNXVXGX0.cXVX; w.rXhXzXxXzXxXxXpXhXaXpXhXhXhXfXhXxXtXzXD.yXxXsXdXNXzXh . @ X . . < { NXNXsX6.q.R ; o.k ..+ a <.-.3.l.}.,.uXe.2 2 1 x.+XXX=X-XkX-X=X,X-X,XFX,X-X-X-X,X:Xb.,XnXb.&X<X/./.3XnX*X-X&X-X:X&X:X&X&X:X<X&X&X&X&X,X&X&X&X&X<X&X&X(.(.&X&X*X&X@X[.@X[.{.].].@XXX].g.}.3.h.| }.<.+ + x.z.D.A.@.)  .W $ > S     ",
"  !.+ J c.z.5.@.5X8XwX5Xq p 5.0X X7X7X XqXuXqXqX#X#X+XiX-X$X=XXX}.}.g.3.G ^.;X,XFX=X=XnXnX=XnXnXnXkX#XqXkXjXkXjXjXwXeXfXfXfXyXNXO.O 9 ; h 7 5 V uXbXvXmX!.!.0 < ` ; . . : d l v : : o : - : : &.d V.lXlXlXtXyXtXlXyXfXtXlXcXlXxXcXlXfXcXlXxXfXfXAX0 AXPXJXAXxXBXNXNXNXVXcXxXxXVXNXVXcXcXNXcXxXxXVXhXX.0X$ D.aXfXjXhXhXaXxXzXrXrXjXhXfXjXhXhXaXzXxXxXxXsXdXdXq.] I ! . # 8.NXxXNXVXxX0X6XwXS.9 % $ 6 = ,.<.<.| 4.}.Q.OX^ , A , vXgX-XnXgX=X=X-X-X-X-X-X,XFX,X*XkX*X=X-XnX,X-X4X/.4XKX,X*X&X*X&X&X&X&X&X:X;X,X*X&X:X&X&X;X&X&X/.n.*X;X(./.^.{.&X&X:X[.[.@X*X].].XX].`.g.h.h.3.3.| oX+ + + w.A.o.[ E h e J # D     ",
"  4.% w 9.z.z.z.rXfXjX5X5 q 9.7XwX7X7X7XeXqXiXqXqX#X#X#XgXMXoX| F H N A 4.-.XXgXnXnXgXvXvX=XgXmXvXqXiXkXeXkXkXkXwXwXfXeXF.fXrXBXT = . R h . 5 + V ,..X9X*.q < @ R pXsX6X*.' O . ; o k k d l : c : O.dXtXyXtXzXxXtXtXzXyXxXcXdXlXlXlXcXlXyXlXlXfXhX6 JXPXVXNXxXcXNXNXxXcXcXVXVXxXcXzXxXxXNXdXxXzXcXcX. pX$ 9.hXxXxXhXaXxXtXrXtXrXxXpXhXzXrXhXaXyXaXVXVXt.Y U O h 6 aX8.i.VXyXD. X!.t.t.r.8X8X:.4 . + 3 | g.-.4.F g.|.V . 8 q 2 gX=X=XnXkX#X$X=XXX-X-X=XnXFXnXnX,X-X&X,X,X-X-X<X/.;XMX,X:X:X*X&X&X&X&X&X&X&X*X:X:X:X:X1X:X;X&X&X[.;X;X(.(.;X&X&X&X:X:X*X*X>X*Xh.g.`.].].4.h.g.Z g.mX, $ L c.@.E j o.E h { $ D     ",
"  -.X r t.S.9.@.8XhXrX5X8 w 0.5X7XS.7XwXwX9XqX+XqX+Xb.+XgX#XA 3 -.=XnXMX>Xm }.=XnX#X=XgXgX-X=XgXkXgXgXgXkXwXjXhXfXkXkXfXfXwXfXxXT ; 0.@.9.q.t.r.' J . . y ) # . sXaXiXaXAXNX5XD.O * c g l d l H.$ h @.G.zXxXfXcXlXlXlXzXcXlXG.fXlXfXG.lXfXfXeXfXhXw PXLXVXxXxXVXVXcXcXcXxXxXzXcXxXxXxXxXVXzXcXxXVXVXO.w.; 6.xXhXaXrXtXaXyXpXrXpXfXrXrXjXzXyXtXxXdXdXcXtX. ; 7 R i.J i.xXGXi.t.sXyX0X6Xc.r.0Xq.. ! e.|.b.-.g.-X}.>.T R 9.fXfX1 e.gX#XkXvXgX-XkX-X-XnXnX-X-X-XnXnX,Xn.-X<Xb.*X<X/.;XnX*XnX>X=X*X*X;X:X&X:X:X&X&X:X&X&X1X:X:X&X&X<X&X^./.(.;X:X&X&X[.*X*X&X].'.*X[._.1.F 1.1.g.| b.iX+ , $ p r K K [ [ 9 g 2 D     ",
"  -.% B 0XS.$.T 8X8X0X6X6 5 5.S.v.0X7XqXeX7X XqX+XqX+X=X=XXXA -.FXFXMXmXvX3 $X-X#X=XgXkXgXgXgXgXgXgXwXgXgXjXkXhXkXkXfXfXfXeXwXBX8 T LXSXZXNXxXNXzXaXaXw.. 7 6 _ .XiX!..XOXaXaXZXi.; l u X & } * X 5.@.w.VXxXtXzXzXlXxXzX8XfXtXfXlXG.fXfXlXhXyXxX6XJ PXGXBXxXNXVXVXNXNXVXxXVXcXxXxXxXzXxXxXcXdXdXcXVXF.8.O J NXpXyXyXaXpXpXhXrXpXxXjXhXBXtXtXxXtXtXtXtXxXh $ # # < @ i.NXtXA.yXyXrXrXpXrX8XsXE y zXCXNXCX+X#XCXCXT T lXlXfXxX8 ~ gXgX-XgX+XgXgXgXkXnXmX-X=XnX-X=X-Xb.,Xn.-X-X&X/.;X,X-X*X=X*X*X&X&X&X*X:X<X*X{.[.;X&X&X;X[.&X<X&X&X(./.(.&X&X^.&X:X1X[.XX'.{.{.g._.].g.4.1.4.-.<.7.. + # X , > . . . w P 7 E.    ",
"  4.X p c.c.$.O.8XaXpXsX8 w q.wXrXfXrXv.eXwXuX7XuX+X+XqX-Xb.kXgXFXFXbXvXgX3 $X#X-XvX=XgXgXnXkXgXgXgXkXkXjXmXkXjXhXjXfXkXhXkXhXcX$ D.BXhXS.r.z.v.S.c.yXNXD.' i.NXbXsX6X!..XiX0XpX8.u : g : * @.{ r .XpX9.6.yXNXzXtXxXVXxXzXtXlXlXlXtXlXSXlXcXcXVX' y PXcXzXzXcXVXxXxXcXNXVXNXxXxXcXxXxXxXxXcXVXzXyX{ tXfXp T xXuXpXpXrX0XxXhXhXxX8XaXjXjXpXrXrX8XsXyXhXzX0X4 . . @ b IXNXxXxXw.G.fXjXfXaXzXxXE 9 w J L ( ^ V W Y O @.H.H.A.G.L ..gX-XqXnXnXgX#XvXnXnXkXkXkX=XkX-X-Xg.-X,XFX-Xa D ].vX>X-X*XXX*X*X*X*X:X*X:X:X:X:X:X&X1X&X1X&X;X{.&X2X/.(.&X&X&X*X:X[.[.&X].{.'.g.].h.1.g.h.-.!.,.Y ( = . + @ 9 Y ) U D.+.y /.    ",
"  4.X Q  Xv.0.w.yXwX0X6Xw r r.c.v.@.v.jXeXz.v.b.j.+X+XqX+X+XBXmXgXmXmXgXvX3 9X+XvXgXgXnXgXgXmXkXjXgXjXkXkX7XfXjXjXwXhXrXfXwXwXhX6 S.z.9.9.c.c.c.6XD.rXrXt.6XpXaX.X6X.X6X9X6XAXsX9 * g h * 9 q.t.5..XAX!.. ; w.BXxXxXxXdXVXtXlXxXfXlXlXcXVXxXlXxX7.6 LXIXaXzXxXcXcXcXxXcXVXxXxXNXxXxXxXzXcXxX9.A.O.E GXF.s w hXfXhXhXfXpXpXhXjXaXrXpXrXfXwXwX0XfXrXrX8X8X0X6X) ` @ 7 cXG.cXIXH.F.rXrXD.S.D.t.+.4 0 t.iXiXsX0 . . ; #.p.p.p.} y._ XXk.XXgXvX-XgX#XkX-X-X-X+X-X=Xb.-Xb.-X-XU.b.N 8 a nX=X=XXX@X*X*X:X*X*X*X*X*X:X:X[.1X1X&X1X;X&X:X:X2X/./.;X[.[.&X*X:X[.@X'.{.].{._.h.1.1.4.F Z ;.I Y ; 6XS.w.A.D.tXyXu y & /.    ",
"  -.X / 5Xt.6.) v.S.c.z.r w 0.@.p ..p v.$.T .. .T <.X.l.k.+XuX#X-.l.=Xb.oXA XXjXkXnXgXnXkXgXgXgXkXjXuXkXhXqXkXjXfX0.r.5.z.S.F.xX- J 5.T >.5.0.6.z.D.F.t.D.aXsX5X.X!.6X!.6XsXpX' & h : * 9 9 0 ;.,..XsX{ # ; . ( tXxXcXzXcXlXfXlXfXlXlXlXfXlXtXxX*.< 8.PXNXaXxXNXNXxXxXxXdXxXxXxXzXxXzXzXlXzXyXfXxXdXw.X.T X jXrXrXrXwXsXrXhXhXhXaX6X8X0X0X7XwXwX0XeXF.eXwXrXlXVXt y IXcXcXdXdXtXyXF.F.yXt.7XpX .>.bXNXNXZX!.$ @ u [ p.i.dXsXJ t | g.3.oXgX$X}.#Xl.b.b.XX+X-XoXXXgX-XqXqX*X-Xf.H 3 +X-XXX*X*X-X=XXX*X*X*X&X@X@X:X:X:X1X1X1X&X&X&X&X;X/.(.&X&X&X&X[.[.[.{.).).{.g.h.h.1.F -.| A +XT $ 8 sXt.r.w.8.w.q.t y 6       ",
"  =.% h 7.q.@...( z.c.c.q 8 K ( X.T T ..p ..0.X.X.T ^ >.>.| >.<.| >.A Z -.A >.gXl.oXvXjXmXgXkXgXqXgXjXjXjXkXbXjXqXz.7X5XT w.fXhX. 8X0Xc.r.z.D.5Xq.D.8.tXNXNXuX9X0X6XaXsX6Xi.K 9 E #.o.@.y U K _ ' !.t.t ; ; 4 . ) VXVXzXfXG.G.fXlXyXfXfXlXlXlXzXu.> . LXVXxXVXcXVXVXVXVXxXxXNXcXxXxXxXzXhXhXxXzXcXcXD.O.Y % 6XjXjXxXaXNXNXbXNXNXBXxXjXNXxXjXjXhXxXhXhXjXjXhXhXNXq.M GXxXzXxXdXtXhXyXyXG.F.xXVXv.0.bXjXuXNXNX. o #.p.p.i.L.L.* t e.%XC A oXbXvX#X-X+X+X<.-XmX-X+XkXb.b.nXkXb.m X.| h.-X-XgX=X*XXX*XXX[.{.@X:X:X:X:X1X&X[.&X&X&X[.&X:X(.(.&X&X{.&X[.{.{.{.).).G h.h.1.1.4.1.3.A 8 2 2 . ` F.8.w.$.6.6.P b <       ",
"  =., 5XsXsXD.z.w.0.t.z.h 8 X.$.O.w.j.j.l.j.v.v.b.r.b.+Xb.$.l.v.b.b.j.g.Z a A p a T >.+X+X|.|.+Xl.e.|.b.v.x.<.0.... 5.t.p r ..K O h h 9.@.@.q.6Xw.#.6 / sXuX5XpXuX6XpXsX' . . y 9 o h #.. o 7.bXt.UX< X . . ; . h VXtXNXcXVXVXcXVXlXyXfXH.F.G.sXsX. . . yXtXdXyXdXdXxXdXdXdXsXyXyXyXS.5XD.D.D.w.t.D.c.+.5 ; e aXAX6XsXsX6X6X6Xt.e.t.t.9.9.>.0.9.9.7.r.e.9.9.e.y.Q 6 NXyXt.tXxXAXuXwXwXeXz.xXSXkXv.kXuXuXAXZXu.7 i.p.i.p.p.i.t ] e.e.~ ,.iXbXe.e.9XiXqXqXkXiXb.jXbXqX+XkXkXg.X.T X.b.f.b.l.l.l.l.h.].].].*X:X[.*X[.*X&X&X{.&X{.).).&X(.(.^.m.m.G G m.G S H G h.h.F G 4.2.3.3 8 1 2 . ! D.t.X.O.@.{ { U M 4       ",
"  A I BXZXGXVXxXNXzXsXpXh ; w.@. .j.@.( X.T @.T <.>.>.$.a T T T T <.k.....2 + | l.b.S.9.8 q q T e.r.e.0.0.j.c.z.7X9.5...R q.Y t.X.O.w.#.w.A.z.6.#.9 o 4 r U O.9.h % E { { { @.i.VXSXVXcXVXZX$ R IXZXVXVXNXNXNXzXzXyXF.VXGXIXGXGXGXzXS.xXVXD.sXNXt.:.xXGXGXGXZXVXVXdXi.sXF.zXtXF.zXzXcXBXxXNXzXS.hXtX` R r 7 & . J sXAXaXjXjXjXjXjXjXuX0XxXBXrX8X0X0X7X0X6X0X5Xt.o X U { y.8.y.e.t.t.e.t.6.z.c.pXeX7XS.S.sX0XaX8.{ } } } j 7 O ` p a Y p X.X.a a ; a Y  .| T a T X.p a E p a $.z s.n.n.n.d.n.z H s H H H m.H m.m.H H F G h.m.H G ^.(.(.E.G G H H F F -.].].].@X].4.XX<.g.oX3.1 , 1 5.0Xv.D.D.@.) u.' ] b 6       ",
"  q p 7XyXBXVXfXtXrXsX5X( 6 p 9 a r w X.h ( j T - 2 s p a T >.>.<.qXqXqX+XL - >.S.jXhXkXl.+ = BXSXSXDXBXVXDXSXBXBXVXBXcXrXwXjXD.K 6.xXO.o.U 7 7 & 5 4 . ' . K U cXD.lXIXIXIXGXGXGXGXGXcXLXGXo X.IXVXcXzXzXxXdXxXzXyXdXyXzXF.8XrXyXyXhXxXzXxXxXBX. 0XPXLXGXPXGXGXIXIXxXGXSXcXNXGXSXZXVXSXLXGXGXGXSXSXVXaX= B > .XZXJXZXJXSXSXLXSXZXBXjXjXDXNXkXjXjXbXmXBXBXNXaXxX6 { UXq.G.xXfX6X0Xr.8X8XtXzXhXVXVXVXBXVXBXNXNXVXVXNXaXi.K X r.SXwXj.j.j.j.G.G.fXrXfXF.S.F.F.z.j.. O h 9 i &.V.f.s.z v z d.n.B.n.n.n.n.d.z H n.h.h.g.XX,XnXnX,X,X<X*X3 N =X*X@X*X*X>X*X*X*X*X].XX@X%XA -.#XgXl.- 2 9X7...D.A.w...{ 8.7.U 6       ",
"  0 = @.6.D.yXw.w.w.8XD.0.; = a @ = r 8.o.k ; T ..<.<.l.XXXX|.+Xb.l.XX<.0.V 2 gXbXjXjXkXjXT - ..BXhXfXfXfXv.eXeXeXeXeXeXqX0XuX7.p ( h & . . ; ; o o O y { dXzXxXVXdXlXlXtXlXzXcXzXxXxXBXIXD.O fXVXlXfXlXxXdXtXfXtXyXyXxXzXxXzXzXtXtXfXtXzXzXfXZX9 r GXhXlXSXjXtXtXNXdXzXeXeXhXhXxXjXVXeXxXfXjXeXxXhXhXjXB r > aXDXDXJXZXBXNXbX|.oXiXiXiXOXk.gXiXqXqXgXbXuXiXaXzX8 NXeXv.w.A.fXyX5.q.xXxXcXVXVXcXcXcXxXxXzXdXzXcXxXNXxXNXsX& 6.CXl.b.gX+XF.j.b.G.fXxXhXeXS.j.j.kXz.9 a g ; z f.z z n.C.n.z n.N.n.B.U.U.n.X.N F F &X[.-X,X=X:X*XXX@X*XA G {.).).[.@X[.{.[.[.XX@X].$X}.| }.|.XX}.2 2 ~ _ 5.6.O.+.@.5.t.u.R 7       ",
"  2 $ h @.w.w.j.D.F.yXj.r.$ h R % @ 8 h $.8 q.c.v.l.l.k.XXb.}.|.oXoXoX+XoX2 2 JXjXiX0XwXuXjX X XjXkXeXeXwXwXrXwXrXeXwX8XfXpX0XjXJ ; ; O $ 7 o h h 6Xi.dXxXxXdXlXzXdXzXxXtXtXlXzXtXlXzXxXzXU X GXVXlXlXzXlXcXxXtXtXtXzXxXtXtXzXxXyXtXfXxXNXzXrXxXq _ BXcXNXzXNXBXBXNXxXAXbXxXxXjXxXBXBXBXNXjXxXBXjXhXjXhX_ 2 3 mXDXBXmXqX+Xl.,.;.bXmXiXiXOXjXgXgXkXqXjXjXOXiXaXaXX 0XxXxXS...q.q.t.A.yXlXlXlXlXzXzXzXlXtXtXdXdXxXdXdXtXzXdXt _ JX|.iXkX+X7XJ.J.H.F.b.b.S.b.X.F.F.fXD.; : 9 a z f.s.s.C.C.n.C.B.n.n.n.B.n.n.n.f.m.g.-X'.=X>X>X*X=XXX[.H ,X@X[.[.'.].].[.XX].}.[.%X].].h.$X}.l.l., + ~ 0.5.0.) 5.>.7.` J U 7       ",
"  q 8 ( X.#.w.w.w.w.j.$.q.e ; O O $ o ; h 7.9.y.x.e.l.l.k.|.|.|.|.|.oXoXiX^ 6 CXiXuXwXwXwX7XwXwXwXfXwXwXwX0X0X0X8X0X8XeXwXeXwXxXh p O.- o . i.G.H.xXzXdXyXyXtXdXzXlXzXzXlXtXyXxXlXhXzXzXxXsX: GXcXcXlXcXhXlXxXtXhXcXcXzXxXxXhXlXyXyXzXxXlXeXfXhX8 5.BXNXxXxXjXxXNXNXzXjXxXxXxXBXBXBXBXmXxXjXxXxXxXhXhXjX*.4 V LXDX$X=XXXXXgXgXmXjXBXqXb.v.mXbXaXjXjXjXjXjXbXOX^ J 0XeXG.8Xi.i.t.w.i.D.A.F.A.D.yXdXtXtXtXtXaXaXdXtXzXzXaXtXU / LXmXqXv.b.j.j.b.n.n.D.F.v.l.l.b.b.X.F.h O : X.V.J.s.f.s.n.C.C.n.C.B.n.d.U.n.H z H `.$X%X:X>XnX@X%X@XXXN @X[.@X@X@X[.].].].].@X}.].`.].%X].2.l.oX1 + -.0.>. .( (  ./ { ] K w       ",
"  n t.j.$.E w.A.%.$.D.w.#.6.9 ; . O o r  X|.e.|.v.k.e.l.|.k.}.k.|..XoXoXoXe.p CX0XqXqX5X7X7XeXeXwXeXeXwXjXrX7X8X7X7X8XrX5X0X9XjXI - 8 9 * H.dXdXlXlXtXtXzXtXhXlXxXfXtXdXaXzXhXlXfXtXzXzXBXr.h VXxXdXzXcXlXfXcXxXtXxXxXzXzXcXfXyXrXS.fXzXzX8XtXjXp 5XSXBXjXNXBXNXxXVXBXBXcXbXmXxXBXVXBXBXmXjXxXbXbXNXjXjXe.2 C JXgX-.#XkXl.8 mXLXDXDXkXb.+XBXCXCXz.( e.NXjXuXbX9.jXhXH.F.sX8XD.F.8.t.D.D.D.F.G.t.yXD.F.sXsXyXyXsXyXtXdXtXxXt.4 ZXz.v.7Xz.v.F.F.j.j.F.F.b.v.j.A.F.n.$.s h - : k z s.n.n.s.n.C.C.n.n.d.n.n.s s h.h.=X@X$X=X$X@X%X[.[.].F @X@X].[.[.%X].].`._._.[.%X].`.%X#Xl.l.l.;.+ r r.9.r.w.{ O.[ ' R / 8       ",
"  q / D.D.w.[ E h g #.w.8.8.7 o $ R J ..r.,.T e.|.k.e.k.k.k.k.x.|.|.|.e..X;.p BX0X5XqX X7X7X7XwXqX7XS.0X0X7X7X8X5Xv.8XS.7X8X8XpX9 O h U u cXL.dXdXlXdXtXzXlXzXzXlXtXtXtXrXzXzXhXzXxXlXxXNXsXh SXzXyXzXtXtXfXcXfXtXcXxXfXxXzXtXtXrXtXfXfXfXzXaXjXe e.BX6XxXBXNXBXBXZXBXNXBXNXxXjXBXbXxXBXBXxXmXBXjXxXxXBX X0 iXJXiX~ | -.F l.#XkXDXDXkXjXCXBXZXbX6 2 .  .NXjXbX X XNXD.A.G.D.6X8XO.$.z.D.D.D.D.q.D.xXtX8X6X6XsX6XF.yXyXrXxXw.& NXsXyXyXfXzXeXF.b.j.z.j.j.j.f.f.f.z [ : U 9 E s d z v s.s.f.s.z s.d.z H H s D n.g.}.%X%X}.].@X@X@X}.H F >X@X].[.XX].].].].`.g.`.XXXX}.}.XXl.<.3.e.1 + 5.5.w.$.@.O.#.+.U R 5       ",
"  C Y ) K y y 9 w h y 9 9 9 . p t..Xt.r.e.e.0.e.x.z.9.l. Xk.e.e.l.e.|.e.t.>.! NX0X9X5X7X5X7X7X9Xv. X7X8Xc.S.S.7XS.5X5X5X5X9XS.5X8 = 9 o * lXdXyXdXdXzXzXfXyXtXfXdXhXhXxXhXrXhXfXhXxXhXxXNXxX9 VXfXlXlXfXhXtXhXzXxXxXxXzXxXzXtXtXzXxXhXA.eXrXD.pX) 7.xXBXhXCXZX9Xt.uXSXCXbXNXBXBXBXxXbXBXmXmXbXkXjXjXkXbXr.3 JXCXgXmXgX+X+XFXkXA <.gXmXjXjXx.pX6 . w w . pXbXmXjX9X0Xr.q.8XpXD.t.D.t.t.tXaXyXsX@.w.zX6XsXyXyXyXyXyX8XsXyXyX0.; BXxXaXpXNXeXz.j.v.z.v.j.j.f.A.H.f.* O h D.0.kXZ X.s X.s s s s d s s s s z H n.n.m.`.$XXXXX%X}.$X@XXXN H =X].].@XXX].XX].}.`.`.`.}.Q.3.g.XXl.e.g.e.2 2 7.) Y ) +.` ` { { M 2       ",
"  Z e e h [ [ { { +.O.E & . B r.r.,.y.k.e.e.e.e.x.x..Xe.<.x.|.|.|.x.x.|..X7.e NXwXpX7X5X7X9X9X X X9X Xv.5X8X5X5X7X6X7X5XS.5X7X7X- = O % i lXdXL.dXtXaXtXfXtXyXtXzXxXyXzXhXhXfXhXfXfXhXrXpX6.9 GXlXtXhXVXcXfXrXNXcXjXVXNXzXxXrXtXzXtXhXz.F.S.7XhX7.J BXBXZXCX=.= . . y.SXNXjXxXBXBXmXbXBXmXmXbXkXmXkXkXBX9Xn JXCXmXmXCXmXCXCXMXbXbXmXbXuXuXjXqX|.,.I jXc.r.e.jX0.q n aXaXtXtXxXzXzXhXzXzXtXNXdX8XxXtXzXzXtXtXpXyXyXrXF.0XsX7.4 NXy..XiXiXZXZXAXaX6X0X.X XD.fXA.&.H.G.F.b.uXbXI 8 0.j.X.a X.l.X.X.X.a a ..k.}.!.4.}.}.}.}.].$X@X`.`.m H ].].].`.`.'.XX].}.}.`.Q.Q.3.3.3.3.Q.e.k.e.$ 2 2 6 8 = 4 0 6 r w > N       ",
"  ,.+ > O o o . . . . o & & 5X.Xe.e.e..X!.t.k.e.!.|.e.e.!..Xx.x.r.k..Xx.|. .( hX8X0X7X6X7X7X7X5X7Xv.S.5X7XS.7X7XS.S.S.8X5Xz.8Xt.@ . O o i.lXL.G.lXfXtXrXrXtXaXrXpXrXrXrXhXhXaXfXpXrXfXpXuX0.a SXhXfXxXVXxXfXyXhXcXxXzXxXzXzXtXrXwX8XF.eXeXX.7XxX<.B ZXNXaX> X 2 6 6 . ZXBXBXmXbXBXmXmXBXmXbXmXBXbXjXjXmX>.A JXJXmXmXjXvXmXvXAXvXvXMXvXgXgX#XjXbXjX+XbXBXbXOXOXV + r LXbX0XsXyX0X8X0XpXrX0X0XhXlXsXG.zXzXaXyXyXyXyXyXtXrXpX7.& aX5X;.y.y.!.iX!.!.%XiXiX.X8.$.z.hXDXfXx.0.pXt.2 % T z.e.| T l.v.b.| | -.<.e.}.%X}.}.Q.}.}.}.%X=X}.`.q a @X}.`.].`.].}.}.}.].Q.!.Q.2.3.3.}.!.e.e.^ 2 2 r B r w r 4 < > 6 4 W.      ",
"  y.+ X P ` 5.7.9.t.t.] @ $ r.r..Xe.3.e.!.t.t.e.e.y.y.t.r.,.e.k.k.x.|.r.x.5.+.0X8XS.S.S.7XS.v.S.7XS.S.7Xv.S.S. Xv.S.v.5Xv.v.v.( . J # o L.L.G.tXlXtXhXzXzXzXxXaXrXyXrXrXrXrXrXtXfXwXjXuXfXwXp BXhXfXxXfXfXfXfXhXBXjXhXhXhXhXhXhXrX0X6XwXkXrXxXBXr.p DXNXpX*.+ X X . V CXBXmXxXbXmXxXmXmXjXmXmXmXgXgXgXMX<.Z PXJXmXmXvXmXnXvXvXbXAXvXmXmXbX3.gXgXbX#X+XgXOX.XvXAXp 2 NXNX0XjX6XrXpXrXrX6X6Xt.D.tXyXyXsXsXyX8XyXrXrXyXtXyXdX@.9 aX.X6XpXaXZXAX!.] ~ b n q = j qXwXjX9.e.5X Xy.J # . Y 5.( - Z | | -.>.,.;.3.e.3.oXoX}.}.%X}.g.3.g.2.Z 3 $X}.`.l.`.}.g.`.`.}.Q.Q.!.3.F 3.3.3.<.~ > $ 2 B B J r 5 J J 6 6 4 ;X      ",
"  4.X 6 aXcXVXVXVXZXZX7.X $ t.z..Xy.e.e.t..X6X.Xr..X X9X X0.e.z.e.|.|.x..Xc.8 xX8XS.S.7XS.S.7XS.z.S.5X7Xc.S.7X5XS.c.v.v.v.z.z.8 P D.; . G.L.lXlXlXtXtXhXxXzXxXzXaXhXtXtXjXjXfXjXjXhXjXuXjXbX8 FXhXkXzXfXxXkXjXxXfXhXhXxXtXfXfXzXhXF.fXxXrXcXpXrXv.8 NXwXjXaXaXCX! ,.DXBXjXbXmXbXbXmXjXmXmXmXkXmXbXbXvXmX<.3 MXFXmXMXvXvXvXvXvXvXvXmXMXmXmXvX$XmXgXoX#XgX|.OXbXCXbX= . bX6XS.0XS.6Xt.r.5X9X0Xz.6.w.i.D.A.A.yXsX6X7XfXlXdXtXE : ZXpX.X!..XUX!.y.!.y.7.e B - 8  X7X.X5X!.t.y.6X7.$ - X 5.<.0.e.5.V <.<.-.k.|.3.;.}.OX%X.X%X-.3.3.l.l.F 3 !.].`.`.}.`.}.`.e.Q.Q.3.3.2.=.Z Z Z 3 , + % 2 p J K P *.*.w 6 < <         ",
"  !.+ 6 D.lXfXG.tXtXaX{ @ = x.>.~ |.!.y.z.S.F.z.w.@.z.9.5.q.6X6XS.x.c...x.( & yXrXS.S.eXS.S.8Xv.z.eX8X8XS.S.z.S.r.0.c. .T 5.9.v.D.M 5 O.j.G.G.G.fXlXhXxXxXjXjXhXhXjXjXNXBXjXjXjXjXjXjXgXbXgX2 DXgXjXkXNXxXBXBXxXfXjXhXhXjXcXxXhXfXhXxXxXxXxXxXjX.X2 X j.X.hXbXSXbXmXbXcXbXBXbXmXmXmXCXmXmXmXmXmXbXmXnXmX-.3 . JXFXmXmXnXMXvXvXbXMXmXCXMXmXMXmX-.l.$X#X#XOX9XjXwXpX5.@ >.6Xr.c.z.6XxXZXNXjXxXpX0X6XzXjXhXjX X6X5X9Xt.9.z.A.h r 0X!.!.3.4.Q.] *.!.] *.y.q.u - T eX9.>.l.l.0.j.r.= + + 8 _ <.,.>.q | <.<.+XoX|.!.!..Xe.}.g.3.}.XXXX}.3.1 3 }.}.3.%X}.}.}.Q.3.4.2.2.4.,.;.-.;.^ C # $ q r r 8 w 6 . . . . w         ",
"  4.. 8 @.@.o.H.H.H.S.5.+ B j.%.j E A.j.$.X.o.X.9 . . . . & 8.D.( @.z.t.# $ . . e K 0.w.j.j.w.6. .5.@.( 9 8 ; 9 7 7 ; ; ) z.q.8.J & 6 y X E E w.z.z.j.r.z.z.v.7X5Xx.v.v.5X X0X5X9XOX5X.X.XT q CXqX+X X6XgXfXwXb.7Xz.j.9.z.z.z.z.z.j.l.q.z.0.z.>.r > 2 ( rXhXjXBXrXr.bXjXgXjXuXiXgXuXgXiXqXgXiX=X#X#XvX$X-.q 1 iX#X$X$XnXvXMXmXvXvXvXvXgXnXmXvXk.^ |.gXgXk.vXCXbXvX9.p T T r.9.5.R ( 9.6.+.q.6X0Xu.AXuXbX9Xy.y.y.e.t.^ . w 4 7 :.=.=.=.=.*.!.*.*.*.y.!.*.( 8 9 z.b.j.X.>.w.T p + # r + 2 B ! Y V Y T ^ T ^ ~ ^ -.Z C =.^ -.-.4.| =.-.m n =.=.Z Z =.^ ^ C A V V A 2 n -.e.,.:.:.^ , @ % . X q P J P I J 7.^.      ",
"  =.X p v.z.$.$.j.D.8X9.% h A.A.G.f.z f.f.s.c v z o.o.# % . X . . w h h & X 9 +.y & @.w.w.w.F.D.#.w.fXfXA.z.#.z.@.9.D.w 6.y h U 7 @ . 6.w.q.xXBXBXBXZXDXDXVXbXgXwXBXDXDXBXBXeXkXmXCXDXSXDX0 . oXjXjXbXiXuXjXjXjXe.6XjXxXuXrXS.S.fXpXjXxXNXxX0XD.*.# ` r.V ..>.Y . . a |.CXmXvXuXbXbXMXvX#X+XoX$XiX#XoX<.-.3 %XMXgX#XvXvXvXuX#XgXgXmXgXbXwXjXDXDXqXqXSXjXkXjX.X!.W q . ( NXVXVXZXNXxXxXZXZXZXVXBXA.t.xXzXyXtXsXF.G.tXsXD.q.$ = 9.x.r.t.5.*.y.*.*.=.' ,.;.T T X. ...b.jXjXj.T $.O.j [ E 7 e R 7 6 e T T P ! L T L V b V V V n 1 q q q 0 3 1 q V ^ n q q 3 n 2 + + + , =.e.e.e. Xt.+ % X 9.5.7.t.r.t.i.q.D.r       ",
"  4.X ) hXG.H.G.G.H.F.5.. @ w.w.L.f.f.z d d s f.z l 9 X & U { { h . . . o E i.yXt.6XrXz.X.o.O.z.8XD.8XBXxXcXhXzXF.eXGXz.r.hXpXrX5Xt P LXGXF.fXBXxXBXDXBXDXSXBXkXgXjXDXSXDXmXvXnXmXgXmXgXvX3 ,.bXmXDXJXJXJXFXmXCXgXCXDXJXCXDXDXNXmXjXxXDXBXJXZXZXAX% bXDXjXS.r.r.r.9.r.JXSXDXCXMXDXDXCXDXFXMXMXJXKXJXMXKX%X3 >XJXMXMXnXvXnXmXMXmXMXCXMXvXmXDX9.jXxX8XfXhXVXBX! t # $ aXLXGXZXVXVXZXVXVXSXVXxXpXhXtXS.yXdXlXD.yXdXdXcXdXcXdXO.z.xXrXz.D.D.sXsXsXsX9XsX*.k.X.E j.j.h p $.v.h z %.z j 9 u u u ; . ; ) $.5.r.0.7.~ ..^ >.y.>...9..X Xe.<.T 2 8 ~ | <.7.,.:.7._ n 3 2 , q ,.y.5. .( t.# @ + c.6.@.@.6.6.q.@.9.I S     ",
"  ^ + ' zXzXA.w.%.w.5Xt.@ UXxX%.H.v z V.s z z j E * . ; i.i.H.p.H.#.O o o U i.i.t./ J 9.S.S.5.r.r.c.9.9.v.S.eXS.l.z.z.OXqXkXz.qXbXB ( LXZXF.jXkXjXwXmXfXhXmXF.kXmXqXqXjXgXgXvXvXvXvXvX$XgXN JXFX=X=XvXvXkX-X@X-X-X=X-X-XqX-XgXgX-XgX-XkXqXkX|.NXJX2 CXJXCXZXDXSXDXDXDXCXmXmXvXvX>X$X>XvX>X>XvXnX>X>X>X>X$Xm N *X>X=X*XXX$X=X=X=X=X=X$X=XvXbXV x.S.eXF.A.F.hXr.8 w 2 PXZXNXNXNXxXNXNXzXsX0XaXpXaXaXxXyXtXsXsXaXtXyXi.sXdXdXp.G.GXxX8.@.[ i.tX8XaX6X8.9.6.%.$.w.h R j E E g j g u ; * O & : = g $.o.X.j.j.%.X.$.$.T E a k ( w.0.$.0.O...T a 0.0. ...T T T 5 V q 0 2 0 ,.>.h T D.sX8 $ 4 t. .@.@.#.@.@.O.+.T m     ",
"  C > / F.F.F.D.w.F.sX{ @ sXhXs f.V.k O j c %.w.h ; % O.p.p.p.p.i.L.9 . X y p.%.i.E @ 6XhXD.c.5Xc.c.x.z.c.c.7X7XS.7Xr.7Xx.qXwXuXBXB L PXLXwXjXjXjXmXmXkXgXgXkXgXkXmX-XvXnX>XvX>XvX>X$X>X<X^.<XnX=XnX*XnX=X=X,XnXnXnX-X=XnXkX=XkXgXgXkXmX+XmXCXbXCX, CXiXgXmXbXvXgXgXvXbXnXvXvXvXMXvXvX>XvX>X,X,X>X,X,X>XMXN KX>XnX*X=XvXvX=XvX>X#X=XvXnXmXoX1 0.z.wXzXrXyXS.7.p q + bXbXZXbXNXbXbXAXaXaXaXaXjXaXpXaXaXaXaXaXaXsXdXdXdXdXdXi.{ dXaXaXsXi.UXaXUXi.yXt.) +.h o.p.} l c p.l z l [ U ; & & - ; &.$.$.X.@.6.5.0.@.$.@.X.E E $.@.0.E k w.$.$.O.p T 5.0.0...( ! ` C C W 0 b :.>.0.w.D.6Xr $ @ t.q.8.8.{ O.@.{ +.Y q     ",
"  2 2 I D.8Xj.H.yXyXi.9 % ( tXo.c V.O g d k o.G.@.O y A.i.A.p.H.L.lX7 o X yXw.w.D.w.O { q.yXD.r.e.z.r.r.c..Xt.c.v. Xv.v. X7X7X0XCXb A PXSX+Xx.qXuXnXkXgXgX=X=XnX-XvXnX=X=X=X,XnX,X,XnX>X3X/.;XnX,X@XvX=X=XnXnX,X=XnXnXFXgXnXgXkXnXkXnXkXmXkXmXvXCX0 JXMXmXbXbXmXvXvXvXvXgX>XvX,XvX<X>X>X>X>X,X,X,X,X,X,X:XD $XMXnX,X=X=X>X#X>XgXvX$XvX#XvXgX= a  X7XS.w.6XS.r...= 2 T JXNXAXAXbXAXuXpXuXaXuXAXuXaXgXpXaXaXuXrXpXaXNXaXNXNX/ Q aXu.UXAXAXM ] sXt.9.c.0.0.$.j l c i i p.a.l j u * & i z s d j s s X.w.w.z.S.X.T $.X.o...#.8.X.X.@.k ( $.w.= V 5. .7.9.>. .7.7.*.~ q W Q ( z.eX6XS.p + & D.6.@.+.@.@.+.@.+.K q     ",
"  3 @ K w.H.yXF.H.D.6X' % $ +.o.: j g #.j h u h * & 7 #.#.%.%.[ #.} . . * G.#.i.i.i.$ t.rXwXc.z.z.r.e.r.t..X.Xc.5X5X7Xv.x.v.uXpXBXB a PXDXv. XqXjXkXgX=XgXnX=XgX=X=XnXnX>X>X,X,X>X,X<X,X:X(.&XnX>X*X*X>X,X,X=X=X=XnX,X=XnX=XkX,XkX=XkXnXmXkXOXOX%X3 CXmXvXbXvXvXbXvXvXvXvXvXvXvXnXnXvX>X,X>XnX,X,X,X<X,X<X(.<X,XnX>X>X,X,X,XvX>XnXnXvXvXbXMX1 3 C r.0.$.5.5.9.7.r 8 8 LXNXpXpXaXaXaXaXuXuXaXuXaXaXaXAXuXpXuXuXaXAXdXzXNXBX6./ ZX] UXZXZXu.t Q t.t.D.8XfXH.H.J.C.V.l k o.j & 9 c V.s.M.M.s.f v d c z f.A.j o.X.E O.E $.j.@.$.Y ..( ( 9.O.O r 0. .(  .( 5.5...( r e P h q.D.8XA.S.T X @ t.+.@.#.+.#.6.@.8.Y 0     ",
"  4.X / r.cXlXL.G.tXsXaX$ + X 8 [ w.A.i.#.8.[ 8.y O X . X . . . . . 7 y ; #.8.w.i.w.6.t.8X0Xt.z.x.9...7.x.c.c.5X6X X7XqXk.k.uX9XNXL 8 LXCXqX XgXmXnXgXgX=XnX-XnXnX,X>X,X,X,X<X:X<X>X<X:X;X/.&XKXnX<X,X>X>X*X>X,XnX,X,X-X-X-XFXnXnXgXkXkXnXmX3.uXAX2 mXbXvXvXvXbXvXvXMXvXvXvX>XvXvXnX>XMXnXnX,X<X<XnX<X,X;X/.3XnX<X,X,X,X,XnX,XnXnXvXnXvXmXmX1 3 a q | | | ..:.>.B  .0 bXuXpXaXpXpXaXaXAXuXpXuXaXbXaXaXaXaXuXaXAXxXzXxXxXVXo.#.GXxXdXq.U 8.8.J 7.i.q.z.A.&.f.C.s.V.V.w.9.6 : V.C.N.B.B.d.M.f M.B.N.N.M.s.d s k r E o.%.%.E K )  .U ( E ; = Y  .) Y h I ( K ( ' ' ] P K +.@.9.@.q.( X % r.7.{ +.@.{ { 8.{ U n     ",
"  =.X c.8XxXfXG.L.tXaXaX6 $ 6.O.{ O.i.w.p.%.8.D.+.@ . @ . ; 7 y [ i.i.%.* y D.i.w.t.q.t.D.r.z.z.z.z.0.c.5X X0X6X8X7XqXeXj.x.7X7XbX^ q JXCXeXl.k.$XCX=XoXgXvX=Xg.>XnX,X,X,X<X,X:X:X:X:X:X2X/./.KX<XMX,X:X,X,X,X,X=X=X=X=X=X,X=X=XkX=X=X=XgXbXvXbXAXm JXbXbXvXvXbXvXvXvXvXvXnXvX>X,XvX>X,X<XnX,XnXnX<XnXMX;X(.<XMXMXnXnXnXMXnXnXnXnXnXvXvXgXgXl.2 2 3 3 C p V q B 6 2 $ % 0 y.AXbXAXAXbXaXaXaXAXNXbXAXaXAXAXAXaXbXAXNXzXzXcX} %.VXaXi.sXi.dXsX] r M ' O.j.f.n.J.V.V.&.T h : k f.M.d.d.d.B.B.B.M.B.B.M.M.s.s.d d : : g i : : j o.o.j y 6 $ 9 ` +...7. .( +. . .) ' P ! T ) 5.q.w.q.Y X # S.{ { E U K U { U y m     ",
"  n @ P S.j.j.j.H.F.i.t.6 2 ..+.j { #.%.i.w.i.i.R @ X X K #.#.&.#.#.&.i.h ; D.i.#.q.8.D.D.z.r.z.9.l.r.9X6Xr.c.c.5X9XS.7Xj.b.kXjXCX_ 8 JXCXgX<.l.vXMX#X%X=XnXnXnX*X>X*X>X<X:X:X:X:X:X<X:X4X4X4XKX<X:X:X:X<X:X,X,X,X=X,XnX,XnX=XnXgX=X=XnXgXgXvXiXAXn mXmXvXjXbXvXvXvXiXvXvXnXvX>XvX,XvX,XnX,X>X,X<XMX<X3X/./.3XMXMX,XnX,X,XnXnXnXvXvXnXnXvXvXJX3 2 2 = Z ( B 6 + + q ' K b . 5 uXCXaXbXpXAXAXAXbXaXAXaXaXaXAXaXAXaXaXjXaXdX9 9 zXtXt.!.sX!.M P ] / t.D.%.f.J.K.c z z &.j.z J.N.M.d.d.B.Z.B.P.M.B.B.N.M.d.v s.s.d.d.M.M.c v x c %.#.j & 6 { 7.{ 6.5.q.' 6.) ) +.( )  .R R w.r.q.w.5.X o ) R E U U E ] E U ; A     ",
"  n 2 @ = +.j.j.w.$.j.0Xw - ; O.E o.O.#.%.i.H.D.U % o h h 7 7 9 : u j u [ ; D.i.w.q.t.t.c.t.z.z.z.9.0.D.6Xt.2 7.5X7X+Xv.b.7XkXfXbXT q JXBXjXiX#XgX=X$XoX$XvXnX,X*X>X:X:X<X:X:X:X<X:X<X<X4X4X/.3X<X:X<X,X,X,X,X,X<XnX,X=X-X=X=X=X=X>XgXgXgXnXiXpXbX1 CXvXiXvXvXvX>XAXvXvXMXnXvXvX>X>XMXnX,X,X>X,X,X<X3X3X/.4XKXnX,X,XnXnX,XnX,XnXvXnXnXvXmXnXCXB 1 8 3 2 X . 8 / jXNXZXaXaXP @ > iXNXaXAXaXjXaXaXaXaXaXbXaXAXaXaXaXaXhXdXxX7 { xXdXaXsXsXi.i.t.@.+.6.6XR E %.k z z c f.H.z f.s.d.N.N.B.d.d.B.B.B.M.M.N.d.V.d.f f f s.d.V.c d g 9 ; o O w R U I h  .6.+. .) R R R +.6.) 6 t.D.D.z.9.% X  .' { [ } [ E E y O -.    ",
"  0 2 c.$.8 ..$.@.j.8XtXy > :.p E #.w.w.A.A.G.dX9 o . 4 < y y 6 7 < @ . o * E D.t.D.c.D.i.5Xc.z.c.S.9.r.8X0.$ p 6X0.>.z.+XuXkXwXbX~ q JXNXmXiXkXgX=X>XvXnXnX,X*X>X>X<X<X>X:X:X<X<X<X<X<X4X4X/.3X:X:X<X,X,X<X:X,X,X,X,X-X,X-X,X,X>XnX-XnXkXgXvXvXCX3 JXbXuXvXvXvXAXvXbXMXnXvX>XnX,XnXnX<X,X,X,X,X<X<X<X3X(.(.<X,X,XMX<XnX,XnXnXnXnXnXvXvXnXmX+Xq 3 q 2 2 1 r.wXpXjXtXsX5XsXiXt @ . ZXaXAXaXbXaXNXAXaXAXAXAXAXaXAXbXaX5XsX6X& E cXyXxXxXhXhXzXfXyXtXyX6X6Xw.D.A.A.&.&.&.X.g X v d.M.M.B.M.B.M.B.a.x f x f v v x f x f d.s.c k . % % & 5 @ 6 7 r 5 9 8 r e r h h r e p h P t.D.t.A.t.X X q.8.{ { #.O.{ [ @.6 e.    ",
"  + P 8XS.z.j.&.A.w.z.c.I 6 T 4 < R i.w.o.#.%.@.O @ @ 7 { { 8.@.{ { y u & & 7 i.A.@.6XS.6X6X6Xc.c.S.c.r.z.T % X ( ..e.iXx.OXOX.X#XZ A JXmXmXiXvXgXvXgXvXnX,X=X=X>X,X,X1X:X<X<X:X*X,X<X:X4X4X4X3X:X<X,X*X<X<X,X<X,X*X,X<X,XnX,XkXgX=XvXvXMXFX#X<.e.6 k.mXvXvXgXgXnXMXvXnXnXvXgXnXnX,X,XnX,X,X,X>XnX<X<X3X(.(.;X>XnX,X,X<XnXnXnXnXnXnXnXnXnX-X. . . . - 2 a jXbXjXpXpXjXD.6XaXsX> + 0.NXbXAXNXAXaXaXaXaXaXjXaXpX6XAX6X5.E ; & X { ) @.@.@.w.w.A.w.i.D.yXtXdXfXA.A.%.w.$.%.o.s s.C.M.d.d.M.B.M.d.f M.M.v d v c f x v s.M.v k : & ; R R K h R E R X.E ) E R E ) K a 7 h t t.q.t.i.t.6X. . !.#.#.@.#.#.{ U D.K }.    ",
"  + _ 8XD.yXH.H.H.%.O.A.r > & @ X . $ 7 9 : 7 & @ @ # w y * O : u k y R M & & h P 7 w.8Xc.6XD.D.D.D.c.c.z.0.p P P 9XuX6XiXiX9X,.^ 3 A iXOX%X!.!.}.}.}.%X*X=X<X:X;X3X<XKX<X;X2X2X4X;X4X4X4X/./.3X3X4X4X4X;X;X;X;X;X*X-Xb.g.g.b.XXXXl.+Xk.l.l.a a . 2 X nX.X.X#XgXOXqXOX|.+X-X=X=X$X%X>X>X=X,X,X,X,X,X<X3X/./.[.[.].].h.g.h.h.h.h.2.g.}.g.-.A x.+XgX+X0 + . + e. X5X0XaXyXi.i.q.. 5 y yX6XsX6X5XUX Xt.sXpX6Xi.sXpXsXpXyXF.D.* +.#.[ { 8.} E E [ E { O.&.%.%.#.%.$.$.o.X.j @.z c C.C.B.x N.B.P.Z.M.a.x v v f c c f d.M.M.c g g j g E ) O.@.@. .) R ) ) E 6.{ ) h R 7 t 5 AXq.t.t.t.7.X % 6X{ { R J y K r K r _     ",
"  , r 5Xz.F.F.G.H.A.F.tXr 6 9 sX8.{ 8.q.w.%.8.6.$ @ & e h g h w.@.{ [ R y O r 8.i.D.D.D.D.S.8XD.D.z.D.6X6X6X6XrXjXfXjXjXuXuXNXNXiX+ % .XOX#X#X#X$X$X>X>X>X>XnX,X;X<X<XMX<X<X<X;X3X<X<X3X3X/.(./.;X2X3XKX3X<X*X&Xb.,XnXnXgX-X-X-XgX|.l.8 2 - a R 7.8 2 8 5.c.z.z.aXbXvXiX+Xx.<.k.%Xe.3.4.h.<.4.g.2.}.'.<X/./.;X<X=X=X>X,X,X=XkX=X-XvXmXmXJXLXPXPXLXPXLXJXjXz.; . / R [ [ j * * 8XGXIXaXtXBXNXNXNXzXBXVXBXNXaXAXaXaXsXsXsXtX7 zXVXdXdXyXi.G.yXtXlXtXG.H.A.f.A.A.f.%.%.A.%.A.k . V.c M.f c d.B.M.f f v p.d : ; : i c z : : - 9 U t ; e u r h h K R E +.@.q.@.O.+. .h & 4 sXt.t.t.6.] % @ L < O & o & 7 y t w ;     ",
"  2 $ B J p T Y R R 8.UXw 5 h 5X+.w.r.F.w.8.t.7.O @ 4 9 ; h @.O.R [ h U 7 o U i.w.D.t.9.q.w.9.w.9.q.r.z.z.5Xz.r.c.c.7X5X.X XpX XOX| q DXmXmXvXgXvX=XnX=X=X,X-X*X-X*X:X*X:X:X:X:X,X<X&X&X,X4X(.<X,X*XKXFXFXnX-X-X}.XXXXgXnXgX=XgXgX#XgXp - E p ! p 4 + wXjXBXCXDXJXLXLXLXJXDXkXmXJXJXJXJXKXJXKX=X>XvXMXKX/./.3XJXKXFXKXKXDXKXKXJXFXMXvXnXmXFXBXFXkXkXFXSXLXLXLXrX7 O 6.@.7 zXZXGXxXNXNXVXxXzXaXyX8XzXyX0XaXuX0X9X9X0X8X0XsXy yXzXdXdXdXL.dXdXdXdXA.$.j.H.A.V.&.$.&.o.$.%.$.X O V.x d f a.V.M.x x f v l : O O . : s : X ; 9 J J w 5.9.5. .@.o.X O h e h E O.6.8.+.y @ { 6X8.7.8.q.M X % . U i.sXH.tXdXdXdXdXh     ",
"  0 2 J P R  .+.7.{ t q.6 6  .p +.6.@.q.@.8.8.{ $ & 7 K U h #.[ U @.[ { t 6 7.i.D.t.w.w.r.r.z.9.9.w.z.z.S.5XS.eXS.v.c.c.!.r.|.k.|.l.A kX#X+X-X-X$XXX$X=X,X=X*X*X:X,X*X*X:X>X*X>X:X:X*X<X:X/.4XKXFX<X,X,X>X=X*X>XnX=X@XXXXX+XXXoX|.+X+X+Xg.A p r w 8 $ 9XjXkXeX+Xb.b.b.uX=XFXmXFXMXJXFXMXnXKXFXnXMX:XXX<X/./.4X<X>X,X-X*X=X,X=X=X=X$X$X#X-XgX-X-X+XgXkXuX-XJ.wXZXBX! . . VXBXpX0XpXhXuXpXpXuXuX9X0XaX0XuX9X9X0X9X5X7Xv.S.S.7 dXcXcXxXdXdXdXdXdXD.K : j X.k d k k s : O X . O z s.x a.v f v v x C.i g * #.{ r & @ w 7 = 0 J I q b V <.9.5.( ) E 7 O u y r * 6 6 7 . 6 xXyXr.t.q.q.M X % X sXG.H.G.G.L.L.i.A.9 D   ",
"  0 # R 9.c.8X8X6Xt.q.6.. # ) r 5.5.+.O.+.{ ' { < # J 6.8.E #.#.i.#.{ { 6 5 { 6Xw.D.D.z.z.z.z.x.r.r.z.v.D.z.c.z.S.x. X X X|. Xl.<.k.0.FXb.+X-X$X$X$X=X*X*X=X*X,X=X*X*X,X:X:X:X:X*X:X*X&X<X/.4X<X,X,X,X-XnXKX=X=X>X=X#XoX$X$X+X#XoX+Xl.gXkX|.b . q 8 2 CXjXgXqXqX#XqXgX-XkXnXvXFXJXFXgX=XkXnX,X,X,X,X@X;X/.(.4X;X:X>X>X>X,X,X=X=X=X=X,XnXgXgXgXgX-X#Xb.kXeXqXkXkXjXNXp q.ZXrXsXaXaXaXuXuXaXuXuX9X9X9X6X9X9X9X9X9X9XOXv.S.sX; sXcXdXyXdXdXdXdXlXi.g a O T k o.d zX$.+.+.P r . : c x x f d d i v k : & K q.u.Q M b 4 > q Q _ ^ =.^ C B *.>.(  .U h 7 [ w.#.y { { #.& R zXpXq.UXt.i.] % % X dXA.i.p.#.#.p.U p 4 H   ",
"  0 8 4 I K p K Y +.t.t.$ X w ! 0 7.7.+.{ E { 7.< & ' q.[ h O.i.w.#.q.i.7 7 w i.z.D.z.S.c.z.z.z.w.j.z.S.S.c.S.c.c.c.c.c. X X Xe.l.gX^ BX+X+X+XoX$X-X=X-X=X-X-X-X*X=X=X*X>X*X*X*X,X*X*X*X,X{.4X3X,X=X=X,XvX$X*X=XgX=X=X$X#X#XoX+X+X#Xv.+Xv.gXoX,., q + jXqXqXeX+XuXgXiX+X=XkX=X-XnXnXnX=X*X,X,X,X,X,X:X<X/./.4X1X<X<X:X>X>X=X>X>X>X=X=X=X=XgXvX>XkXkXqXqXqXqXkXeXuXNXy VXjXaXpXpXuXuXpXuXiX0XuXuX0XsXuXiX9X9X5X0X9X6X8X6XsX7 D.xXdXD.UXyXsXi.w.9.J a X a ; 9 zXSXxXxXBXtXaXBX+.O g d x f i l ; ; ; o D.9.7.6.` 5.' J e w Q _ ~ ;.;.V ;.:.) h * y E 9 6.6.e U { & & 8.tXq.q.7.t.q.*.X @ X i.p.#.O.[ [ } U K q N   ",
"  0 5 ` 5.) q...@.c.r.6.# @ *.7.7.7.5.+.#.6.@.O.6 $ U +.h g #.#.@.O.#.8.y t e S.yXsXD.S.v.z.w.q.z.r.z.c.v.c.t.c.c.c.c. X9X.XOXx.e.l.3 v.v.-XqX#X=XgX#X$X-X@X@X*X*X*X*X=X*X*X*X*X*X*X:X=X:X~./.<XnX=X=X=X=X=X$X-X#X#X#XgX#X$X#XOX+XOX+X X+XOXiXvX,.. + BXqXv.qX7X-XqXgX#X-XgXgXnXkXnXFXmXFXFX,X,X>X,X1X2X/./.4X:X<X,X:X>X>X>X>X>X=X=X=X>XgXnXgX=XgXkXkX+XeXqXuXqX9X7Xh cXpXpX0XaXiXaXiXiXsXiX9X0X9XaX0XiXiX6XsXsX6XUXsX0XaXh rXzXtXyXsXsX8Xw.D.@.9 h h ; r ) aX .r.D.8XD.S.xXVXdX& i j l i . . . yX* h $.E q.9.6.@.6.+.Y h ( >.| 0.Y R y . * y y U M U M r ; $ ; @ 9 r.9.t.t.5.{ ] % @ X o E E [ ) E [ o.E 7 N   ",
"  0 6 5.{ ) O.E ( +.q.t.r @ I t.c.w.6.+.$.8.@./ 7 $ K w.{ 7 w.8.{ [ E { y & R i.i.S.S.D.z.z.c.z.z.z.r.x.t.c.t.t.x.t.t.5X6X.X0.x.OXOX..l.qXqX+X#X-X+X#X=X=X-X-X-X#X-X$X*X*X*X=X-X*X=X*X=X>XF h.FXnX=X>X>X>XgX=XoX#X=X$X#XgX#X$XOX X+Xv.uX#X9Xk..XAXmX2 SXjXjXgXjXBXBXbXgXgXgXgX-XnXvXnX>X,X=Xg.[.@X@X:X3X4X/.4X<XnX,X>X>X,X>X>X$X>X=XnXgX=X>XgXgX-X-X+XkX#XqXiX9X9X7XD.jXtXaX0XuXuXiXsXiXiXiX0XiXiXiX9XsXsXiXiXiX6XiX6XsXyX; j.xXtXzXtXyXsXw.w.@.h 6.D.D.hXz.D.w.eXz.D.w.D.v.@.6Xr $ @ X .  .w.c.yXw.R R 6.r.@.9.w.j.w.w.w.w.z.o.a h y O U 8.8.} #.} u.{ U M t 6 @ $  .r.{ ` ` u.*.@ > % +.O.K U o.o.%.) O.7 3   ",
"  q 2 @ 4 6 5 6 5 w e b L # 8 >.B @.#.@.O.+.7.7.7 # i.6X@.O.#.#.#.[ { 8.{ 7 h 8.{ K +.i.c.c.c.r.r.l.r.r.r.t.t.x.x.r.z.x.r.x.e..X!.OX;.>.kXgX+XqX#X#X=XgX#X-X@X$X@X-X$X-X=X-X*X-X*X*X*X*X,X).m.MX=X=XnXnXmX=XgX=X-X#X#X#XgXgX$XqXqXOXv.kX+X X X>.BX,.2 SXjXgXkXkXkXkXqXkXbXbXnX#XF h.'.h.h.&X,X,X,X,X<X<X4X/.3X3X<X,X,X,X,X,X>X>X,XnXnX=XnXgX=XkXqXgXXXb.gX9XgX7X0XjXw.xXpXuXuXuXiXsXiXsX9XiXuX0X6XiXiX9XiX9XiX9XiX9XiXsXS.8 j BXA.r.S.v.w.( ( 8.6.0.r.wX8XjXwXS.v.z.j.z.z.r.9.e.' # X E D.zXDXVXhXw.T 9.t.t.5. .6.w.0.w.$.D.yXfXD.{ O 7 [ { U y { U } ] U [ ' ' $ 6 t.6Xt.UXi.y.u.< < o i. .g { w.8.w.#.[ u 2   ",
"  0 2 ) +.8.r.9.q.t.y.6.8 + e 7.( R 0.9.+.7.6.q.7 = sXq.U w.8.[ #.w.8.#.' 6 y q.q.8.X E D.t.c.r.9.r.q.r.x.t.t.x.c.x.z.x.x.r.c.|.k.;.T B jXqXqXb.+XeX#X+Xb.XX-X#XXX$X-X-X$X$X-X@X=X-X-X*X:X(./.<X|.-XgXFXmXmXnXgXgXgX+X+XiXqXqXqXiX X+XqX X+Xx.uXBXbXp SXkXqX X Xb.+X+XqXgXvX=XgXg.=X=X*X,X,X,XnXMX,X<X:X/.(.3X,X,X>X:X>X:X>X>XvX>X>XnX>X=XgXgXgX-X-X+Xl.b. XeX7X5XpXY xXpX0X9XuXuXiXiX9XiXaXiX9X9X9X9X6XiX6X6X9X!.sXUX!.NX9 o.GXF.F.r.$. .@.6.0.z.z.S.r.9.7Xz.z.v.z.j.l.z.e.t.sXT $ R yXtX9.A.VXt.r.w.9.9.t.r.9.r.w.$.j.z.w.j.w.t.rX7 7 U y E U M u 7 U #.U M ' # 5 6XpXsXsXUX] !.> < % 4 e ) { { [ h 7 u 9 3   ",
"  3 6 6.7.(  .5X5X6Xi.t.2 X 2 ` w t.z.+.6.w.7.{ 5 & { O.) 8.w.@.8.#.8.{ #.u ) 8.w.' $ { 6Xt.t.9.r.r.t.t.t.!.i. Xr.r.z. Xz.e.l.b. XjX..p bXv.+XqX#X+X+X+X+XXX+XoX-X-X-X-X+XXX$X-X-X$X@X-X*X/./.KX=XgXkXkX-.| Z kXgXiX+XqXgXqXqXqX9XuXqXqXqX X9XuXaX~ 8 BXv.v.+XqXiXgXgXmXmXbX=XXX=XnXMX,X>X*X*X*X:X*X*X:X2X(.3X1X>X>X:X>X>X>X,X>X=X=X=X-X=X#XgXgX+Xb.=X+Xl.b.v.7X7XS.X.rXwXwXuX0XiX9XiXiXuX9XiXuXiX9XiX6XiX9X9XiX9X9X0XpXVXa yXfXS.wX$.0.z.5Xv.v. X5Xz.v.x.z.7Xz.v.7Xj.7X XrXwXpX8 5 fXtXD.b. .c.r.0.r.e.5Xt.r.9.0.$.9.q.j.9.0.r.7.6XP & E +.[ { } [ [ O.{ h U U $ 6 8X0Xt.8.y.{ y.@ @ @ 6XO.[ U E U #.8.{ u #   ",
"  q 6 ( | 7.y.5.' +.y.7.= %  . ./ q.@...T Y ` R 6 # K O.[ O.#.E E 8.O.#.E h h E y o K u.E 7.r.t.q.t.r.t. Xt.t.t.x.9.r.j.x.z.z.fX>.qXT T pXv.qXeXeX7X+Xb.l.b.XX+X-X+XXX+XoX-X#X-X$X-X=X-XgX1.F JXgXl. X| X.X.2 qXmX7XqXiXjXkXwX+XjX0X.Xv.7X9X9Xv.AX. . bXfXjXkXjXjXgXjXgX XoX3.XX=X,X=X*X*X*X*X&X&X*X*X@X;X(.3XvX,X:X,X,X<X>X>X>X=X=X=X=X=XiX=X-XqX-X+X+Xx.b.kXhXS.eXj.z.S.qXqX0X0XiX6XiX9X9X6X9XiX6X9X6X9X9X6X0X9X0X7X6X0XJ F.w.z.5...x.x.v.0X9Xz. X Xv.0XgXl.z.v.v.v.F.S.7Xc.c.5 9 6.r.b.0.| <.<.0.0.e.9.9.0.9.0.0.9.0.0.0.0.9.9.D.( @ 6X#.y U [ ' { [ i.O.h 7 o 4 yX6Xq.t.UX] !.0 > @ sX) h E [ O.#.#.#.7 @   ",
"  n $ Y  .! h r p ( / :.6 @ L y.( 7.q.6.@.) ) ' > # & r y { { O.8.8.h O.{ U 7 e ; / 5 w . X e ..7.5Xt.c.t.D.c.t.r.z.x.r.r.l.e.7XjXjXT T jXeXqXgXgX+Xb.l.l.$XXX+X+X+Xb.XX+X-X#X#X-X#X$X$XnX-.Z mXqX#Xb.| b.l.p kXjXuXiXiX9XgXjXNXqX9X9X X XuXjXpXbX8  XBX5Xv.S.b.e.e.}.}.$X=X=X-X=X,X,X:X>X:X>X:X,X<X<X*X;X(.<X:X@X*X[.XX>XnX>X>X>X@X-X=X$XnX$XvX#XvX#XeXBXgXk.z.z.r.e X.k b.0X9X.X6X6X.X5X9X9XiX.XiX.X9X9X6X.X6X5X9X XaX9.2 5.z.9.0.x.e.|.r.x.|.k.v.e.r.qXwX9.k.z.l.r.e.0.z.x.e.r 9 9.@.r.0...|.;.<.0.>.>.0.0.9.9.t.r.0.0.0.0.0.9.t.' O R y 9 U ' { [ ] U K y M O 7 aX6X7.8.UXUXu.< # $ h y E 6.[ h J 7 & 7 #   ",
"  q 2 0.>.y.` ! 4 r 7.t.4 @ e :.:. .7.t.t.8.` :.4 @ r y y { 8.w.6.E @.6.h h 6 X . J y ' P h . . O / c.5Xt.c.t.t.r.r.r.r.9.0.0.r.>.y.+  . X+Xv.v.|.+Xb.l.b.+X X+X+Xv.-XoXb.-X+XoXXXXXXXoX-X<.>.X.0.0.T T a 0.p <.bXgXjXjXjXNXDXfX9X0X5X Xk.jX9.>.e.6 0Xz.>.e.0.l.OX#X>XvXgX-X=XnXnX=X:X-X@X[.[.[.@X:X@XG ^.(.E.].).:X*X[.>X,X,X>X@XXX$X=XvX$XMXJXCXmXmXDXDXmXk.k.0. .7 = e.$.9.w.c.c.` *.0.e.r.r.sX9Xt.e.y.e.!.AXuX0X0X7X( % J 5.Y >.9.0.r.x.r.9.0.0.0.9.0.0.0.9.0.0.>.0.>..._ R 6 $ V 5.>.e.>.9.( L ;.>.:. .5.:.>.7.( ( ` _ +.5.` 5.( $ 6 & 7 7 y M r y 7 ; r y @ 7 i.] 7.y.UXt.L > @ 6 P R E K E { ] 7 U 7 6   ",
"  q 2 :.y.9. .6X5.r 9. X$ @ e 7.! _ e.t.+.] u.8.< > { t.q.{ 6.{ ) [ ) +.U 7 7 5.i.sXtXsXsXt.w.] J . . Y K +.r.5.6.9.q.r.e.0.e.x.c..X% ( z.0.|.+Xv.b.x.b.b.x.|.c..Xx.|. Xl.k.e.bXkXuXOX<.~ A Y <.>.a a <.0...T k.r.uXvXjXjXeXjX0Xv.5Xx.r.e.c.x..Xy.# BXNXhXbXBXmXbXmXjXmXmXkX}.oX$X>XvX,XvXnX=X=X>X@X1X@X;X(.2X:X>X:X,X>X>X>X*X=X=X=X=X-XkX-X+X$XXX|.oXb.e.k..Xr.0.^ 6 ..w.$.k fXfXF.v.F.eXF.F.fXF.F.G.eXF.kXjXwXfXfXv.wX0.Y eXS.7XwXjXuXjXfXwXeXrXrXhXxXeXrXF.rXrXxXhXhXfX0Xv.Y . +.c.r.v.z.0.e.>...T >.j.<...0. .5.0.9.9. .5.w.0.0.6.w ; J 6 6 9 7 < 7 7 & & $ $ 5 D.q.8.y.8.y.M < @ < U h 7 h { [ y 9 u 6 5   ",
"  C $  .>.7.' 9.7.w 7.9.X % r 6.( <.y.r.{ 7.7.y.< @ w K @.6.{ @.{ [ O.+.{ 9 8.tXtXF.D.D.A.6XtXi.+.D.6.9 . O ( D.r.k.&Xk.z.c.v.z.6XNX. p z.0.qXeXqX+X+X+XiXOX+X|..X.X}.OXOXe..XJXLXSXjX9.*.B a T a + 2 ;.B DXNXkXbXpXpX0Xc.v.jXjXpXwXx.9XuXpXjXpX! $  XjXjXjX XjXuXgXgXgXkXvXvX=XvX@XXX$X=XnX=X*X>X,XMXMXE.(.<XMX,X,X>X,X,XnXnXvXgXnXmXnXFXFXkXmXkXkXkXmXgXkXjXkXk...= $.D.A.s j.k G.H.j.G.F.j.n.n.F.F.F.fXJ.fXF.fXeXF.BX9...hXkXeX+X+XwXuXqX9X Xb.v.l.x.z.7X Xb.v.v.F.+X+X9X9X..$ 6X5Xe.r.l.0.<.<.v.b.j.0...$.0.0.w.9.9.0.$.9.9.z.0.9.E o h 6.{ U ] U U K R M & O & 5.9.y.UXUXy.M > % b K h R u 7 y h y 7 4 5   ",
"  W + T ( >.:.t.L t u.y.$ X 0 q.7.y.:.y.t.q.L !.# $ r ' o.@.#.O.#.@.[ { E O #.tXsXyX@.) y ] q.xXq.6.t.D.@.5 . K D.l.h.0.v.v.z.r.t.c.% ( D.D.S.c. XOXgXqXiXiXiX9XOXOXOX%X|.$XoXe.l.l.-.-.,.V + ,.r.0.r . <.SXjXwXrXwX7X7XfXCXBXjXpXjXjX0XuXaXjXAX .+ t.aXpXiXuXgXOXoXiXgXOX=X$X$XvXvX$X=X=X$X*XMXnXMX<XKXE.E.1X>X>X>X>X=X>X=X>X,X=X@X=X=X#X$X-X-XgX#XgXkX+Xv.gX Xj...8 0.v.S.z.0.eXF.v.rXlXfXlXF.7XjXeXwXwXkXwXhXjX0.$.jX..^ OXOXv.+X|.x.|.k.|.+X|.|.|.|.|.k.|.k.x.b.b.|.x.+Xv. .q x.0.<.<.e.<.e.e.k.l.| | ..I 0.v. .!  .:.5.@.5.w.$. .R X R @.6.{ { #.8.8.R e 0 % w r.5Xy.i.UXt.Q > > M ) h h h h E E ' { w 6   ",
"  C + ! y.7._ 6.r 0 7.q.# @ w 9.7.5.9.9.y.q.u.7.> @ y P h @.w.w.O.8.D.w.O.; w.yXD.yXO . ' P . 6.hXc.D.K q.q.y . K z.O.e.9.0.e.r.c.0X5 r rXw.r.c.|.k.OXx..XiXiXuX9X.X}.oX%X.X#XiX+XiX#X,.e.b q 5X Xc.qX8 wXPXxXv.jXS.S.S.eXv.z.q.z.5XxXpX9X0Xc.9X:.+ 9XNX0XuX9XgXOXqXiXvX%XiX=XiX=X=X=X=X-X*XvX,X@X@X].MXS n %X:X*X:X=X*X:X=X>X$X-X>XoX=X-XgX#X#XiX#XOXqX+XqXb.v.x.>.a BX7XS.v.S.xXwXjXxXkXkXkXfXwXjXjXqXfXjXwXrXkXjX0.jX0.p OXoX}.|.+X.X|.|.|.k.|.+X+Xb.oXk.k.b.l.k.k.k.|.e.z.T 8 r.0.<.e.,.<.<.3.0.0.<.>.;.^ ~ ( ;.5.>._ .... ... .! 5.X Y +.E [ U #.{ [ E h e X w 6X9.i.UXi.UX' < $ @ y ; k U h K E { q.y 2   ",
"  ;.+ J ../ :.L ' V t.y.$ % # / p p t.r.5.5.*._ @ @ J R  .O.+.6.{ / 8.7.w.9 A.yXD.tXU 6 ' M / q.xXtXq.8Xq.q.8.# 9 6.Y 9.z.z.5XD.c.pXP h ZXw.r.r. .e.k.+Xk.x.|.e.%XOX.X%XoXoXOX#XOXiXiX!.~ q 2 wX Xr.S.S.xXSXxX8X8XeX7X8Xv.S.8XwXjXhXrXpX6X0X6XaXy.% 5.pXc.wXqXuXqXgXgXoXvXmX#X#X=X#XoXMX$X>XvX>X>X>X@X:XE.^.E.:X=X@X@X*X*X=X=X=X-X$X$X$XoXoX+XoX+X+X+X+XqXb. XqXv.;.8 NX0X9X7XqX XqXuXuXwX7XeXwXiXiXuXwXwXqXeXqXkXjXqXgXt.q iXoXoXoX|.+X|.oX|.|.b.|.k.b.+X+Xx.k.|.v.l.|.v.x.l.T p x.z.0.0.3.<.<.0.0.<.<.0.0.0.5.0.0.z.9.5.5.......5.7. .@ t U y y y h y h h h 5 @ 4 !.8.{ i.8.t.] > % t U y E h U E +.h 7 O @   ",
"  -.X R _ ..r./ t.*.M P # $ # *.:.:.r.y.6.7._ ] % @ ; 5 5 w < 5 5 y U y K 7 8.D.i.D.D.sXt.8.dXsX6Xq.)  .{ 8./ o I z.q.9.z.z.c.c.t.t.r w rX5.r.t.0.0.( z. XOX.X.X!..X!.}.$XiXuXiX%X%X!.Q.1 b r bX5X7.9XjX7X5XwXhXwXrXwXeXrXpXpXrXjXxXpX0X0XuXaXxX7.% jXpX0XqX7XmXkXkXjXbXbXbXgXvXvXvX$XvX$X$XvX,X>XvX>X<XR././.2X:X=X@X*X$X>X$X*X$X$X=X=X=XgX#X#X$X+X|.+XOX#XqX+X Xp a qX7XiX7X X9XqXqXqXuXqX+X7X9X9XqX#XqXqXgXgXgXqXqXqX|.A #X$X+XoX+X+X+XoXk.|.|.}.oX|.|.XXoX+XoX+X|.x.|.b.v.T T wX9.l.0.b.<.<.<.<.b.j.l.b.X.$.$.$.@.0.9.r.0.8.9.6.7._ & & X @ 7 t 7 i & o . w $ r 9.t.7.q.8.y.*.@ < b ' h E h [ U 9 r 7 6 4   ",
"  ^ . I :.y.5.P ' r +.` 4 @ 0 7.*.y.e.9.9.y.7.*.% % 9 Y ) ) ) O.E E ( O.E $ +.w.#.q.i.8.+.E 8.@.+.+.{ +.{ ' 6 ; 7 5.J r h R R h +.7.$ 5 9.7.q.!..Xt.,.c.6Xr.t.9XqX9X|.x..X.X!..X6XAXCXNXbXZXW BXC 7.!.:.( 5.R ( O.0.9.z.jXaX0X0XaXy.y.5X0XpXpXaX7.% NXjXc. XjXqXBXCXCXbX|.+XgXgXvX#X$X}.S vXMXMXMX>X:X!.S (.(.:X=X@X@X>X*X=X=X$XXX*X#X$X-X-XoX#XoX#XOX+XqX+XqXv.b.;.r. X9XOX X XqXOX+XqXqX9XqXXXb.+X+X+X#X+X+X+X#X#X#X+XvXA gXoXXX+X+XoXk.XXXX|.|.|.|.|.b.oXXX+X|.v.|.b.l.k.|.2 T wXr.v.l.0.x.z.$.0.b.$.j.F.$.w.>.$.$.@.0.6.+.@.r.7.5.' $ 6 ] K 7 & t 9 h h K e $ P q.u.u.q.q.i.] @ 0 M h U [ y 9 y 9 ; ; ; 6   ",
"  =.q b y._ ; w r.r y. .> $ 0 7.L 7.9.y.y.^ 7.! @ % ) +.O.O.@.w.O.O.E @.h X @.w. .5.+.#.#.#.{ O.+.{ +.{ q.` o . { +.y 6.5X5.' e J ) & q..X*.' !.t.y.!.y.y.:.>.7.7.y.<.e.e.t.y.y.!.iXJXNXAXJXn iX6XsXsX6XsX0X0XuXpXpX6Xx.0Xt.t.uXLXNXCXCXjXbXjXNXy.@ SXSXr.z. XjXuXiX X.XOXk.}.e.!.$XiX}.!.S Q.%X%X!.!.W.S A N %X}.@X@X$X@X$X@XoX#X=X=XgX+XoXoX3.| k.|.+X|.v.|. Xv. XkX X Xb.+XeX7XOX7X Xv. X X+X#XqX#XqX-X$X+X+X+X#X#X#XgXa +XXXXXXXoX|.XXoX%XoXoXXXXXoXoXoXk.|.XXk.XX+X<.e.t.V # P r  .h h z.c.wXhXj.$.0.r.$.0.0.0.6.5.7. ...>.`  ...+.o r q.6.{ M ' q.+.` u.q.X J t.] 6X5Xq.t.] > t M 7 < o . X o o & $ X X   ",
"  n r 5 q % V u.!.> :.' 6 @ 5 y.L 9.9.y.y.y.y.*.% @ { ) O.o.) [ ) E @.E ... K z.D.0.@.6.#.@.w.8.6.q.q.c.rX_ X ` 7.R Y ( 8X0Xt.+.K e $ I t.t.r.t.6XuXaXjX7XeXv.c.6XwXpXuXpXpXpXbXjXjX0X5XAXbX8 LXSXBXZXVXZXhXjXxXNXjXaXpXz.z.hXcXhXLXJXZXNXjXbXNXy.@ jX5X5XxXhXv.9XZXGXSXmXuX9.gXCXDXbXmXJXgXoXXX4.MXFXMX3.m Q.y.Q.}.}.%X}.%X$X%XiXgX#X$XgXgXuXiXiX9X Xk.0.<. . Xx.9.iXv.e.v.v. XqX6X X|.x.x.k.x. X X.X|.l.k.l.g.!.%X.XoXvXA =XXXXXb.XX*XXXXX|.oXoXXX|.oX}.XX}.}.|.}.|.|.+X|.<.r  . . .= . U I . h w.E 7 w.9.R 6.6. .+. . .` ..' 5./ ` ` X 5 6.t.q.y.q.i.` ] y / X ` pX` t.t.q.t.' > 0 & o t U ' u.i.w.q.i.M o   ",
"  + 2 >.y.y._ *.y.q y.' 4 @ q 7.<.y.9.7.y.7.9.*.% @ J / ) U U E h j [ e u.9 y yX@.w.w.i.8.#.@.@.6.@.+.r.P 9 h aX9.; Y T a T >.t.jXr o o tXtX0X6X6XpXpXwXrXwXhX5XeX9XwX7X9XuXuXjXgXjXuXuXbX>.p xXfXzXzXxXNXfX8XS.6X6Xv.S.v.8XrXeX7X@.9.5. .T ` p r # GXjXpXwXjXuX9XOXqX-X.XbX|.vXiXgX#X#X%X#XvXnXnXDXMXMXS C KXMX>X#X=XnXvXvX>X#X=XoX|.|.gXnXOXbXbXvX9XgXuXjXz...r.r.z.x.c.7Xx.0. XuXjXuXjXiX9X XgXqX+X#XgXvXiX#XOX%XQ.4.OXA XXXXXX@Xb.XXXXXXXXXXXXXXXXb.XXk.b.XXk.|.}.+Xl. Xe.p r.E E O.9 6.t.e @.z.w.+.6.q.) 5.5. .O. .)  .)  .7.7.5.] X 4 t.t.i.y.7.u.` Q ! I % ' i.h 8.t.8.t.' # 6 4 # 8.t.8.8.i.w.q.t.y %   ",
"  2 6 9.e..Xe.t.t.e ! _ < $ r e.9.y.y.y.e.7.y.*.X @ { { @.[ ) E ) E E U +.{ 7 yXu E #.8.8.8.q.@.6.6.+.q.Y . 6.5.) Y  .5...:..X*.t.# X Y 8X5XD..X.X.Xx. XOXOX9XOX X X X|.oX9X.XOX X9XqX9X9XB 7.jX5XS.8X6XyXBXVXNXpX6X0X0X X6X5Xt.5X5Xz.c.S.c.9.6X' & DX8X XOX.XOX|.}.}.|.oX$XiX#X$X$XoX$X$X%XXX%X%X1.Q.vX4.A MX$XXX@XXX@X-X*X-X$X-XXXXXoXoXoXoX#X|.+XoX+X9XkX X+XhX .8X9X XjXwX7X0XuXiXiXqXiXbXiXk.gX#X#X=X$X>XvX>X>X>XQ.oXF <.XXXXb.[.XXXXXXXXXXXX}.XXb.XXXXk.l.XXk.oXXXl.b.| T 9.T T Y R 4 & +.+.9. .$. .r +.6.+.+... .+.{ +.6.7.E ' J O 6 +.' 7.` u.' ` / y w O r w.r  .t.r.t.] $ = 4 7 @.) @.{ 6.8.6.8.e %   ",
"  2 2 5.y.t.t.9.q.J ` ` # @ w e.>.,.<.7.y.:.:.u.X > ] P ) O.@.%.%.#.@.h 9 { h @.6.8.{ +.@.+.{ @.+.6.@.+.6.+.. 7 t.z.c.6X9Xt.6X*.4 J # r. Xc..X X.Xt.e..X|.|.}..X.X.X.X.X.X|.|.oXOXoXOXOXiXC uXbXc.6X9X6X0Xv.v.6X6XrX0X6X5X0X9Xx.x.z.9XxXNXNXjXBXx.6 jX Xe.|.oX}.|.oXoX}.}.}.}.}.$X$X$X$XiX}.}.%X%X%XQ.Q.W.A JX>XXXXXoXoXXXXX$XoX$X#X=X-X+X#X+X+X#XiXiXqXOX+X+XwX XL 9XqX+X7XqXwXuXqXOX#XqXOXOXiXXX#X$X$X$X$X%X@X@X@X@X%X%XZ A -XXX[.XXXXXXXXXXb.XXl.}.}.k.XXXX|.oXoX,.k.l.<.p R ..9 7 R K P !.i.+.` +.5.E ( 6.+.h h E ) E +.@.6.6.R R y % $ ) P ` ] / / P y r U & 9 6X+.Y 7.8.t.K # # # 7 6.@.6.6.+.6.{ ` w X   ",
"  n $ C ! P J ! t.) ! ` # $ w y.~ ;.y.>.>.y.y.7.% 4 6.+.@.O.O.O.O.@.o.R h 6.+.+.) w.8.5.7.8.+.7.6.5.6.9.@.r.q.R . R q.@.q.t.t.r . y % q.z.l.x.x.!.}.r.|.}.|..X|.OX.X.X|..X|.|..X.X.X.X.XiXn CXAX|.9X5X5X6X5X9X8X9X0X0X8X6X0X0X X9XuX6XuX X0XjX0X|.;.| wX.X.XoXOXoX.XOX.XoX%X$XoXoXoX$X%X$X$X$XvXvXMXvXvXQ.n MX%XoX$XXX$X$XoX#X#X#X+X#X#XOX#X#XqXOXOXqX+XgX9X7XwXaXiX0XiX9X7X X XiXOXOXoXOXOXoX#X>X%XAX1X$X%X>X$X1X%X:X%X*XH m =XXXXXXXXX].l.XXXX$XXX%X}.3.g.g.b.XXl.l.oXy.=.q Y h ; = Y I J 6.R h Y +. .E 6.+.R ) K ) U U { O./ U I P r o 6 ] I K { ' ' { 7.{ U & 9 D.@.6.q.q.t.e # @ % ; { @.@.+.+.[ { ] w @   ",
"  n + / :.:._ 5.!.` e *.# # e 9.V _ e.y.7.` 7.:.@ # E @.O.E E [ E E [ E E @...w.O.O.$.+.@.r.0.5.t.i.q.w.w.9.9.z.q.o . 7 y K b UX' t O sX0.0.x.l.}.e.}.e.|.e.l.|.k..X.XOX|..X|..XoXiX%X.XaXb ZXuXwXjXqX5X0X0X0X9X8X0X5X0X8XwX0X9XjX5.. . q ' & . 6Xy.= y..X.X.X|.OXoXoXoX#XiX$XiX#X%X|.oX$XoX%XiXJXJXbX$X!.m CX$X-XXXoXoX-XgX=XiXgX#X+X+X X9XiXuXgXqX7XqX+X7X+XqXpX .pXjXeXqX X X X.X.XOX.XOXOX#XAX%X@XAX$X@X$X1X%X>X:XQ.g.-.3 g.h.XXXX$X].@X*X@XXXXXXX@Xg.}.XX}.b.}.$XXX$X#Xr 3 8 $ 9 w 5 w . 4 r P  .)  .6.6.E { ) ) h U ) ) ) K J K K @ 7 +.{ U J ) { 7.` J U & o +.q.6.6.7.t.e $ @ O ; U ) O.{ ' { ] I 4 $   ",
"  q $ ..7.<./ ` t.! b 5.# $ b e.:.>.y.:.7.7.:.' X & @.#.O.[ E E E U E E E 6.+.w.8.@.5.+.5.@. .+.+.+.+.6.5.7.5.5.0.9.% % I 8 t.BX0X .P c.l.l.e.x.!.}.l.}.|.}.e.}..X.X.X|.}..XOXOX.XiXiXiXiX8 CX XuXfXwXwXjXuX6X5X5X0X7X0X0X5X7XjXT . 2 q mXCXiX6.. b 5 . !.9X#X|.OX|.$XiXoX|.|.oX#XoX}.|.}.oXoXoX}.oXAXvXMXn #XiXoXoX#X$XiX#XiX#XqXOX#X+X+XgXwXOXuXqXwXuXqX|.7X7X0X.XjXwXqXgXjX+XqXOXOXoX#X#XOX#X%X>X>X%X%X%X1X%X@X1X:X'.F F 3 4.-X=Xg.=XXX].$Xh.@XXXXXXX$X$XXXg.oXoX$X|.#XiXA 2 6 T Y Y h J w e h K h R E 6.+.U K R h U { 8.K h K U P K 6 h 5.7.6./ ' ) E J J y $ ; ) +.) +.r.sXp @ w @ 6 ) @.+.) +.' 8.U t 4   ",
"  B + :.7.7.:.` c.` P 7.2 ; e ,.<.y.,.7.y.! *.] % & h h ) @.@.O.{ E E h E @.@.6.9..... .:. .+.5.+.7.` 7.7.0.9.y.<.9.T % r 7.` 6.r.K O.yXl.e.e.}..X|.e.OXoX}.e.e.}.e.!.e..XOXoX.XOX.X.X.XiX, CX XwX8XwXwX5X7X6X X X5X5XS.S.wXhX0.2 0.Z k.MXbXiX.X< < 5 L L bX9X.X.X.X X+X|.|.%X|.}..X|.|.oXOX}.|.|.oX%XMXJXn vXiXOXOX+X#X#XoX#X+X+X+X+XuXqX+XqXOX XqX+XqXgX9X XwXuXe.qX9X Xv.+Xx.OXOXoX XOXiXoX#X$X$X%X>X1X1X$X1X@X:X@X>X:XN 1 -.>X,X*X[.XX1.XX].XX@XXX-X$XXX$Xg.XX$X$X$X%XoX=.q p  .( h K L h 9 h r # 8 ) R J y K r y / { ) y U R K Y ' J h 5.8.7.{ 7.5.L 5 R ] y ; ; ) 6.) t.6X9 % w o y ) ) R ' { { { y K &   ",
"  n + !  .y.5.5. X` ] 7.< = e 0.:.:.:.:.5.y.7.Q X # U E U { E O.) O.O.o.K U O.O.0...(  .5. . .+.` 7.0.7. .6.9.r.7. Xr.% h xX{ U { h @.F.5Xe.k.e.k.e.}.}.}.e.e.}.}.e.|.}.|.|.oXOX.X.X.XoXAX3 ZXAX7XeXeXqXqX0X0XqX7Xc. Xx.5XgXe.y.jXbX*.BXJXBX-.. . . *.NXJ 9. XOX|. X|.oX|.XX|.l.oX|.|.|.oXoXoX#X#XoX#X#XvXV gXiXqXOXqX+X$X+X+XOX+Xv.v.b.v.|.+X|.|. X X X+Xk. X9X X! v.v. XOX+X+XoX|.|.OXOXoXoX#X$X$X%X1X@X1X%X%X1X1X1X:X1XE.D ^.>X>X>X>X=XXX'.>XN F $X@XXX@XXXl.$XXX].}.l.!.3.C 2 p p w w 4 7 h R R @ & M 9 K U K 7 ; y U J h R h r U +.h r ` 6.6.' R +.5.5.6./ K & 9 D.t.{ R ` y @ 5 & 7 h 7 6 w r h y $ $ &   ",
"  q > >.7.7.( 5.r.T Q *.4 4 r 7.:.*.,.,.*.*.' Q % @ e y h E [ E [ E E U h o.{ +.@.@. .@.0.@.+. . .) @.@.@.0.6.q.q.c.E ; h 8.q.{ 7 ; . 7 K x.k.3.l.3.3.l.l.e.e.e.}.e.}.|.}.e.oXoX}.oXOX.XvX0 .X|.5.b.x.0.x..X X X.X7..X_ 7.8 . BXbXbXCX!.;.+ . OXAXiX7.+.P . |..X.X$XXXoX|.}.oX|.XX}.XXoXoX|.oX#X$XoXoX|.e.^ ~ iX+X+X#X+XOXOXqXiX+XqXgX+XkXqXv.+X+X Xb.v.b.z.v.wXwXr.S.v.v.qXqXiX+X|.+X#XoXoX.X#X%X%X@X%X@X1X1X1X1X%X1X1X1X{.(.4X<X:X>X:X:X1.@X_.1.XX=X$XXXXXXX$XXX}.}.}.3.Q.!.m C ..q - 9 r R ' U 5 ; h M U U U U u h & y / U { / J / ' ( y :.9 r r ( 5.) Q y / E u 7 6.h E i.q.r % < 4 ' 4 % o . . . X X 4 6   ",
"  0 2 >.>.7.(  .5.w '  .4 = w :.^ ;.:.y.7.*.*.] % $ y h { { ) ) h U y h h E { 8.t.@.@.6.6.6.$. .) E (  .+.+.' +.7.E . ; O ; 7 ; $ @ $ O 4 v.k.<.g.g.g.4.3.e.3.}..Xe.}.|.k.|.|..X.XoX|.OX,.2 . + + <.;.T C V V V ! ^ C B . @ @ t y.e.pXn . ' CX.X.Xy.ZXpX5.t.t.oX|.|.|.oXoX|.}.|.oX.Xe.}.|.l.k.l.e.l.k..X.XC A .X.XOX+X|..X|.+X|.qXgXqXgXjXiXv.eX7XBX7Xv.eXwX7X7X0X| jX7Xv.9X+X|.+X+X XoXoXoXoXoX%X$X%X{.1X%X{.1X1X1X@X[.1X;X/.4X:X:X@X*X*XN A F ,X>X*X=X$XXX@X=X@Xg.g.g.Q.%X!.A Z -.| P = 7 I < X e ' 8.8.{ y [ 8.[ ] U . . 7 y w E / ) ` R ' R I @.+.) ' / +.E r U 7 . y y.sX7.t % t 7 { 9 t r & @ % . X @ e   ",
"  3 % L ' :. .7.q.p ` 7.6 > r ,.*.:.*.:.` _ *.Q @ $ h R R E E E h U h r r h U { q.9.....O.+.9.6.....K h h h 9  .h 7 $ h K 6 . . . O & Y ( K T 5.>.9.l.l.e.!.3.e.|.k...V <.!.|.k..X!.e.,.W 2 = ;.;.| ,.l.e.l.k.k.l.k.e..X7.% Q $ . 2 6 0 b !.e.. . + q e.JXbXiXe.k.XX}.|.|.|.x.+X9XOXk.|.k.e.}.e.l.k.|.}.y.2 q bX9XOX+X7X+X X|.k.k.0.0.e.<.l.k.l.0.k.l.jXwX0XS.v.v.^ jX7XOX+XOX|.k.|.}.OXXX%XXXXX%X$XW.S G E.(./././.^.{.;X4X(.3X:X*X>X>X'.G ).:X*X@XXX@X@XXX$X=X$X1.4.XX$XiX%XC Z | ^ Y 8 6 ; $ $ J 6.q.t.@.y M U ] 7 7 & 5 e y h ` R Y R ' 9 ( R ( ' R ' J R I h h 7 7 +.t.y.u.t @ 7 & 7 < 7 t & % < y 7 $ b   ",
"  3 + ! _ 7.( e.r.I .. .5 > 8 _ ^ T *.;.;.5._ ] # & Y h 9 h O.#.{ O.[ E U { { R h 8 ( z.t.@.q.) K h G.dXhXw 8 r ; [ { h h E E ] p = % O ; r 9 a J p B J B T ^ 0.e.^ 0.X...| ~ | | ;.>.:.,.8 + ;.0.0.-...<.e.l.l.e.e.g.x.e.0 r . . . t 0 b C ! 6 > @ 0 ;.|.uX#X+XoX.XOX.Xx.x.k.k.|.|..Xe.0.0.0.e.e.e. X X.Xq L bX.X|.|. XgX0X X7Xv.v.v.v. X Xx.x.7Xl.wXgXx.v.z.|.e.p |.b.|.|.|.}.|.|.}.}.|.oXXXXX@X$XQ.N S (./.(./.;X/./.).^./.4X:X*X*XXX&X[.*X=X@X@XXX].XX].@X}.4.}.].3.!.oX}.A Z | ^ V 7 6 r P y % h R E ) R { { { +.J  .+.6.) ` R ) R J J 8 ` r.5.+.7.( { / P u u ; 6 E q.7.{ t @ 7 $ y #.#.R 6.6.q.8.6.7 n   ",
"  2 @ 5.9.y.` R ( h 5.7.5 > q ,.;.:.;.(  .7.y.' @ ; R ' { k h E [ h y j u j ) i.8.9 U 8.6.[ ( ( R tXdXD.xXeX; 8 h l u u & y K q.i.5 . r ; . . = 7 > w ! ~ e. X|. Xx.gX|.7X| | ,.<.<.>.x. XB p x.|.k.k.e.l.e.<.e.|.|.0.gXy.> y.9Xe.7.b > . w .X~ I # B W ~ k.k.k.0.,.7./ ! 5 w r 6 r ! ! ^ V V ^ _ 5.,.( ! ] 8 t.y.0.r.x.r.x.v.x.k.r.x. Xx.x.v. X7Xl.qXv.k.v.r.x.e.V  Xk.k.e.OXl.+XoX+X}.}.}.oXXX%X$X@XF S ^././.[.:X^./.(.(./.4X:X*X*X[.*X@X&X].[.@X[.@X[.].`.g.`.g.l.l.e.|.,.A Z -.| 8 @ M { 8.+.U X . . y { #.{ y R @.5. .5... . ._ / I ( w P ' e I ` ' ] ) ' U U u & 7.6XsXUX6 $ 7 o u U E #.{ #.8.[ / < 6   ",
"  n + <._ *.` ..7.! 0.9.8 # q 0.7.,.7.>.>._ *.! # # M E j u h i.i.D.#.9 U E E @.8.#.o.#.j u k 9 6.GXS.S.D.aXD.; 7 #.k U [ [ D.u q.8.K +..X.X.Xe.~ e.e.|.k.|.k.+X|.v.>.iXOX+X<.<.g.l.3.~ |.a V LXZXxXBXBXBXBXfX X7X9X.XiX4.X bXCXNXbXAXiXOX=.. r ) b > ] L .. .( V 8 . . . e.c. X X| <.0.>.k. XuX.X!.,.:.5.6 C .X.XOX.Xt.|.x.x.e.e.y.0.0.y.0.r.e.9.0.,.e.0.y.r._ 7.n e.7.>.>.y.e.e.<.<.<.Q.3.3.Q.`.`.`.].'.Q.^./.^.3.3.{.;X/./.;X'.h.{.&X&X&X@X{.'.].'.'.[.@X`.].}.g.2.e.}.Q.3.3 A Z A 2 % < { 6.) #.@.+.i.@.@.{ U 9 R ) ..! / ! ! _ / *. .r.p +.( 5. .` 7.{ { { U { y y sXsXy.sX5 $ 6 O y O.#.+.R E ' { U < <   ",
"  n X J :.*.5.r.` ` 9.q.2 $ B 7. .' ! >./ V W B 4 4 K U h h & U 6.[ h E O.j E ) R y R w.[ E w.h R BXwXrXxXaXD.o.8.i.8.i.@.O.xXI . K 5. .x.iXiX.Xe.}.e.4.e.k.}.| + 1 q >.gXgXl.g.l.k.vXvXbXZ Z LXmXfXv.eXfXmX9XOXoX$X}.%X$Xy.n ,.9XvXmXmXmXCX.X> X J b 7.7.9 r 8 X % 6 # .XmXiXOX#X+XgXvX#X#XqXgXOXiXNXuX9X6 y.bXuXiXiXiXAXuXjXbX9XAXiXuXiXOXuXbXpXgXAXiXiX9X.X!.,.^ iX%XOX#X#XiX%X|.2.%X$X%X$X%X@X$X>X>X,X<X<X2X(.(.@X].'.G /.^.F h.).).'.'.'._._._.h.h.}.].`.2.g.g.2.!.3.!.y.3 n A 0 b > . r & U [ O.w.#.#.{ E & @.O.' ` ! P P W _ _ 5.) ` J e ' R / ` ' / { U 7 U & 6 *.y.UX!.w $ M & ) 6.E U { { { { { 6 @   ",
"  W X V .. .9.0.( I ) >.# $ r T L / L L 2 6 4 8 w 6 P R j h u +.8.6.{ E j O.T p B | r.v.7XjX7Xv.v.jXqXiXgXbXqXjXSXSXSXSXSXJXZXbX X3 . bXkXoX%X|.}.}.}.}.|.%XOXe.C n . . T iX|.|.%X#XvX!.MXZ A bX}.}..X}.!.].!.}.%X}.%XoX}.$XuXe.p q 3.|.e.k.!.0 6 q ;.| r.R r # + p w + 9XbX#XiX$XiXCXbXgXuXbXbXgXc.pXt.e.V e.|.}.k.}..X}.e.!.e..Xk. X|.e.e.k.k.k.k.|.|.oX.Xe.iX,.,.%X.X.XoX%X}.%X}.%X@X%X%X%X%X!.1X1X%X[.[.{.1X&X&X>X[.W.S (.2X>X:X1X[.@X1X1X1X@X:X>X*X].].2._.g.2.3.}.e.^ A q q q V ' ; ( F.u & 7 y y 7 j . . +.6.R P ( ! I r 8 L p h 7 5 h w I / P I r J y u u u ; u u.t.t.y.y @ y o U q.O.[ [ { O.O.P & >   ",
"  =.X q  .(  .:.P +./ e @ + ; w b 6 = = w w w w 4 4 ) q.@.%.U A.@.#.O.[ E p T oXOX|.#XgXgXoXk.}.XXXXoX$XXX}.}.}.g.l.XXXXXXXXoXg.JXvX3 CXXX3.}.3.}.}.XX%X#XiXvXvXAX>X!.;.2 q 0.3.}.l.Q.4.4.-.n XXXXoX$X%X$X$X%X%X%X%X%X%X`.3.$XiX%X|.l.oXXX|.3.=., 2 V r J p = O r 5.| + C mXgX$XvXCXJXJXbXuXiX9X.Xy.. 6 .XV iXe.l.|.|..Xe..Xx..Xr..X|.x.OXl.e.}.k.k.k.|.k.t.e.OXy.;.OXoX}.%X%X}.!.}.Q.`.%X%X[.%X1X[.!.1X[.Q.1X[.[.[.[.'.G S (.4X1X[.1X{.[.'.{.{.].].'.].].}.].}.}.XX%X$X%XgX$XX , y.7.0.h E @.j { #.} u r 9 . +.r.9.7._ ` ' Y ^ _ :.! ' R Y Y / 5 ] u.{ R K h h u u u h ] { 8.u.y & < o [ i.O.@.#.O.O.[ U t 4   ",
"  -.+ + 5 w J ] 6 0 q X @ @ @ # > $ 0 I e p Y 5.$ 9 #.6.E o.k @.) X.X...Y p >.l.3.3.3.<.h.h.`.g.h.<.1.1.`.}.3.`.3.3.l.l.g.XXXX}.oX-.3 MXXX].}.h.3.g.}.XX$XvXvX%XiXAXbXMXvX!.A A 3.%X%X!.!.3.m vXXX@XXX@X$X%X%XQ.].%XQ.Q.}.Q.Q.}.}.].XXXXXXXX$XvX3 2 2 p B w 6 ] :./ e. XC ^ #XXXl.oXuXqXt.5.B 2 . V ~ *.t.r .X.Xe.}..X.Xe.|.k.k.|.e.e.e.|.k.l.e.l.k.k.k.!.}.e.e.;.V OX3.}.}.!.}.Q.`.!.].].%X].%XQ.1XQ.1XQ.1X1X1X{.[.W.@XG H ^.4X1X[.^.1X{.[.{.W.).)._.).'.`._._.`._.g.g.1.!.iX=., 7.r. .; T Y ( O.o.} h o . I y...,._ Q _ ^ >.0.>._ / ! P Y Y r I )  .` +.+.u 9 k g u i k U } U u y t * +.i.@.#.8.@.w.[ 8.J @   ",
"  4.+ @ % X @ $ # $ % @ @ @ > 2 > $ # 2 6 B 5.( 8 9 ..$.X.O.h  .9 K ( P | V -.g.2.2.3.1.<.<.1.4.h.XXg.-X}.2.2.e.l.g.].g.g.].].`.[.(.S }.XXg.g.g.h.g.3.g.%X$X%X%X$X>X$X$X$X>X>X}.4.@XvX}.$XQ.3 nX$X%X}.%X].}.].].].].`.%X@X@X}.[.}.].2.}.}.}.}.$X;.1 . . . . . M 7 / w 6X6XL + ^ ;.;.e X % 8 9.BXLXPXSXjX_ n uX.XoX.X.Xe.}.}.e..X}.`.e.|.e.e.l.l.}.k.k.k.}.}.e.k.3.C oXe.}.!.Q.Q.}.`.].Q.!.].].[.%XQ.Q.1XW.[.W.[.[.[.).'.1.).~.2X1X{.1X{.{.{.{.).'.{.'.).)._._.h._.2.g.`.2.Q.!.%X, 2 ;.T @  .E j E g U U o @ q.' *.~ ^ *.~ ~ _ 9.( L I J J J B r 7.] r h K h h j } [ h u y u 9 y y { 6 & #.O.[ o.#.#.w.@.#.U #   ",
"  y.$ % > # @ % % % + % @ > > 5 2 # 5 6 0 8 - 4 5 9 T @.$.X...>.8 V  .T ;.| | }.1.g.`.`.g.h.g.g.l.@XXXg.g.g.{.g.].].].].].].].`.'.(.^.].1.4.1.-.`._.F 3 `.@X%X].@X$X%X%X].`.Q.[.@X$X@XW.}.].1 @X].].[.%X%X@X%X'.'.].%X].%X%X@X%X2.Q.2.].Q.!.%X$XZ 3 y.!.%X!.%X.Xe.!.e.q :.( +.T B q + q 0.<.z.mXBXCXSXPXNXC JXe.|.l.e..X.X}.e.e.e.!.e.3.k.e.e.e.e.e.t.}.!.e.!.!.y.C .X!.Q.!.Q.}.}.Q.Q.}.}.}.`.].{.[.Q.1X1XW.[.1X[.[.'.W.S G R./.^.{.1X1X{.{.).'.{.{.'.)._._.2.2.g.2.2.2.2.e.Q.!.2 ^ k.| 9 K k E E [ #.9 @ @ y.Q ' =.=.^ ^ *.' t # M P R y J 5 / P p p p h a k g 7 g u 7 ; 7 ; < ; r 7 9 9 7 * ; : 7 * : 7 ; >   ",
"  ,.C 2 # . . X X @ . % > < 5 6 $ 6 6 6 6 6 + . . # = % + q a a h | 8 | ,.<.-.}.g.`.].].g.XX].XX].g.h.h.{.].].].].{.{.XX[.@X{.)./.(.(.<X*X*X*X*X$XXXF N m _.@X].].%X].[.].].].'.'.).'.W.Q.].m @X].].@X}.@X@X[.@X[.'.].].].].].[.Q.W.2.1.].@X%X$X3 4.vXMX>XvXvXvXiXvXMXmXy.r t.0.r a 0.|.l.<.T p p  .gXr.BX2 .X.X}.3.!.e.e.e.e.}.!.}.e.!.e.e.x..X.X|.e.|..Xe.e.e.,.V }.Q.!.!.!.}.!.!.}.}.}.2.Q.}.Q.%X'.'.W.{.W.W.'.).W.[.1X1X~.;X1XW.{.E.{.{.^.{.).'.).'.'._.)._.Q.Q.2.2.3.g.}.e.+ V x.y.M / E h h j ; . & @ u.W C Q Q ! Q *.*.! _ ' J w L y.' ] ` ' @.E 9 g 9 g : ; o . . o & ; ; y 7 O ; @.[ U ) { [ w.q.{ $   ",
"  4.t t y I I M e w 7 4 # < $ p _ I 6 8 p B T T B p q ( l.|.x...l.z.Z C -.;.A oXXX}.].XX{.XX].].].].].'.{.XXXX{.[.{.].{.XX[.].m./.4X/.1X@X'.'.].[.].[.].3 N 1.>X%X1X$X[.{.{.{.).).'.).'.Q.Q.A %X'.{.[.[.[.[.[.[.].'.{.@X@X].].].].].].].].%X@X>XN }.[.Q.Q.Q.Q.Q.].%X$XMX| + 2 2 q T <.e.<.l.<.e.3.-.q 7..Xr !.}.!.}.}.k.}.oXOX.Xe.|.}.|.y.oX.X!.e.y.e.!.e.e.e.y.<.n !.!.%X!.e.Q.Q.%X!.Q._.`.`.`.Q.'.Q.[.1X{.W.{.W.{.).{.W.^.(.;X^.{.{.1X{.{.{.).).'.'.'.'.`.].`.`.2.3.Q.3.Q.Q.V = V ^ ^ L ] 9.@.E h 7 ; 7 * y.t.y.Q Q ^ ! ~ ! .._ _ *.*.7.7.Q :.5.8.O.h %.w.%.$.o.o.O.{ h 7 o . o $ O o A.tXi.p.i.A.w.#.i.P $   ",
"  Z > % 5 K U P ] ( / P ` 4 ; +.$.9.>.( 5.<.9.l.7.<.L e.v.b.0.0.<.<.;.A Z -.A `.}.].XX[.XX{.XX[.].'.{.g.].&X[.{.].h.g.'.h.).'.h.;X/./.(.h.).).h.).).[.:X).3 3 ].@X:X*X@X{.'.).).).).'.'.1X:XS <X'.'._.).'.{.[.%X@X@X@X@X[.{.[.@X[.].].].Q.[.@X%XA 2.}.].%X%X@X@X}.].$X}.%XAX9.2 8 8 , | e.>.;.4.l.g.<.}..X!.e.OXe.|.e.,.e.!.e..X.Xe..X.X|.x.}.e.e..Xe.oX%Xe.Q.!.y.b OX!.!.}.Q.!.Q.!.Q.}.Q.`.2.A Q.%XQ.'.W.{.W.W.{.).).^.'.^.S <X[.1XW.{.{.'.).'.{.'.'.'.'.`.'.`._.2.2.2.Q.2.Q.2 V 0.j.f.c z g j k h . : O.u X UX!.:.*.=.^ =.^ Q W ! W W W b ] *.' K & #.$.F.j.w.O.X.%.i.D.8.K & o @ & X { q.[ #.} [ { Y P 0 +   ",
"  + + @.F.fXG.G.S.F.H.yXsX; = T a  .0.0.$.0.0.0.z.b.a l.l.X.>.<.-.;.3.A A }.-.-.].]._.].].{.XX[.{.{.'.{.&X[.G N N N H N H ).'.G (./.(.[.).).).).'.).'.'.'.1.F H 4.:X[.1X[.W.W.).W.).{.'.'.:XG <X1X{.[.'.W.E.{.[.1X[.1X@X).{.@X{.[.%XW.W.].Q.Q.Q.3 1.!.%X@XXX%X%X@XXXoX%XMXMXCXbX0 Q ,., e.q _ iX.X}.e.y.OX7.;.BXe.^ V ~ ~ =.;.-.y.3.e.}.!.e.e..Xx.e.e.t.|.k.!.e.<.B }.e.}.e.3.Q.Q.3.3.Q.3.2.`.H G %X_.).).'.W.W.).W.).).).:XS <XQ.{.W.1XW.W.{.'.'.'.'._._._._.Q.2.2.2.2.2.e.%XV h $.f.s.s.f.n.s.c c c A.A.l - R y.! ! ^ Q Q W W W L W W W L L ] K $ ) #.9 o.@.o.o.O.@.#.8.#.h 7 ; * 6 . ) i.@.O.@.{ +.K U 7 #   ",
"  + 8 z.A.G.L.H.H.G.H.L.8.5 ; E j.F.b. .r.b.v.0.wXkXp <.<.<.-.<.e.3.Q.3.A F -.H `._.].].].'.'.'.h.{.h.h.h.h.h.h.h.).m.G F 1.h.1.^././.1X{.[.[.[.[.*X:X:X[.:X:X:X:X:X:X<X[.W.W.).).{.[.[.W.W.S {.{.1X'.{.{.1X).1X[.[.[.[.@X1X{.{.{.{.[.].%X1X[.].1 ].@X>X%X%X%XQ.%X%XMXDXiXOXAXvX!.+ *.^ 6  .0X0X.X.X.Xe.5Xp ^ 6X( .Xe..XXX|.k.e.3.<.;.~ e.e.,.e.}.e.}..Xe.k.}..Xy.B k.3.<.3.3.e.!.2.2.!.3.2.4.2.`.Q.`.`.Q.).Q.).)._.).).{.W.F 1XE.{.{.{.^.1X{.'.'.'._._._._._.g.g.Q.l.2.4.!.C e 8 a j z k k k z &.g c V.d c ; X L ] ! ^ ^ ^ ^ Q L T V L K I ! P / e : O g 7 ; 7 7 9 7 7 : 7 * 7 o o * o O.w.[ { @.{ { E h 7 ;   ",
"  + w Y T $.%.A.A.H.H.H.G.U a #.( $.$. ... .5...| p V p A A A Z -.-.| F m A H | 4.h.1.h.].].h.).h.h.m.).{.{.^.{.{.[.{.{.{.^.`.h.;X/./.:X[.{.[.[.[.@X[.@X[.{.{.{.[.[.[.{.{.{.[.{.{.).W.'.).).S ).W.).{.^.{.{.{.W.{.[.[.[.[.[.{.[.[.[.%X[.W.W.[.Q.1 :XQ.:X>X>XQ.}.`.!.nXvX}..XoX!..Xe.+ ^ >.- t.5XoXiX.Xy.! 6 . . OXgXwX|.iXOX|.e.<.l.l.k.iX.X3.e.7.3.3.e.e.<.;.,.! q x.e.3.e.3.3.e.}.}.e.3.1.-.2.1.1.4.F F F G 4.G G 1.G E.N S ).W.W.W.{.'.W.Q.'.).].]._._._.h._.Q.Q.Q.3.}.oX1 + 8 a T f.@.j k l s d z d v k h ; @ y.` ( ^ L W L L V V p w ; 6 9 h e 9 O ; ; ; ; O ; 9 7 u 9 h ) { y o X w.#.+.@.{ ) E y ; u &   ",
"  , p p R E $.w.A.H.J.H.D.I 8 @.( 8 6 T ......0.9.<.8 1 + + Z | -.4.3.-.<.F m F 1.1.-.1.-.1.)./.^././.(./././.;X/./.;X/./.;X/././././././././.(./././././.{./.^.^./.^.^.E.).^.G E.^.W.E.E.).N W.E.W.).{.{.W.W.W.W.).).'.{.{.{.].{.[.W.Q.W.'.Q.Q.m Q.@X@X@X%XQ.].`.W.}.%X%X%X%X%XQ.$X|.Z 3 ^ ^ |..X!.=.C , , V *.,.;.<.k.e.<.4.,.,.<.e.e.3.e.y.<.;.,.,.,.e.,.~ V J 8 3.<.,.e.e.,.-.T A -.-.3.3.3.3.Q.Q.2.4.4.F F -.G -.F S m S W.W.W.W.W.1.G W.W.1.1.-.-.F -.-.4.2.e.2.e.3.V 4 q 8 j j.&.c c f.c c c v s.x k j O # t./ J h h h P r 9 h p h P p r ( +.' 5.7.+.5.>.( ..( Y ! | :.>.{ 5 & o 8.@.@.X.E ' / ) U 7 7   ",
"  2 _ J I E 8.6.O.w.j.z.+.w 5 Y / ! q 0.S.v.fXjXuXv.;.a | ^ Z -.>.g.$X=XvX$Xm 4.].@X*X*X*X:X:X1X<X&X;X&X:X&X<X<X:X:X&X:X&X&X&X).~././././.4X4X;X;X;X/.4X;X/.4X4X4X4X4X;X[.{.).^.W.).{.E.W.S N ^.[.[.[.[.1X{.{.1X1XW.{.{.'.W.W.W.W.W.Q.1X[.!.W.W.n A }.Q.%X].]._.Q.`.}.%X}.%X%X`.%X}.}.}.-.<.|.XX%XoX%X%X4.+ $XiX!.!.}.iXoX}.}.}.k.e.x.k.!.}.e.e.e.!.t.}..X.Xy.:._ q e.k.e.OXiX.X<.,.,.<.3.!.|.$X$XXXXXXX%X$X*X@X@X@X@X].@X3 4.:X@X[.XXXX@X$X$X@Xg.-.H 1.3.Q.3.3.!.!.e.<.<.~ q r $ X.$.&.&.z V.V.V.c c c c j 9 & @ K w $ w h p e 9 ; 6 O .X.Xy.<.,.<.>.e.e.<.>.<.>.>.>.>.| >.( T Y @ @ o U O.h ) +.{ { 8.l u 7   ",
"  X > / y K ) 8...@.@.u.8 q B :.y._ :...| 0.0. .9.;.<.| <.<.<.| 3 }.iXMXMX}.N 4.].].].'.{.).).h.h.h.m.&X&X&X{.&X{.).).'.h.m.h.^.~././.(.^.).W.{.{.[.[.{.{.{.[.[.[.[.{.[.[.[.[.&X1X[.[.[.1XE.m 1X1X1X@X1X1X1X1X{.{.{.[.[.{.'.{.{.[.{.1X>X1X1X%X>Xm m $X@X@X@X%X%X}.`.`.%X%X}.`.}.}.Q.`.!.`.g.3.2.2.3.Q..X-.3 3.3.-.3.3.3.1.2.2.2.1.3.3.<.,.<.4.3.3.3.2.e.}.3.4.<.~ L e.e.|.y.e.k.,.4.,.,.<.4.-.3.-.-.<.1.1.1.2.1.1.].'.1._.N 1.2.h.1.).W.W.W.2.W._.1.2.2.Q.Q.3.Q.3.2.-.,.,..XL q @ 4 K h h g d j : l c c k u ; o ; X 6 ..w.9.+.@.@.( . . r.<.<.e.<.;.;.~ ~ | ..;...>.<.>.>.<.| Y ( t @ o j @.U @.{ U U U & U 7   ",
"  , r _ Y / P 7.t.5.*.r > e B W e.! e.9...9.>.J Q V Z -.H -.| g.$XCXMXvXMXvXA 4.XX@X_.h.).{.).'.&Xh.{.&X{.g.{.h.{.{.{.{.{.h.m.^.(.(.(.(.R.~.^.^.{.{.{.).^.).^.).{.).{.).{.{.[.[.[.[.[.[.1XW.m {.{.[.1X[.1XW.1XW.W.{.{.).'.{.'.{.[.W.Q.{.Q.[.[.%XA n MX1X@X%X%X%X%X].Q.%X@X%X}.}.}.%XQ.`.2.3.3.3.3.Q.e.3.3.Z $Xe.Q.1.2.Q.1.Q.1.1.1.1.3.3.3.3.4.4.3.1.3.3.3.!.3.e...^ e.<.,.~ | L y.<.;.-.-.,.3.-.-.-.-.1.h.4.4.1.1.1.].1.h.N 2.]._.h._._.W.Q.W.W.1.Q.2.2.4.3.4.3.3.2.-.,.=.^ C ' % . . & j l &.a.x c &.l g . . % . . ` q.$.$.$. .j.S.r p k.y.>.<.>...>...| ..| ..>.>.........| | ( w % o U #.{ [ [ U y u 7 u 7   ",
"  0 n ^ ] ' ] 8.!.i.y.2 X 2 q V =.L ! ( X.v. X0.7.=.;.-.| 4.| XXMXCX#X|.}.`.A 2.$X%Xh.h.h.h.h.).h.h.h.h.h.h.{.h.h.).{.'.{.&X/.;X~.~.&X{.@XW.~./.;X1X{.).1.W.W.).).).m.1.^.).).).{.[.[.[.{.[.N '.1X[.[.[.1X{.W.^.W.W.).W.W.W.W.'.W.1XQ.{.Q.Q.'.Q.G N vX%X@X%X[.].]._.2.2.`.].}.].}.`.}.`.2.2.2.2.2.Q.2.}.4.C e.2.g.3.1.Q.4.W.1.1.4.4.3.<.4.1.1.2.4.4.3.3.2.e.e.y.^ L 0.e.e.:.| | | -.,.4.-.Z | }.=X$Xg.Z -.1.-.2.3.1.2.1._.Z F Q.h.W.2.W.2.W.2.2.1.1.1.4.4.4.4.4.3.-.4.4.^ ^ ~ L a &.V.A.V.x M.M.V.a.s.p.&.j i j o.o.g T 8 ( D.@.@.0.k 5.5.| | >.<.>.;.| ..,.;.....-.| >...>.0.$.) 6 @ o y [ y 7 y y t } y y &   ",
"  n 2 =.Q ] t y.t.q.u.0 % > ' 0 C C 8  .0.( ....>.;.-.-.| | -.<.4.4.F -.1.4.A 2.XX].h.1.h.G h.g.h.h.h.h.).h.h.).).h.h.'.h.^./.*XH F n.-Xn.kXN D E.{.h.G m.m.G ).G G G W.E.1.W.).'.[.[.).'.{.N ).Q.'.{.W.{.W.{.W.).).).W.W.).{.W.W.W.W.[.W.W.Q.1X4.m @X].[.Q._._.`.`.`.2.2.`.`.]._.`.`._._.Q.2.2.2.2.Q.].m 1 C }.`.Q.2.1.2.W.1.G 4.Q.Q.4.4.3.4.3.2.4.3.3.e.3.<.<.T V e.e.y.,.~ ;.~ Z ^ | A Z |.oXiX`.3.3.A A g.g.1.2.3 1._.A A Q.4.1.1.Q.1.2.1.1.1.3.1.1.W.4.4.3.4.;.4.Z -.e.T E f.V.V.a.f d.M.M.M.M.d.a.v f l a.[ &.l x a.l 7 u & * . w y.>.>.>.....| ;.,.>...| | ..| <.^ ..X.( ' U @ @ < o o o o o 7 U u y *   ",
"  C > W =.*.r y.r.q.t.0 % # n C =.0 p 0.r.5. .>.<.>.| -.-.-.-.-.4.4.4.4.2.-.A 3.g.<.g.XXg.g.h.g.h.h.h.h.h.h.h.)._.h.1.h.g.b.-XU.-Xs.H n.N n.n.n.b.H F F G h.W.W.S G W.'.W.W.1.G h.h.'.'.'.[.m Q.'.'.W.'.W.{.{.W.).).Q.'.'.W.W.W.W.W.W.W.W.Q.Q.Q.%Xm $XQ.%XQ.Q.].].}.`.`.2.`.]._.3.2.1._.2.W.W.Q.2.W.2.W.1.3 S }.Q.Q.2._.W._.W.1.4.Q.Q.=.4.Q.Q.3.4.3.3.3.3.<.e.e.T B b.>.>._ <.;.T A p 2 V e..XOX}.e.g.<.-.Z | | -.-.Z -.Q.S C `.4.1.W.1.1.4.4.1.1.4.4.<.y.4.4.4.4.3.4.Z n T p $.c s.x f a.a.d.d.M.f f x a.a.v x a.x a.M.V.a.k o o O ; J e.......| | ;.| ....-...| T Z X.| ..V T Q t @ o y & 7 7 * o 7 y t 7 &   ",
"  C 2 *.) :.r 8.r.w.r.r % + V UX!.L q ..0.y.0.>.<.>.,.| -.-.-.h.1.3.2.2.3.4.q 3.g.<.g.g.g.b.].g.h.h.g.h.H 1.h.`.h.F -.F n.n.U.n.U.U.n.U.n.n.n.n.n.b.a H `.].h.1.W.'.[.'._.2.1.G G 1.h.'.Q.].m 1.Q.'.W.{.W.1XW.W.).W.Q.).Q.{.Q.W.W.W.Q.Q.W.Q.Q.Q.%X1 ].].'.Q._.}.}.`._._.2.2.1.1.1.1.1.1.1.1.Q.).).Q.W.W.4.m 4.Q.W.2.1.1.W.1.1.W.W.W.W.Q.3.4.4.Q.g.<.<.<.e.l.e.t._ T 0.( Y V >.0.<.~ a 1 >.qX|.3.l.l.e.,.}.Z a -.Z ~ 3.=.Q.-.N %X2.2.2.4.1.3.4.4.4.4.4.3.4.4.,.4.4.,.=.C C ( a z c s.M.x a.M.M.M.M.M.N.a.N.p.C.M.V.d.d.f f a.c * . . # 8 X V | | T ^ Y ..X.| T T T p T T p p V T e X . o & 7 & * * u u 7 y 7 7   ",
"  C 0 *.! _ r t.A.z.w.e + @ q _ B B | L e.>.5.0.0.<.| -.-.-.-.-.-.4.3.3.3.4.q 3.g.g.g.h.-.g.h.g.l.g.g.g.3.-.g.XXg.b.n.b.n.U.U.U.n.U.U.n.s.n.s.n.n.U.n.g.A F F -.1.Q.Q.F G G 1.1.F F 1.1.`.].m Q.'.Q.Q.W.W.W.W.W.Q._._.Q.W.Q.W.Q.Q.Q.Q.W.Q.Q.Q.Q.Q.m Z !.}.Q.`.].]._.W.2.h.2.1.2.1.1.2.1.W._._.'.Q._.).2.W.A W._.W.1.W.W.W.W.W.1.4.W.4.4.Q.4.Q.y.^ V = a ( ` ! P 8 w | ..T 8 V L  .| X p .X|.| ;.<.;.| -.a , N ;.A A %X4.3.4.n Q.4.4.1.4.4.4.4.4.4.4.4.4.,.4.4.-.4.,.,.n ^ >.$.f.V.V.M.M.x f M.M.M.M.a.d.M.M.Z.M.f a.f N.a.f p.p.o.; g O . X T ( | T p p T V p p V a p | a T T p p w 9 ; h y u ; u 7 y y 7 7 <   ",
"  n 0 ^ W Q P r.t.r.+.w % > , % B T >.V , >.0.0.0...~ | | | -.-.-.-.4.<.-.-.3 <.g.l.l.g.f.g.| | <.g.<.g.3.4.XXl.l.n.b.f.s.f.J.U.n.kXU.n.z s.s.X.n.Z.n.n.a p 3.-.4.F F -.-.-.G -.-.F F ].2.2.A -.Q.4.W.W.W.W.Q.W.Q.Q.Q.Q.2.W.2.Q.Q.W.Q.W.Q.W.Q.Q.Q.C 3 Q.3.Q.Q.Q.Q.3.W.2.2.1.1.h.h.h.W.1.W.].].)._.).).W.1.3 G _.W.W.W.W.Q.W.W.W.W.G W.W.1.3.4.q X 2 8 Y ) 7 O O @ = ( ^ V p p T | | 0.:.|.e.^ | ,.;.V A C | ;.Z A q <.-.=.4.n 3.-.-.-.4.4.4.-.4.-.4.4.4.-.,.-.4.-.-.^ C ! 9.j.c s.s.M.V.x v d.f M.M.f a.d.d.N.M.a.f x M.a.Z.V.V.V.k ; O h Y $ E  .6.T ....T T T X.Z T X.X.| X...Y T Y a 9 j E j u * 7 h 9 7 &   ",
"  0 , 0 w 2 w J P ] J 5 % > > < V ....T T p ( 5...| | -.,.-.;.-.| -.<.3.l.3.2 <.g.g.g.b.g.g.| 3.g.-.g.<.<.l.l.h.h.| h.n.H H f.X.f.n.f.n.n.n.n.n.n.n.d.n.X.3 ^ 8 A H 4.-.F -.-.4.1.3.-.-.3.!.3 -.Q.Q.W.4.W.Q.Q.Q.Q.Q.Q.W.Q.Q.Q.Q.Q.Q.Q.Q.Q.Q.Q.Q.!.S A Q.A 4.Q.3.Q.Q.`.Q._.h.2.1.h.W.h.)._.).W.W.W.).W._.W.D 1._.W.E.W.W.W.Q.W.W.4.W.4.W.Q.3.3 2 2 q h a 7 9 9 r ; @ X 6 L :...B Y 7.<...>.;.^ T | ;.,.<.e.<.3.-.3.e.3 ;.-.-.m ,.4.-.-.4.,.4.,.4.,.,.,.-.,.-.,.4.,.=.,.~ ^ ` ; O V.M.M.N.f a.B.M.B.M.f M.M.a.f a.a.x f a.M.M.a.a.s.l g g X. .O X R ( ....| T .. .^ X.p V V ( ..>...T T r 6 ; 7 7 * 7 9 { h { &   ",
"  , W _ :.I B B b t 0 % < > < > L 0.7.Q e._ p 9.~ 0.<.<.<.<.<.,.<.<.3.<.<.>.3 X.<.<.l.l.<.<.r.3.k.| l.b.g.l.<.b.b.b.h.X.a A l.f.z z s.z f.s.z s.f.s.z X.a p 3 3 -.4.-.F -.-.1.3.4.4.-.A A 3.3 3.3.Q.Q.Q.Q.Q.Q.Q.2.Q.Q.Q.Q.Q.2.2.Q.W.Q.Q.Q.Q.Q.!.!.=.=.3.C C =.4.3.Q.`.Q._.`.2.W._.)._.).).).W.E.W.).W.W.^.(.^.].W.W.W.E.W.Q.W.W.W.W.W.W.Q.4.m , 2 q a = 7 h g g h a 8 h ..v.@.q >._ L L ~ ~ V L | ;.;.>.| -.| ~ <.~ Z C -.-.n 4.-.-.-.4.-.,.-.-.-.-.-.;.*.=.-.=.-.-.W W 5 . o %.M.V.s.d.s.M.d.M.M.M.v a.a.a.a.a.l v f f f f f d * s ; 7 # . X 8 8 8 T p I ( ..( h Y Y R R X...@.O...h ; p [ h 9 l [ h h 9 U &   ",
"  + 9XuXc.t.S.S.y.u.] u.> @ > > X # 5 q > r . q r r r V r 8 q q V L T p V V 2 ^ ^ | X.( l.l.<.T k.j.0.0.X.p A ^ Z <.X.s h.X.<.f.f.n.s.s H f.s n.z s z a f.b.a 2 -.y.| Z -.4.3.3.3.4.-.=.4.;.q ;.4.y.4.=.4.=.=.Q.3.3.2.e.2.Q.2.2.Q.Q.Q.Q.!.Q.Q.Q.Q.n C 4.C A S -.S F 1.Q._.`.'.].].]._.'.).).W.W.E.1.G ^.^.(.^.2.W.W.W.W.W.W.S F G F S 4.G =.n 0 2 = q 2 ; h h h h h h T E T V I ( ..T ~ ..L L ..:...| / ^ T T ^ ^ ;.Z q V V q *.=.-.=.Z ^ =.=.^ ~ =.~ ~ =.^ =.~ ^ + 8 K i.c x V.a.V.c M.M.x s.M.f f f a.f l d l i u #.%.%.H.A.} O . O X @ h p h T h h T Y X.` +.( R y p 9 r 8 ; r 8 % . 9 g 9 g y y 7 : < o o   ",
"  + .X6X7.9.{ 0.w.D.t.UX' @ @ % P J 5 2 W W ^ ] b B C b L ;. XiX X9Xz.e.9.7.2 e.e.l.v.iX9Xr.2  .l.v.0.j.<.0.| <.#X!.3.e.4.<.X.X.l.n.s a a g X.j.k 8 j X.o.k a ^ P e.V 8 V 3 q A q B A V C n q q 0 C ! C n V C ^ ,.3.3.<.-.-.,.,.*.*.4.*.4.<.,.C q , , q 0 C -.=.Z Z 4.4.F 4.2.2.W.4.W.W.W.W.W.W.G G ^.^./.(.(.^.E.S W.W.S C E.m S F F F G -.S -.A 0 a 2 a 8 9 Y K 9 5 ; = 7 h ..I ! ( ! T ! _ ! P ! J q r p B V V V q V 6 3 4 q 3 0 n V V V V C V V V V C b n n = E A.f.C.x x f d f v v f z c c f.%.k K sXaXsXc.q.t.sX0X6XNXt.6X) { y w.O U O.+.0.0.$.@.O. .) ( h )  .O.E R K y r 7 4 @ 4 & ; & ; & 6 < t @ @   ",
"  % n y.Y r 4  .6Xc.sXe.*.% % @ t.t.7.>.t.!.!.e.y.9.e 0.e.e.x.b.b.k.x.e.l.<.8 0.l.e.e.<.,._ <.<...^ v.3.,.<.<.| 3.}.1.3.}.b.K 9 a s s 8 8 k h 8 2 8 6 6 $ a r V B X 8 <.9.e.e.0.,.! 8 . I @ 8 .Xy.,./ :.e.t.e.<.0.e..X.X7.~ ~ | Q =.^ ^ V ^ V b 0 0 A ^ C =.<.}.}.%XOX%X3.F | F 4.Q.Q.Q.Q.Q._.W.G G ^.(./.(.(.(.E.W.S W.W.W.W.W.1.G G 4.G 4.4.=.Z Z 8 = r 9 a ; $ 4 & 7 g 9 h K I h J T B P P ( J e J w V V V V W Z V Q C V $ B W =.W V V ^ ,.,.,.;.=.=.~ *.W 0 ; H.A.H.V.p.c c v c l v c g j %.w.( Q ` 7.! (  . .`  .' V ! ) :.7. .5 h j h h h j E Y Y Y T K h K E )  ./ ( ..` ] ' y % y J K y y U h M r % %   ",
"  @ W Q q B b L ,._ :.*.*.% % J *.e.>.y.0.e.<.7.>.| <.e.j.<.<.0.l.0.b.l.e...2 e.e.e.,.,.3.e.<.y.<.<.>.<.-.-.-.3.-.3.e.<.<.... a X.; s : s s 8 &.H.j.j.$.K . . % 4 = L x.;.3.,.,.y.,.e...8 2 8 ,._ ^ V ^ ..*.:.;.=...^ *.,.,.>.,.7.4.4.y.<.~ =.Q $ C ,.3.3.,.4.4.-.-.F -.-.S F 1.W.Q.[.!.].'.W.G _._.G m.(.(.(.G W.W.W.=.W.W.S W.G -.-.F 4.4.b A p T 8 k &.f.f.c z j 9 6 7 $ . @ a 6 J K P e P J I >.V q T ^ ^ ^ ^ ^ ;.;.~ ,.0 ! *.,.,.=.^ ^ =.*.^ C Q W t.2 t % . $ u #.H.V.d z c j c k O & ; 7.^ _ ~ :.( ( _ :.*.5.y.y.t.>.>._ _ ' % B ( +.@.' .. .@. . . .` _ ! ! K Y T ! T ( / I M % M y y K R ] ] M y % X   ",
"  + e :.;.^ ^ *.y.2 y.y.Q , % ^ >.;.~ >.,.7.>.<._ >.t.9.e.0.<.>.X.<.<.>.5.| 2 <.,.<.,.<.,.4.,.;.,.| | | ^ 4.y.,.y.;.V y.O ; 0.e.X.: : 9 s k c C.s.V.c %.A.$.k T p 6 . B ,.-.~ ;.;.-.t.e.W 2 2 .Xy.:.>.| ~ ;.;.=...=.;.;...;.,.<.,.,.,.,.;.*.=.=.2 C =.3.4.4.3.2.4.3.3.Q.Q.Q.1.1.4.S W.W.W.4.S A 1._.1.h.h.D R.h.S W.W.W.W.=.=.S 4.1.F F =.S W 7.I g k f.f.M.s.M.s.c x &.k g o.k 7 g U 6.) P w 4 W V B W C C W ^ ~ *.~ =.W ^ V V ,.3.y.,.;.C q Y 9 c x f.%.c v z &.&.g g [ %.k l c d O ; o X = 0.7.7. .>.;.;._ :.*.' *.9.7./ *.:.' P 2 I *.e.,._ T ! ' .._  . ._ Y ! ! Y L P L P I J M o I K e I U J M y y @ X   ",
"  + . ^ W ^ _ >.y.7.!.y.t @ , *.:.^ ;...;.;.>.>.:...w w B  .;.| | <...,.;.| 2 0.-.;.,.;.<.,.3.,.y.e.e.=.;.,.e.,.^ y.] . @ 9.$.X.k 8 s g : c s.V.C.s.V.f x c z j X.{ +.. ,.>...~ ..| e..XUX$ 0 y.,.;.,.*._ | ^ ;.=.;.:.,...~ | :.:.,.,.,.=.,.=.,.2 ,.e.4.!.=.=.4.Q.3.4.4.1.1.4.G 4.G W.G 1.1.N A F 2.].].g.A 3 H H N N D n A A N N N A Z Z -.<...X.n.V.V.V.C.N.M.M.M.M.V.c c V.c i l o.8.{ r $ r Q *.*.] W W L C C V n V V Q ^ 2 ,.,.*.*.r $.f.n.s.s.M.C.M.N.M.M.M.M.V.M.x c g : o.#./ ' M I ] *.;._ ..:.7.*._ ` ! _ _ ! L ! ( / L ^ 8 ~ *.Q.,.*.*.L Q Q ` { ' I L J Q L L C W J b M t @ ` / P M y y M 9 r > X   ",
"  + @ ,.~ ^ ;.~ _ =.*.*.< @ 0 *.C ^ ~ ~ | ;.>.>.:.8 + + 8 _  .~ | ..| ~ ;.T = e.<.;.;.<.e.~ ;.<.<.-.;.,.;.;.;.y.,.y.e.^ 2 S.Y $.j : k z : s c c K.J.V.V.d g g g : yXlXU ; / I K I L ..:.! > L y.;.~ *.*._ _ ~ ..~ ..;.>.9. .( _ =.*.,.,.=.=.=.*., =.3.=.4.3.-.=.=.4.S S -.4.4.4.1.4.4.F G 1.A A h.2.4.1.F N H f.m.f.s.z | z T z z f.z <.a j X.h &.V.Z.C.s.M.C.M.M.M.a.M.M.N.f M.x f v l ; . X w Q _ Q b b W W Q L W ^ Q ^ W W > *.C n X f.K.C.N.s.v v x s.s.d.d.d.v d.v M.M.x d g t.7.*.*.y.u.:.*.*.*.*._ _ _ _ ! / _ ' _ _ _ ! ! ' r V W *.y..X.Xe.b r ] ' ] I J b L b b W W w b M $ & ` U I J y M M M y < X   ",
"  + + :.Q V ^ ~ C ! L Q > @ 0 u.~ ^ ^ ^ T ~ ~ ( _ Q 8 8 r 5 J ..| ..| ~ ~ L = x.e.e.<.;.;.;.;.,.~ ;.,.,.3.;.-.,.,.^ ,.e.>.x.5.w.j : s k s s : k &.x i : : g : : g w.E j i.; o . . . X . X < *.7.:.:.*.;._ ~ _ ~ ^ ^ ~ >. ./ _  .:._ ^ ;.*.=.W ~ , *.=.4.3.3.,.4.4.=.=.4.-.4.4.W.4.1.4.1.F 4.1.N F F S Z 3 3 f.m.s.n.n.n.n.n.s.f.n.f.s.n.f.f.j f.V.V.C.C.M.x M.M.M.M.B.M.N.Z.N.N.M.a.x x v 9 7 . @ 6 t q b L Q _ Q Q W V L I W b 6 X O j p.d.Z.s.v d s.c v f v x f d.f d.d.x x l O #.*.*.*.*.7.u.y.:._ *.*._ ! _ ! / ! ^ _ _ ` ' ' _ > b W Q *.y.y._ / K J P Q Q Q I L b b b Q L e I X @ P K e J U J U M b < X   ",
"  % + b W C ! ^ Q ^ Q ' % @ b !.*.! W ~ Q T Y | T ..( _ h . . = q 5.<._ ~ V 8 k.<.e.7.,.,.,.;.~ ;.,.,.,.;.;.;.| ;.,.*.;.....@.$.k s d s d - : g o.g : j k g ) = h 9 ; 9 y y h h U E h P L 0 Q :.:.,.y.:.;._ ..=.C ! >._ ! T P V L B ( ~ *._ :.!.4 !.,.y.4.=.=.4.=.S S F 4.=.4.4.4.2.1.4.-.2.2.Z 1 3 q N s m.n.z z s.n.s.d.s.n.s.d.z s.N.f.V.c &.V.V.V.Z.C.M.M.d.x f a.a.M.M.N.N.B.d.M.M.x M.V.x k j u $ 0 b q b V B V q r e M 0 e O.[ l z z &.z d z z v z d s.f d.s.v s.f v f v : t._ :.*.7.*.u.*._ ^ *._ / _ _ _ _ / _ ^ ' ~ *._ ~ r q W =.! *.:._ ] / J ] Q J M M J J L P Q J J K @ 7 I B M M r r M t e 4 .   ",
"  + @ / ! ! ! ~ ~ *.*.' % % t y.I ^ Q ( B e 9.>./ ..5.9.9.Y X . 0 r.;.^ ^ q q e.,.,.<.>.:.,.~ ..<.y.,.:.,.;.,.| ~ ,.;...a ..T X.z : s d s d : - 9 s ; 9 ; : o.; o o o . h E X.o.#.@.o.@.7.> b :._ :.7.5..._ ^ L L L V L L L T ! V q B ! e.*._ 6X2 !.<.<.4.-.=.=.=.C -.4.4.=.Z 4.3.4.-.-.4.F 4.W.n 2 C C a f.z z f.z z f.z f.s.f.f.s.z f.z z j s z c s.V.f.x c x M.f x f M.d.a.M.N.d.M.M.a.M.M.M.M.V.l d d d l : 7 a 7 p h = 8  .O.X.j g i : X . . : O - k : f v z c s.f v v c V.: #.:.*._ *.*.*.^ ] =.^ ' ^ _ *.*.*.Q _ ! ~ *.' ! ' q r ^ C W ^ *.Q ' e e I L b L b B I V P P w w $ o 7 P P w e L I P M K 6 X   ",
"  % % B ! ^ C ,.,.! ' 5.X X 6 *.W T Q ! T + t.:. .y.>._ B 8 8 p ! ~ ^ T ! # q >.^ _ >.;.*.;.~ ;.;.;.*.,.;.;.;.;.;.~ =.Z V ..X.X.j s z z d k d j : O # ; ) 9 h g e @.w.%.&.g : k g j o.h U 6 L :.^ _ *.^ _ _ _ ! T B V L ( _ _ ! p e I C B Q ' :.> _ *.| *.=.-.=.Z =.=.=.-.=.^ =.;.S -.-.-.-.4.4.W 3 X 3 H | H T z A a 8 X.a a a X.h T f.X.V.V.C.C.x s.V.M.M.x x x c v x V.C.M.M.x x a.f a.a.M.c a.x l v d x a.l d * 9 U r w p h a X.$.w.o.f.j X.f.j.f.V.A.z O : X - k d : d p.} & K >.~ ~ *.*.*.*.^ ^ ] ^ _ *.! / *._ ' ^ ] ^ W W W b q y.:.W W Q r $ r 5.' e B B I J J P B 6 = X . . 7 M ] y M q I U y r 5 X   ",
"  + @ L ^ T Z _ ! L Q ! % % 4 Q L ! P _ *.b ' > Q L 5 . . _ >.~ T ;.^ W L + B .._ ;.( | *.=.;.;.=._ ..;.;.,.;.;.| ^ =.T ^ ..$.9.X.: A.z E X.$.%.E X.X.@.E 9 j.A.o.O.#.j o.j 9 : g k j j K t 6 y.,./ _ ! ~ L C L W L ~ _ ~ W V W ! V b w L W _ _ 8 ! ~ =.-.=.;.;.=.=.-.Z =.-.3.-.n Z ^ -.-.1.4.4.-.3 <. Xb.n.n.n.n.n.n.b.j.f.X.f.&.f.J.J.f.C.M.V.M.s.s.V.V.s.s.x M.x c a.a.x v c x l l v f f l M.x d v i d g i : : g w e Q 7.( $.0.F.v.A.F.j.j.H.j.H.A.V.V.H.%.; O O ; o.l &.l g 7 7.*.Q _ =.' ^ ~ *.*.^ *.' _ Q _ ! ! ^ Q Q ] ^ Q *.W > 7.*.! *.:.> % 6 :.! r Q Q P P P Y L 5 e < o X U ] [ U r J U 6 7 y 4 X   ",
"  , # B C q r ~ V V V n % % % J ] ' P L _ y.7.> . . . 8 ' 7.( V T ~ ^ T ! $ | ;.~ | ~ | ~ ~ ^ ^ ~ Q C ! ^ ~ ^ ~ _ ^ ~ T ..>. .9.R ; K ..;.....Y ..$.@.0.5.a T z.k - a 9 g h U u 9 j j h K w > u.Y Q T / P L I B L L V r r b b B I C L V w B J n w ^ ^ ^ *.=.=.-.=.-.^ A Z ^ -.=.A A C -.=.=.4.Q.^ a eXj.z s.X.s.f.s.n.f.s.n.V.n.V.s.V.s.s.s.s.M.s.M.s.x M.s.v x l f M.x M.a.a.a.z c d k d l l : * * o : 7 u & $ R 8.y.:.,.;.L | j.$.$.$.$.0.$.0.X.$.o.O.#.X.o.: O O X $.{ E E j t ] *.*.*.*.^ ^ =.*._ *.W *.Q *._ ! Q Q ^ *.Q *.*.Q Q + *.C L W V 0 . . % $ r I J b B p 0 J ` J $ X X ] h U y e J J 4 t < > >   ",
"  @ X q 6 8 L ^ T L ! p % % @ @ r ' ;.6 L ! b X $ X . q / Y ! L V C L L L $ ^ ;.L Z ^ ^ ~ ~ ~ ^ T W ~ ;.;._ *.;.,.! _ ^ ~ ..7.( I ; / | T Y .._ ( ( ..;./ Y J V J # @ X 6 & h h O g E k R I 6 b b p J J Q ] ! ' / L J L I B L P B L J Y J b ] I q b I W W ! ^ W ^ ^ ^ Z ^ C Z ^ Z A ^ -.;.=.*.3.n V p 8 a f.X.&.f.X.z d X.z z s.f.z d v d d z s.c c M.d.V.V.x x v M.V.d.f x c V.d : g : ; ; o % . . * 7 j [ 8 w Q C =.^ =.^ ~ V W L K / T Y r q p T ( ' J  .7.( /  .r . K h e h t P L W C Q =.Q _ *._ ' Q ~ ~ Q Q Q ! ~ ^ ^ Q ' W L :.2 Q Q L V b b 0 X X b ] I 0 > < y J Q P r $ X o @ @ . . . . . . % & $ 2   ",
"  % $ 0 0 t w 0 w e w 5 % @ o 6 4 w e *.r 5 w e w e 6 @ X 0 e w q B I q e > V L B p e p I L Q V ! C Q _ ^ ^ Q ^ ~ ! ( _ w L L w 7 X h ! I T | ..( Y Y ! | Y _ 7.9.9.P % . $ o { R 9 g K R P r W ! ] B r M I ] / / ! P J p B r B e L ! L e B B t r b q 5 q r 0 q V L W C V C C C C Q r C W B A 3 C >.<...j.b.j.0.T >.T p E X.X.X.z j z z d g d z c v d d c s.v z x c f x c c v c v g 7 o . @ * o y $ o & . 4 Q *.4.C b C W W =.q y.y.=.^ ! _ ;.*.^ ( *.>.:.7.7.7.9.t.9. .5 $ E 9 ; P Q Q Q Q Q V L L Q =.V *.L C W M W Q L Q W W Q J b > b L W u.u.7.I % X u.I X t I ] ] y t y r & X X X . 8 e e M J b Q t < Q   ",
"  @ $ 0 r w 6 t 5 b J r @ @ X t I b e y.L / *.L L ! ! _ Y w w w r 7. .` ` $ 8 L T C L L W ^ ! ~ *.^ T ^ _ _ _ _ ! ~ 7.<.` _ ' :.J . ! 0.z.e.9.j.r.w.j.9.0.R  .r.>..X X.X! 4 & 9 h g a g R R 0 *.:.Q B B M Q ' ` ] P J B J 4 6 b P  .` / ! w I b b J b J B q 2 q q r w e V r J ^ ^ b = B L ..@.5.6.X.$.$.X.X.T X.X.9.@... .X.E X.X.X.X.X.X.f.&.k k s g s d d s d k g d d d : l d : : ; 7 h y y * U } ] U 7 w :.W =.C C C ^ Q ' > *.*.*.*.*.! *.*.,._ L B _ _ ^ ! / _ :.0.*.' ' 9 7 U / ] _ *.^ *.*.L W *.Q *.*.*.*.W W ^ W L ! _ _ b W . W :.*.9.y.' > . . < % ] ' M y t t t > @ % % X X 5 _ _ *.*.*.^ ^ 4 @ 4.  ",
"  + $ $ ' e > u.7./ I J > < > 0 ' B B V B L L B W L W J L _ _ :.~ 7.=._ :.. w ~ Q T L ! ^ ! ^ ~ ~ ~ ^ ^ ^ ^ ;.^ ! _ ! _ ( :.5.` h . ..>. ... ............. .T | T ! ( >.q.6XY O . 9 9 h E 6 w *._ Q ! L I L L W B J J I W I J L ^ / L L ;.' _ e Q I w P K p Y P !  .+.7.>.L e w 2 e  .>.5.5...$.$.0.$.o.X.0.h Y $. ...( E E Y ( R E E E ( ..O.E j T g : k : g : : : : : - : 9 * & * : } E h U r X & M I _ ^ W C =.W =.C C C ^ , :.:.*.! _ *.Q W Q ! ! V B L L ! ~ ! _ ' *.9.6.6 6 +.L ! W ^ W ^ Q C Q C *.^ Q Q W ~ W ! *.W ! ! ! W *.X W w e # . . & 4 @ . 9 t.' U U U U U U M % o % . b _ ! ! Q ! W V > >     ",
"  > > $ t t > *.*.0 8 b > > 0 4 _ J w B q b b B C b W I V Q V V C n W n t X q C b B B B I L V B q r V V V L T C ^ / . V K T Y I J . I Y | ( T I T T I T T T T Y T ( Y Y .. .h 9 & o r 6.U < ] ' W L L b b M Q L J J I J W ] ' W ! W B b ' ' / B B ' 0 ! / ` ) `  .+. .` ..' $ X . _ y. .( J 4 p 5.+.T Y ..K h ( ( ( ( / R R T K Y R ( R R Y ( ) ) ....( T ; 9 9 - ; : 9 7 O 7 y r . ; {  .L W W W n n =.=.Q.=.=.C S =.=.C W =.0 :.,._ _ *.^ Q Q Q L L W L L I L ! ! / ' ^ *.Q $ # ` B Q Q W Q ^ W Q W W W W W Q W W Q ^ Q W C Q =.b ' X =.X w J U U } } u.U y u.U u U U U M U y o o @ X L / W Q Q Q Q W > @     ",
"  2 % @ % 6 < > 0 Q B r > # 6 , Q w q b q n V b b L W W L V B V V B C b M @ 0 J b 0 b B Q B b e B C L V V V V V P b P B V J p J e X q T h V p T I I T p T T T Y I ! p T ( Y 7 h 7 @ 9 q.w e / L W V J L L Q Q P J I B I Q ] Q ] Q J L L ! ! ' L B ` B 5 J ) ` ..' R Y P J K Y w w I Y J p B J Y P ( ' ' h J ' / / / P K I Y U Y R Y R R T Y Y / R R R ) ( R w % . $ 5 7 O @ h K [ U . 6 ] L ~ ~ W =.b C Q =.=.n C W C =.W C =.0 ,.;.' ! ^ Q L L Q W L V V B L I L L L L Q L Q t X 7 p C V L Q Q Q ^ Q Q W C W W W W ^ W W W W Q ] J 0 . =.0 Q y M M M M M ] } ] U y } y M M t o % < & X M ! Q W Q Q Q M # %     ",
"  0 + @ $ e e 2 V ! W b > @ > < Q B b L W n r C W Q W L V V B V C V V b W @ t Q L V b b J b I W W L C V C L B ! ) P _ T T I I K J X h ..p T T V T T T T ..Y T T T T p K h u l [ 9 o X J @ e L V b b V b J L Q Q L I w J ] / P P P b L ' ] ! ^ ] b ' ^ r I ( R R R P P Y ! ' ] /  .( Y I e J P Q P ! / ! w 4 ] L K Y P I K / ` ` { ' E ' U ( R / K P P ] R ' P J t . % X X X 7 h y J o . # ! W L C C C =.=.=.=.n W =.=.=.=.=.*., W W b B Q W Q Q ^ ] Q Q Q ! ! Q I V B L V L ' J . I Y V W W W *.^ Q ^ =.Q W W W Q C W ^ ! W W ^ ] b 0 > =.b t M M y M U U M ] M U U M M M < % t t t t o t ! Q Q Q W Q b # %     ",
"  , X % 6 J J w 0 b b w > . > 6 q e e V L V 6 b V b V V C L V L L W W W Q , 0 ^ C W C W W b _ W V L J V V V B T p 5 ! B p r I T r % Y Y T V h T ! Y T T T Y X.Y a I h s i l k k u O o X & e J L b b b e b M M t 6 4 > 4 & 4 & & 4 4 6 6 5 5 q w 5 0 0 6 5 5 5 7 5 8 7 e w e r e e y w r 5 w w w w 7 0 6 6 # > 0 5 4 6 0 w w w 7 w t e r w r w w e e M L Q P Q Q b $ $ % % < < t @ X % @ W ] b b b b b b b =.=.b b C b W M Q M @ B w M M L I W W b b L L Q ] W W L B B L W Q *.] @ / Y L W W Q =.^ W W ^ Q W W Q Q W W W W C W B b > 0 > q Q M M y y M y y } M M y y y y < > b M 7 t t o 5 / J Q Q W Q b > @     ",
"  m % + > I M w L b n 0 > < t @ J B L C V 0 0 q b n n W C W Q ^ Q W V W Q @ > Q W W V W Q _ ] M L b B V V V B V $ < Y T w t y 7 5 7 R ..X.8 p T T V T T T L T / P / Y : g l g i y & @ * & 6 b M M t < % t r & < r b r M e B M M e r r J B b w w r e e w r t t e w 8 6 # @ # 4 4 # & @ $ X - . @ % @ X X X @ . . . . . . . . . . . . . . . X . . . . . . . . . . . . . . X . X . . & X . @ < < < > $ @ $ % % X < @ % o # < > @ < . X # $ < < > > < < > < < < 0 4 0 > 6 0 t 0 0 # X X w J L W b Q W W W W Q W C W W V V V W b W I < > b X b b b Q ] M ] ] b M M M M M M t t M t % # < 0 < 0 t W b M C W < t # =.  ",
"  D + + > I w > L V 6 # I M % X b Q L Q W q ! C b 0 L V b C C Q V b W V b % % W V b b W V ! b 0 0 J W T _ ( / 7.< & e w X % $ < 7 & 8 p T p V B p J h T P p B L K h h . u k u i & o . . . X o # @ o ] u.q.u.y ] 6X6XUXsX6XsX.X6X!.6X!.UXt.r.9.y.y.t.!.t.!.t.!.!.t.t. X Xt.t.t.t.t.t.!..X6Xe.e.y.e.!.UX!.UX!.y.6X.Xy.e..X9X9X6X!.!.!.t.!.t.!.y.y.y.t.!.t.UX!.6 % @ L y.M @ UXy.] M P ' ] ] ' U P I P M M b M Q b M r b > < > > < b M b r b t b M b b W b M y b e r r r b b t # . . . . t Q W b b b b M W ^ L V L L b L W B 4 w 0 < X o > b C 0 n ] ] b n n C C b M t 0 n b M b Q Q Q *.] ] b t b b M b t t % L   ",
"    X % 4 w 0 b b r b n 0 0 0 , $ W b Q b 0 Q b b t W r b b C b n n n b V > X b B b b b b b b Q 0 e *.' W ' ' r @ & 5 7 & y U U h J . . 4 6 6 ; r h P K K K h 5 % $ * i : d g i o & t.6Xt.. . o @ 7 t.t.' M t t u.t.UXt.y.!.y.e.t.y.y.!..X6X X.X!.t.y.y.y.!.!.UX!.6Xt.t..X Xt.t.t.t..X0XsX7.:.y.!.!.9XAXAXu.M AX.X!.y.!.%X6X6XiXUXAXAX!.!.sX6X6XsX0X0XsXsXAX> % . UX6X@ % aXUXq.q.t.t.t.q.q.7.7.8.q.q.q.8.i.i.y.q.t.q.u.0 y.< !.t.y.y.q.y.q.q.t.y.6.t.t.y.y.q.t.y.e.t.q.y.y.{ M @ 5 ' y.*.b Q L W b *.0 w ] L e b e r 4 6 6 e J b b < X > *.Q =.=.=.Q C C C C C W =.C W Q W Q =.=.W W W W W > M W M b Q Q % :.  ",
"    + @ < w b b q 0 r b 0 t b q 0 6 0 > $ % . . 0 ] b n b n b C V V V V b 6 X b n n n b V I b L r $ w 0 J t . . & R ] R 9 j U l y j E h o . . . . X = ; # 0 . O d l * c M.a.l * * < sXaX6XUX5 X o @ u.M y y t t e ] ' I Q Q W M J J W ] ' ' ` *.*.Q b t M ] Q ] ] ' n . J ! ] r Q Q ] *.Q Q b V n b b W !.W % b 0 n 0 , X . q W *.=.=.Q =.Q *.*.,.7.7.y.y.y.n , 7..X!.M X yXt.8.t.{ 8.8.6.{ 6.{ ' M { u.t.i.q.i.8.8.q.] t 6Xt UXt.9.y.y.y.8.7.6.u.y.u.7.7.u.u.y.` ` 7.{ ' { u.] < *.L u.' L L Q :.*.' b P *.P I Q J ' L V L J Q b ] *.t X !.] n C C b b C n n b b C b W b Q Q =.W W b n b n 0 M b b M Q 0 o !.  ",
"      o . @ 6 t n b n r 0 t b 0 b b < , X % % . > 0 0 0 n n n n n n b b b 5 . 6 n b b b V b n 0 q b < o X . . $ 7 y < u y k } h 7 } [ ) h 6 & X X . o @ * o.z v f f d : v l i ; o O o I ' y.8.o % X Q b b b t b t M ] M M ] M ] M M t t y y t t b M ` ' ' ' ' u.] ] M 0 @ M *.W C W Q *.Q M M M M t M t @ @ > *.Q n n n n t n 0 3 , 0 n 0 0 0 0 , n t n n t b 0 ] ] ' t < ' M y M u U y J ] U U 7 t y M M y U U U y t y 6 ] e ' ' P I ] ] Q P ] ] E J L ] ' ' u.u.` ` ' Q M ] u.] J M ] Q b b Q Q W W M b b L Q W b Q W b 0 n t 5 b P 6 X 0 < t b b 0 t t n n t t b t b b M Q M M t M y t t M t t M e < t y.@X  ",
"        m o X > 0 w b t 0 b n 0 0 t t 0 % % X 0 b W b b b b b b b b n n e # % $ b V b n b n n b 0 e e e 4 % w J ] R U y & 6 t y y U U { R R U y @ $ t @ 6 [ l v v v a.l v i i : . $ % & 8.{ { o @ . M < % > t < t M M M ] ] ] ] ' ' ' ] ] M t @ 5 J ] *.*.*.u.u.u.*.*.Q % W 7.] =.=.*.*.*.!.y.u.] Q ] t + + , u.*.y.=.=.Q.Q.y.=.*.*.=.Q W Q ] =.=.*.*.*.=.Q Q 0 Q ' Q < t U ] ' u.M u.U U ] ] ` [ ] M r y M y ] M M y X < ] < . t r M _ ` { ] ] M U t t M b M b t y w t t M y t t o o < M Q Q Q b t t n 0 q t b b b M b b > t b b t . . # M r b b t t t t t t t t t t t t M t y M t t t y y t y t < < Z %X      ",
"          ^.N > o o < < 6 5 t 0 t 5 0 > X % o b t 0 n 0 n 0 0 0 < > 0 & o o X o < b t t 0 0 t r e h e 7 & * 9 2 7 < 7 7 o . . . o % * 9 6 & & < * & t o * o . * * * d l i * o . h 7 o o I U . . X M sX!.3 . o & t y y y 7 y y t u t y y 7 < o o o . o o # 5 t b M b b t % < t o < < > < < < * * o X X X . . . . 0 b b b W C W M P I J r t n t b b C M M n 0 t o < * o * o * * o o o o * * o M U M M M 0 M r y M M r y o < t o o . 6 y M M I U M t t t b < @ 6 7 y 7 & t y y e y 7 o . & t y W b M b b t t t b M M M b t < t t < 5 o . X . @ & < < < < 0 7 t t t t < < 7 t y t t t t 7 7 7 7 * * t G             ",
"                D 3 1 o o o . o o * o @ > > > 1 , 1 1 1 1 1 1 1 1 1 3 1 m n 3 m 3 3 3 3 3 3 3 3 N 1 3 3 3 3 1 3 m A S S S S N N 3 3 3 1 3 3 1 1 1 1 1 n p q 2 1 1 3 2 , * < 6 M y.^ 5 6 , + 0 q y.1X;X4X4XE.N m n 0 0 0 0 b t y 0 3 2 1 > 2 0 0 0 0 0 2 > , , % . . . o * * > m 1 0 m m m n D S S S S F 4.4.3.-.m 1 , 1 , 1 , , 1 1 1 1 m m m m n N N m N m N R.S F 4.F F =.N N N q m m m 3 m 1 1 3 1 3 1 1 1 1 1 1 1 3 3 1 3 1 3 1 1 1 1 1 + + o o o X . X , 3 3 1 1 1 1 , 1 1 3 V C C A 1 1 1 1 1 1 1 1 1 3 3 1 2 1 1 , 3 , 0 1 0 b C I q < < * o o X . . o o o * * & * * * * * * < < t b S F                 ",
"                      ^.E.1.4.W.W.^.{.;X;X/.                                                                                                                              4X4X2X;X;X2X2X2X4X                                                              /.2X;X(.^.{.^.1X^.1X                                                                                                                                                                  (.^.E.W.!.).                                              ;X                          2X2X;X2X1X{.W.W.,.,.y.y.,.*.!.,.!.y.y.!.y.y.y.Q.                          ",
"                                                                                                                                                                                                                                                                                                                                                                                                                                                <X2X    1X:X                                              ;X                                                                                                    "
};
