/* XPM */
static char *out[] = {
/* columns rows colors chars-per-pixel */
"296 150 256 2 ",
"   c None",
".  c #010000",
"X  c #090808",
"o  c #150806",
"O  c #171509",
"+  c #0A1517",
"@  c #141314",
"#  c #191918",
"$  c #0C0E10",
"%  c #241B19",
"&  c #261008",
"*  c #1A221C",
"=  c #12230E",
"-  c #27261B",
";  c #302F11",
":  c #191C22",
">  c #0A1B24",
",  c #251D23",
"<  c #192626",
"1  c #183737",
"2  c #0B2F30",
"3  c #242324",
"4  c #2C2C2B",
"5  c #282827",
"6  c #342C28",
"7  c #2A332B",
"8  c #37352A",
"9  c #292C33",
"0  c #2A3636",
"q  c #333434",
"w  c #3B3C3B",
"e  c #373837",
"r  c #342D34",
"t  c #433B38",
"y  c #433A2B",
"u  c #483919",
"i  c #3A443B",
"p  c #344731",
"a  c #344621",
"s  c #4D5116",
"d  c #6B7217",
"f  c #474729",
"g  c #47453A",
"h  c #565738",
"j  c #505230",
"k  c #655436",
"l  c #586832",
"z  c #747827",
"x  c #6B7130",
"c  c #5B6311",
"v  c #383C43",
"b  c #2A3C43",
"n  c #153D43",
"m  c #443E42",
"M  c #164C4E",
"N  c #3C4344",
"B  c #3A4749",
"V  c #395656",
"C  c #314E4E",
"Z  c #3B7678",
"A  c #356A6D",
"S  c #286465",
"D  c #434443",
"F  c #4C4B44",
"G  c #444B4C",
"H  c #4B4C4B",
"J  c #464746",
"K  c #534C47",
"L  c #4C534C",
"P  c #475449",
"I  c #53534C",
"U  c #595749",
"Y  c #444C52",
"T  c #4A4D53",
"R  c #4C5354",
"E  c #4D5C5B",
"W  c #485657",
"Q  c #535453",
"!  c #545B54",
"~  c #5B5B54",
"^  c #535B5B",
"/  c #5B5D5B",
"(  c #565557",
")  c #534E53",
"_  c #645949",
"`  c #625D55",
"'  c #6A5545",
"]  c #4B625B",
"[  c #5C635C",
"{  c #576559",
"}  c #566A4C",
"|  c #66674A",
" . c #63645B",
".. c #676759",
"X. c #6A7459",
"o. c #767659",
"O. c #70724F",
"+. c #495C63",
"@. c #575C63",
"#. c #4D5469",
"$. c #496868",
"%. c #546363",
"&. c #5B6363",
"*. c #596B67",
"=. c #5A736B",
"-. c #497778",
";. c #577978",
":. c #4E6E70",
">. c #646B64",
",. c #6B6C63",
"<. c #636C6B",
"1. c #666766",
"2. c #726D65",
"3. c #6C736B",
"4. c #677569",
"5. c #73746C",
"6. c #777868",
"7. c #687976",
"8. c #747C74",
"9. c #777A77",
"0. c #686D73",
"q. c #635E62",
"w. c #847C6D",
"e. c #837653",
"r. c #798630",
"t. c #73851D",
"y. c #748B4D",
"u. c #59837C",
"i. c #4F8476",
"p. c #79846A",
"a. c #6C837C",
"s. c #67857A",
"d. c #74837C",
"f. c #7B847B",
"g. c #798678",
"h. c #728D70",
"j. c #6E9B5D",
"k. c #39827E",
"l. c #8A9537",
"z. c #888F30",
"x. c #98A435",
"c. c #9BA52E",
"v. c #8B934E",
"b. c #96A84F",
"n. c #A9B351",
"m. c #87856A",
"M. c #868879",
"N. c #88947A",
"B. c #96967A",
"V. c #91906F",
"C. c #94AB6E",
"Z. c #ABB36C",
"A. c #A39A7D",
"S. c #B8C556",
"D. c #B9C66B",
"F. c #94C473",
"G. c #C8D371",
"H. c #C8D462",
"J. c #057984",
"K. c #337C83",
"L. c #487D82",
"P. c #567E82",
"I. c #6E7D83",
"U. c #088791",
"Y. c #348B90",
"T. c #30ACB4",
"R. c #209FA7",
"E. c #498688",
"W. c #548384",
"Q. c #588989",
"!. c #498D92",
"~. c #4B9597",
"^. c #579797",
"/. c #56908F",
"(. c #688986",
"). c #738B84",
"_. c #7B8C83",
"`. c #778886",
"'. c #69948B",
"]. c #74938B",
"[. c #7B948B",
"{. c #799689",
"}. c #689896",
"|. c #779A94",
" X c #6D8D92",
".X c #57A49C",
"XX c #6AA49B",
"oX c #78A599",
"OX c #76A78F",
"+X c #549DA1",
"@X c #58A8A6",
"#X c #51B0B2",
"$X c #68AAA5",
"%X c #77ABA4",
"&X c #69B2AB",
"*X c #78B3AB",
"=X c #68B6B3",
"-X c #77B8B3",
";X c #6CAFB1",
":X c #689DA2",
">X c #2EBCC5",
",X c #13BBC5",
"<X c #4DBCC3",
"1X c #25CBD5",
"2X c #23D2DC",
"3X c #2DC5CE",
"4X c #1FCED9",
"5X c #4DC7CB",
"6X c #6ECCCC",
"7X c #77C1BA",
"8X c #838D83",
"9X c #878B87",
"0X c #84948B",
"qX c #8B948B",
"wX c #889788",
"eX c #949B8C",
"rX c #9B9D8B",
"tX c #959686",
"yX c #8B9C93",
"uX c #869994",
"iX c #939C93",
"pX c #979C97",
"aX c #8D8D89",
"sX c #A39D8D",
"dX c #9AA28C",
"fX c #88A699",
"gX c #9CA393",
"hX c #97A699",
"jX c #8FAC94",
"kX c #A4A58B",
"lX c #A2A593",
"zX c #A6AA9A",
"xX c #AEB299",
"cX c #87ABA4",
"vX c #98AAA4",
"bX c #88B4A9",
"nX c #98B4A8",
"mX c #91B9B4",
"MX c #A6ACA4",
"NX c #A8B4A7",
"BX c #B4B7A8",
"VX c #A8BAB4",
"CX c #B4B9B3",
"ZX c #959BA2",
"AX c #93C3B8",
"SX c #B8C5B8",
"DX c #ABC3B6",
"FX c #A8C68B",
"GX c #C5C7B6",
"HX c #CDD887",
"JX c #B3CDC7",
"KX c #94CDC7",
"LX c #CCD4CC",
"PX c #D8E3E0",
"IX c #C1BDAC",
"UX c #847E81",
/* pixels */
"                                                                                                                                                                                                                                                                                                                                                                R.U.U.U.AXAXAX/.Y.S J.Y.Y.S U.T.                                                                                                                                                                                                                ",
"                      R.Y.Y.U.K.S S K.A A Z $.S A V $.+.+.] W V V n %.B *.*.8.7.7.%.4.*.g.8X4.p.[ d.5.d.f._./.Y.U.+XT.J.J.K.Z A 0.0.C 7.h.h.p.qX=.] =.7.P.`.;.(.-.T.>X3X3X3X,X,X>X>X>X>X>X,XR.U.U.U.R.U.U.U.U.U.U.U.U.U.U.U.U.U.U.U.U.U.U.U.U.U.R.Y.U.U.U.Y.Y.Y.R.Y.Y.K.Y.Y.K.R.Y.U.U.Y.U.Y.U.U.U.Y.U.U.+X~.R.K.J.J.J.J.K.K.K.K.K.K.A K.S K.S S S L.:.M C H g.N.C.h.y.Z.Z.G.Z.n.D.S.Z.HXF.C.b.D.C.bXOXAXj.y.y.} U.4X                2X2X2X3X3X3X,X,X,XR.T.#X+X#XY.U.S U.U.U.U.U.Y.U.J.J.J.J.J.J.J.J.J.S J.S J.J.J.J.J.S S J.J.J.J.S J.Y.Y.Y.J.J.U.J.J.U.U.U.U.J.U.J.J.J.J.U.J.J.J.J.Y.J.J.Y.                    ",
"              J.M C # zXA.& u & w.ZXuXuXZXMXNXNXMXpXpXMXzXMXzXaXiX5.6 9XxXdXN.V.N.C.N.V.xXkXC.dXdXC.A.Z.C.kXkXN.X . 6 m.e.Z.FXHXHXD.Z.G.HXFXG.HXHXkXg ,.lXgXsXsXrXaXf.0X0XyX7.v < 2 #.m . q.9.8.5.5.:.7.0.9.9.9.`.9.8.9.6.5.3.9.6.9.9.w.9.w.UX9.m & & 2.aXsXpXsXsXsXsXsXM.8X9X9.m.f.5.N.9X6.5.5.9.UXUX9.% & o & I.`.uXZXvXZXZXZXZXZXZXZXZXZXZXZXI.r o N.Z.D.HXG.D.G.HXHXS.H.S.H.G.G.G.G.G.G.G.G.HXG.G.G.HXG.F.H.F.HXF.y.'.3XU.Y.S S C C 0 i M 0 J I &.9.g % - % & | p.6.m.m.8XM.w.w.m.B.6.M.B.M.M.N.0XhXm.B.tXtXtXM.rXdXsXsXzXzXxXIXMXU g y ..w.w.m.8.M.o.2.m.6.m.N.w.9.w.M.M.tXw.1.y K ` 2.m S                 ",
"        U.2 0 ` [.7.e gXB.- k u aXpXuX`.`.f.p.8XpXMXzXMXzXNXeXyX0XhXL 5.jXX.X.j.v.m.O.y.C.C.V.v.v.V.v.B.m.| I 5 < m.V.HXZ.Z.Z.G.G.HXG.n.D.S.n.n.G.HXO.- g y o.....rXwXdXg.M.iX^ X ) v & 9.LXCXMXCXMXCXJXCXLXCXCXVXCXCXDXBXSXBXSXSXGXSXBXSXSXCXCXw.t ` U BXlXN.sXzXzXIXBXN.tXN.aXM.aX8XM.aXgXrXeXaXaXsXpX) X . vXZXZXvXcXvXmXZXZXqXaXaXzXZXZXMXCXCXU ; LXH.H.n.S.D.D.G.D.S.S.G.H.H.S.n.n.H.H.G.S.G.HXG.G.G.G.H.H.H.H.D.b.s 0 ` - 9.p.{ { ....f O.p.N.gXpXU O o X eXzXxXzXkXxXIXGXkXxXBXdX9.B.6.M.lXtXdXzXSXGXBXdXzXlXxXSXkXxXGXLXGXLXLX7 + iXtXw.xXBXGXGXkXBXzXtXqXtXlXkXsXxXBXpXlX2.t BXM.M.w.w./ A             ",
"      > N [.iXvX[.4.eXzXsXy g tX.. .g i ! / w @.aXZXvXvXaX<.G G T b : > i < 8 { [ 3.iX[ ! [ [ 1.4.a | U { 7 . 6.dXD.Z.C.d b.n.D.b.n.D.G.Z.S.Z.G.Z.HXHXkXf ..m.w.M.sXsXBXtXtXw., t w.t & MXCXzXMXMXMXGXCXMXBXBXNXCXBXMXBXCXBXCXCXCXSXSXBXGXBXBXLXGXUX,.O kXN.N.lXsXtXw.2.5.9.5.5.5.p.p.N.N.tXM.M.V.N.V.w.pX4 I zXM.B.tXN.ZXpXaXaXM.w.9X9XaXtXtX9XZX2.f v.l.x.H.D.S.H.H.D.S.H.G.G.G.H.x.b.S.H.H.S.c.H.H.S.H.S.S.c.S.S.b.n.D.C.X.1 N vXyXM.N.g.p.p.} } 6.gXg - O 4.kXkXA.C.kXZ.xXZ.rXB.U 7 F 8X[ zX6.p.X.g } ..m.9X9XtXi ; O g p.8XeXlXpX* wXLXxXtXkXlXgXzXlXNXzXdXN.X.p.N.N.tXtX6.9.9.M.N.w.B.6.w.M.5.y S         ",
"    > @.pXuXL ! N X hXpXw.t g 1.e . w H q @.9 Y VXLXPXMXMXvX^ LXPXLXvX> + 1 uXpX7.vXLXLXVXCXLXCXCXhX+ 1 4.q 8 V.V.C.G.D.x.l.n.b.Z.G.HXG.D.D.G.HXD.D.Z.kXo.j y | 2.` w.w.w.e.& t w.e.u & U CXlXV.B.sXB.sXB.B.B.V.N.8XM.9X8.M.M.M.M.N.V.N.V.aXsXsX9.CXO 6 ` zXIXBXIXxXsXN.tXtXlXlXkXxXkXzXdXkXkXdXsXsXkXsXMX` 2.IXkXxXkXkXsXaXB.m.m.w.w.m.m.N.m.6.w.6 6 k z z.S.S.S.S.D.S.S.b.S.H.H.H.HXS.S.S.S.c.c.S.n.H.S.x.S.S.d z l.b.O.| N.* 3 VX8XM.N.M.N.g.p.M.g.N.,.- # X.C.m.p.o.y.| | ' | I < > 7 [ [ / 9XyX4.[ ! 8.wXpXeX9.f.<.3.0.<.8.0._.qX# gXBX8XhXiX1.G R  .~ L &.( / @.@./ @.T J Q r e 5.6.6.....` ` 2.) : Z     ",
"  S X vX0XqX0XyXvX+ 6.lXN.i F r <.pXJXCXNXCXVXMXaXVXSX&.0XMX7.JXLXPXPXb + ZXPXJXVXNXSXJXyXvXVXvXhXDXdXp.p dXy.x O.F.HXD.b.c b.n.n.D.HXG.S.n.Z.G.Z.b.Z.Z.A.A.V.V.o.' u & t y K ' w.w.y % - 9.M.tXB.kXtXtXtXsXsXsXrXtXrXrXaXtXtXtXtXrXM.lXlXm.pXpXsXCX% % o  .w.aXUXw.9X5.,.g.9.2.p.g.p.N.p.M.M.m.m.N.N.tXlX2.t xXsXtXrXdXsXlXzXxXzXkXkXkXzXlXsXpXI.6 o s v.c.d x.S.S.S.S.H.H.S.S.c.n.H.G.S.G.H.c.c.S.n.S.b.S.b.r.r.l.d y.j g p.5 7 >.- t ; f f g g { } g [ . . . p l h a f F g t H # Y JXVXvX&.. CXSXNXVXMXNXhXMXNXNXDXSXSXSXCXSXBXCXwX= zXCXdXjXqX>.3.f.4.8.5.4.5.8.f.9.9.f.9.`.I.w , lXaX6.w.6.5.w.` 2.D o     ",
"  > V cX[.uXf.! 7.B @.tXM.i - aXNXMXwXnXNXvXNXhXZXvX9XiXuXuXyX0XuXvXDXJX+ vXVXvXSXSXNXVXvXMXCXVXvXzXC.kXZ.FXFXxXD.Z.Z.v.r.x l.D.HXHXD.HXn.n.D.G.n.n.n.b.v.Z.b.kXxXkXV.w.w.' % y w.' g 8 % . , ) 2.5.2.` ..` ..2...` ~ I F `  . . . ...M.M.[ % w.UXUX# % , . . o 6 ) I iXdXeX4. .X.{ { { >.4.9.0.8.1.` ,.5.t # t w % 8 * 6 ` 5.2.,...,.2.5.1.` K o - | k k s d c.S.c.H.G.H.n.H.H.H.S.n.H.S.S.n.d S.n.t.c.n.r.t.r.b.b.z ; f a 7 * + <.[ 1.w.0.7.`.yXvX9XI.7.7.0.C = = P 8.p.X.3.eX! > &.JXVXmXnX*.VXnXnXvXjXvXhXhXhXyXdXhXzXhXnXhXjXNX4.+ gXhXgXgXiXpXhXhXeXhXMXdXgXeXN.gXlXzXpXzXiXN @ ,...2...| 2.....o.w @     ",
"  + b 0X0XqXaX9.L i MXqX6.- 7 hXMXyX4.vXyXjX0X[.CXnX_.vXvXnXvXcXVX`.].JX+ nXa.fXNXNXnXnXnXvXVXvX{.N.C.Z.D.C.v.r.C.n.b.y.c l.n.D.G.HXHXG.Z.D.D.Z.n.S.e.n.n.V.A.sXZ.A.V.m.B.A.V.O.. O 5 y % @ , , r & & 6 6 y , , % % % 6 6 t 6 y y , , % & 6 t ' m o & , & r t t K K K ,.2.` ( Q I U K Q ( ` ( J ) r 9 , X , 5 r , @ # v m t , & y , 6 % 6 ' y y - K ' u & e.S.c.S.S.H.H.S.c.H.H.H.H.H.H.t.c.x.S.S.t.S.t.t.d r.r.l.v.v.; O - i * <.MXZXpXNXNXNXSXSXLXSXJXLXLXJXSXhXp.g.g.h yXSXLXB 1 ] DXjXcXnXnXnXVXfXfXnXfXvXjXfXfXfXfXyXfXvXvXhXvX_.= vXfXwXwXyXeXjXwXwXeXwXg.qXNXwXdXdXxXjXjXxXG # p.5.6.X.2.o.2.` F # :     ",
"  + . `.[.`.hXhX8Xf.qXgXtX4 i NXhXhXhXuX[.fXyX0XvX).[.fXfXfXuXjXbXmX|.nX2 cX{.nXbXfXfXjXhX[.cXvX{.eXAXjXFXFXr.F.n.b.D.Z.b.S.D.F.D.G.Z.v.n.Z.HXHXHXHXG.Z.n.z.D.D.v.Z.v.b.e.v.A.A.m.K @ o % m y o , 6 ) ) K ) ' ' K K K ' _ ..` ' ` ' ' ' ' K t ) m , @ & & m 6 & . . . 5 % , 5 6 e r t r r r r r , , : % 9 , % 6 , , m ' K m m K t K t y t ' u 6 - & o & z c.c.c.n.S.S.S.S.S.S.c.c.c.z.c.t.t.z.n.c.n.S.t.r.c r.t.b.r.y.l 8 } 9 * `.pX0XyXwXiXwXdXwXN.dXdXwXjXxXNXNXDXBXnXhXNXDXfX0 1 -.JXcXnXnXvXcXjXfXnXfXnXhXfXjXfXfXfXfXfXuXvXnXhXvX< VXhXjXwXfXwX0XyX{.wX{.wXh.p.g.dXwXp.N.m.iXG < ^ M.p.6.....` ` e # 5     ",
"  + 0 0 v I.[.uX].pX7.8XM.4 e yX0XhXyX0XyX[.|.{.s.].nXmXcXfXoXnXnXcXcXnXn ).cXuXnXjXfXfX|.fXfXyX{.wXFXwXFXj.b.b.Z.b.b.S.D.b.S.D.Z.n.Z.n.b.Z.n.n.Z.n.Z.H.n.n.n.e.Z.Z.V.A.v.Z.b.V.B.B.` 6 ' K e.` o % t K K _ K t t t t t g _ 2.2.' t k & % @ , . o 6 r r r t 6 y y 6 6 & & , - 6 K 6 8 6 y t , m m r o , @ @ & t K y 6 6 y y t K t g ' t 6 . . f k d z d z.c.c.c.c.d z.c.x.n.n.d z.x.z.z.t.r.x.d x.S.r.r.r.l.r.x v.c ; } U >.# + vX0X_.dXhXyXjXwXjXgXzXhXjXjXhXjXeXjXjXNXDXjXjXjX< 1 ] AXfXbXbXfXcX|.fXbXfXcXfXbXfXcXjXfXfXfXfXbXnXoXAX* nXuX_.yXyX{.{.wXh.wXwXwX{.g.g.wXf.p.8.p.d.< + 5 p.w.o.| ..o.h % # 0     ",
"  + + R G N . B N `.8.9.9.e 7 fXyXjXfXuXuXjXuX|.|.].].fX|.fXfXcXcX].|.cX(.:.oXcXmXmXcXnXnXVXVXnXnXDXjXjXa x C.Z.r.y.n.Z.HXn.v.v.v.n.n.D.Z.D.S.z.z.c.n.S.S.n.S.V.Z.b.A.n.V.Z.A.A.y.e.M.K % q.aX` o X _ w.aXUXw.w.w.w.w.w.w.w.w.2.q.2.e.e.' o o t _ ' ' ' ' ' ' ' ' ' ' ' t % o K 2.w.w.o.o.w.w.V.' ) 6 . . , 6.6.O...o.w.w.2.e.e.| O.o.e.' o j r.z.c.c.c.z.n.S.c.z.c.t.z.c.n.l.c z.H.c.z.c.c.t.c.r.r.t.b.b.r.c O.x l p a 7 < < B vXuXfXyXyXeXdXjXyXjXjXjXMXjXfXjXjXjXjXjXAXfX|.wX2 1 :.AXcXoXcXcXcXbXcXoXfXbXfXbXcXfXcXcXcXbXfXbXfXfXVX1 nXuXoX{.{._.{.h.{.wXh.{.wXg.{.wXd.).p.d.`.7 + 8 w.w.2...o.K 6 I # W     ",
"  > W 0XhXiX8X0.. i 0X8X3.e 7 hXyXhXfXyXjXfXuX|.|.fXoXfX%XfXbXbXcX%XbXmX|.:.mXmXnXnXAXnXnXnXnXvXNXyXvXNXh.} j.C.j y.y.D.b.Z.S.S.S.n.n.S.n.n.c.z S.Z.H.S.x.n.n.D.Z.e.v.Z.v.A.Z.v.v.m.m.o.f 6.w.t % 1.aXB.w.V.w.tXA.w.A.w.V.w.e.V.w.A.A.IXxX; k ' ' ' k k ' k k y k k ' ' m & # , m.rXo.| O.x e.e.' t w.K g 5 U X.B.A.m.m.e.e.e.m.e.m.V.A.y & b.c.c.c.n.c.n.c.S.c.c.c.c.c.c.n.z.x.x.x.x.x.x.x.t.S.t.t.t.j.r.r.n.r.= a ; * 7 ] 7 fXhXhXfX0XwXwXjXjXeXjXfXjXjXnXnXfXnXnXnXbXjXcXbXbX1 1 ;.mXbXbXbX*XbXbXbX%XoXoXmXbXOXbXoXbXbXmXbXbXfXfXmX0 nX].fXfXuXg.{.wX{.h.{.wX{.wXwXh.{.wX8X8X9X< # e N.6.6._ y - h 8 # +.    ",
"  : I.`.0XwXeX9X= 8.wXp. .7 * uXhXdXhXvXfXd.|.|.uXbXcXcXfXfXOXbXAXbXmXmXcXV DXmXmXbXbXbXbXjXcXnXjXbXhXnXzXdXX.a a j D.C.b.b.b.n.G.n.v.l.n.H.G.n.n.n.v.v.Z.HXZ.v.e.v.b.e.v.v.Z.O.O.m.m.A.g ..tXaXw.w.sXw.w.e.V.w.A.w.e.A.w.w.A.sXA.w.e.w.sX& ' ' ' ' t k k k k k k K ' ' m & # , aX..} o.X.O...O.zX' V.xXB.o.u ..xXxX| U o.e.o.e.e.e.m.V.u ; Z.l.c.z.z.c.c.c.c.c.c.c.z.c.c.c.x.x.z.d d t.t.z.l.b.t.t.t.t.x c r.l s 7 { *.$.=.+ iXfXwXyX{.wXOXwXyXjXnXfXfXcXfXnXfXjXbXjXoXjXoXcXAXn n S mX*X*X%X*XbXAXmXbXmX%XoX*X*XbXoX*X*XcXbXbXoXoXbXn OXjXOXfXnXOX{.{.jXwXwXfXwXg.g.8X0XwXf.h.<.0 + <. .I t . 6 K D # $ $.    ",
"  > 0._.wXM.g.6.i hXgXX.] * + fX0X{.jXOXfX|.|.].cXfXfXbXcXfXOXAXmXmXmXmX$XS KXbXcX%XbXfXbXcXvXcXfXnXnXfXnXnX{ h } y.b.x y.D.y.b.v.x.c z.Z.H.e.n.S.z c.e.v.l.z d x.e.z.k e.e.x ' k k o.| o w.w.e.w.w.w.w.A.w.w.e.w.w.e.w.w.A.w.V.A.w.w.w.sXk ' ' ' ' ' k ' k k k k k t y y , & r  .U o...` 2.o.m.M.y _ kXy.x v.V.o.j h h K | | X...2._ 2.K y s c z.t.c.c.z.z.x.x.z.c d c.c.x.z.d l.t.t.l.t.x.t.b.c d r.l = a 8 p 7 7 4.4.uX|.> fX0X{.wXwXOXyXoXuXnXbXfXfXfXfX|.oXfXcXoXfXbXOXjX*XS M OXbX%XXX%X*X*XbX-X-X*X*XXXXX%X*X%XXX*XoXoXoXXXoXbX(.}.cXoXfXcX].OXfXuX{.h.].{.{.{.fXyXwX4.g.d.0 < 5 + @ g | ` _ 6 % $ A     ",
"  > R 7.N.M.g.{ e d.a.s.{ 7 + {.fXfXfXwXfXyXfXcXVXcXfXbXbXcXbX*XcXmXbX-X5X1X6XmXbXAXbXbXbXbXbXbXbXfXoXuXfXs.g.wXh.N.C.y.b.r.r.d z.z.k k z.e.z.z.z e.z.c.r.z.v.n.x.e.Z.e.u u k u u g 6 o - ..w.V.e.w.V.M.w.w.A.w.w.A.w.w.w.w.w.e.w.A.w.w.tX2.% t ' ' ' k k ' ' ' t k y ' y , & , X...h | o.o.O.o.m.j o B.O.x x k V.v.O.h h k K ..q.2.q.` y - o & u s z z.x z.x d z.t.d c.x.x.d r.t.z r.d l.r.t.r.t.s a = O # - * * $ W a.].=.0 fX{.fX{.{.OXjXfXjXjXfXfXoXoXfXfX|.oXoXoX%XAX*XAXAXA S JX7X*X$XXXXX$X&X%X*XXX&X*X$X$XXXE.E./.XX$X%X}.XXmXOXV AXoXoX|.OX'.{.'.s.'.).{.{._.g.g.fXdXg.7.7 < 4 | X.w.e.| U % @ . -.    ",
"  + W `.aXqXg.8 B p.>.E *.7 * s.[.wXwX{.{.fXfXwX{.OXOX{.s.'.OX'.'.}.}.&X3X2X6XbX*XmXmXbXcXoXoXbXfXfXoXfXg.{.{.d.jXy.x C.y.t.b.b.b.n.s ; b.n.l.z c z x d v.v.b.n.z O.v.O.; - . o . X . X . _ sXtXw.w.B.aXw.V.w.A.w.w.w.V.w.w.w.w.w.w.w.w.A.A.& & g ' ' ' ' ' e.' ' ' ) ' 6 6 6 m N.N.w.o.m.m.m.x e.sXo 6 m.O.x z y.z.v.e.x v.| v.K u y 6 o % 5 y ; k d z z z z z z.n.c s c d d r.r.y.z t.c r.v.y.y.; h f * # q . . W s.fX|.*.C wXyXfXOX{.jXfXfXfXcXfXcXoXoXfX%XbX%XOX*X*X*X*X*X*Xi.S &XOX*X&X&X&X&X$X$X.X7X-X.X&X*X&X&X.X-X&X&X*X&Xi.i.k.U.*X.XOXOXOXu.OX|.OXfX|.|.].a.).].4.d.=.7.< # # ..~ _ h g o . X # L.    ",
"  : W _.aXaXg.e ! 5.P p i 0 * 7.s.7.s.g.g.{.g.u.s.;.u.=.i.-.:.:.u.i.i.E.T.2XY.i.s.'.].}.'.OXs.).).s.).).{.{.fXN.X.X l x y.s c y.Z.C.r.b.l.Z.n.c s l x j z v.z k O.x o . y f o.k k x V.m.2.- 2.2.` w.aXw.w.w.w.w.B.A.A.w.w.e.w.e.w.w.e.w.A.A.q.o . % t _ t t t & % o . o . . . & h k A.V.m.O.O.o.| V.6 y V.k l e.b.A.v.V.v.V.| o.w.' K t . o ' o & ; c e.v.z v.z.z v.c s t.r.x.d t.d c r.l.z x f a a l } ; * 8 *.7.%.=.(.(.1 *.cX|.h.{.fXuXoXoX].'. XoX}.oX%X%X}.oXXX%XOXOX%XOXXXA S &X.Xi.&X&X=X*X-X-X7X7X7X&X&X7X7X&XKXAX$XXX&XOX.X&XR.>X&Xu.j.'.'.'.u.'.'.'.(.s.;.].OX;.=.s.=.uXB < > . . . . + w G 3 3 L.    ",
"  > 9 0X,.{ = h wXyXqXd.W < < B P g.{.g.{.].{.|.OXjXcXbXOXoXbXbXbX*XbX7X,X4X@XOXXX|.OX%XoX(.{.oXjXnXnXnXnXNXjXvXfXyXM.p.h a r.r.r.t.r.r.s c l s c ; u c ; . u y f & - | v.v.x.n.x.n.n.b.Z.V.& y X 2.w.w.e.e.w.e.w.o.2.o.e.w.w.m.w.w.w.w.2.w.2.q.m X o r o , T ZXMXCXBXCXCXCXIXBXCXzXB.sXO.h | j _ O.8 O - g ` | y .._ 2.2.w.m.M.w.UX5.1.` 2.q.2._ m o o . ; x x l.z c z.d S.d c z s s x l x x . s j l o.g - 7 L { B b +.W M 0 7.s.s.=.s. X|.(.|.%X|.i./.Q. X^.Q.W.i.A A k.Y.k.Y.Y.R.R.R.T.#X~.i.Y.L.~.:X.X.X.X.X~.i..X.X~.>X>X>X3XT.,X4X,XY.T.T.T.#XA A u.V V V V 1 ] W p C W *.=.0 # X L 1.<.5.9.tX9.% # S     ",
"  : < d.L P 8 >.9XhXhX_.B 0 C fX0X_.yX{.fXwXjXfXfXfXOXfXfXbXbXAXAXAXAX7XT.3X6XAXmXmXbXmXbX*XAXAXAXDXDXDXDXnXjXvXnXNXMXvXdXwXy.y.b.l x c s l s k O.; ; h & - g t o O e.V.n.t.z.t.x.x.z.z.z w.o k sXB.e.e.w.A.w.sXrXwXN.dXsXxXkXBXxXxXsXxXkXBXsXsXMXZX$ X pXLXPXPXLXLXLXPXPXPXLXPXPXLXGXLXIXB.. y m.U ; 8 . . 5 t w.aXaXGXGXGXGXGXCXBXCXGXGXGXGXIXBXIXMXpX9.& j x z c d t.c z.d l j ; 8 ; O C.s l l l = a y p O . < ).uX|.1 > + ).nXjXmXbXcXmXmXmXmXmX*X7XmXAXKXAX7XKX.X7X5X5X5X3X2X3X5X6X5X5X5X7X&X=X6XKX7X7X&X&XM Y.&X@X&X7X#X&X=X&XT.4X1X5X#X#X#X#Xk.OXmXKXAX%XbX(.;.=.$.].=.^ e < # _.wXN.M.6.2.2.' r @ S     ",
"  1 # 7 I ! * ! 3.8Xf.>.0 B %.0XfXyXg.{.{.d.a.{.[.oX[.|.OXoXOXOXOXoXoX%X.X>X5X*XoX%X'.OXbXbXbXcXOXOX{.OXyXfXwXjX{.wXwXg.8XgXgX| l l s s s s s | ; = . , e . , y - o j r.b.b.z.c.n.x.G.Z.Z.z.v.v.D.e.s B.w.aXA.w.X.N.wXwXm.tXm.rXm.m.y.V.B.tXrXrXaXMXX I.PXLXCXZXaXaXZXaXaXsXM.m.B.sXtXtXsXMXw.F ..f rXN.8 MXpXlXMXlXrXlXMXsXlXsXlXlXlXlXxXBXdXzXsXsXlXzXCXBX` . & s z x c d x V.O X O # ; O.x v.j . $ + + * 0 V %.7.).7.2 < * s.OXOXOXoXOX'.OXOXj..X.Xj..XOXj..XXX$X.XXX&X.X&XT.2X<XXX&X7X7X&X7X-XKX6X&X.X.X.Xk..X&X.X.X.X.X.X.X.X&X.XY.#X&X&X&XXXXXoXXX}.bXKXs.'.'.'.u.'.cXnXfXY = + d.g.g.o.| o...U r @ S     ",
"  +.+ 3 ! ! g { 4.8.d._.i 7 4.[.wXwX{.{.[.[.[.OX|.|.|.OX|.}.}.'.'.OXoX%X%XR.3X*X%XXX'.%XbXbX%XoXbXfXfXfXfXyXyXfXyXwXdXeXfXtXdXdXa a f s ; ; . . . # UXI.ZX@.@ # X 8 X O.z d n.n.x.H.G.Z.n.z.n.b.l.z ; O.aXsXrXtXtXtXN.B.wXM.M.N.gXeXyXdXB.tXkXdXpXI.: PXPXCXZXMXMXMXMXMXzXBXzXzXsXzXzXlXqXrXCXSX9XF SXtX8 zXgXyXrX9XaXqXaXaXM.9XrXgXeXrXtXwXeXrXsXaXzXsXaXMXBXUX. X ; f h j ; . O @ . . . . a j j } = > 0 B s.(.$.;.|.).< < 2 ].oXOXoXOXoXoXOX%X&XOXOX*X*X7X&XOXXX$XOX&X~.@X*X>X2X5X.X.X7X&X&X.X.X@X.X&X.X&X#X.X&X.XT..X#X.X#X.X.X@XT.T..X.X.X.X.X/..X^.^.$X^.Q./.Q.W.u.;.'.:.(.(.+ + _.7.N.6.6...[ I q # S     ",
"  ;.+ p [ [ { ! f.0Xg.*.0 e 4.0X{.g.{.0X{.{.|.[.{.OX|.|.|.'.XX|.OXoXXXXX.XT.5X&XAXQ.XXoXbX%XoXfXbXoXcXfXOXjXfXwXjXdXjXeXdXtXgXzXj * l f = ; # # @.`.ZXZXZXZXb , ~ ~ O 8 c v.l.z.z.z.c c d x d x.z.e.m.m.rXkXtXB.rXB.tXkXzXxXxXrXgXrXlXxXB.tXN.dXZX#.v PXLXZXMXVXMXMXMXMXzXsXBXxXMXxXBXBXlXzXxXBXGX,.xXBX- 8.eXgXzXzXlXzXlXrXpXpXiXhXgXgXgXhXzXrXlXN.tXzXaXsXzXsXg . $ . . . , ` MXMXqX1.5.I - | j { + i =.$.;.s.(.:.uX7.< 1 2  X].|.*XOX*XOX%X%XOXOXbXbXOXOX&X*XOX.X&X-X.Xj.=X4X4X6X7X&X.X&X.X&X@X#X@X@X#X&X#X.X.X#X#X.X.X#X.X#X.X#XT.,X.X.X.X@X.X^.^.}.^././.}.}./.Q.Q.i.;.$.(.;.= + 9.g.M.p...~ [ T : : S     ",
"  I.+ G f.g.>.,.N.wXeX8X0 N 4.0Xf.{.{.{.wXyX|.fX|.oX|.oXoXXXoX'././.W.i.k.R.#X*XbX%XoX*X*X%XbXbXcXcXOXOXjXvXyXjXjXyXjXwXdXjXwXzX[ O q 5 g 7 r B yXvXvXmXI.I.9 # ` - . . ; s k s ; ; o ; O ; a e.s v.kXkXlXrXtXrXkXtXdXrXkXxXkXzXxXkXdXxXxXkXkXdXMX9 ZXPXJXZXzXNXMXMXMXCXMXxXzXBXxXIXxXMXMXBXlXzXNXlX{ tX# m.gXgXhXhXpXgXMXhXtXrXrXhXgXgXgXgXiXlXlXMXlXtXsXsX5.) D ) . # 2.MXMXxXMXzXqX9XqXM.p $ + 7 * =.=.:.] -.(.P.|.W < B > cXoXXXcXoXoXoXOXOX*XOXOX*X7X&XOX*XOX&XOX*X&XXX5X4X4X7X*X&X.X.X@X.X@X.X.X#X#X&X&X.X#X.X.X#X#X.X.X.X&XT.4X4XT..X.X#X@X.X@X.X.X^./.}./.Q.Q.i.u.i.-.] ].> + > 3.m.O._ U g t m : J.    ",
"  :.$ q 3.g.8.g.eXdXhX8X0 0 3.0XwXwX_.{.wXfXOX|.fXOX|.OXoXbXOXA A A M S -.$.}.%XbX-X%XcX*XfX%XmXbXoXfXfX{.jXjXhXyXwXeXeXN.jXwXxXP * . I g . 5 + B %.`.0X&.9 , @ R iXaX9X@.( O . % o j k s k ; x ; | kXtXrXrXkXzXrXdXlXrXxXzXkXkXzXkXxXkXtXkXkXdXgX5 JXPXBXMXzXxXBXzXzXxXxXxXBXxXxXlXzXlXMXsXzXzXxXMX. iX# 2.gXlXlXgXsXlXpXeXrXqXgXrXhXgXiXgXgXtXsXCXBX5.K K O w 4 pX..w.IXtXM.I.`.9.9.8.wXaX[ 3 . + 2 $.u.$.i.A u.).B . 7 0 1 uXoXfXbXcXOXOXoX'.OXoXXX*X-XAX*X*X.XOXOX*XOX.X=X4XT.7X-XXX&XXX@X@X@X@X#X@X@X@X&X@X&X#X.X=X#X#X.X.X#X3X3X1X#X.X#X.X@X$X@XXX&X}./.!./.E.E.-.-.i.] ;.mX> # P g.X.h U | _ g _ # K.    ",
"  $.$ e g._.6...wXiXyX9X7 0 4.8XwX{.8XyXyX[.0X{.{.|.].].*XoXC M -.oX-XbX%XM '.oXbX|.%XoX%XOXoXfXfXfXfXfXfXfXjXhXjXjXjXeXjXeXyXzXP - 4.>.3.5.8.8.^ D . . t ` # . qXpXuXpXZXvX8X9XO % x f k s j V.O g ..B.lXzXdXzXkXkXkXlXzXkXtXdXdXrXB.kXdXeXeXdXgX0 PXLXBXzXzXBXMXxXzXBXxXzXzXMXzXzXzXMXBXlXzXzXBXBX| 9.* 3.zXgXpXtXpXrXtXiXiXgXhXeXrXgXlXtXrXzXpXsXxXrX. - 8 I w.D w.zXGXw.5.tXtXwX_.9.8.qX8.. ! 0.).h.$.s.'.(.=.P ~ 4.dXfX< u.oX|.jXcXfXoX%XoXOX%XbXOXOXOX*XbXOX.X.X*X.XOX7X4X<X7X%X7X&X$XXX$X@X@X.X&X&X@X@X#X#X.X#X#X#X.X#X=X#XR.3X4X#X@X.X.X@X@XXX.X^./..X'.E.i.-.-.-.Q.$.).uX+ > < i e L H ` ` 8 8 # Y.    ",
"  $.$ i qXM.X.I 8XqXqX8X5 0 4.f.g.wXwXwXwX0X{.OX|.[.'.oXoX'.V -.AXAXbXmX%XM XXOXOXXX%X%XoXoXoXoXfXfXoXfXfXjXjXhXjXdXjXhXdXdXdXNX8 P LXSXCXNXvXMXgXpXpX9.. q 5 ( _.iX9.`.uXpXpXCXw.; k u . - _ & X 1.,.6.CXzXrXlXlXlXlXlXB.rXrXdXkXrXdXdXdXlXrXzXaXg PXGXMXzXxXBXBXMXBXMXBXzXzXxXzXzXlXzXzXxXsXsXxXBXB.X.# g MXiXiXpXiXiXpXlXeXrXzXgXlXNXrXrXlXrXrXtXrXMXg # # , , @ 9.MXsXw.tXrXeXeXiXpXtXaXI t lXVXNXVX].|.VXVXW P gXkXdXzX0 ] fXfXOXOX|.oXoXfXoXAXbXoXOXbXOXoXOXOXOXOXOXOX.X4X#X&XXXXX&XOX.X.X.X.X@X@X=X@X~.@X.X#X.X#XT..X=X.X#XT.4X>X#X.X.X.X$X@X.X~.E..X^.E.Q./.E.-.-.-.:.;.<.X + < + : : . . . e I 4 U.    ",
"  $.X B f.f.>.| tXgXiXaX7 e 5.wXyXeXyX{.wXwXfXwXyX{.|.OX'.'.fXfXAXAXjXbXcX1 }.|.OXbXoXfXcXbXnXfXfXfXfXjXhXnXjXjXjXgXjXdXdXjXhXMX= f.NXgXM.p.9.M.M.M.tXMXw.~ w.MXZXaX`.`.`.0XqXiX2.8 - j ; & .. .e f.iX4.,.tXzXzXrXzXBXzXlXdXlXkXkXB.kXSXkXxXxXBX~ t PXxXgXzXxXBXxXzXzXxXBXzXMXzXxXzXzXzXzXxXBXzXtX` rXrXi P zXyXqXrXqXeXhXlXhXhXqXhXrXhXiXeXrXwXaXrXgXlXwX3 . . @ w GXMXxXxX6.N.gXgXiXrXgXzXU 8 q D L W W B W G = ..V.V.m.B.P ] fXoXOXbXbXfXfXcXbXjXjXbXbXOXoXOXOXi.&XOX*XOXM k./.*X*XoXXX.X&X.X.X&X&X.X&X&X=X@X#X.X#X.X.X#X#X.X.X<X2X,XT..X.X@X@X@X.X.X/.^./.E./.W.i.i.i.$.(.$.W ! < . + + q F ~ F M. .w T.    ",
"  :.X W f._.6.4.wXeXqX0Xq e d.g.g.4.{.jXwXd.s.s.h.{.{.oX{.|.mXnXOXAXAXOXcXn OX|.cX%XoXbXjXbXbXcXcXfXcXjXfXwXjXjXjXhXjXdXyXyXwXgX7 f.g.3.5.f.g.M.8XM.eXeX9.9XpXpX`.9X9X9X0X0XZXaX8 & y g & r 5.9.<.`.ZXI.. - 6.MXzXzXzXsXxXdXkXzXkXdXkXxXBXzXkXzX1., LXIXsXlXzXMXBXzXzXMXzXMXzXzXzXzXzXgXzXzX3.M. .U GXN.p 7 dXdXfXgXdXrXrXgXgXgXiXiXeXgXdXwXwXgXeXtXwXtXqXN.! ~ # 6 xXtXxXIXN.N.tXwXN.N.M.9.1.5 9 8.uXaXZX9 . . - o.e.e.e.' 0.E '.(.(.%XcXfXcX|.OXOXOXOX'.OXOX'.OX{.OXOXF.h.M 1 C *XOXXX}.XX}.$X&X$X.XXX$X$X@X@X+X+X@X#X.X.X.X#X@X5X3X4X#X.X.X.X$X@X@X^.~./././.E.i.i.-.-.$.V $.P I < 8XM.9.p.M.rXrXy g - T.    ",
"  $.X ( M.d.3.U g.N.f.f.p e 4...i } i g.4.P } =.] =.} u.s.{.fXOX:.(.OX'. XC (.bXcXbXfXbXcXOXjXfXfXjXfXjXjXwXjXvXiX4.3.>.h.N.N.zX* g >.P *.>.<.3.9.M.N.9.M.pXaX_.`.`.I.I.UXaXiX~ % K ; & 8 8 9 %.*.`.qX` % - . ! rXlXxXzXxXlXdXkXdXkXkXkXdXkXrXlX@., 0.PXMXpXzXMXzXzXxXlXzXzXMXzXlXlXlXzXkXkXtXdXzXsXo.| P X zXyXeXgXwXaXiXhXgXgXrXaX8XwX0X8XwXeXeXwXN.N.tXeXlXBXr r IXxXxXsXsXtXtXN.M.tX9.8XiX[ &.vXNXvXVX9.# @ y _ e.w.sXaXD q ] s.;.'.oX].(.|.s.{.s.{.{.OXOX'.OX{.OXOX&XOXi.V 1 OXXX'.OXXXXXXX.XXX$X@X^.@X$X$X#X@X@X.X@X#X@X@X@X<X1X3X#X.X@X@X@X^.+X^.E.~.^.!.E.E.E.A A $.C |.V * 7 tX8.p.9.6.5.2.r w < T.    ",
"  +.+ i 1.3.>.{ ! g.f.9.q 7 F ! } P P { i { 4.*.] W ] =.=.$.=.=.] =.V V ] V :.fXu.OXjXbXcXcXcXfXwXfXfXjXjXvXvXhXqXg.0X_.P 3.gXgXX 8XqX_.p.8.f.8X5.M.5.rXNXMXqX0XuX9XiXaX9X9.D y U ..| ..f K F &.R I.UXr * - 3 .  .BXBXlXkXB.A.dXkXdXtXkXkXkXdXlXq.: . LXBXMXBXxXBXBXBXBXzXzXxXzXzXzXzXzXgXlXzXzXxXzXf...L O 9XhXgXhXZXMXMXvXMXMXNXvXhXhXhXgXlXhXhXhXhXhXhXhXhXMX5.D GXxXlXlXsXsXgXtXN.B.N.zXBXh.4.nXhXiXMXMX. o ..e.e.w.sXw.% v ;. XV C |.bXcX|.OX].{.i.oXbXOX|.fX).{.fXcXh.p i.] i.oXoX%X%XXX.XXX^..X^.^.&X$X$X@X@X.X#X.X#X.X.X@X#X>X4XT..X~..X~.~.~.~.~.E.Y.i.E.i.-.-.-.:.C p > 9 $ / M.3.6.,.,.1.H w 3 >X    ",
"  #.# _.aXtXM.9.3.4.8.g.J 7 { X.[ p.g.p.h.h.g.g.h.h.h.{.h.=.s.h.'.h.h.i.] 1 V C p ] =.{.g.'.].].s.s.).).g.a.=.=.{ X >.8.g i ~ J O g J 3.....3.M.w...6 ) qXqX8XiXiX9XpXaXU . . t y . j 2.. o 1.vX9.UX, . . . - . g BXtXMXzXBXNXxXBXkXtXdXV.N.B.tXqX. . . tXtXsXtXsXsXzXsXsXsXtXtXtXtXN.M.f.M.M.5.p.M.g. .4 3 w pXpXaXaX9X9X9X9X9.8.9.9.8.7.>.<.3.5.4.8.3.5.4.7.0.T 5 MXaXw.pXzXZXiXyXyXtXg.zXSXfXg.fXyXyXZXVXq.8 w.e.w.e.w.w.y ) 7.7.+.=.uXhX7.7.{.yXOX0XfXwXg.jXjXfX{.jXfXi.} l ] h.j.j.s.i.'.s.i.Q././.$X$X.X.X$X.X.X.X.X.X~.~.Y.#XT.4XY.k.k.k.Y.k.K.A S Z -.Y.S Z -.W.P.n 1 2 < . R 8Xp.} } ....q.F m : >X    ",
"  C G NXBXGXBXzXMXzX9XiXP - 3.X.>.p.[ { { U { ] u.} =.X.p P P P ] =.s.*.$.7 + ] 7.h._.7.0 p p V 7.8.8.7.4.g.g.g.[.3.X.{ L 5.L g.{ | 6.2.6.M.9...2.8 X , 8 U ` 2.g @ K ` ` ` ..w.BXBXBXxXBXCX@ I IXCXBXBXMXMXzXzXlXtXN.BXGXCXGXGXGXgXM.MXBXM.aXzX8.1.zXGXGXGXCXBXBXsXw.aXN.lXgXN.zXgXNXBXlXMXlXM.dXrX .I w 6 - . J qXpXZXhXgXvXzXhXpXyXqXNXNXeXwXaXqX0XqXqXqXM.w.o o K ` ,.2.0.8.8.0.8.9.,.9.M.gXwX0X_.N.9XiXpX2.` ' ' ' h 8 O &.i q W g } ..p i 7 p P [ { P p P { i i U p p X.l } j.j.j.j.t.l S l S S l S k.S k.k.k.Z k.i.k.S Y.,X>XR.R.Z Z A A Z Z Z /./.Q.^./.-. X-.i.|.;.2 > < *.0Xf.N.f...~ 1.( ( w < 3X    ",
"  0 i 8XqXBXBXdXrXtXqXN.! - i 8 e e p U f } P P = < p C C P =.=.=.{.[.fX{.V * =.[.hXjXhX7.> < NXDXDXDXNXDXDXSXxXxXDXNXxXwXyXhXf.F ..zX| | g 8 6 - 6 3 . ( . J I zXM.zXIXGXIXGXGXGXGXGXBXLXGXo } IXBXxXxXzXzXrXzXlXtXsXdXzXN.tXtXtXtXgXzXzXzXzXNX. aXPXLXLXLXGXGXIXIXMXGXSXzXxXSXGXCXxXSXLXGXGXGXSXSXNXpX< N # `.CXJXVXSXSXDXGXJXVXNXhXhXNXNXjXjXhXvXhXVXNXvXpXMX3 / 9X5.qXlXdX8XqX9.qXwXgXlXdXBXBXBXxXBXMXxXMXMXBXzXpX9.F o 8.SXeXp.h.6.p.N.B.C.wXgXN.N.N.wXg.g.. # g f a O.v.j.t.t.t.l t.j.j.j.j.j.j.j.j.S j.i.k.i..X*X-X*X*X&X=X@XM S &X.X^.$X@X$X.XXX$X$X^.}.}.'.C -.OXfXu.< 1 [.<.{ g.N.8...` 1.1.H 5 3X    ",
"  9 * ..,.M.tX6.2.g.tXf.,.3 * i + - i 4...j - P =.=.=.s.h.OX].'.h.(.'.=.4.B 2 jXvXjXjXyXfXL * { NXjXdXdXdXg.wXwXwXwXwXwXwXwXiX<.N ~ g - . . - - X o & w ` sXlXzXBXkXlXkXrXkXlXzXlXzXzXNXCXM.O dXBXlXA.dXzXsXtXdXrXtXtXlXsXzXlXlXrXgXdXrXlXlXdXCXq e GXhXdXSXzXdXrXMXlXpXeXwXjXzXzXgXDXtXzXdXhXeXzXhXhXhXN b < ZXJXDXJXCXNXNXnX{.[.fXuXuX`.a.fXfXyXwXfXnXuXuXpXzX4 MXtXh.6.m.gXtX .9.lXzXxXxXxXxXxXxXzXzXlXlXlXxXzXMXMXMXaX# 1.NXh.h.jXOXh.m.p.dXdXzXhXwXg.h.h.dXp.8 8 p 7 h y.l l j.b.j.j.j.j.x.j.j.j.F.} M A k..X.X.X*X*X&X$X^.XXXXS L.~.E.~.~.^.^.^./.^.}.}./.}.(.A (.'.].(.2 < ] ] >.,.|  .>.1.9.q.I 6 1X    ",
"  < # g X.6.6.6.N.M.tX8.p.# g I $ + 7 g X.7 5.`.g.7.s.s.s.'.).(.'.].{.].].1 2 DXfXjXyXyXfXhX{._.fXjXwXwXwXwXeXeXeXwXeXwXjXiXyXpXG - * O # r o g h M.w.lXzXzXlXkXlXsXlXlXrXgXkXkXdXkXlXzXlXU X GXBXlXkXzXkXzXzXrXdXrXlXzXrXrXlXzXtXrXgXzXzXlXeXhXq ! NXMXxXlXMXNXNXMXZXlXhXzXzXhXvXNXxXnXnXvXhXNXgXhXgXvX^ < 5 nXVXnXnXwX{.a.%.$.vXnXuX|.[.vXfXyXjX[.jXhX0XuXpXyX$ qXgXzXN.~ 3.5.9.m.tXkXsXkXzXzXlXlXsXrXrXrXlXzXsXsXrXzXsXr ^ JX).|.fX{.0XC.C.m.N.h.h.wXh.} g.N.dXN.7 ; 8 f l j.j.t.b.b.j.x.c.j.c.c.j.j.j.j.j.k.i.OX'.$X$XoXXX&X^./.S *X@X^.^.^.^.^.XX^./././.}././.W.|.(.u.(.* > E 4.4.3.{ >.&.1./ D F 6 4X    ",
"  0 7 ! U X.p.6.6.o.p.4.6.i - O O # O 3 g <.3.4.a.s.s.a.(.(.a.(.).].]. XuXW 1 VX0XfXyXwXwX{.yXwXyXyXwXwXyXeXwXwX0XqXwXwXqXwXwXzXF g } = o . 6.A.m.zXlXsXrXtXrXsXlXsXkXlXdXrXrXzXgXlXlXlXMXtX- GXxXxXkXxXkXlXzXrXdXxXxXlXzXzXlXdXtXtXgXxXdXeXdXgX7 &.NXMXzXzXMXhXMXNXgXzXhXzXnXzXNXNXNXNXzXzXhXnXhXjXhXgX[ 9 Y JXDX|.oX'.s.cXfXnXhXnXwXh.h.nXhXfXjXhXhXhXfXvX[.R N qXtXdXaXm.6.9.9.w.m.m.M.M.M.tXsXrXrXrXrXpXpXsXrXsXlXrXtXK ^ LXnX0Xg.g.h.p.N.j.j.h.wXM.s.p.h.h.} N.i O ; } v.C.y.y.r.j.F.n.b.j.F.t.j.F.t.J.S } Q.}.}.$X%X;X}.}.XX^.M $X^.^.$X^.^.^./.^./././.^.Q.Q.}./.i.(.].> > ] 4.[ &.! ! [ / / K F r       ",
"  0 8.f.6.U 6.m.o...p.m.2...8 - . O O e _.d.7.`.g.a.s.s.).).).).).).].].[.7.N NXyX0X0X0XwXN.wXwXwXeXwXyXjXyX8XwX8XN.wXeX8XqXwXgXg = 8 6 & V.sXsXzXsXrXrXkXrXgXkXlXgXrXdXrXlXdXlXrXrXgXlXMXp.g SXzXsXlXzXdXlXxXzXrXzXzXlXzXxXrXeXtXM.dXgXkXwXeXzXi 0XSXNXhXMXMXzXMXNXNXNXMXnXzXMXNXNXNXNXvXhXhXzXMXMXgXhX7.< B JXfX$.OXcXs.7 jXLXSXDXnXg.{.nXVXVX`.{ 3.MXpXhXhX7.hXhXm.N.B.aXM.aX2.6.M.9Xm.B.B.9.tXM.M.tXaXtXtXaXaXlXgXrXlX9.5 CXg.g.0Xh.h.N.N.h.m.N.N.g.g.8.h.N.j.o.a j = ; j l r.j.j.r.y.j.b.j.j.t.j.j.M c i.k.%X}.:X%X$X:X}.^.^./.A .XXX^.^.^.^.^./././.Q.}.'.Q.Q.}.|.(.u.s.:.> N 7.a.p.6.[  .~ ~ I ) 4       ",
"  0 ! M.M.6.| U g t 2.6.6.2.6 o # ( D / d.=.W 7.d.a.7.7.a.s.7.).).).).7.).{ i NXwX_.wX{.wX_.N.yXwXN.8XwXqXN.qXwXN.f.8XwX8XqXqXhX7 # t _ y xXB.sXsXsXsXdXlXrXlXgXlXkXgXrXrXgXgXlXlXzXhXzXMXaXg BXlXdXlXdXdXdXMXdXeXxXzXgXzXgXdXeXeXrXdXdXgXgXdXhXe 8.NX8XzXNXMXNXNXCXNXMXNXNXvXhXnXNXzXnXNXvXnXNXhXMXvXNX[.9 |.JX|.] ] :.$.s.{.bXDXDXjXjXDXNXCXvX5 < . / MXhXvX_._.MXM.m.N.M.aXN...,.p.M.M.N.M.5.w.MXrXaXaXaXaXM.8XtXtXrXzX9.# MXaXtXtXdXzXwXg.g.p.g.p.p.p.y.p.y.l _ % h p P a j l s t.y.r.y.y.t.j.l l l a S j.j. X'.}.Q.^.}.:X}.^.A Z $X^.^.^.}./././.Q.W.Q.Q.}. XQ.(.'.s.u.u.s.2 + >.>.5.4.........K I 5       ",
"  B I ~ F t 8 8 8 g t 8 r 8 . i 8.9.g.7.7.7.=.4.`.d.7.a.).a.7.7.7.s.).7.).<.R vXqX0X_.wX8X0X{.wXg.{.8XwXg.8X8X8XM.8X8XN.8XwX8Xf.7 # e . ; kXsXA.sXsXkXgXrXrXrXdXgXdXgXgXgXeXgXgXgXxXgXlXzXzX8 BXrXkXdXdXdXdXlXlXzXzXzXgXzXlXrXrXdXzXdXM.eXwXM.pX^ 1.zXNXhXNXVX0Xg.wXSXVXhXMXNXNXnXzXnXMXnXnXnXjXjXhXjXvX7.1 JXJXcXnXfX].OXAXfXC =.fXvXfXfX_.pX9 . 9 e . fXvXMXfX0X0Xp.6.aXpXM.9.M.p.9.rXpXaXaX..9.lXN.aXwXtXtXtXtXaXtXtXtXX.5 MXzXpXhXMXN.g.p.M.h.g.p.p.p.v.C.r.O & g M.4.jXP } a y.1 a s a a a a a a S S j..Xi.Q.}.}.'./.^.}.}.'.M A oX/.^.}.^./.'.Q./.Q.Q.Q.Q.Q.W.u.(.(.;.u.7.< < <.! L {  ./ ` / ` J 1       ",
"  V e w g _ _ ` ` ..` U % . D 8.9.=.7.7.7.7.7.8.`.d.`.7.=.d.).).).d.d.).`.<.i MXyXeX8X_._.wX0X{.{.wX8X{.8XwX8XN.8XwX8X8XN.8XwX8X* * O X 8 kXkXtXrXrXrXdXdXrXtXdXlXzXeXgXhXgXrXhXdXdXhXeXhX,.8 GXdXdXdXBXxXdXrXxXxXlXNXxXlXzXeXrXlXrXdXh.N.g.N.hX4.D VXCXCXNXE < . . 4.CXhXnXnXzXDXvXnXnXnXnXjXhXvXfXjXnXuXN JXDXvXnXVXnXVXVXbXmXvXmXnXfXfXhX|.d.&.L hXd.d.7.hX4.0 b iXpXrXrXMXlXlXgXlXhXrXMXrXtXlXrXgXlXrXrXaXrXtXtX8XtXqX>.- NX<.`.uX[.CXCXZXpX9XqX`._.M.dXm.O.V.eXN.h.uXvXD 8 6.h.} p } p.} } } p p *.a.(.W.-.(.(.(.Q.^.XX}.Q.Q.M V /././.Q./././.}./.Q. XP.P.;.;.;.W.P.(.7.=.< 9 * < 5 < < 9 9 w e : M       ",
"  *.+ : O o o . . . . o # - 8X`.7.7.7.I.`.7.7.I.I.`.7.7.I.`.).d.a.a.`.).`.{ ! gXwXwXwXwX0XwX8X8X8Xg.f.g.wXf.8X0Xf.f.8XwX_.f.0Xp.@ . O O m.A.A.B.kXdXrXtXrXpXrXiXiXtXeXeXgXgXgXdXyXeXhXiXyX>.p SXlXdXhXCXzXjXeXgXNXzXlXzXzXgXgXtXtXwXN.wXwX..wXhX4.N NXMXvX: $ < 5 9 . SXNXNXMXnXNXvXnXnXnXnXnXnXjXvXvXmX=.C JXDXmXmXbXbXbXvXcXZXcXcXcXfXfXfXfXnXnX[.hXnXvX[.|.B + 0 LXvXaXqXtXwXqXtXqXeXiXqXgXrXB.tXlXsXsXiXeXtXtXtXeXeXiX1.% pX`.&.0.0.I.uXI.I. XuXuX`.6.X.h.gXSXeXh.4.yX`.< + B g.p.] ] s.).a.$.] ] :.;.(. X(.(.Q. XQ.Q.|.%XQ.Q.M C }.'.Q.Q.Q.(.'.Q.(.Q.P.Q.Q.P.-.;.(.(.7.7.W < < i B p e w 3 5 : 5 3 E.      ",
"  0.+ X H / 1.1.5.9.9.R @ @ 9.8.(.7.7.7.I.9.I.7.7.7.0.9.7.=.7.d.a.a.d.a.d.<.>.qXwX8XM.M.wXg.g.8XwXM.g.wXf._._.8X8XN.f._.g.f.f.! . J % $ A.A.B.dXkXrXlXhXgXhXzXgXeXtXiXtXtXeXeXeXhXeXyXhXfXiXi nXgXdXzXdXdXgXeXhXNXhXgXgXhXgXgXgXrXwX8XeXfXdXzXNX7.i DXMXuX@.+ + $ . B VXNXnXvXvXnXjXnXnXhXnXnXnXfXcXcXvX-.V PXKXnXbXcXbXcXcXcXcXcXcXvXnXcX;.fXfXfXuX{.vX[.[.vXuXN < MXNXqXhXqXeXiXqXtXaX9X8.M.rXaXtXtXtXtXN.tXeXtXdXrXrXrX..8 lX_.9XpXZXVXZXI.#.E v b 0 * h wXyXhX0.7._.I.5.J # . ! *.P = V ] W $.=.=.:.;.(.I. X}.(. X X(.Q.u.W.W.V 1 oXQ.Q.Q.Q./.Q.(.W. XP.P.P.:.:.-.I.;.;.+.< < < B B D w 9 D m 5 5 3 #X      ",
"  :.X 9 pXxXBXBXBXCXCX1.X @ 9.g.I.7.7.7.`.`.9Xf.7.9.[.0X_.4.3.d.s.).g.d.`.g.6 lXtX8Xf.8X_.N.8Xf.g.N.wX8XM.f.8XM._.g.f.f.f.d.p.7 J M.- . A.B.kXkXlXgXrXgXzXlXgXgXgXhXeXgXhXhXjXhXjXhXjXwXhXnX7 NXjXgXhXdXgXjXhXzXdXgXhXgXeXdXrXgXgX8XgXzXdXzXgXeXd.7 MXwXgXiXpXVXY =.VXnXvXvXnXnXnXnXvXnXnXbXnXbXcXcXcXmX=.n bXAXnXmXcX%XcXbXcXcXcXmXmXbXVXcX|.nXfX'.|.fX).].vXVXvX* . vXqXf.9XM.8XM.8.8X0XaXg.,.6.w.M.f.m.aXtX9XwXeXkXsXsXU - CXiX`.I.`.9XUX0.0.0.<.w i @ 7 g.0X`._.`.9.0.aX<.# # $ *.4.7.7.=.C =.=.%.a.].;.$.(.|. X XQ.:.;.i.s.Q.A 1 ;.Q.(.(.Q.(.Q.W.Q.W.P.P.;.P.A V V +.2 > + X 3 i J J H [ @.r 5 : 3 >X      ",
"  ;.$ 4 M.lXrXB.rXrXrX/ $ < d.=.] d.d.2.8.g.wXg.8...p.3.>.5.9X9XM.d.`.&.g.! % eXqXM.8XwXM.8XqXM.p.qXwX8XM.M.g.f.8.4.f.&.P >.4.M.M.D 4  .w.V.B.tXdXlXgXzXzXzXhXhXhXpXhXvXNXhXhXvXhXhXhXfXvXfX2 DXfXjXhXnXNXNXNXhXdXhXhXhXgXzXzXlXdXhXhXzXzXzXhXhX`.< X p.} hXhXDXvXvXnXvXvXnXvXnXmXnXVXmXnXbXnXnXbXbXbXmX:.2 + JXmXmXmXbXbXbXcXbXcXmXVXmXmXmXbX:.(.|.|.|.|.0XvXqXeX<.# &.wX8.f.g.9XzXCXMXgXhXgXqX9XzXhXhXvX_.9X9X0Xd.3.p.w.g e qX(.(.:.*.#.#.0.0.( &.0.3.8 - h wX4.>.s.p.4.3.8.* $ + 0 E *.*.{ p ] =.=.{.].(.(.(. X(. XW.i.(.'.'.Q.;.1 M '. XW.Q.(.(.Q.W.-.P.P.;.:.:.$.:.%.E V : > q w 0 0 q 5 . . . . e 4X      ",
"  :.X 7 X.| O.V.V.N.M.1.@ i p.o.U U p.w.O.| | } 8 . . . . - 2.M.~ ..p.9.# @ . . i F X.6.p.p.6.,.[ >.>.U 8 7 - i 6 8 * - ! f.5.3.J % 5 t X } U 6.p.f.8.p.g.p.g._.[.d.d.{.f.[.wX{.[.[.[.`.).V p VXuX{.{.0XyXjXjXg.8Xg.p.8.h.g.g.g.g.g.p.8.h.4.g.>.q < 5 ] eXhXzXNXyX8.NXjXfXhXyXuXfXfXfX|.oXoXoXoXoXoXcX|.$.M 2 |.|.|.|.*XbXbXmXcXcXcX%XcXbXnXfXs.] ).cXfX(.fXnXvXcX7.i P F 8.3.&.I ! 5.>. .3.aXqX@.pXiXvX0X<.0.0.7.9.L . e 3 6 &.E +.#.#.I.#.@.&.#.0.9.^ U 7 7 g.h.p.} =.p.P v $ # e + 7 B R ! B ] P ] V E ] W $.V C E +.$.:.:.$.+.-.n b +.+.V +.$.+.W V C C C C 1 b $.7.*.&.&.( : + $ . X q H J H J J q.R.      ",
"  #.. i f.M.X...m.m.wX3.X D m.m.V.y.l y.y.r.d l l | | # $ . . . . e g g % X 8  .t % ,.p.6.6.N.m.2.6.dXdXm.g.2.p...3.M.8 ..g g K 6 @ . 1.9.4.vXNXNXNXVXDXDXDXnXfXyXnXDXDXNXnX0XfXnXVXDXSXJX1 . `.fXhXfXuXuXfXhXfX7.0XgXhXyXiXf.8XeXhXhXzXMXzXaX8X@.: ^ g.P { &.! . . e g.VXnXcXuXcXvXnXcX|.|.].|.uX|.'.;.-.1  XbX%X}.bXbXcXcX|.oXcXnXcXcXyXfXDXDX|.wXDXgXfXhX[.I.Y 9 . Q MXBXCXCXMXzXzXCXCXBXBXNXM.w.lXsXtXrXaXN.aXsXaXM.5.@ < 3.9.d.9.>.[ 1.@.#.#.( &.%.W P { } { g.jXMXp.h ..| P | h - t U 4 3 i F F P W Y W Y N B B B B B 2 n 0 0 1 1 2 1 C W b b b 9 B < > > > < +.7.7.7._.7.+ $ X 3.*.,.8.9.9.9.5.8Xe >X    ",
"  :.X ~ hXN.V.B.B.V.N.>.. @ 6.6.B.v.y.l a s s y.l k 8 X % K q.' t . . . o U w.tX9.M.qXf.} | ` g.N.M.tXNXkXBXdXdXwXtXGXf.8.hXiXeX9Xq H LXGXN.dXxXnXNXDXNXDXDXnXjXfXjXDXSXDXAXjXbXbXfXmXfXcX1 =.bXmXDXJXJXJXVXmXVXoXDXDXJXVXDXDXvXNXfXhXDXNXJXCXCXZX+ vXVXiX_.a.9.a.7.s.JXKXDXVXVXAXDXVXKXAXmXAXKXKXKXAXKX^.n ;XJXmXmX%XbXbXbXmXmXmXmXmXvXnXDX7.hXhXwXrXdXSXNXQ 9 * # iXLXGXSXBXBXBXCXBXSXCXzXgXgXtXM.rXkXsXM.tXsXsXxXsXxXsX| m.zXwXg.N.M.N.qXtXiX0X9X&.s.{ U h.p.g p >.g.p } y.} h 8 y g t - . 5 } 4.>.8.4.[ E { W *.=.*.%.7.`._.a.*.W 7 1 %.%.*.;.*.*.*.+.b < 1 > 0 %.7.*.{ ^ f.< @ + M.,.X...,.2.6...,.F S     ",
"  #.+ ! gXlXm.6.o.6.M.9.@ 8XgX6.m.c l y.s j | j l O . - e.w.w.w.V.2.o o o K w.w.6.Q D 3.M.M.4.8.8.9.4.5.g.N.wX{.p.d.p.[.0XfXg.yXvXN E LXDXN.hXdXnXjXjXjXjXnXwXjXnXoXOXfXfXcXbXcXbX%XoX%X%Xp JXAXoXoX*XcXoXOX'.'.OXoXOXOXOXoXoXyXOXfXOXjXOXfX).NXJX< VXJXVXVXDXDXDXDXDXVXbXbXbXcX%X%X:X%X%X%X*XbX%X*X*X;XXXM M $X$X%XXX}.XXoX%X%XXXoXoX%XcXcXC _.{.N.wXM.N.jX8.7 0 < PXSXvXMXMXzXMXMXgXiXaXpXpXiXpXlXqXpXpXaXaXsXtXw.aXsXsXe.B.GXMX2.` _ w.tXaXiX9X6.5.,.o.X.o.g L U h h f h f y ; O o # ; * j ..| } p.p.p.} X.X.P } p F U 4.3.X.4.>.{ P p 4.4.=.{ ] P P 7 B 0 9 < 0 *.*.g P M.qX7 # % 9. ...,....... . .L M     ",
"  B : I M.B.N.M.6.N.aX` @ aXdXf v.v.j O l x O.6.K % $ ` w.e.e.e.m.A.y . X t o.o.w.U @ 9XgXf.g.M.g.f.f.d._.f.8X8X8X_.d.{.d.0XwXyXNXN B PXLXyXfXhXjXnXnXfXcXfXfXcXfXhXOXbXbXoX*X%X%X*X}.%X6XR.=XAXoXbXoX*X%X%X*XAXbX*XOXoXcXcXfXcXoXjXjXnX{.nXVXvXmX> VXfXcXnXvXcXfXfXcXbXbXcXcXbXbXcXcX-X*X*X*X;X&X*X*X&XbXM KX*XbX$X%X%X%X%X%X%XoX%X%XbXmX).< 7.g.yXgXtXeXM.>.i 0 < hXvXCXvXMXvXvXZXpXpXpXpXpXpXiXpXgXpXpXpXpXtXsXsXsXsXsXw.` sXpXpXsXw.UXaXUXw.tX5.^  .g | e.' k x e.k l k ' g 3 % * * - | X.O.{ ..4.>.X...X.[ } U } ,.X.4.} P 6.X.X.{ i P >.4.=.{ ! R &.B V Y 0 B &.&.4.5.M.9X0 # @ 9.2.,.2.2.....~  .L b     ",
"  2 < J M.N.m.M.tXaXw.e X ~ rX| x v.O f j j | B.| % t V.e.V.e.V.A.kX8 o X B.o.w.M.5.# ` 6.eXM.9.5.g.d.8.9.`.`.9.f.f._.g.f.{.wXwXVXv C PXDX{.d.wXfXcXbXfXoXoXoXcXoXcXmXoXXXXX%X-X*X*X*X%X<X3X#X-X*XXX*XXX%X*X*X*X%XbXbXAXjXcXoXjXbXfXbXjXnXjXnXcXVX1 JXbXcXvXcXmXcXcXcXcXcX%X%XbX*X*X;X*X;X%X;X%X-X*X=X*X$XU.$XmX*X*X$XXX%X$X%X%X%X%X%X|.cXfX2 p `.8XM.p.8X8Xd.[ * < W JXNXZXZXvXyXpXiXyXyXpXpXuXZXpXpXiXiXuXeXqXpXMXpXMXMXQ T pXq.UXZXZXT ) aX9.3.f.4.3...h k x u u e.e.k h f % % y l s s l f a | 6.6.g.N.~ I ..{ } ..X.4.~ ....P I X.3.* B >.&.*.8.&.{ 4.<.@.E 0 Y W ! g.wXM.M.N + - 8X,.,...` ........K 0     ",
"  9 + F 6.N.tXB.V.V.9X( $ @ X.U ; h f O.h g y g % & 6 ..2.o.o._ O.k . . & aX2.w.M.w.# 9.tXwXf.9.d.d.7.3.f.I.M._.8X[.N._.g.f.yXfXNXC p PXDX_.{.|.fXbXfXoX%XbXoX%X%XXX*X*X*X-X;X;X;X-X*X;X#X1X#X7X&X$XXX*X*X*X%XoX%X*X*XOX*XOXbX*XcXOXjXbXnXcX{.[. X1 VXmXvXcXvXnXbXcXcXcXcXcX%X%XbXbX%X-X*X*X-X-X*X;X-X=X<X,X6X&X*X&X*X*X*X*X%X%X%XbXcXcXbXAX2 2 V a.4.4.>.>.4.<.0 7 7 LXMXuXpXpXZXpXpXuXpXyXuXpXyXpXhXiXpXyXyXpXZXpXlXMXBX,.Q CX) aXCXMXq.r H 9.9.M.wXdXV.V.C.b.b.k f | k - 8 x v.z.l.r.r.d c s l l y.m.h } | } | I X.p.X.X.L } } ! 6.[ = i 4.&.{ &.! >.&.[ ! w w J g 5.g.tXM.8X! X @ 9. .......2.....2.K 1     ",
"  $.X ! 9.xXkXC.B.tXtXpX# + X 7 U o.M.w.o.2.` 2.e O X . X . . . . . 6 t 3 ..6.6.w.6.1.w.aXwXf.p.d.5.{ <.d.f.f._.wXg.{.uXa.a.fX0XvXW 7 LXVXuX).fXnXbXfX*XfXbXOX*X*X*X*X*X-X-X=X&X;X&X;X;X#X1X#XKX-X-X&X*X&XXX%X*X*X*X*XoXOXOXAXoXbXcXjXcXbXnX7.cXZX< mXvXcXcXcXcXmXZXmXcXbXcX%X*X%XbX;XbXbX-X-X-X-X-X=X-X#X1X6X-X&X*X*X*X*X-X*X-XbX*XbXbXbXbX2 1 p p V ] { ] *.<.N / 7 vXuXpXZXpXyXpXZXpXiXyXiXpXvXpXiXpXyXpXpXvXZXzXzXxXxX....GXMXlX6.K 2.2.F q.w.5.p.m.O.y.y.x.v.C.o.X.- ; v.v.x.c.z.c.z.t.z.c.x.b.z.t.s p g p I | o.o.I F ~  .) Q I - * L [ { L i J ! P ! ! ( T G H  . .3...6.L X $ p. . .....` ` 2.` I C     ",
"  #.X f.N.zXdXB.A.sXpXpX5 # ,...`  .w.6.e.o.2.w. .@ . @ . - 6 f _ w.w.6.& y M.w.5.6.5.9.f.m.9.M.d.p.4.f._._.qX0XwX8XwXwXh.d.8X0XnXW 0 JXVX[.s.).|.mXoX}.oX%XoXQ.*X*X*X-X-X=X&X&X;X&X@X=X#X3XT.7X7X-X=X$X*X*X*X*X%XXX%XOX%X*X*XoXoXoXOXoXfXcXfXvXZXb JXcXcXvXcXvX%X%XcX%XcX*XcX%X;XcXcX;X-X-X*X-X-X-X-X7X#X1X#X-XAX-X7XbXbX-XbXbX-XbX%X%XcXcX7.1 1 7 M B B B 0 i < < : $ 9 <.pXvXvXZXpXvXpXiXvXMXvXpXZXpXZXZXZXpXpXMXpXlXxX_ o.BXtXw.aXw.pXaX) w m ) | p.O.j.Z.v.x o.I g - j v.z.t.t.c.t.c.c.z.c.c.c.z.l.r.s s ; ; f s ; ; h | | h f 4 % 8 / [ / >. .Q  .[ ~ / ( Q Q F ~ ,.3.6.6.! X # 9X` ` U K K K ` H 8 M     ",
"  b : G 8X3.p.m.V.M.M.0.5 - ~ [ h  .| 2.6.w.w.w.K @ X X F ..e...O.O.O.w.g - M.w...5.5.UXg.9.6.8.5.8.8.0X9X9.f.f.0X0X{.wXh.h.jXhXVX%.p JXVXoX=.u.cXmX|.'.oXbX-X-XXX&X@X&X=X=X$X#X#X&X=X=X5X3X4X6X=X;X&X&X=X&X*X&X*X&X*X*X*X*XoXbXbXoXfXbXoXcXcX|.cXb mXnXcXcXnXcXZX%XcXcXcX*XcX*XbX*X%X*X*X;X&X-X-X-X7X5X>X2X6X7X-X*X-X*X-X-XbX*X%XcXbXbXcXbXJX1 < 2 < V ] B 5 > + 0 ^ H w . 9 qXMXZXvXyXZXZXMXZXpXpXZXpXpXZXpXZXpXpXpXlXrXy y lXpX9.9.9Xw.m H H Q 9.M.6.v.C.C.O.j l | p.l Z.x.z.t.t.c.c.c.S.z.z.c.c.z.t.c t.r.t.t.z.l.x c x O.O.O.U # 5  .1.[ 4.1.5./ 3.~ ~  .! ~ [ I L 6.6.6.9.>.. X ! ) I ) _ U I ) K % C     ",
"  0 : # * ..p.p.4.o.p.qXq @ 7 } _ ' ..o.o.w.V.M.K @ o g g 6 6 8 ; y j y _ - M.w.w.6.9.9.M.9.f.f.d.8.4.g.9X8.3 >.f.wXg.h.{.wXjXeXvXV 1 JXNXfXfXOXcX%X}.}.oX*XbX-X$X$X$X&X=X&X@X&X=X=X=X#X3X2X4X6X=X@X=X=X=X=X-X=X-X*X7XXXOX%XOX%XoX%XOXcXoXbX|.fXZX2 VXcX[.cXcXcX%XcX%XcXmXmXcX%X%X;XmX-X*X*X%X&X-X=X=X5X3X2X6X7X-X-X*X-XbX-X*X*X*XbXbXbXbXcXmXC 2 1 1 < + . 7 ! hXNXCXpXpXH + 3 uXNXpXZXpXpXpXpXZXpXpXvXpXZXpXpXpXZXhXrXzX6 _ zXsXpXaXaX9.UX9.,...,.9XI } o.j c l r.y.V.l y.r.t.c.c.c.t.t.c.c.c.z.z.l.t.v.t.z d d z t.v.x s j ; 5 o O 8 Q K g D / ,. .[ [ I Q I  .,.! 6 9.f.M.M.3.$ X  .` U _ ` U _ _ y O :.    ",
"  9 3 9.4.q { X.X.p.tXrXN : [ i U 2.6.6.m.m.B.sX8 $ . - , t t , 6 6 @ . o & I M.w.9.M.M.9.8Xf.g.f.f.3.8.wX4.= i 8X4.*.s.wXfXjXyXvX+.b JXmXvXuXcXcXoX%X%XbX*X&X$X$X=X;X=X=X@X=X=X=X#X7X=X5X4X2X6X&X=X=X=X&X&X&X&X*X&X&XOX*XOX*X*X%XbXOXbXcXoXnXfXnX1 JXbXcXcXcXcXZXcXbXmXbX*X%XbX*X-X-X-X*X=X*X*X-X-X7X5X,X1X#X-X-X-X-X-X-X-X-X*XbX*X%XbXbXmX).0 1 0 1 < < 7.yXfXvXrXaX9XuXaXq # . SXyXpXpXZXpXZXpXZXZXpXZXZXpXpXMXiX9XaXM.% ~ xXtXlXzXlXrXgXdXtXpXtXaXM.8.m.m.m.O.O.| | j X c t.z.z.c.z.c.z.c.z.z z z d c c z d t.z d r.x f . $ $ % 6 @ 4 7 8 6 8 4 w i w i g 8 i t g H M.M.9.9.I.X X 9.,.` ..' ..` _ ..6 P.    ",
"  > L wXM.p.p.O.m.w.6.f.D 5 H 3 % U w.6.| O.o...O @ @ 6 ` ..2...` ( t t % % 6 w.w.,.aX8X9X8X8XM.f.M.f.d.6.! @ X { [ 9.uXd.[.].).uXV C JXmXnXOXcX%X%X%X%X-X*X$XXX$X*X;X;X=X=X=X=X&X&X#X=X5X2X2X6X&X=X&X&X=X-X=X=X*XXX*X7X-X*X*X*X%XoXcXbXnXAX|.;.7.1 7.nXfXcXfX%XbXmXcXbXbX%X%XbXbX-X*X*X*X=X=X&X=X=X6X5X1X1X#X*X-X-X&X-X-X-X*XAX-XmXbXbXbXOX. . . . * 2 p fXhXhXyXiXgXM.aXtXaX: + <.MXvXvXvXZXhXpXpXiXpXvXpXyX9XZX9X>.I - % o ~ ~ .. .4.6.6.m.6.w.M.tXrXsXsXN.m.6.y.X.o.} a r.x.c.z z z.z.c.t.d z.z c s c d z z c r.z.c j u = - F ! F g I U U { ! ` I I U ~ F g 7 g r 9.5.9.w.6.9X. . w.2.........` K M.g (.    ",
"  + ^ 8XM.tXC.m.V.o.| m.e , - $ X . # 6 8 ; 3 % @ @ # r y & O ; y K y U F % - t F ; 8.M.M.9XM.M.M.f.9.f.9.3.N G P 0XyX_.uX|.0X=.V 1 C |.]. X(.(.(. X X:XXX$X*X&X<X5X7X7X=X=X5X3X5X5X5X5X3X2X2X5X3X5X1X3X3X<X5X<X<X.XXXu.i.W.h.'.'.s.|.'.s.u.p i . 7 + nX`.(.|.fX[.|. X X].oXoXoXoX}.%X%X*X*X-X=X;X-X=X5X1X,X@X~././.E.i.E.i.i.i.E.i./.W.i.V s.].fXOX0 > . > 7.).0XwXpXtX9.M.5.. 5 m aX9XaX9XUX8X_.9.9XpX9Xw.aXpXaXiXaXM.M.& ..,._ ` ..' U _ U U _ ..O.o.o.O.O.| O.| } h X.h x b.x.x.z l.c.n.c.z.z.d c c l x z d d l.z.l s f h g U ~ | ....[ ~ I ~ ` ~ .. .U g P 6 4 r pX5.9.9.w.1.X @ UX` ` U D t F w J t ^     ",
"  + e N.g.N.N.B.V.p.B.iXe 5 8 aX,./ 5.5.w.o.5.2.O @ - t t g g 6.` ` _ U t @ 8 5.M.M.M.M.M.M.9XM.M.M.M.9X9XqX0XyXhXiXhXhXyXZXMXvXcX+ + ].|.|.|.|.|.}.%X%X%X%X-X=X#X5X7X7X=X=X<X<X5X5X5X5X5X3X4X3X5X5X6X6X6X6X#X.X.XOXAXbXoXoXOXOXoX{.s.1 7 = i E =.7 < 0 <.f.f.h.fXvXcXuX{.s.i.s. XP.-.;.i.-.i.i.i.^.~.#X>X4X#X=X$X&X*X*X%X%X*XbXoXoXmXVXKXJXPXPXJXLXLXJXhXg.5 . I Q ~ _ h & & tXGXGXrXrXBXMXMXMXzXMXBXVXzXpXZXpXpXtXtXtXrX6 zXxXsXsXB.tXB.tXrXkXrXB.V.m.y.m.m.p.o.o.m.o.p.j . b.z v.d d z.c.c.d d c v.s ; & ; a x l s ; % 8 K r - e t w g g F I U  ...5... ...[ t , 3 aX9.9.9.0.T $ @ J , O % o % 6 t 6 e 3     ",
"  < # N J i g I K I 5.w.q 4 g 0X .5.g.M.6.2.9.,.# @ - r % g 2...U U K m 6 @ K w.9.M.6.5.6.5.3.6.3.8.8.p.f.N.g.8.g.g.8X0X_.`.yX_.[.] 1 DXnXbXcXcXbX%X*X%X*X&XOXXXOX&XXX&X@X$X&X@X&X&X&X@X&X5X,X7X=X&XAXAXAX-XOXOX/.'.'.oXcX%XoXfXoX{.hXp = } B ^ N < + yXhXNXDXDXJXJXJXLXJXKXjXbXJXJXKXKXKXJXAX&X*X%XAXKX4X4X6XKXKXAXKXKXKXKXAXKXAXmXbXbXbXAXnXDXnXjXAXSXGXLXGXhX4 O ,...6 zXCXSXzXMXNXBXzXlXpXtXaXgXtXqXiXqXqXqXqXwXqXeXaXg tXsXsXsXsXA.sXsXsXrXm.X.p.V.m.y.o.o.| | X.o.X.X O v.z s z r.l.x.z z z k k ; O & . ; 8 ; X - e J D e >.<... ... .X O g t g U ` ..5.` t @ 1.w.3.1.5.2.m X $ . K w.aXV.sXtXsXsXkXg R.  ",
"  9 < D H H  .[ 1.q.r 5.5 3 [ i ..,...5...2.2.` # % 6 g U t O.` K .._ ` r % 1.w.M.9.6.6.8.8.p.5.3.6.8.f.N.8XM.8X_.f.g.f.`.7.).a.).s.V fXOX].OXoX}.'.XXoXXXXX$X&X&X.X&X.X=X=X&X=X#X&X@X&X#X3X3X6X7X7X&X&X*X&XXX&X*X%XXX'.}.|.'.|.'.|.|.{.u.C i 0 e 0 < 0XjXfX{.{.h.{.h.yXjXAXAXAXAXKXAXAX7XAXAX-X-X;X^.=X>X4X1X=X&X&XXXXX$X&X&XOXXXXXXXXXOXfXOXoXOXfXjXjXh.jXyXDXNXQ . . NXNXiXqXpXhXyXpXiXyXuXqXiXiXaXyX0XuX0X0X[.8Xg.f.9X6 sXxXxXsXsXsXsXsXsX9XF ; h | s s s l s ; O X . @ l l.d z c d c c z v.u u & o.` e # @ 8 4 * 9 w N 0 N B <.7.>.U U U 8 O 8 g 8 % % 6 6 . 5 zXiX5.9.5.5.G X $ X UXB.V.B.A.A.A.w.p.8 J.  ",
"  < # I 4.f.aX8XqX9.5.1.. # ~ e >.>. . . .` ~ @., % D ,.2.K 2.o.w.o.` ` 5 4 ` w.9.m.M.f.M.g.g.8.p.8.p.M.f.g.g.g.8Xg.f._.`.).{.7.;.s.=.DXd.OXoX'.}.OXXXXXOX&XOX&X&XXX&X&X&X@X@X&X&X.X&X.X=XT.3X7X7X&X&X*X-XAX%X%X*XoXoX}.XX|.|.|.{.].s.fXfX].N . 0 1 < VXnXjXuX{.uXoXfX|.OXjXbXAXKXAX%X%X*X*X*X7X-X-X$X#X,X,X1X=X&X&X&X&X&X&X%X&X%X%X%X%XoXoXfXoXOXOX{.jXjXOXeXjXhXNXv 5.CXeXqXpXpXiXyXyXiXyXiXqXqX9X0X0X0X9X0X0X8X[._.M.aX- aXxXsXtXsXsXsXsXsXw.f p = P j O.f lXX.&.` L e . = z z z c s s u s l ; % g 5.q.T J v 5 < q Y ^ R W E V v %.&.{ [ K t 6 U 6...t ` ` ..% U zXrX0.w.9.w.) $ $ o sXV.w.o.o.2.e.' i - S   ",
"  9 q 3 F P g F L  .9.9.# X q R 9 1. . .` U ` 1., % ) 9.U h ` 2.w...w.w.5 r w w.9.m.f.M.f.8.g.g.5.8.g.8XM.f.8Xf.f.g.f.`._._.{.7.s.cX] nX{.{.'.|.|.XXoXOX&XOX$XXXXX$XXX&XXX$X$X@X&X.X&X&X*XT.1X5X*X&XOX&X%XXX}.oX*XoXXX|.oX|.'.|.{.|.'.{.).fX].=.> p > hXwX{.yX{.fXfXOX[.bXoX%XOXbXbXbXoXOX&X*X*X*X=X$X<X1X3X3X#X=X=X&X&X&X%X&X%X&XoX%XoX%XbX%XcXfXfX{.{.OXwXjXyXyXMXi BXhXpXpXiXyXqXiXuXuXuXuXqXqXuXuXqX0X0X9XqXwX0X0XM.aX6 M.zXsXaXw.tXaXw.p.,.g i . p - 8 lXSXzXzXNXpXrXNX .& f k z d u k - - - O M.2.1.,./ [ Q D w e T ^ ] +.%.B %.&.~ g & t U t 2.,.t K .., # 2.tX9.5.1.9.9.@.X # . w.e.o._ ' _ U F J 5 S   ",
"  9 7 / ..~ 2.[  .f.9.,.# @ @.<.1.1.>. .2.X...` 5 # K ..t g X.2.......2.w r w M.tXM.M.9XM.p.8.6.8.p.g.f._._.9.9.g._.9._.0X9X[.d.7.s.1 g.h.OX{.OX|.oXoXXXXXOXXXXXXXXXXX$XXXXX$X&XXX@X&X$X&XU.3X6X-X%X%X%XXXOXXXoXXXoX|.oXoX|.|.|.].{.{.{.{.[.uXcX*.. + NXuX{.0XwXwXfXfXOXoXoXfXbX*XAXbXAX7XAX*X%X$X&X$X3X1X2X1X#X-X&X&X&X&X%X&X%X%X%X*XoX*XbXoXfXoXjXyXOXOXwXfXwX0XwXg NXeXiXeXpXyXiXuXaXqXuX0XuX0XuXaXuXaXuXaXuX9XUX9XqXpXg qXzXdXtXtXtXaX6.M...8 g g - e ~ pX .8.M.aXN.M.zXBXsX% f h k u . . . tX& j ..U 6.,.4...,. .L g { { { ,.L ! t . % t t ' m K m e % % 3 O q 8.8.5.5.,. .) $ @ X O K U U _ ~ _ } U 6 M   ",
"  1 5 1. .~  .! !  .5.8.e @ D 8.M.5.,...X.,...( 6 @ K 6. .6 2.o._ _ _ ` t % ) w.M.M.M.M.g.9.f.8.9.d.d.9.9.9.f.9.9.d.f._.`.`.7.d.|.].*.s.oXuX|.|.OX|.|.oXoXXXXXXXXXXXXXXXXX$XXX$XXX$X$X$X&XA i.7X*X%X%X%X*XoXoX}.|.oXoX|.fX|.|.[.].].d.fX{.|.(.).cXMX< JXjXfXfXjXnXnXcXfXfXfXoXXXbXbX*X%X*XXX^..X$X@X=X5X1X2X2X7X-X;X*X&X*X&X%X$X%XoX*X*XoXoXbXoXfXOX{.OXwX|.yX0X8X8Xg.gXpXiXqXyXyXuXuX0XuXuXqXqXyXuXaXuXuXaXuXaX0XaX9XaXtX- 6.zXeXzXtXtXN.2.6...g 2.M.M.gXp.M.5.N.g.M.6.M.g. .9Xe # O . . [ 8.f.tX6.P ! ,.8.>.6.6.9.6.6.6.6.p.{ p g w O m e.2.' q.' ` ` K t q 3 @ # [ 8.&./ / ` q.@ # $ ` ..F h _ | o._ ..8 1   ",
"  b # @ - 6 5 5 4 q v w P @ 0 >.D ..,... ...1.1.r # 9.M...` o...2._ ` 2.q.6 t 5.` g ` M.g.f.M.8.g.8.8.p.9.9.9.d.g.9.d.d.9.d.7.`.7.].%.{ fXfX0XfXOXuXoXoX|.OXXXOX}.XXOXXX$X}.}.$XXXXXXXXX*Xi.Y.7XXX%X*XbXbXoXcXOXoXoX|.oXoXfX|.OXuX{.h.fX{.{.{.*.nX*.< DXhXfXfXfXjXfXoXfXbXbXbXOXA i.E.i.i..X&X*X*X&X;X=X>X2X2X6X-X=X*X&X-X;X%X&X*X*XbXoXoXbXoXbXOXOXh.{.fX[.yX{.yXhX6.xXiXuXyXyXuXuXuXuXqXuXyXqX9X0XqXuXuXuXuX9XuX9X0XaXM.8 h xXg.6.N.f.5.~ ! ,.4.3.8.tXwXzXyXf.f.h.8.d.d.8.3.8.! # X I M.lXBXBXgX6.L 3.9.9.<.[ X.6.6.X.3.m.rXrXw...o 8 _ ` K m ' ) ` _ F ` ( ) # 3 9.9X9.UXUX0.#., , o w.[ g  .6.2.6.2._ 8 1   ",
"  9 < / [ 3.6.3.3.9.0.1.0 @ e >.! L ,.3...,.,.5.6 - tX2.h w.2._ 2.5.e...~ - t 6.5.5.. I M.d.9.5.5.8.5.7.d.9.9.d.9.g.d.f.d.a.d.).).%.W B hXwX|.h.{.|.OX{.(.'.|.'.'.|.XXOXOX|.XXOXXXXXXX%X&X,X1X*X'.OXfXAXAXbXbXfXfXOX|.[.fX|.uXwXuX{.{.uX_.{.d.iXNXnXi SXjXuX_.{.'.{.{.uXcXjXfX*Xi.XX*XXX-X-X7X7X-X-X;X;X#X>X3X=X-X&X&X&X$X&X;X*X*X%X*X*XoXoXoXoXOXoX{.u.{.{.wX0X8XiXP zXfXqX0XyXuXaXuXaXuXyXuXqXuX0X0X9X[.9X0X9X`.aX9XI.MXe } GXN.wX5.X. .,.>.4.p.8.8X8.4.8Xg.g.g.g.p.p.g.7.9.9XL @ I eXrX3.M.BX9.9.5.3.0.g.5.4.5.6.4.p.p.6.p.6.9.rX8 6 K t K K K 6 6 K 2.K m ` # 6 8XpXaXaXw.) I.: , $ 3 w ~ ` ` _ g 6 y 8 <   ",
"  9 5 ,.<.^ [ 8X9X9Xw.M.3 $ < / e 8.f...4.2.1./ 5 - `  .U 2.5...2...2...2.y ` 2.w.~ # ` 9X9.8.8.8.8.8.9.`.`.9.f.d.8.g._.g.7.h.g.{.fX*.i nXd.{.OXOX{.{.{.'.'.'.|.OXOXOX'.OX'.}.XXXX}.}.XX&X3X1X7XoXOXnXfX$.] V fXfXuX[.fXyX{.|.yXuXyX0XuX0X{.8XfXZXE 1 NX{.g.{.{.uXfXjXnXmXvXoX'.%XAX*X%X&XXXXXXX$X&X@X&X<X1X<X@X;X&X&XXX$X*X*X%XXXXXOXXXoXoXoXfX|.h.oX{.s.s.8X0X0Xg.} dXyX0X0XyXuXuXuXuXuX0XuXuX0X0X9XuX9XuX[.uX0X0XwXqXCXp tXdXM.yXX.4.g.8Xf.g.8X8Xg.g.g.g.8Xg.g._.p.wXM.yXwXiX7 5 dXrXg.g...f.5.4.7.d.8X9.8.5.4...4.8.8.3.6.8.1.9XF # _ ` _ ` ` K _ ` _ K K K # 4 aXaX9.2.0.( I.@ @ # M.` ~ K U h ..e...6 <   ",
"  1 5 ! ^ >.8.[ (  .<.1.* X / &.Q 3...[ L I / H 5 # F ` ~ ` .._ _ 2.....U g g U 8 o F q.) 1.8.8.5.9.8.9.9.9.f.9.8.7.8.p.p.d.g.yX>.wXP P yXg.yXwXwX{.{.{.h.'.{.oXOX{.'.OX'.|.OX|.OXoXoXOXOXi.A JXcXs.).] } ] 7 wXbX[.|.uXfXjXwX0XfXyX).`.[.0X0Xf.pXX . vXeXhXjXnXjXcXcXfX[.].u./.%X&XXX$XXX.X.X@X@XXX.X.X<X,X6X;X=X&X=X*X-X*X$X%X%X%X%XOXXX%XoXfXOX|.OX{.{.h.jXjXf.eXp.g.N.8XyX0XaXuXuXuX0X0X9X0X0X0X[.0X0X0X9XuX0XqXqX0XwXg N.6.8.X.{ d.g.d.wX0Xd._.8Xg.wXfXp.g.8X_.h.8XN.8Xf.M.7 8 2.6.g.4.] *.;.4.7.3.3.3.4.4.3.4.4.3.4.4.>.4.0.8X~ @ 9XX.t K U _ ` _ 6.| g 6 o - tX9X9.9.UX) 0.9 : o aX` g U ` ` 2.2.` y @   ",
"  0 # L &.R v e i ( R 1.3 # L <.! 1.3.,...~ ~ ( , # % e t ` ` ..2.2.g  .` I 6 t 5 ) 4 q . . N { 1.8X9.8X9.M.9.g.8.p.a.8.7.8.8.{.hXhXL P jXyXwXfXyX{.a.s.s.'.'.h.'.'.h.'.{.OX].OX|.OXOX}.*X$.V bXOXwX{.] h.i.V jXhXuXyXyXyXjXhXvXyX0X_._._.yXhXfXvX0 _.NX{.g.g.h.s.(.u.(.'.oX%XOX%X*X*X&X&X$X&X;X&X=X=X$X#X1X#X$X.X$X^.^.;X-X*X$X%X}.XXoX:XcX:XcX|.cX|.|.nXfXa.h.d.8.i } j {.0X9X`.0X`.I.0X0X0XwX0X0X[.0X9X9X X`.9X0X_.pX3.< >.d.4.4.d.7.).a.d.).d.d.7.7.qX0X7.a.d.8.h.5.7.g.d.3.e q 6.>.s.4.{ a.{ *.4.*.[ 7.4.5.8.5.5.4.4.4.4.3.3.8.Q @ K g t g ( ` ` ( K K t m O 3 pX9Xq.0.UXUXq., # @ g w _ ,._ t g 6 - 6 %   ",
"  b < <.>.3./ L < w 1.9.* @ w &.>./ >.9.8.2./ 1.3 @ e t w _ 2.w...U ..,.g t 4 . . D t / K g . . @ Q 9.8Xf.9.9.8.8.8.8.8.7.7.4.8.*.<.+ { {.[.h.g.{.{.s.h.'.{.{.{.{.{.|.{.'.OX|.].].'.'.].OX=.=.=.s.=.P P p h.p =.nXfXfXvXhXNXDXfX0XwX[._.p.hX7.&.7.7 qXh.*.7.7.a.].|.cX%X%XoXoX%X%X%X$XXX$X^.^.^.$X$X}.Y.T.4XY.~.E.&X$X}.%X-X;X%XXX^.XX%XbX|.mXJXVXnXnXVXDXnXa.d.4.[ q * 4.=.p.6.f.f.`  .4.7.8.s.0X9X9.7.0.7.UXZXuXqXqX8X{ $ J >.! &.3.3.7.g.5.7.4.4.4.3.4.4.4.3.4.4.&.4.[ { ^ R 5 # i >.>.7.=.4.E P { *.[ [ >.{ >.>.! { ^ [ [ >.[ ..! # 5 % 6 4 t m 8 t 4 3 e t @ 8 M.I 1.5.UX9.Y : # 4 H U U g K q.) 6 K 6 5   ",
"  b < &.4.7./ 9X&.e 3._.@ @ w <.W ^ 7.8.1.) q.1., : / 9.2.` ..` ` ` U  .K 6 4 ,.w.aXrXaXaX9.5.K g . . I F  .8.>.,.3.6.5.7.4.7.d.9.`.$ { d.4.g.{.h.h.a.s.s.d.].).`.a.).[.s.s.7.vXuXfX_.=.%.C ] =.=.p p *.s.{ W s.7.pXfXhXvXwXvX0Xg.8Xd.d.7.d.f._.0.< MXNXhXhXNXvXvXvXnXbXnXfX'.'.:X%X%X%X*X*X%X$X$X}.:X:X>X4X<X:X&X$X-X;X$X$XoX$XXX%XOXOXoXOX{.|.].(.].s.s.s._.7.4.W 7 { 6.o.j dXdXN.h.8XtXN.N.dXN.N.wXB.N.yXjXdXdXeXg.eX4.P wXM.N.yXfXfXgXdXtXwXwXeXjXzXwXeXg.dXeXhXzXdXdXqXf.L .  .f.g._.8.4.7.*.{ W { p.*.*.>.{ >.4.3.4.{ >.5.4.4.1.e - g 6 5 e 6 6 6 5 % , # @ 8 M.8.0.1.0.0.) , @ , K g 6 D ` _ g 8 y 3 4   ",
"  B # [ &.1.! 5.1.q 1.5.o $ e 1.R <.0.8.` 1.1.5.: @ q H ..2.` 1.` _ `  .` 8 ..sXrXN.M.m.M.M.rXM. .f.>.8 . O ! M.8.(.#X).g.g.g.g.qXMX. w g.4.wXuXfX{.{.wXfX[._.).`.`.(.].).I.).JXLXSXhX4.%.N p P p + 1 %.i VXNXjXnXyXyXuXg.g.gXhXyXyXg.8XiXyXhXyXR # `.hXhXhX{.fXfXfXfXuXfXbXcX%XcX|.}.%XoX*X$X$X%X-XmX7XY.>X<X7X-X*X;X*X-XbX*X*X%X*XAXbXAXAXbXbXbXfXjXnXfXjXhXfXh.{ * 4.m.g.a p.h B.V.p.N.N.p.y.j.N.N.N.dXC.dXN.C.eXwXNX4.{ jXjXwX{.0XwXfXwX[.{.{.g.8.d.g.wX{.g.h._.g.{.{.0X[.[ # 8X_.5.p.s.7.4.4.h.h.p.4.X.{ 4.3.4.3.4.6.X.5.4.8.4.6.I X g ,.` K K K K K K m % O %  .3.9.UXw.0.m @ $ v J g U y 6 t t t 6 3 4   ",
"  V $ P ^ >.&.9.T 9 1.0.# X q 5.4.<.>.0.8.5.J I.: @ e ~ | ..X.......` _ K % X.rXaXtX..~ t H 5.zX2.1.w.f...4 . F M.a.i.=.g.f.9.8.8.f.+ ! M.M.M.d.{.[.fXuXuXuXuX0X0X[.]. X X|.|.7.s.s.:.$.*.B > %.9.=.p . 4.SXhXyXeXyX0X8XjXBXNXhXiXhXhX0XyXhXhXpX&.+ 9.hXhXuXyXfX].[.uXcX|.|.|.|.%X%X:X%X%XXXXXbX;X-X-XKXK.R.+X;X&X$X$X&X&X$X%X*XoXXXoXoX|.oXOXOXfX[.fXjXOX{.wX[.7.] 8 4.f.N.p.4.wXN.p.dXzXkXkXN.wXyXwXyXwXhXwXjXnX4.4.hX{ W [.[.].{.g.a.).(.).{.d.{.{.).a.).).s.).h.g.].a.{.d.*.7 ).4.=.7.=.=.4.7.s.s.{ ] { P 4.f.{ ! [ [ &.>.X.6.X.[ I X U 1. .` ` ` 2.2.U w 4 $ r 9.8X2.UXUX9.T : : m ~ g g g F U K ~ ` t 3   ",
"  B + R <.<./ 1.e 5 1.0.# + q 0.1.1.3.0.<.5.q.0., @ m F K ..o.6.| 6.M.5...- 6.B.M.tX% . ) ) . ,.lXM.M.H 5.5.t . F 8...4.7.4.3.8.f.qX4 e rX4.9.f.d.d.{.s.`.uXuXuX[.`.(.]. X].|.uX].fX|.:.7.N 0 _._._.0X7 yXPXhXg.hXf.N.f.wXg.p.8.g.N.hXhX9X0X`.uX&.+ 9XvX0XyX|.fX[.|.fXoX XoX|.%XoX%XoXoXXXoX*X*X$X}.^.-XS C :X%X$X%X$XXXXX%X$X%XXXoXXXXXoXoX|.[.oXOX[.|.{.|.h._.g.=.p NX8X_.g.8XzXyXhXhXjXjXjXjXyXhXhXeXfXjXyXjXhXfX>.hX4.B [.].(.).].{.).).a.).).).].].h.s.h.s.s.a.a.h.g.a.d.W 0 9.4.=.7.*.=.=.=.=.4.=.*.*.L E ! &.<.&.[ [ { &.{ [ ! >.$ F ` ~ _ K 2.` _ U g w X r 9X3.2.UXw.UX#.@ , @ t ; g K g g U ` 5.w <   ",
"  %.$ B { ! &.H ^ J 9.0.# $ # ! N N 8.8.>.>.^ ^ @ @ D I ~  . .,.~ ) 2.2.6.8 m.tXm.sXK 5 ( m ) 5.MXrX2.aX5.6.2.% 8 3.L 3.p.d.8XM._.aXK i CX6.8.8.&.7.a.).d.d.`.a. X[. X].|.].].|.[.|.ZXI.+.7 < uX_.8.f.8XMXSXgXwXwXwXN.wXf.f.wXwXpXhXeXpX8X0X9XpX0.+ &.iXf.fX0XyXuXfXfX].cXnX|.|.%X%X'.mX|.%XbX;X;X:X:X;XY.R.Y.@X$XXX}..XXX$XXX$XXX|.}.|.|.}.].|.{.].|.{.{.{.{.{.d.=.7 MX0X0X{.wXwXwXfXfXwX{.wXeXfXyXwXyXyXwXOXwXfXfX0XfXa.p |.].].].].].{.d.).).'.'.h.).].{.s.).).).s.{.g.a.h.P i a.p.7.=.7.4.:.7.4.*.X.=.4.4.&.4.4.g.7.&.>.{ [ { >.>.&.@ 6 K t t t g t g h w 4 @ 3 f.5.~ 9.2.9.) : : 9 K t U g U U ` g 6 O @   ",
"  *.$ I ^ ^ 8.Q 9./ v H # # # @.[ &.7.0.,.<./ T $ @ * 6 4 q , 4 4 m H t F 6 5.w.w.M.M.aX9.2.sXaXM.5./ [  .2.) O g 9.5.3.M.f.f.f.9.9.w 4 eX,.8.8.4.4.} 7._.[.`.`.I.`.s.I.[.uXuXuX`. X XP.2 N 0 vX_.<.qXhX8X8XeXgXeXeXeXwXeXiXdXiXgXMXpXaXqXhXpXvX1.+ hXpXwXwX[.nXhXfXcXvXcXnXcXcXcX%X|.%X|.:X*XbXcX%X;X;XR.4X1X5X$X$XXXXX%X%XoXoX}.XX%X%XoXOXOX|.|.].{.{.{.{.wX{._.i p wXuXyX{._.[.0X[.wXfXwX{.{.0X0XOX{.wXfXfXyXyXyXuXuX).C |.|.].|.].{.{.].'.(.d.).'.).).).{.{.{.).(.h.a.g.g.i i yX4.a.=.h.=.=.=.=.h.h.h.g.} X.X.....X.3.8.4.4.5.,.>.^ % 3 . # 6 6 y 6 % o . q # e 0.5.1.5.2.2.( # , m ~ g K h U K q y 6 4 3   ",
"  W . J [ <.1.H ^ e / ` 5 @ 9 <.&.<.8.3.3.0.1.@.$ $ q I ~ ` `  .U U U ` I @ ..6...6.6.5..._ 2... . .`  ./ ~ 5 % 8 1.J w g I I g 1.1.% 4 3.1.3.`._.`.1.`.8X8.9.0X0X[.`.).`.`.`.`.[.ZXVXZXMXVXW NXD <.9.1.! &.L ~ X.>.4.g.hXiXqXqXpX1.0._.0XhXiXpX<.$ MXhXd.{.hXuXnXDXDXcX].).oXfXcX|.oX/.S %XbX-X-X%X:X:XK.T.>X#X%X}.}.$X}.$X$X}.}.OXoX|.oXoX].|.].OX|.[.|.{.{.{.a.*.a._.0X_._.{.|.wX[.[.0XwX[.].s.{.[.].{.].|.].OXoX|.OXjXC fX X].'.].].'.'.].(.(.].).'.'.{.'.].).{.).].s.a.).5 L eX8.f.a.4.g.d.X.4.h.7.p.N.X.p.X.>.....,.>. . .3.<.>./ # 4 ) K 6 % 6 8 t g H w # H 5.1.` 9.2.9.) @ 9 m g K U t t t 8 6 - - 5   ",
"  +.0 v <.&.3 q 9.e 3.@., @ 9 1.G >.0.0.0.R <.R @ $ I  .......X.|  .U ..g O ..9...1.1....... .| ..`  ./ 5.~ X . ` ` w ,.M.>.! w g ( # 9._.@.( I.7.0.9.0.0.&.&.<.<.<.*.7.7.7.0.0.I.0XCXVXZXJXb uX9XuX0X9XaXyXiXqXyXpX8Xd.qXf.9.iXJXCXCXVXhXhXpXMX0.@ SXSXg.g.f.hXyXuX)._.[.(.(.s.(.|.uX XP.+./. X:XI.P.L.S S M Q./.}.:X%X}.}.}.|.XXoXoXoX].].'.;.$.s.a.{.{.g.d.{.{.g.jX{.g.g.{.wX0X8X{.{.g.{._.{.wXyXOXuXoX{.|.{.{.OXOX'.fXC |.'.'.(.'.'.].'.].}.].'.].).'.{.s.{.(.s.(.{.=.s.d.B * L e [ g g g.f.tXgX6.X.7.p...4.3.4.4.4.>. .{ >./ &./ ` $ 8 5.,.~ D ( 2.1./  .5.X D 9.T aX9X5.9.) , , m 6 , o . . o o @ @ X X   ",
"  b e 4 0 $ J &.I.: 1.Q 5 + 4 <.G 0.<.3.0.3.7.@.$ @ ~ `  .| ~ _ U U ..U ~ . F m.M.3...,...2.2.2.,.5.6.f.qX{ X / >.I L ! 9XyX9. .F w # F 9.8.8.9.qXqXhXhX8XwXf.f.wXyXeXyXyXiXiXMXhXhXqX9XhXvX5 JXSXNXCXBXBXhXgXzXvXhXpXpX8.p.gXzXgXLXLXCXMXhXhXMX<.# pX8X8XgXhXf.wXBXLXDXnXfX7.fXVXDXcXmXJXoX|.'.-.mXAXmXL.M P.P.P.Q. X^.Q. X}. X|.cX|.|.cXfXuXuXuXuX).d.4.4.*.{.a.5.yXg.7.s.d._.0X0Xf.f.d.d.7.).{.{.).).s.(.s.u.(.(.'.].cXC OX'.'./.'.OXXX'.'.'.'.].'.'.'.).'.s.].].(.).].).=.p [  .{ * . K J . F 5.U 6 5.5.L ,.<. . .[ [ ~ [ ! [ ( [  .$ 4 1.9.2.0.5.w.` Q m Q $ ` iX/ 9.9.,.M.( : 9 % o r F ` ..w.6.6.w.D X   ",
"  > < <.<.0.+.+.0.q *.^ , # q 1.<.7.0.1.0.&.0.@.$ @ D I U K K U F h _ w ` q w tX>.5.6.m.o.2...2... .>.5.F q g pX3.- L P p P &.8.gXw X X rXpXqXaX9XyXiXyXeXwXhX8X0XwXwXwXwXyXyXhXfXfXiXuXhX*.i NXdXlXlXzXxXrXqXM.9X8Xf.N.M.wXeXwXwX*.>.>.&.L [ w e # GXhXjXyXhXyX|.{.wX{.).vX).cXoXoX|.cX XoXcXbXcXAXmXAXA C KXmX%X|.%XcXbXcX%XoXoX|.'.].oXcX|.cXcXfXuXfXfXyXd.{ 8.d.d.g.g.0Xd.4.[.fXhXuXjXfX[.[.fX|.|.|.fXcXcX|.}. XW.;. XC '.'.'.OXh..X'.'.'.'.'.'.'.(.s.'.s.'.s.s.'.].a.{.7.i 8.I } ..8 ,.9.i ..p.6. .2.5.{ ..,.[  .[ ~ [ ~ [ >.1.>.H X - 9.9.w.0.q.1.@.H H D o I 9.g ,.9.5.9.( # 3 5 # 2.9.2.2.5.2.5.9.t $   ",
"  < < 3.9.`.9.9.9.v Q ( 3 @ e 7.7.<.4.0.0.&.0.@.X @ (  ..._ | U U U U U 1.` 6 tXy _ ..2.2.2.5...5.,.[ 5.I X ,.,./ I  . .[ &.I. .I.% $ F aXM._.9.9.`.9._.{.0X0X[._._._.`._.uX`.[._.0XuX0X0XN 4.zX8X8X9XN.qXMXCXMXiXqXqXqX_.0X_.9.M.8Xp.f.M.g.3.9X^ 3 CXwX_.[.).].(.(.(.'.]. X%X|.|.|.}.}.}.'. X}.}.L.Q.bXL.S mX:X'.XX}.}.XXXXOXXXOX'.'.].].{.'.fX].{.{.{.[.fX{.f.hX[ 0X8X{.hXyX{.uXuXfXfXuXuXfXfXs.cX|.XXoXoX|.%X%X%X$XW.}.] -.'./././.'.'.'.'.'.(.'.'.'.'.(.'.s.'.s.].].s.a.] P 5.P g L I 3 %  . .3.[ >.{ 8  .2. . .[ {  .`  .,.1.~ ( D @ 5 1.~ 1./ q.^ / ( t r @ e 6.e ` 9.5.9.) # 3 : 4 ,.~  .q.2.2.,.2.w $   ",
"  < 5 1.<.7.9.3.0.D / / : @ q 7.*.*.<.<.0.0.&.q.X , ) K ~ ....X.6.2.| g 8 ` g ..,.2.`  . . .` .. .,.,. ... .. 5 9.g.f.wX8Xd.9X@.3 g * 8.8Xf.`._.I.`.a.).).).).`.`._.`.`.`.(.).[.[.[.].[.uXB yXvXg.9XqX0XqX8Xf.8X8XqX9XqX9XqX0Xd.d.d.wXvXMXMXhXNX7.5 hX{.7.). X).).].].(.(.(.(.]. X|.|.|.oX XQ.(. X XP.P.L.b JX%X}.'.'.'.'.}.OX'.}.|.oXoX|.|.{.{.|.fXwX|.[.{._.jX_.G 0XyX{.N.0XyXyX0X].|.uX|.[.uX'.|.|.|.:X}.}.:X:X}.:X:X'.A V XXXX'.'.'.'.'./.'.'.(.Q.'.'.'.(.'.'.{.:.s.s.=.i ! { 7 q I H H I.w. .[  .X.I ! ,. .g g I ~ ~  ...,.1.I Q t X # ~ J / ) ) ( H t e K % 8 aX[ Q 1.3.9.J , # % 8 ....,.2. .,.` ` q X   ",
"  b # G R G D Q 9./ R / # # w <.^ %.0.*.<.0.0.1.$ 3 1.....| ` | | ..` I F ,. ...U 6.3. .5.,. .,.,.1.,.3...8.6.I . I 3...5.9.9.v . t $ 5.p.7.d.`.7.7.a.).a.).).].[.`.`.`.`.).`.(.(.`.`. XuXb CXZXf.0X8X0X9X8X0XwXqX0XqXwX8XqXqX8XwXyX9XuX_.qXvXuX`.%.{ uX`.`.].|.].].]. X].].|. X'. X|.].|.|.|.bX%XmXcX%XP.b AX X'.|.'.oX|.}.|.|.|.].|.OX[.|.[.|.|.|.wX{.fXuX{.wXiXuX0XyX0X{._.8XuX[.[.].].|.].|.:X|.%X:X:X X:X%X:X^.:X}.OXS n XX'.'.^.'./.Q.'.'.}.'.'.(.u.i.u.'.].'.s.].7.+.0 L g 3 - H F D 1.I D L ..~ U ,.1.I ~ F ~ H K  .~ U K J K e o 5 I D F ` ~ ( ` 1.` H % 8 M.X.1.5.2.9.g # @ @ - ` .... ...) ` ) e @   ",
"  b + ! &.&./ &.9.@.i / % # w 7.B ^ 7.0.&./ <.&.@ % U ..` ~ U U U U _ U I ..{ 6. ...>. . .8.3.>.8.w.5.6.5.5.3.f.2.o . 8 D F e UX( r O aX7.4.).7.`.(.(.7.(.7.7.(.a.`.`.].).).).).`.uX`.`.ZXv JX0XyXfXwX8XeXwX9X0XaXwX8XwXaXqXwXwXhX1.. . q ^ # . 0X0.< 4.`.`.`.).[.].].|.uX|.|.|.uX}.(. X|. X XoXJXJXmX XP.b mX|.oX'.'.].oXfXuXoXfX|.{.{.].uXyXfXfXwX{.{.{.wX{.wXiX>.hXfXwXuX_._.`.[.].{.].[.|.|.cX X X|.|.:X:X:X:X$X$XL.W.Z n /.i.XX'.OXQ.XXXXXX'.}.'.}.(./.'.(.'.u.|.'.|.|.C < 7 * 0 q q 4 . 3 e F [ { [ ,...I  .U ` g K U ~ ~ F D F F $ 6 1. .K J ~ ~ 1./ F ) % X ` 5.,.3.1.9.w @ @ O - K `  .` ` ` K D 3 #   ",
"  0 + [ <.<.Q / 9.R v 1.# # i 7.&.*.<.&.1.<.&.( X % ..2.| ` U U U K U U U X...5.4...>...>.>. .>. .1.` 1.>.>.>.<.3.3.$ X D 7 9.MXqX&.H f.s.s.7.(.7.).7.).].).7.(.`.`.`.).(.`.[.0X[.uXuXuXuX0 MX8XeXdXwXwXhXyX9X9X8X0XwXqXwX8X8XdXP . < q nXVXyX0.. v 4 . I.uX[.].[.).[.uX].).(.].|.|.).).(.]. X|. X XcXZXmXC |.oX].'.|.|.|.|.uXuX|.uX{.{.[.fXyX{.yXyXuXfXfXg.wX8XqXd.hXwX{.jXjX{.uX[.{.].[.|.[.|.|.%X:X:X X:X:X:X:X:X$X/.Z A M -.$X&XQ.XX^./.XXE.}.}.}.}.'.|.'.(.].}.|.].|.uXB < 7 R ! L N F q w F L g I U ,. .K F I g K ` 2.K t F K H F 5 g 1.1.,.I ~ / ( D D 8 O % `  .~  .8.aXe @ q $ 5 U .. .~ ` ` 2.F r 3   ",
"  N + [ &.1.>.~ _.^ H 1.3 : w =.*.<.<.<.0.! ^ ) @ # t g ~ 2...` ` U U g U ......6.{ ~ ^  .[ [ ..` >. .1.>.<.3.4.<.7.P $ e 1./ ,.8.g ..tXh.=.7.I.`.).(.].|.7.7.(.(.7.I.7.`.[.].`.[.`.`.`.uX> NX_.yXwXeXyX8X8X8X_.8X8XM.8XM.eXhX7.< 4.V s.nXnX[.d., , 9 J J vX[.).`.).].[.`.).].(.(.).(. X].[.(.(. X X XmXJXb fXuX[.|.].|.|.{.|.|.|.{.{.fX[.[.[.[.{.wXwX{.uX{.{.yXuX7.yX0X{.).{.d.).].].].|.uX|.|.|.:X:X:X:X^.:X:X+X:X:X;X;XM 2 :.%X*XXX^.}.i./.Q./.XX'.OX}.}.'.u.'.|.|.}. X X$.1 i { ! g F H g q i e # 6 ~ I D g F e t ) ` ~ t I I F H ~ D g  .3.1./ 1.1.F 5 I Q g - 5 ~ ,.~ 9.9X8 @ 8 $ t ~ ~ I / ` q.` t J %   ",
"  b + R &.4.1.>.f.@.R 1.3 % e 0.*.@.@.*.1.<.1.T X # K U K ` U ` ~ ..` ~ h K .. .,.{ ~ { >. .{ ..&.>.<.>...,.3.8.>._.8.O D lX..K ` g | 8X8X7.a.s.(.7.s.(.(.7.7.s. X7.(.).).`.[.].`.(.`.`.vX1 VXuX{.N.wXyX0X0XqXqX8Xf.M.d.9XfX8.0.hXvX+.VXJXnX&.. . . @.ZXD 3.[.[.`.[. X).).).).s.). X].].'.].].|.oX].|.|.fXB cXuXuX|.OX{.[.].[.].{.d.).h.h.].{._.h.).{._.{.s.{.8X`.E g.{.{.[.{.[.].].).].].].].OX|.}.:X:X:X:X+X^.:X:X+X:X:X!.U.Y.;X;X$X$X$X^.Q.%XM Z XX}./.OX'.Q.}.}.(.Q.(.(.7.V 1 e i 0 e 3 4 g Q I @ % t r K K F 6 - t K F g U g e K / D w ~ 1.1.~ I  .1.1.,.Q F % 8 M.6.` I ` w @ 4 # 6 t 6 7 q q D t # # #   ",
"  0 # &.1.<.^ >.8.L H @.5 < w 1.&.@.<.<.1.@.( G $ # g e g U _ U _ U U K g U [ ..>. .[  .,.>. .[ [ ~ >...>.,.<.5.8.f.U - g 2.5./ 6 6 . q H d.d.=.s.;.;.7.s.I.;.7.).s.7.].(.7.].].`.`.[.`.ZX1 `.`.4.h.g.4.9._._.`.`.<.`.^ <.7 . NXvXvXVX`.^ + . [.ZXuX3.1.H . 9.].).[.].].(.(.'.'.'.(.].(.).(.].|.|.].].].(.W +.uX{.{.|.{.[.uX|.uX{.fXyX{.fXuXd.{._.{.d.g.h.g._.wX0X8.g.g.g.0X|.uX{.).].|.|.].].|. X X^.}.:X+X:X+X+X+X@X+X^.T.1X1X=X;X%X$X%XY.XXW.i.^.%X}.}.}.'.XX'.'.(.Q.-.P.P.b C %.e = e e I ^ H 6 - D D K K K K y g % t ) K ` Q t Q ~ ~ t 1.8 e e ! 1./ H w Q ~ y 6 2.t ~ w.5.r $ - 5 ` 4 o $ . . . . X 3 6   ",
"  9 < <.&.1.! [ >.q ^ / 3 # e &.R %.&.<.&.@.@.) $ @ t g ~ | ~ ~ F F t t g U ` 2.p.,...4.3.,...[ { ~ U { ....~  .2.~ . - O - 6 - O $ # @ 3 _.a.=.;.s.u.:.;.;.;.(.`.;.(.(.(.).).).].].`.|.*.< . + + =.{ W V V B B R W V v . @ @ 9 <.7.pX0 . E VX`.`.<.VXpX1.9.d.].(.).].].].].a.).{.).s.).(.(.).s.;.a.a.(.`.B C `.`.{.{._.].d.{.).{.jXfXyXjXyXh.yX[.nX0X_.wXwX8XwX0X! nXN.d.|.{.{.].].].]. X'.|.}. X:X X!.:X^.+X+X+X+X+X+X$X#X2X2X#X$X$XXX$XM S A *X$X$XXXoX'.}.%X'.W.u.W.P. XI.C ] :.] P * 8 g - $ 8 ` ,.2.` t U 2.) _ ) . . 6 t q ~ I ~ ~ H ~ Q D ,. .~ ~ H ` ~ 8 K 6 X e 2.aX1.r @ 6 5 ` r 4 e % o $ . o @ v   ",
"  2 $ G ^ &.[ ,.5.i / 1.5 , 0 *.+.&.@.&.^ @.@.T $ % g Q U ~ U K g g I t t g K ` 5.,.{ { .. .3.3.~ { P g g i q  .g 5 # g D 4 . . . O - F ~ F P >.=.7.s.7.7.I.7.7.`.s.{ C 0.7.).a.`.I.7.*.Y < < %.*.E =.7.7.7.s.s.s.(.7.`.<.$ T @ . < 9 9 v I.7.. . + 0 7.JXvXuX7.s.].(.).).).).{.[.[.a.).a.7.a.s.s.a.).).=.< v cX0X[.{.{.{.{.g.s.s.s.=.7.4.s.a.s.7.p.7.hXfXwX_.g._.L jX0X{.{.{.).s.).).|.'.'.'.'. X:XL.A K.K.>X,X4X>X>X~.=XT.2X5X=X$X&X$X!.Z E.$X$XXX}.}.}./.}.oX%X-.:.'.|.|. XV V V W L 4 5 3 # # F 1.6.9...t g I U , 6 % 4 w w g ~ Q L I ! q ! I ! / H ~ D Q J g D 6 5 1.9.0.q.r # 6 % 6 , 6 r : $ 6 t 4 # v   ",
"  2 + R ^ <.! 8.8.J [  .4 < 0 ^ ! W ^ [ &.&.@.Q # # L g 8 h ` 2.` | _ U U ~ ` I F 7 ! g.9...8.! F g tXrXgXe 7 e - _ _ g g ! U K i # $ $ * p 8 p D i g J N P ] =.7.P 4.{ { ] E ] ] { *.%.*.0 + { =.4.%.] =.;.s.s.7.7.u.d.7.9 e . . . r 9 v B R 9 : @ 7 *.).uXuX[.).).[.`.d.d.a.s.d.).).a.7.=.4.7.4.a.`.[.`.0 J vX`.).)._.fXqX[.wXg.g.g.g._.).g.d.[.h.yXfXg.g.g.d.7.N _.d.).).).(.].].s.'.(.'.|.'.}.oXW.M S ,X2X4X>X<X4XT.Y.R.2X3X$X@XXX.X.X.X$X&X:X}.}.^./.'.}.'.-.'.(.;.I.].(.C V ] ] N 4 5 e H w @ w U U ` K ` _  . .g  . .>./ [ I / Q J J 5 ~ 5.1.&.1.~ / I F y t - 5 Q 5.1.q.r @ 6 % y 2.2.K 2. .5.2.2.6 0   ",
"  < # >.0.4./ L ! i >.>.5 # q &.%.%.%.W [ <.0./ @ - U ! ` g g h U g g j y h ` 6.,.8 K 2.X.~ U ! L rXlXm.zX0X7 - g U t y % g F 9.M.8 . w 3 . . 3 4 : 0 R ] 7._._._.d.fX).[.] ] *.=.=.=.d._.N B d.).h.a.s.s.7.4.7.).).7.fX7.: 0.uX7.*.v : . e `.E G # N Y E a.a.s.=.<.1.R R 4 e e 5 e R ! P G J W %.1.&.! Q L 9 I.0.4.7.d.8.d.f.a.a.7.d.{.g.d.d._._.7.0X).d.f.a.d.7.B _.s.a.7.[.a.|.].].(.(.Q.'.}.'.}.}.Z A T.4X>X+X@XT.3XT.T.2X5X&XXX.X.X$XXX^.^.^.^.^.^.^./.Q.W.Q.u.Q.a.P. X:.V +.$.$.0 @ g  .5. .I X . . t ` 2.` t I 1. .[  .[ ^ [ / L J Q e H ! g D / ( ) / ~ K K y % >.8XaXUX5 # 4 o 8 h U 2.....2.U I 5 , <X",
"  b + *./ ^ / / >.Q <.3.5 < e =.4.&.<.<.&.^ @.R # % g ! F y K w.w.9X..8 K U ~ X.5.2.| X.K f g 8 ,.GXN.8XM.rXM.- 8 o.g K _ | w.w 2.5.F [ `.`.`.7.E 7.7.).a.).(.).(.g.=.yX[.{.;.=.u.s.;.E ).p B JXSXMXnXNXNXNXjX_._.[.).uX:.. mXVXnXvXZXuX`.+.. w / v , R G { { ! N 9 . . . 7.d.f.).] *.<.*.a.{.0X`.I.&.&.1.5 G `.`.[._.d.`.g.d.7.<.0.4.<.<.7.7.7.7.4.*.7.3.7.3.] =.b 7.*.*.=.;.7.7.;.=.;.I.;.;.L.Q.Q.Q././.Q.T.>XR.E.-.~.>X3X1XT.~.E.~..X.X^..X^.^./././.^.}././.Q.u.Q.;.Q.I.:.1 C V C < $ 5 /  ._ 2.....w.....| K 8 I U / R ! ! ! E Q / [ 8.i >.! >.[ / 1./ ` ` K ` t y 9X9X0.aX4 # 5 o t ......` _ U q.K , 3 >X",
"  v X J &.&.1.7./ ! 8.8.* # N 1.%.! R &.R G T B < 5 F I g g % F ,.` g U | U U ~ I t I 5.| U 6.F I NXyXiXhXgXg...,.w.6.m...~ MXD . P >.%.).uXfX).(.`.;.:.7.(.(.] + 2 0 =.fXfXs.u.s.(.cXcXvXV ] LXvXyX8XwXdXnX0X[.].|.(. X|.0.b &.[.vXnXnXmXVX`.< X B N <. .e i 4 X $ 5 < `.nXfX0XoX].cXjX|.|.fXuX[.[.VXuXuX5 =.vXpXuXuXuXZXyXfXvXuXvXuXyXuX[.pXhXuXhXpXuXuX0XI.`.*.W yX X[.|.|.uX].(.P.'.:X X X X}.:X%X%X;X;X;X>X1XT.@X/./.R.1XY.Z k.!.!.~.~.^.E.!.E.E.E./.Q.Q.W.Q.u.-.(.;.I.;.1 b M 9 B : . w % K U ..5.2.....K % 1.[ ~ / ! Y G Y ( ^ 1.^ / D w ! I Q / ( ( ` K y t - , @.9.UXI.r # m % ` ,._ K ` ) ` ` ` , # T.",
"  V X B { [ 3.3.! J [ [ * * q P G ! G D < 5 3 0 q 5 H U K h 8 ..2.,.` U U { P i N ] g.f.[.jX0Xg.[.fXuX|.fXvX|.jXDXSXSXSXDXJXDXnX[.n X mXcX].'. X(.(.s.(.(. X|.7.W b . . P uX).(.].|.cXP.cX+.C nX].(.'.(. X(.P.(. X(. X X(.|.ZX;.B p ;.).7.s.`.9 5 1 { ] p.Q e * = i q + [.cXuX|.].fXVXvXyXuXcXvXhX`.iX8.9.B 7.).(.a.).(.I.7.`.7.).d._.d.s.7.a.7.).a.).).`.`.7.uX=.*.[.(.`. X X(. X X X X X}.:X:XI.:X:X:X!.^.+X+X#X#X;X^.!.J.>X5X;X$X@X+X@X.X:X$X}.$X%XXX}./.P.Q.Q.;.;.(.P.+.B b n 0 B ^ 3 ! N.y % y t t 8 F . .  .,.L F / L J q q G i g q 5 g q H Q H J w D y y t y - y q.0.I.9.t @ t @ K 2.` ` ` _  .` H , : #X",
"  +.X q [ ! [ &.H  .R w @ $ < e v 5 * < q q e q < 3 ~ 2...X.I 9.X.....| } i P [.|.).|.fXfX].s.'.'.(. X|.'.'.(.(.s.u.'.'.'.'.].u.VXcX1 mX'.;.(.u.Q.(.}.).|.cXcX%X%XZXI.$.2 0 =.;.'.(.P.;.;.$.M (.(.'.}. X X:X|. XQ. X}. X(.;. XfX X Xu.].(.).;.+.> 9 B i B i * # w *.] + P nXcX|.cXVXJXJXvXfXuX0X`.0.. 5 I.B uX7.s.).].`.7.`.a.`.7.`.).d.].a.7.a.a.a.a.).s.s.7.|.=.%.]. X(. X X XP.(.Q.Q.Q.}. X^.+X+XP.^.+X~.+X^.^.^.^./.K.S >X>X#X+X+X~.~.~.!.~.~.^.!.^.!./.Q./.'.'.'.|.'.cX X$ : 0.<.3.g ~ ..h ` ..' t 8 8 .  .8.3.>./ / ^ ! E ^ @.Q ! I K L I 4 H ` q.I F F g y y u g ) ` 2.q.t % , o _ w...| ....| ` K r : T.",
"  %.+ $ 4 e D ) 5 0 q X @ @ @ # # : 9 J i e E  .* q ,.6.U O.g X.~ { { { P i $.s.;.u.;.-.i.i.Q.W.i.i.Z i.Q.(.;.(.u.;.u.(.Q.'.'.'.}.-.1 bX'./.Q.u.;.u.Q.}.|.bXcX X|.cXvXmXcX(.V C ;. X XI.(.;.M cX}.}.}.|.}. X XP.}.}.P.P.Q.P.P.Q.Q.(.'.'.'. X|.cX0 2 < B N e 9 ( &.Q 7.`.B W |.].u.[.fXwX9.4.B < . B ^ @.9.e `.(.s.(.`.`.7.).a.7.`.a.7.7.d.(.s.s.s.a.7.).`.I.;.7.@.B |.I.(.(.P.(.P.Q.Q.Q. X/. X^.P.+X+X+X^.+X+X+X~..XE.+XL.A R.>X+X~.+X+X~.+X~.!.!.!.E.!.Q.!.E.W.W.W.W.u.;.(.|.#.> *.8.[ - L P { { | U g o . D 0.[ &.&.W R R &.>.*.^ R ! G G W e G ~  ./ .. .y y j f y y h g ' K y m e & ..w.| 2.o...6._ 2.D @ T.",
"  :.+ + $ . @ @ # # $ @ : @ : 3 : # : < 5 B >.{ 7 8 ~ X.} | P ..7 P ^ P { V :.u.-.u.;.-.i.:.-.-.i.'.Q.'.(.W.W.W.u.Q.Q.Q.u././.u.^.T.S  X'.u.Q.W.u.Q.-.Q. X}.}. X:XcX:X}.|.%X:X X-.}.bXQ. XW.n *X}.}. X/. X/./.Q./.P.Q./.}.}.}.}.(.Q.L.'.Q.}.Q.oX$.> . . . . . m q ^ e 9X`.Y + W %.%.i X $ 5 4.NXLXLXSXhX^ b yX`.].`.I.7.).7.(.`.(.;.I.).s.7.7.a.(.a.(.7.I.(.s.I.7.B  X;.I.W.(.;.(. XP.P.P. XP.^.+XP.P.+XP./.!.^.+X+X!.^.K.!.R.>XT.+X+X~.~.~.~.!.!.!.!./.E.W.E.W.E.W.Q.Q.W.P.P.|.< < %.W # { U h h g ' g o @ 5.^ ^ E W #.^ E ^ 7.Q G J D g J D e 1.H w g g g g U ' _ f y t y y t t ` % % ...._ | ..2.6.| 2.K # +X",
"  :.: + # # @ @ $ $ @ $ $ : : 9 < < 5 5 0 0 * 5 7 q P X.[ >.{ [ p N *.P $.$.$.'.-.u.Q.Q.Q.i.Q./.'.'./././.u.^.u./././.'./././.Q.~.,XR./.-.-.i.Z Q.Q.A n /.}.}.Q.}.:X}.}./.Q.W./.}.:X}.L./. X2 }.Q./.^.}.}.}.^././.Q./.}././.:X}.P.W.W.Q.P.P. XuXV 1 ;.I.I.(.I. X7.I.0.0 1.! &.R N 0 + e =.4.p.nXVXCXJXLXNXW JX7.`.(.7.).(.a.(.7.7.7.7.7.7.7.7.7.7.7.7.`.a.7.I.7.0.V  XI.I.(.P.(. XP.P.Q.(. X/./.^.P.+X^.!.!.!.^.^.^.~.E.A K.R.>X+X~.~.+X+X~.~.~.^.~.!./.E.E.E.W.E.L.P.W.u.W.7.I.< W a.] q F g h U _ 2.8 % o 0.) R +.W #.W @.( 9 # D F K t D 4 ( H N D e g g j y 6 f y 6 - 6 % 6 - y 6 8 y 6 & - ; 6 ; - 6 % 3 T.",
"  0.B < # . . X X $ X X # 3 q 5 # 5 5 4 7 < + . . * < + + p p p P ] 0 ] :.=.$.Q.Q.Q.Q./.Q.'.'.u./.i.i./././././././.^.^.^.^.^.E.>X>X>X;X$XXX.XXX$X}.A M M E.}./.}././././././././.E./.E.L./.n :X/.Q.}.}.:X^.^.^.^./.Q./.Q.}. X/.L.P.E.-.Q.:X X:X2 :.cXbX%XcX%XcX%XcXmXmX7.e d.,.i i <.).a.=.P B p { pX7.MX< `.).7.;.7.a.I.7.I.7.I.(.I.;.a.a.a.`.`.`.7.`.(.7.7.7.=.B 7.I.P.(.I.(.(.P.(. XQ.-.P.(.P.:XP.^./.^.^.!.!.!.Y.+X+X~.,X>X~.~.T.~.~.~.~.!.~.!./.!./.E.Q.Q.W.P.i.W.;.P.(.P.> B a.4.i ~ ~ g g h - . % # q.Y Y Y W W R @./ R ^ / D e G 0.( ) ^ ~  .L 7 f a 8 ; ; o . . o % % 5 t 6 @ - .._ K _ ` ' 2.5.~ # T.",
"  :.9 r m J J m w 0 q 3 % 3 @ g { J 5 7 p N J P B N 0 W s.d.a.{ 7.a.] V $.] V '.'././.'./.}./././././.^./..X/./.^.^./.^.^..X/.Y.1X2X1X#X}.~.^./.^./.^./.M M L.$X^.:X:X^.^.~.!.!.!.!.!.!.!.Q.M :X/.^.^.^.^.^.:X:X^./.~.^.^././.!./././.Q.^. X X;XM }. X/.P.P.P.P.(.Q.|.mX] > < < 0 B =.7.=.a.;.4.;.$.0 <.`.v I.(.(. Xa.a.(.].].`.7.`.I.).=.`.`.I.7.7.7.I.I.I.7.;.<.b I.P.I. XP.I.I. XI.Q.Q.Q.Q.Q.P.!.!.^.~.!.!.!.!.~.~.!.!.T.>X<X+X~.~.~.~.~.~.!.!.!.!././.Q./.Q.W.W.W.;.;.P.(.b < B W W G I 7...I h 6 - 6 @ 1.9.0.T W W R #.R %.^ ^ @.@.1.<.R @.1.2. .h o.6.o.O.| ` ` ` D 6 X . $ O $ o w.rXw.w.w.m.w...w.H @ T.",
"  +.: X 6 F H H T ! Q H / 5 * [ X.3.*.! =.<.7.h.=.<.V p.'.h.s.u.=.;.$.C V -.C /.Q.}.^.}.^.^.^.^.!./.^.u./..X.X~./.E.E./.i.!.!.E.>X2X1XY.E.E.E.E.E.E.^.$XY.M n /.:X$X$X^.^.!.~.E.!.!.!./.+X;XA ;X!.~.!.E.!.^.~.^.:X+X:X:X^.^.}.^.^././.E.Q.^.+X XS -.Q./.:X X:X:X X/.|.'. XyX7.< 7 7 2 ] 7.=.%.:.(.u.=.(. XI.7.0X7.(.7.:.7.I.7.`.`.a.(.`.`.`.`.7.7.).7. X`.;.7.I.=.v |.I.(.P.I.P.P.P.P.Q.P.(.L.V P. X/.!.!.!.!.!.!.!.!.!.!.!.J.7X!.+X~.~.!.~.~./.!.^.!./.Q./.!.Q.W.W.P.P.P.P.Q.< B 6.j.y.O.h f j j g . % ..y X UXI.&.@.W ( W W R Y Y Y Y Y v T q.Q F & X.X.N.p.p...| 6.m.M.2.g % o O % o ~ 6.' | _ _ ~ K T 6 $ #X",
"  + $  .N.tXB.B.N.N.m.rXtX3 * I i { 4.=.X.4.4.4.g.h.C X.i.=.} =.:.$.;.V C Q.-.-.Q.Q.Q././.~.^.^.~.~./.~..X~.k.M M S S M S /.E.Y.T.2X,X~.!.E.!.!.~.!.~.~./.L.A S Z &X@X@X~.!.E.!.!.!.~.~.!.;XK.;X@X~.~.!.K.E.+X+X+X^.^.+X/.!.^.^.^.^.L.L.^.P./.P.1 -.Q. X:X/./. X X}.'.'.mXmXVXvX1 Y &.> 7.0 ] 0X`.(.P.7._.=.@.NX7.Y C E $.+.%.*.0.;.7. X7.I.7.`.a.a.7.I.(.7.I.7.0.C I.7.(.;.P.I.;.;.-.P.;.W.Q.S -.:XQ.E.E.E.!.!.!.!.!.!.Y.;XS ;X+X!.~.~.!.!.!.!./.!.!.E.E.Q.W.W.W.P.u.;.P.P. XB P X.y.y.y.r.v.y.x x x V.m.h O I <.( R W T T Y Y G Y Y Y Y G G H K @ ` X.8 | | ..} | ..X.2...g y , & 3 X _ 6......._  .F K 8 # ~.",
"  + 7 g.m.C.A.B.V.B.V.B.2.4 - U p.N.h.>.s.h.g.7.fXjXp =.=.=.-.i.u.;.Q.i.C A $.V Q.Q.Q.^.^./././..Xi.i.~.~.i.~.E.Y.!.Y.k.A Y.E.E.T.4X1X@X.X~..X+X@X$X&X@X@X$X&X=X@X&X&X=X~.Y.Y.!.!.!.+X+XK.!.S +X~.@X~.!.^.+X!.~.+X+X+X+X@X$X^.^.^./.^.^.^.+X^.^.2 /.:X;X X}. XQ. X'.mXAXuX|.ZXcXI.> @.E 5 [ qXyX`.I.`.9.0XN W 0X] `.7.).).(.7.s.=.=.%.] 7.7.:.7.a.7.a.(.7.a.(.).7.N (.;.;.;.0.W.W.I.;.(.-.W.:.;.P.L.Q.E.E./.!.P.E.E.!.!.!.!.K.+X!.!.~.~.~.+X~.^.~.!.E.Q.Q.E.E.W.W.W.W.W.:.(.B N 7 p l l p j l l y.j l m.s x - $ G T R R W W W T Y P B G F J ( H Q w ; O f 6 - 6 8 6 6 6 ; 6 & 6 o X & o ..6...` 2.` ` U g 6 % R.",
"  + 0 I L ..o.m.m.V.V.V.N.I p X.} ,.X.{ { 4.*.] W B C C C C C ] $.:.$.A M S S A -.W.i.E././.~.Y.~.Y.Y.~.~.~.Y..X~..X.X~.~.Y.~.Y.#X1X3X#X+X~.~.+X^.+X+X^././.~.~./.^.^.~.~.^.~.!.~.~.Y.~.~.~.S ~.!.!.~.~.+X~.~.!.~.+X+X+X+X^.~.^.^.+X^./.P.P.~.P.2 :XQ.:X;X%XP. XP.(.bXcX(. X[.P.].I.+ E *.* 9.[.[.uXuX*.R 5 . . 0XfX0Xd.uX_.(.a.;.s.7.a.uX).;.7.=.0.0.I.7.=.*.=.W 0 7.7.7.7.7.;.7.a.(.W.u.;.A P.L.-.-.Z A Z Z Z Z Z L.Z K.M S ~.K.!.Y.~.!.!.!.!.!././.E.E.E.W.W.W.W.P.;.(. X2 + 7 i P X.X.h j h a s x s c j j # @ 5./ ! L W Y G B B N g q - 5 8 g e 8 o - - ; - & - 6 8 8 y g ! ` t o . 6.......` ~ U g 6 y - Y.",
"  # i i ! U ..6.m.V.C.B.M.D 6 >.^ 7 5 W { { { 4.7.=.7 2 2 + V :.:.=.-.$.i.$.C A Z E.Z Z Z E.~.T.T.T.>X1X4X1X>X>X>X>XT.3X5X3XT.3X>X4X2X3X3X,X>X>X>X,X>X>XT.T.T.T.T.T.T.R.!.Y.!.Y.Y.K.!.K.K.!.S K.E.Y.~.~.~.!.!.L.E.E.E.!.~.~./.~.^.^.!.!.!././.L.M L. X:X:X XP./.Q.L. X X X X X XW. X'.V 1 ] V ).`.I.#.C > > b *.=.%.7.s.7.;.:.*.*.=.7.;.;.7.0.*.+.=.*.*.7.=.#.B G 7 <.;.*.;.7.:.$.V V $.$.;.;.u.P.P.W.L.L.:.A A Z Z Z A A M S !.L.!.L.L.L.-.L.L.i.-.-.:.-.:.$.-.P.P.P.7.7.C < e 7 h O.y.x x v.x x x c z x c h O # I.Q D i g g H e 8 g p g G i e ! >.^ 1.>.1.*.[ { ! ! L W { [ >. .r % o ,.X. .~ ~ Q I ) K 6 6 Y.",
"  < @.N J U 2.,.X.6.m.6. .q 7 W ^ R q 4.g.g.yXgXfXg.$.p ] W V $.$.i.|.%X-X:XM -./.^.XX@X@X&X@X@X#X.X.X#X#X@X<X=X=X&X@X#X.X@X@X~.R.2X2X4X1X2X3X<XT.5X3X3X3X3X3X3X3X3X5X#X@X~.~.Y.!.~.~.K.L.K.S Y.~.+X~.+X+X+X~.+X+X!.^.^.!.E.Y.E.P.!.^.+X+XP.L.L.C C ^.P./. XP.P.P.Q.Q. X XQ. XQ. X(. X(.$.=.].(. X|. X X:.> [.uX7.(.(.uX X X].(.s.7.).(.`.(.7.I.I.).I.(.`.(.7.@.E e 7.s.7.[.|.`.;.*.:.=.;.(.'.|.'.}.}.}. X:X:X}.^.^.:X^.}.M -.$XXX^.}.'.}.XX:X}.W.-.S -.;.P.;.;.(.I.s.=.;.E 0 0 * } X.X.O.l v.v.O.d x O.k h y % @ J q # 8 g w w e 3 - # `.`.7.>.%.*.*.7.7.=.<.4.*.*.=.{ { *.! P L @ @ . _ _ g _ ` ` q.q.g y y ~.",
"  X : Q t F ~ 5.{  .>.>.q q N [ *.%.&.%.] p.4.=.4.*.=.$.=.i.:.$.M Q.|.mXmX XM :./././././.!.!.E.E.k.k..X.X.X.X.X~.!.E.~.E.k.E.Y.R.2X2X4XR.Y.E.^.^.^.^.~..X~.^.@X+X~.@X+X+X~..X@X+X+X+X+X@XK.M +X@X$X+X+X@X+X+X+X~.!.+X~.^.^.^./.^.!.:X:X:X:X:X:XM n :X:X:X}.^. X XQ.Q.}.}. X(.Q.(.Q.(.P.Q.i.;.W.P.P.P.(.:.1 ;.;.:.P.;.-.-.-.;.-.-.;.;.=.:.:.:.;.;.=.;.;.(.;.%.;.] B (.7.).0.7.a.=.:.*.:.:.:.$.-.$.:.-.-.-.L.;.L.E././.L./.M -.E.E.E.E.E.E.E.L.E.E.W.;.E.P.P.P.P.P.7.$.:.;.I.W 0 # 5 L f g f u l u l x x h f - O % X 7 ~ 8.2. .....U . . 9.=.=.;.=.*.*.] W ] { $.{ *.=.{ *.=.] R ~ 4 % X U ..U ..` K _ K % g 6 Y.",
"  : e ^ I Q H 1.9.1.@.e < e B Y 7.Y 7.7.{ p.&.B W B V $.A $.$.i.|.JXmXcXmX%XC -.XX}.!.E.!.~.!.!.E..X.X.X^./.~.i..X~.~.~.~.~.Y.T.,X4X,X,XR.R.R.T.+X~.~.~.E.Y.E.!.~.~.~.!.~.~..X~.~.+X+X+X+XY.M ~.^.+X+X+X+X~.!.Y.!.~.!.!.!.!.!.^.+X!.!.+X!.^.+X:XC M bX:X}.}.^. X}.Q.P. X}. X X(.(. XW.(.W.;.;.;.;.(.;.P.;.V  X(.W.;.-.W.-.P.-.-.-.;.;.;.:.;.:.:.-.:.;.;.;.I.;.7.{ W 7.=.*.] ] V =.=.%.%.$.:.;.:.-.$.:.i.i.-.-.-.-.i./.-.E.M E./.E.E.E.!.E.W.W.E.L.W.P.L.-.-.-.P.-.;.:.:.E +.Y ^ + . . % h k r.e.e.k | k f . . $ . . / 8.>.>.>.X.6.N.8 N a.<.*.4.*.*.{ { ] { ] { { *.*.*.{ } ] { ! q o o g 2._ _ _ K m y 6 t 6 Y.",
"  b 0 W T / H 3.9.9.0.: X < b N %.G P ] { d.8X0.=.%.$.$.] $.$.'.mXmX|. X XQ.M P.XX'.i.i.E.E.i.!.!.~.i.i.~.i.~.~.i./.~.~.~.~.3XT.R.,X#X.X}.Y.R.1X#X@X^.!.Y.!.Y.!.!.E.E.Y.Y.!.~.~.~.^.+X~.+X+XM ~.+X+X~.+X+X~.!.!.!.!.!.E.!.E.!.!.P.!.!.P.~.P.P.^.A C ;X:X}.^.}./.P.E.P.P.Q.Q./.Q.Q.Q.Q.Q.W.;.W.L.L.W.L.(.-.V ;.W.W.;.-.P.P.L.L.L.-.:.;.;.:.-.-.;.P.:.;.;.7.P.7.7.R W <.7.7.%.] { E :.;.:.$.W $.(.%X}.i.V :.-.-.E.W.-.L.L.Q.S A -.E.E.W.L.E.W.E.-.L.-.-.-.-.-.:.:.-.:.:.:.W W E G p O.v.m.v.z z.r.x.r.z z.x h 8 j O.| f h 4 } g...X.X.P >.>.] ] *.{ *.%.{ { %.*.{ %.{ ] { { =.4.[ / 5 @ X t ` g 6 t t y K t t , Y.",
"  b < #.) ) q <.9.0.1.5 @ : #.9 Y B 1 ..4.] { [ =.$.$.$.$.] $.i.$.-.A :.-.-.V P.'./.u.i.E.Z !././.E.E.E.E.E.E.E.!.E.Y.~.Y..X3X@XA k.i.OXj.&XM J.Y.Y.E.k.k.Y.K.!.K.Z K.L.E.L.E.E.~..X^.~.!.^.M !.~.!.!.!.!.!.!.!.!.!.L.P.!.L.!.L.!.L.L.~.L.L.P.+XL.n :XP.}.Q.E.Q.Q.Q.Q.W.W.Q.Q.Q.Q.W.Q.W.P.Q.P.L.L.P.W./.M > V  XP.L.L.-.W.P.L.Z L.P.P.$.;.-.-.;.;.;.;.:.;.7.;.=.W B 7.7.7.%.E %.] V V ] C C  X].|.(.-.;.C V i.u.i.L.n -.Q.C S L.-.-.L.P.L.W.L.L.-.-.P.;.L.:.P.L.;.:.:.V $.7.B } o.v.v.r.d z z.z.z.z.z.z c k d z ' e.' z e.k & y & & . e 3.&.$.*.{ { ] %.=.{ %.] { ] ] { L ! { } ( K @ # , o . o o o 6 K r t & Y.",
"  B : T #.@.e 3.8.6.9.9 + # b Y +.9 i 4.8.>.&.*.=.=.] $.$.$.$.$.:.-.-.-.-.:.C P.W.i.Q./.Q.E.i.Q.E.i.k.E.i.E.i.!.E.E.i.i.i.i.j.F.j.y.} i.S j.j.j.u.S Z A K.i.E.L.S Z L.!.!.Y.Z Y.E.E.!./.~.^.M P././.!.!.!.!.!.!.!.!.!.!.!.!.L.!.L.L.L.!.P.~.P.P.^.n :XP./.P.P.Q.'.Q.Q.W.W.Q.Q.E.-.P.L.W.L.E.L.P.W.L.L.P.;.n A Q.Q.E.W.E.L.E.L.-.L.P.P.:.:.P.P.;.:.:.u.;.;.;.4.7.P B d.>.*.%.=.%.P B C < B (.).[.(.7.(.:.:.V A $.:.:.A A P.A V P.-.L.L.L.L.-.-.:.-.-.-.-.:.P.:.:.:.;.:.Y C W i X.x z z z z.z.z z.z z d z z ' k z z.d z z.z.z.k & O $ 3 D 7.{ { %.{ ] { ] { { *.] ] P W } ] ] P B ) r @ o t % y 6 & o 6 t 6 6 % Y.",
"  C 9 @.^ &.e 2.8.6.8.e $ + v `.I.B p { <.4.>.=.=.=.$.$.-.$.-.i.-.-.;.P.;.:.M =.u.u./.u.i.'.'.i.i.i./.i.A i.E./.i.Z i.i.j.F.j.F.F.F.j.F.j.j.j.j.F.j.C S W.^.E.E.K.^.:X!.E.E.i.Z Z Z E.E././.M L.!.!.!.!.P.!.P.!.P.!.Q.!.P.!.P.P.!.L.P.P.+XP.+XP.:X2 ^.P.!.L.Q. XQ.Q.W.W.P.W.-.-.-.E.-.L.L.L.L.!.E.W.E.W.-.n -.Q.P.L.L.L.E.L.L.L.L.P.L.P.P.L.:.;.u.=.;.=.7.s.7.d.] P =.] L B *.=.=.] p 2 =.uX).;.(.s.s.:. XV p $.V A ;.+.P.-.M  XW.W.L.-.-.-.-.-.-.-.;.:.;.:.:.*.:.:.+.V B W p x x l.z.z z z.z.z.z.z.l.z.c.x.n.z.z.z z d d z e.& . . % 5 X B { W P W W { ] ! P P B P h V P i B L w X . . % 6 % % & y y 6 t r , R.",
"  C 9 #.R ^ e 9.m.9.8.g + # 0 @.N N ] Y 7.=.>.4.=.=.} $.$.$.$.$.$.-.;.;.-.:.b ;.u.u.u.i.:.i.i.i.i.Q.u.Q.i.A W.'.s.u.h.j.j.F.F.F.F.F.F.j.j.j.j.j.j.F.j.i.C A A :.L.E.L.A -.Z Z -.A Z -.L.P./.M P.Q.Q.P.P.L.!.P.L.E.!.P.E.!.L.!.P.P.!.!.P.L.P.P.L.P.n #.I. XP.Q./.Q.Q.W.W.E.-.-.E.E.-.E.L.L././.Q./.E.E.E.L.S L.E.E.L.L.E.L.E.L.L.L.#.L.L.L.:.I.P.E C * i ! [ L L 0 7 { { P 0 B P { { $ i ).).] $.=.{ $.$.p 2 M $.C C '.;.P.:.C P.:.-.:.-.-.:.:.-.;.:.:.:.:.:.:.:.:.:.:.b W *.X.y.y.v.l.r.z d t.z.c.t.z.z e.z.n.z d z d c.z.k z e.| ; g O . X P } E P i i P J p i i p V P p B P p i q 8 6 t t y ; y 6 t t 6 6 , K.",
"  b 3 +.H T G 8.9.6. .4 $ : > X i P *.B > =.3.4.4.] ] ] ] $.] $.$.:.:.=.:.:.1 =.u.'.u.s.s.i.] $.=.u.i.u.-.:.'.s.h.i.h.j.} j.C.F.j.F.F.j.t.l j.j.j.F.b.j.p C Q.$.:.$.A $.Z -.Z A -.A A Q.W.W.C :.P.L.P.L.L.!.L.P.E.Q.P.Q.E.P.W.W.L.P.P.L.P.P.L.P.P.S n P.P.P.P.P.P.L.L.L.W.-.E.L.E.E.L.E.E.!./.!.!.E.E.L.L.n Z E.K.L.K.L.E.P.L.L.L.K.L.L.L.;.:.b + 1 7 ! ! 8 O @ # < ~ L B i B W ] { =.&.).7.W ] %.$.C i V $.$.V C p ;.$.#.-.n P.A :.-.:.:.:.:.:.:.:.:.:.%.:.:.$.:.#.+.V W 7.p.x v.r.l.v.z c d t.z z.d z z.z x.z.z z z z.z n.e.l.v.h - = F L # U { >.P { { P P P P P P } } } ] { P P P p 8 F U U y & ; g 8 6 & K.",
"  1 : 5 0 3 q D H ) J 9 + : , , B [ [ P P i { >.{ { $.*.=.$.$.$.$.$.;.;.s.;.1 :.u.i.u.s.h.i.] i.i.:.i.=.;.(.u.i.i.A i.j.} } j.} y.j.j.j.j.j.j.t.j.j.t.j.} 1 W 1 C A -.A A $.:.:.-.-.:.:.-.W.1 $.P.P.L.L.P.L.L.P.P.P.L.P.W.W.L.P.P.L.P.L.P.P.P.P.I.S C P.C L.P.P.P.Q.Q.Q.E.W.W.i.i.E.E.E.!.E.E.E.E.E.E.E.Y.U.E.E.!.!.L.L.!.P.L.L.L.L.:.L.L.P.n : < 0 B p 7 8 8 p - = X 7 P %.{ i W <.=.{ *.*.W W { $.:.=.s.=.s.$.P.7.1 $.$.$.b :.:.$.$.:.:.:.$.:.:.:.:.:.%.:.$.:.@.:.:.W W { - O l.z.z.l.d r.c.z.c.z.z z z.z.z z z z d z z.x.z.z.z.s f 8 } [ O X I ~ { { P W { *.] { B B V P { X.{ P L 8 - - 6 ; % 6 8 ` m ` % K.",
">X< Y @.[ G N i v 9 r @ : , , : G 4.<.R 0.E N 4.] <.=.=.=.=.;.=.=.=.=.=.;.$.< } =.=.s.u.i.=.s.7.).E ;.{.s.u.u.h.h.h.i.} M p i.y.} l j.l j.y.l j.j.r.l } p P < 1 $.-.-.A $.:.-.;.;.-.A C C ;.i -.P.;.P.L.L.P.Q.P.P.P.P.P.P.P.W.P.P.P.P.P.P.L.P.P.I.$.#.P.C V A :.P.P.Q.P.W.E.E.W.E.E.E.E.E.E.Y.E.L.Y.!.E.T.>XY.!.L.!.K.L.L.L.!.L.L.L.L.L.P.:.n 2 < 0 i * q i t g g 8 7 P { f.>.7 *.] G W ] E B W %.%.%.*.%.$.] V :.E V V :.:.b ;.$.$.:.:.:.:.$.:.%.$.:.$.:.:.#.$.:.$.T V 5 . O e.v.v.z.r.z.z.z.z.z.z.d z.d d z z k k d d d d k u ; 8 - 8 # . . 7 7 7 P i P } ! ! F F P U U ! U [ ..{ F - 8 | j 8 k _ g g t K # J.",
",X+ [.pXf.9.M.8X5.q.) #.: @ : : X < 4 0 < e . q e e i N 0 0 0 0 i V P B B i 1 ] ] ] { ] 8.h.*.W s.a.X.s.} B C ] ] i.$.p i.} =.j.j.j.l a l l l j.l p l p h.j.p 1 $.7.$.V $.:.;.;.:.;.$.$.*.:.1 $.:.;.:.$.:.:.:.P.;.;.;.P.P.W.;.W.P.P.P.I.P.I.P.P.P.b C P.C C +.$.V A -.E.E.Q.Q./././.E./.!.!.E.Y.Y.L.K.Y.T.>XY.E.L.L.!.L.L.L.K.K.K.A L.A K.$.C 1 1 * 0 5 5 h g g g g i ! ! P J P ^ { L W { Y B [ *.{ ] E V P W E W $.V 0 B b b $.$.$.+.V +.$.+.+.+.+.+.E W W +.+.W + 7 g m.x x e.z.r.x z.z t.r.r.d d d z k z k k u u 2.e.e.w.e.e.o . @ o $ g g g P g g P L ~ [  .! I t i w e 8 5 8 7 $ . 8 g 8 g t y 8 - % o @ Y.",
"R.$ I.aX>.2.[ ,.8.M.9.UX( # @ $ H D 9 < G Y ( W v v D N Y %._.uX_.[.a.3.7.*.< 7.7.s.d.uX[.9.< %.p.g.4.s.=.4.] =.[.(.;.7.*.=.{ } y.y.p p p p } p.j 7 P } } g p ] V 4.B p C 0 0 N 0 C B C Y C b b 0 V +.B b C V E :.=.;.;.:.%.:.*.P.#.:.:.:.=.*.V b > > b 0 V +.$.A V -.-.A ;.-.P.L.L.L.L.L.K.L.L.Z Y.R.T.4X4XT.T.T.K.K.L.K.#.K.M S A Z A :.A A #.C 0 p 7 p 7 q P P p 8 * - 7 g [ P I R ! B W ^ R T R N e i N B B B B 0 v 9 1 < b 9 0 b B B C V B C B C B V N b b * h y.v.V.z z x s d c c d l x x p.O.j F aXpXaXf.5.9.qXqX9XMX9.9X~ ~ t 6.O K  ...4.X.X.[  .{ { U h I ~  .U F F g w 6 , @ 3 # - % - % 5 , 6 @ @ R.",
"R.$ b 0.L w 3 [ 8Xf.aX0.#.$ $ @ 9.9.>.&.7.`.`.0.0.7.w =.7.7.d.g.h.g.g.a.s.=.7 7.7.s.=.=.<.+.=.=.$.W {.7.:.=.=.$.;.(.-.;.(.).P 8 C p a 7 7 h P 7 1 7 7 7 * i i B N $ 9 =.=.7.;.7.:.W 0 . B # 5 d.0.&.^ &.9.7.7.<.=.I.`.`.=.E W ] L.#.W W C W B B < 0 B +.V #.;.(.(. X X}.P.A A $.L.P.P./.Q./.P.L.A A T.3X4X3X4X,XY.K.L.K.L.L.L.K.Z Z :.K.#.L.-.+.V V 1 7 p 8 i 7 # 3 * 6 g 8 g P J D J P G L H Q D w J 0 B B B C V W V Y B B : D V +.V B B +.*.&.*.%.+.^ #.@.Y 9 - N.V.V.v.y.x d c x k c x f h o.6.! R &.>.R ! [ ` ` @.Q N R / [ 1. .6 g P g i g P U ! U I L F D J L [ / ! ~ / ~ H ( D o w F F t t K D m t @ o ~.",
"R.$ Y T 9 B v G <.E <.( @.$ $ G @.7.>.4.<.7.=.<.&.] =.7.p.=.=.=.=.4.s.s.7.{ < 7.7.;.=.=.;.7.=.;.=.=.*.*.$.$.:.:.:.=.I.:.=.] . q ] ; a ; a a ; X.C.p.o.o.h . X $ 5 < B a.%.7.*.=.7.<.=.&.0 < 7 <.E W V R %.%.%.%.E $.R %.*.:.=.:.&.;.*.0.7.W +.W : B ;.;.P.:.;.:.:.:.$.$.$.A -.-.L./.^.P./.!.L.K.E.!.k.Y.R.4X>Xk.L.L.L.L.L.L.L.K.Z Z Z A K.$.C B B P 7 p O.y.j.r.l h 8 4 6 % . # p 5 D J F w H J G &.B 0 V W W E W E $.%.+.%.9 R @.*.*.+.W +.( +.W Y Y G 6.5 e + . , e o.V.m.j j x l x j O O 3 <.L { E { ! ^ / &.q.&.0.8.9.&.&.^ ^ ( $ N U  ...~ { .. .{ { [ / ! ! R J L P ! G { ) H m $ m t t F U K K m r @ o R.",
"T.@ v &.%.W W %.0.< 0.0.Y : X +.&.%.E *.*.4.*.=.{ >.8.7.7.4.>.=.=.=.=.4.=.} < 4.=.*.=.=.*.*.*.%.*.] ] ] W :.7.*.=.%.N 7.= ; 4.s.} 7 ; a a j r.v.r.v.x X.p.X.j P i 5 . B :.$.] %.$.] d.7.T < < (.0.&.&.E E %.%.%.^ %.%.%.{ &.*.%.*.&.:.:.$.%.+.+.< V +.;.:.$.L.;.-.-.L.P.L.L.L.-.#.K.L.L.L.L.A S E.E.i.k.k.Y.U.Y.K.L.L.L.L.K.A #.-.L.$.$.:.#.V ;.P p j y.y.v.r.r.r.x O.x j a | j 6 f K ,./ H q < W B N R G B Y +.E @.E @.Y E B B ;.0.:.0.@.V b H a | y.O.y.x s x O.x f f _ o.c k l s & 5 o o - 3.>.*.&.&.^ &.^ @.@.( @.0.<.Q &.&.! H < G &.7.*.^ G L ^ [ ~ / &.^ L R R L P G G H F D m o D F w J m J m t m @ X T.",
"T.> . W Y W %.&.7.*.9.0.v $ @ @.*.W %.{ %.*.&.&.%.[ q e i { *.] { =.{ =.%.E < <.&.$.<.%.=.*.;.*.=.7.7.+.%.=.7.*.W 0.T . # 4.X.} j ; a f a l r.v.v.r.v.d z x l h | {  .. *.*.%.E ^ ] 7.`.8X@ 9 0.*.*.&.*.@.] W %.%.%.*.*.%.! { *.*.*.:.*.+.*.#.*.< :.I.:.P.#.A :.P.P.:.L.P.-.Z -.K.:.L.L.L.-.S M A L././.j.M M A S M S S C M C M M M M S V ] =.=.} j.V.v.l.b.b.r.z.z.z.e.x x v.x u j O.6. .w # w T @.@.W G B Y B B B b B B W +.9 =.*.#.@.p O.y.j.r.r.l.l.z.l.z.z.z.l.v.z.d z j ; | o.U ( m T ) @.&.^ [ %.1.^ %./ R ^ ^ R G R ^ Q G R q ^ q.P.<.#.@.B T T ( ` ^ J G J T Y B B T m v m r @ ` Q H D J m t r r , X T.",
"T.+ + <.W +.%.E ^ #.#.@., @ 9 @.Y W E ] E { =.&.*.7 @ + 7 ^ [ W ] ] ] W ] W * 7.=.*.$.*.0.+.&.=.*.*.%.:.+.%.%.0.0.0.7.W < M.! X.h ; j l ; s l r.Z.C.v.v.s f f f ; B.lXK - I F g J H [ &.) : Y <.@.+.^ @.@.E E %.E %.%.*.4.&.! E +.@.*.*.@.#.+.@.: #.:.+.;.;.$.+.:.#.A V $.-.L.-.:.L.L.A Z Z C S i.E.L.L.k.M S j.j.} j.l %.} } } l j.} j.P } } i y.v.n.b.r.v.x.l.l.z.z.l.l.l.d z.z z c k - . . q T ^ T v B Y T T Y Y T W E B B : @.B b $ o.Z.n.l.r.c d r.r.r.t.t.t.d d d z.l.x s t 5.1.@.@.1.1.@.@.@.@.^ @.^ ^ ^ R R / R ! ^ ^ R Q ^ 0 N Y +.0.`.`.8.v e ) ( ) J D v D v v Y Y b v m # # @.H J D t m m t v , X T.",
"T.X + &.T B E W B R B ) : @ r @.W R W W W W E ! ^ P q 4 w 5 G { } *.] ] E B * ).7.7.<.*.%.%.$.*.+.%.*.*.;.%.%.=.:.W =.0.*.f...6.} ; a f ; a ; j O.x s ; ; f ; - g o.U h w.- o X . . X . X , @.<.%.%.@.%.^ ^ ] E W W E &.[ L / &.%.E W @.$.+.W +.> +.$.:.;.;.:.;.:.+.#.Z A L.:.L.:.-.Z -.A -.-.M $.A A V M 2 j.k.j.j.j.j.j.j.y.y.j.j.r.j.y.y.l y.v.b.b.b.r.r.z.l.z.z.l.z.x.x.n.x.z.d z x s u 6 . @ 5 r 9 v Y T E #.Y W N G G Y v 5 X @ k y.r.S.r.l s x r.c x d z d t.t.d t.d z j O X.@.@.@.@.q.1.0.@.^ @.@.^ R ^ Q R Q ^ R / / E R ^ < v Y T @.0.<./ Q H D F T T G J G v v N T J t F $ @ K F w D K m K m v , X T.",
">XX + v Y B T E R R T ^ $ $ v I.#.^ Y W P P L ] G { W ! g . . * 0 &.&.{ ^ B 7 d.<.;.=.&.*.=.%.E %.=.*.*.&.+.%.$.@.%.@.*.%.{ [ X.j a s s j = ; f | j ; j j g _ - g 8 - 8 w t g g K U g H Y 9 Y &.%.<.0.&.%.E ^ ^ V H &.{ W L G G R N E ^ @.E &.I.5 I.<.;.:.@.+.:.#.A A $.#.$.:.:.-.P.L.-.:.P.;.A 2 1 M M a k.j.l l j.j.j.t.y.j.t.l t.r.b.y.y.| O.v.y.b.b.b.l.r.z z z z.z.l.z.x.x.c.z.z.z.z l.v.z j h y # 9 v 0 N N N v 0 w w v 4 i { | h h c x l s j c l c c z d z t.c z z c z c ; 9.^ &.@.1.@.&.q.^ E @./ R ^ ^ ^ ^ R ^ R ^ ^ ^ ^ ( 0 0 Y +.R @.&./ T Q D ( T m m J D m Y H T m D D $ 6 H v m t w e m e e 9 .   ",
">X+ @ Q R T W E E @./ @.$ $ v 0.D R R ! N i <.<.! ^ >.3.3.L X . q 7.{ W E 0 0 7.*.=.*.*.&.*.E ^ 0.=.=.&.*.%.=.^ %.*.{ E p ] g } l ; s s s s ; O 8 8 ; p - ; | - . o o . g h | | o.....` 1.: v <.^ %.<.&.] ^ ! G B G B P G L L W J 0 B W 7.@.^ 9X< I.=.=.:.$.$.+.V V $.L.#.+.V :.;.-.:.A -.$.:.L.n 1 V V M j.l l } } l y.y.y.y.y.y.y.l y.l l l a l l y.v.y.z z x r.d z d z.z z.z.x.z z.l.z.z.z.z.z.e.x s s s k ; ; e 7 g i # 7 [ ..~ h s a ; X . . O ; = j ; d c c x r.d c c x e.; X.1.@.^ &.^ @.E R R ^ R ( E @.@.@.R ( E #.^ ( R R e e W B Y #.( ) ( w e G J v B D N D G G G q q # o 6 H H e e J J J m D 4 X   ",
">X$ $ D R H V &.&.Y ^ 1.. X 3 ( H W G R R + 8.&.^ 3.>.^ D 7 7 i L E W Y ! # 7 <.W { &.&.%.%.E %.@.%.@.&.%.%.+.%.] W %.V V { } X.} a l j f j s h ; O # % I 8 K f g | 6.o.O.f ; f f h | j H 5 D &.R ^ &.R &.^ E G L N B Y R ^ R W N i B G N R ^ &.< ^ +.+.%.$.#.+.+.+.+.$.:.:.+.A +.A $.$.A :.:.P.#.1 > 1 ] $.V } l S V i P p p p } p l X.O.j.b.v.v.r.r.l.r.l.z r.x r.s r.v.b.z.z.z x z z z z l.z e.d k c s z e.k u ; 8 K w 8 i g p } X.6.O.O.h | y.p.O.v.m.l = ; . - j j ; s e.x % F &.R W @.@.+.#.^ R W R @.@.R Q @.^ R R R W T Y T v 0 0.&.T Y Y e # e 1.^ w J N D D N G g 5 3 X . . 6 m ) w m q H H t w 5 X   ",
">X$ + G W W V ^ R Y T R $ + , T G R Y ^ ^ v R : T G 9 . . ^ *.! W %.R G B + B ] E %.E ^ %.^ %.@.E @.^ %.%.&.] %.+.W E W P { ..3.h ; m.l P X.X.X.h | } ..I p p.m.| ..O.U | h 8 8 f j h h K 9 5 <.&.^ ^ R R R J R Y P ^ ^ ( Y N R Y B v 0 G Y ( #.q R ] %.$.+.$.+.+.+.$.V +.:.:.$.b V +.$.$.L.:.#.:.1 *.g.j.j.j.j.j.j.j.j.j.y.i.y.y.y.C.C.y.b.v.b.r.r.r.v.v.r.r.x v.x d r.z z d k z c l c k d z r.e.c s u s f u ; ; y 8 w T 1.E X.p.h.m.p.N.p.m.N.m.V.v.V.m.v.o.- # O - | k O.j u 6 ,.^ T +.@.R ( @.^ #.R ^ ( R ^ ^ R ( R W ) ) R R ^ G < <.@.) @.&.: + 3 @.Q w H G H H H L G 4 e , o X K I ` K w J K 5 6 t , .   ",
">X$ # D B 0 i E B B B e $ $ $ G T ( H H ( 0.1.: . . . 5 ! <.E B W W W W R # E %.] ] E ] +.W W W E V V W ! +.E E ] R W W { >.[ 3.P - P } { ] { W { 4.X.4.>.8 F p.f - f 8 p g F f 8 K h g F q : q.Y L L Q J G G v J G N v 0 v v N G G G N q N D v 0 R E W @.#.@.$.+.$.V V V +.$.+.C C V $.$.+.L.P.V p wXh.} t.} y.y.t.j.j.r.v.y.j.v.y.y.r.r.r.r.r.r.r.r.r.z.r.c t.d x r.z z.z.z z x k s j u k k u & & o ; ; y % # U 4.>.1.*.&.G ] 6.4.X.X.X.4.X.X.} X.} | O.} ..; O O O | ` U U _ r ( @.#.#.@.^ R %.@.@.^ R @.R R ^ W Y T T ^ R #.#.Y ) + @.V B Y B 9 . . $ # e J D v N N 9 D [ D @ X X ) F t t t J D 5 6 5 % :   ",
">X@ X r 3 q B W P G R w $ o : @ w Q @.5 J R v X # X . 9 R H R G B B P Y Y # W { Y V W W E E E E W W E ^ %.^ @.%.&.W ^ W ! *.&.! F - ! E G L { ! ! ! { %.W L J B N * O X 5 % g g O g h h I H 3 v v t D J G T ( ( R H J J J D G G N P N H J v T J 9 N N Y Y Y E V W W E Y Y V V V V C W $.+.$.%.;.C N C 7 p y.y.} y.} l j } l l y.r.l s l c s l r.r.x l.z v.v.z r.x r.v.t.k z d v.s u f ; ; 6 o @ . . O 6 k _ r q +.v #.#.+.T #.J G R D ! G L e e p G Q ! D [ >.^ I / e . L g t F r H G Y v W W R ^ ^ ^ ( W #.#.T T T W W W R T R T G &.< T T Y v v v 9 $ . v ) G 9 : , m D H H w # . o @ @ . . . . . . $ , @ <   ",
"  $ > r r 9 e 9 q i e 4 $ @ X , 5 q w @.e 4 e w e e 4 @ X q w q 7 N G 0 e : B G i w w i G G Y B G G W ^ W R Y W ^ R E ^ q G P q 4 $ D L G P { { ! P ! R ! L ^ <.0.3.Y @ . # o ` h 8 f F I H w G R R i e D J T ( Q R G D i N e N w G R H w v D 0 w v 0 4 0 i 9 0 B G V V B W V Y Y V N C W C N 1 V *.=.} h.h.4.p.] X.P i } U } } } h l l p a s l x l c s x z c l x d z z z.k c z j s ; o . o @ o y O o % . , R #.#.V b Y T V +.0 0.0.@.W R ^ %.&.E ^ &.*.&.1.1.>.3.9.8.[ 5 = I 8 , F ) R +.T T G B Y T ^ G R G G Y m T T Y T R Y T J v : v Y T 1.q.1.m $ X 1.G . r J ) H t r m e , X $ X . 4 w w m D v T r , T   ",
"  > @ 9 e q 5 q r w g e @ @ X r J m w <.G Q / G G R R ^ H q 9 q e 1.[ / / # 4 P W G G G Y R W ( %.W G W ^ ^ ^ E W ! <.4.^ ^ / / D . ! 4.p.7.3.8.8.8.3.6.4.! [ 7.*.d._.`.H 3 % 8 f f p g I L r @.@.T B N m ) ) @.T H D v D 3 5 w G ^ ^ ! R e J w v J N N N e < q 0 e 0 w N e D W W v < N G &.&.4.>.} X.X.} } P { ] X. .{ { { U } | } | } y.X.O.h j a s a j s ; f j s s s s ; k s ; ; ; 6 g t t & K ) ' _ 4 e &.Y #.V C Y W Y W : @.@.@.@.@.E #.^ &.^ G N ^ ^ R R R ^ [ <.@./ ~ 6 6 H ( R ( &.R @.@.Y Y #.R @.@.@.@.Y T W Y G R R ( b Y . G &.&.<.1.@.# . . : @ ) ( m t r r r @ # @ X $ . 4 ^ @.^ @.@.W W , : -.  ",
"  $ # # ( w : @.1.T G D : 3 : 5 R N N B B G G B Y G H B H ^ ^ &.E <.E ^ / X 0 R Y G P W W W W R E W W W W ^ +.W R ^ R ^ ! 1.&.[ J . ! { ..{ { { { { { } { ~ P ! L ! E &.8.9XH O . 8 8 g U 5 q @./ T R G G G H G D J D G T B J G R ! H G &.R ^ v G D e H G i L H R / 1.1.&.T v q 5 i [ *.>.[ ......4.X.X...4.g P 4.{ ! } ~ U L { ! I } P U { | U P h p ; j a s ; ; ; ; ; O ; y & % & - _ U t K e X , r T ( W V B +.Y Y Y V V W : &.&.@.R ^ ^ W B R R R B B J Y R ^ R ^ ^ @.5.1.3 - 1.G T Y W Y R W Y Y B @.W W Y T +.T W ^ W R R R T @.X Y q w # . . % 5 @ . r w.` m K K K K K m $ o $ . v ( R R Y R Y B 3 @     ",
"  : : # q r : @.@.9 0 v # , 9 : @.D 0 N 0 v b N B B Y B G Y G B B b Y b v X 9 Y v v N B J G B B e 0 N B B G G B R Q . i P L L J J . G ! L } L B P J P P P P P L ! L P L { [ g 8 % o t ` H 3 T ( Y G m v v J T J D D D D T T ( Y R T N N R ^ R D N ^ 9 L Q / ~ ^ [ 1./ ! [ ! # $ . ^ <.[ Q G < p >.[ L L { F D ! ~ ! ! ! Q L L L L ! I I ! I Q ~ { [ { ! U - 8 6 O - - 8 6 O 6 g 8 . - `  .Y W G Y b v +.+.:.#.#.V #.#.Y V Y T < =.*.^ @.@.W ) T T Y G G G G G G R R R Q W @.T # # ! N W R Y T W Y T T Y Y Y Y T Y Y W T W Y B W ( v ^ X #.$ q D K ' K ' q.K t q.K y ) K K t K t o $ @ . G ( Y T T T T m : @     ",
"  < $ @ X 4 3 # 9 Y N q : : 9 : T e 0 v e b B v v Y Y Y Y B N N B v v v m + , G v 9 w N G B v w N G G B B V G N G w T N N J i D e X 0 P i B D P P P P J P P P P P L i L ! I ; g 8 o e 5.e w R Y Y B B G T T T G m J B J T ) T T T D G G T R R H J ^ N 4 D / / { ^ I I L D J L q q J L G g i J L H ( ! ^ N J ~ ( L ! H F J F L L Q H I L F L L I I K U ~ ! L q $ . # 4 7 @ @ g g ` K . 5 H G R +.W Y B V +.#.+.C V B V T #.V #.9 &.%.R R W ) Y Y T Y G B B B J J G G G G ) Y Y r o q N B B Y Y Y T W W T Y Y B Y Y Y T Y Y Y Y Y #.B 3 X +.9 G m m m m K m ) ' ) K t ' t t m r o o , , . m R Y Y #.Y T m : $     ",
"  9 $ @ # v w 3 N R Y v : : : , T N N G T b e Y Y T T B N B B v Y B V m Y + b T B Y v v D v G G Y Y B B G V N W / H ^ P P P D J F X i { i g P i i P P L ! L P P P P i F K y ' _ 8 o o D @ t G N v v D D G J T H G H e D ) ) ) H H v H ( T R R T v Q R e J ! L I I H H L T ( H Q [ ! R F N J H T L R R L e - T J F L T G J Q ~ `  .( ~ ~ L ! I R H H H Q L Q H J r . $ X . o 6 F t J o . # E G Y B C Y Y +.#.+.b V #.#.#.W #.@.: Y G v N Y Y Y T R R T T H R R T J N D G Y B ( H X D H B G Y T #.W T W W T Y Y Y Y Y Y W W W Y W ) q 9 : +.e v m m t t K m K ) m K K m m m 4 X r 4 t y X q Q T Y T Y #.v # $     ",
"  > X $ 5 D D 9 9 v v e # . # 3 9 w e B Y N < v B v B B G G B V B Y Y Y T : 9 T Y Y V v Y v ^ T B G G B B B i H i 5 W N i e D H e $ U L ] B J P ! L L P P P } ! i i f p ; k j j 8 O o X % w J G v b v v v m v e 5 < # , % - % % 3 5 , 5 9 5 e e 4 9 9 5 4 6 4 6 4 4 q e e w w w w v q e 5 9 e q q q 9 9 5 # , 9 4 3 5 4 q q q q r q e r q e q e w w v T T H T T v @ @ @ @ , , r @ X o @ H R v v v v b B B W #.v v B B V Y Y m # v e m m J Y T m v v G T T T T Y G N B G B ) ^ ) $ ! H G Y Y R #.W Y Y Y #.Y Y Y Y Y Y Y Y B Y m v , 9 : 9 Y m t t t K t t K m m t y t t , : v m r r r o 5 Q G Y Y Y T v : @     ",
"  M $ $ 3 H v q G v b 9 # 3 r + D N Y B B < 0 0 v b v Y Y Y Y #.Y W B B T @ : T Y V Y Y T ^ ( v G v N B B B N N @ 3 R L q r t 5 6 4 K { } 7 p P P i P P G P L ! H ~ K ; f k f y t % & # % 4 v m v r 9 o r t # , r v w m v v J v w w e m D w e 9 w v w r e r 0 r 7 4 5 # # # , 5 % # @ # . * . @ X $ X X . @ . . . . . . . . . . . . . . . . . . . . . . . . . . . . . . X . . . . # X . # , , , , # @ # $ X X , @ o @ # , : @ % . . : # , , , : , , : , , , 9 3 9 : 9 9 r 9 9 # X X q D G Y v T Y Y Y Y T Y B Y Y B B B Y v T G 5 : w X v v v Y K m m ) v v m m m K m r r m v . # , , 9 9 q J m m m Y 9 r # #.  ",
"  K.+ + : J r : G B 5 # G m $ X v T Y T Y e T Y v 9 B B B B B #.B v Y B v $ $ Y v B v Y B Y m 9 6 J G R ^ R ^ 1.5 # t q X X % 6 4 - 6 w L e N N i J i P P w N H G g g . u k u 6 % o . . . X o # @ & m q.5.q.m K 9X9X9XaX9X9X9X9XI.`.9.8X9.9.7.0.0.5.9.I.9.I.I.UXI.9._._.I.8.9.9.9.9.`.9._.7.0.I.7.I.I.9XUXI.0.0X`.0.7.I.0XqX9XI.I.0.9._.I.9.0.0.0.9.9.8.UX0.9 $ @ G 0.m @ UX0.) m T ) ( ) ( H F T G m m m m Y v m e e % , : : 5 m J v e r r v v v v Y m w m v w e e r e r r # . . . . r T Y v v v v m Y W G Y Y G v G G v 3 r 9 , . o : Y v 9 b T #.v v Y b Y v v v 9 b v v v m T T #.#.) v r v m v v 9 r $ Y #X",
"    X $ 3 e 9 w v q e b 9 9 9 : : Y m Y v 9 T v v r m v v v B v b v v v B : X v v v v v v v v T 9 v %.R Y ( ~ e & , 6 5 % w K K g D . . * 6 7 # r F H H J F g 4 $ % & u ; s f u @ @ 9.aX9.. . o @ r 9.9.) m r r q.9.UXw.7.I.0.7.9.0.0.I.`.9X9X`.I.9.@.0.0.I.UXI.I.9X9.9.8X8X9.9.9.9.`.iXaX1.1.*.I.I.9XZXZXq.v ZX`.I.I.I.`.9X9XuXaXuXaXI.I.aXaX9XaXqXaXuXaXZX: X . UX9X@ $ pXw.0.9.w.9.9.9.2.2.1.2.5.5.5.1.w.w.0.9.9.9.( 9 0.: 5.9.0.0.5.7.9.9.9.0.1.9.0.0.0.0.9.0.7.9.9.5.5.@.m @ 4 ( 0.@.v Y J Y v #.9 e H J v m w e 3 5 3 w J v v , . > #.Y #.#.#.#.v #.b C #.Y #.Y #.T Y #.#.#.Y Y Y Y m : G m Y v T H $ &.  ",
"    > @ : 9 w N 0 9 v v 9 e v 9 9 , 9 : @ + . . 9 ( v b b b b Y B v B v B 3 X v v b b v B J e G v @ q 9 m r . . @ I ( ) y j K k t g U g $ . . X . X - - # 4 . O s j & x l.r.k & & , aXpX9XUX4 X o @ q.m t m 6 r v T ( m T H m G J m T T ( ^ ( / @.T J v m T T ( I ( v . D H T w T H ) @.T T v B v v v Y I.Y @ v 9 b 9 > . . 0 Y #.#.#.#.#.T +.#.<.1.1.0.1.0.v @ 1.8XI.m . pX9.2.5.` 1.2.` 1.q.q.) m ` q.9.w.5.w.2.2.9.K 9 aX9 aX9.0.<.0.5.1.1.q.1.2.1.1.1.q.` 5./ [ 1./ ( / q.) , @.G q.( G G T 1.@.( v H @.T J H B ( G B Y D T m ) @.v X q.#.b Y Y v v v b b v v v v v v T T #.Y m v v v b r v v m m m 9 o I.  ",
"      X o + 5 r v b v 0 r v v 9 v v , @ X o $ . > b 9 9 b b b b b b v v m 4 . 5 b N B b N v 0 0 0 v , o . . . @ 6 t , y t K _ g y _ _ U F 5 % X . . o # & | l c d d s u c u u - O o X F ( 2.1.o $ X T v b v r v r m ) m m ) m ) m m v r t r r r v m / ^ ( ( ( ( ) ) m , @ m ( T Y Y ( #.T Y m T v r m r @ $ : #.T v b b b v b n 1 > 9 r 9 9 : 9 : 9 b r b b v 9 ( ) ( r , q.t t K t K t K ) K H 6 r w m t t K ) K r y t 4 H w ( ( H J ) T ) H H ) ( m H ) ) @.q.q.( ( ( T m ) q.) m T T T v v T T J Y G v v m Y Y v T Y v b v 9 9 v T 5 . r 9 r v v 9 b v 9 v r r v r v v m T ) m r m t r r t r v m w , 6 0.:X  ",
"        M . X # 9 q v 0 9 b v , 9 q b 9 + $ $ , m Y v v v v v v v v b b v : X : v B v v v b b v 0 w w t 3 @ e N ) _ K t % , 6 t t h U ` ) K K t @ % r @ 5 ' k c s d z k u k u ; . @ $ % 2.` ` @ @ . m , o , r , t m m m ) ) ) ) ) ) ) ) ) K r @ 6 m T ^ #.q.q.1.@.q.@.T $ m 0.#.#.q.#.#.#.0.0.q.#.m #.r + + > 1.#.0.#.#.#.P.#.P.@.#.#.#.Y Y #.#.#.#.#.P.#.#.Y 9 T ( m , r m ) q.( m ` K m ) ) ` ` ) J r t m t K K D r $ 4 ) , . r e D ^ ` @.) ) K J r r v v m v r m e r r m t r r o o , m H T T v 9 b r 9 9 r v v v v v v : 9 v m 9 . . # J r m r r r r r r 9 r r r r t r t r r m r r r r t r y r & , V ^.      ",
"          Y.M : X o % , 5 4 9 r r r 9 , X o X v 9 9 9 9 9 9 5 9 , : 9 @ o . X o , r r 9 , 9 r e w D w q % & 8 # 6 , 6 , o X . . o X & 6 5 - % % o & v o o o . & & o s h u & & . g 5 o o D K . o X m aXI.b o & % r 6 r t y r t t y 6 m t , & o o o . o o % 9 r v m v v e $ , r o # & @ , , & & o o o . . . . . . 5 v v v m Y m ) G J m q r b v v m m m m b 9 , X % & & & o & & o o o o o & & t J m J m 5 v r t m w r r o % r . o . , t w m J K m r r r v , @ , 6 t 6 : 6 y t t t r o . & 6 t m v m v r r b r e v m m m r , 9 r , 6 o . X . @ % # , , , , 6 r 6 r r , , 6 r t r r r r r 6 6 6 & & 9 K.T.          ",
"              T.J.n < o o o X X o o o o : : < 2 > 2 2 2 2 2 2 2 2 2 2 n b b n n 2 n n 1 1 n 2 n M 2 2 2 2 n 2 n n C S A A S M M n n n 2 2 2 2 2 2 2 2 n i 0 1 2 2 < 1 > % , 4 m 1.^ 7 5 + > 9 b <.:X<X>X3XJ.M b b b r 0 9 v v r b 1 < 1 9 9 1 b 0 9 9 < : > > $ . . . o & & @ n 1 n n M M C S S S S A :.:.P.P.;.n 2 2 2 2 2 > > 2 2 2 n n n n M M M M M M M M S S A K.Z A +.M M b M M n n n n n 2 2 2 n 2 2 2 2 2 2 2 n 1 2 n 2 1 2 2 2 2 2 > + o o o o . $ < 2 2 2 2 2 2 > 2 2 n B V C C 2 2 1 2 2 2 2 2 2 1 2 2 2 2 > < < 2 9 2 1 v B Y 9 , , & o o $ . . o o o o o % & & & & & & % , b v A Z #X              ",
"                      Y.K.L.-.L.!.Y.~.#XT.>X>X3X>X2X2X2X1X2X2X2X2X2X2X2X2X2X2X2X4X2X2X2X2X2X4X4X2X2X2X2X2X2X2X                      2X2X2X2X2X2X2X1X2X1X1X1X3X3X3X3X>X5X5X>X<X<X<X<X#X<X>X<X>X2X2X              2X4X4X4X1X1X1X3X3X3X3X3X3X3X3X3X>X3X>X5X>X<X>X#XT.R.~.Y.+X~.+X1X1X2X2X                      2X5X2X2X2X2X4X2X2X2X2X2X2X2X                                                        2X2X2X2X2X2X2X2X2X2X2X2X2X2X2X2X1X2X1X1X3X3X>X>XT.Y.Y.L.I.!.3X3X1X1X1X1X2X2X2X2X1X1X2X5X2X2X2X1X2X4X2X4X>X#X2X1X1X1X1X1X1X1X>X3X3X>X5X<X<X<X#X#X!.L.L.0.:.<.:.0.0.0.0.P.I.0.0.0.0.0.I.                          ",
"                                                                                                                                                                                                                                                                                                                                                                                                                                                <X<X5X>X:X@X                                              #X                                                                                                    "
};
