/* XPM */
static char *_a5bac52ab094224b2bac759337d4733wgyKl44BprmKdr4i[] = {
/* columns rows colors chars-per-pixel */
"296 150 256 2 ",
"   c None",
".  c #010000",
"X  c #090808",
"o  c #150806",
"O  c #171509",
"+  c #0A1517",
"@  c #141314",
"#  c #191918",
"$  c #0C0E10",
"%  c #241B19",
"&  c #261008",
"*  c #1A221C",
"=  c #12230E",
"-  c #27261B",
";  c #302F11",
":  c #191C22",
">  c #0A1B24",
",  c #251D23",
"<  c #192626",
"1  c #183737",
"2  c #0B2F30",
"3  c #242324",
"4  c #2C2C2B",
"5  c #282827",
"6  c #342C28",
"7  c #2A332B",
"8  c #37352A",
"9  c #292C33",
"0  c #2A3636",
"q  c #333434",
"w  c #3B3C3B",
"e  c #373837",
"r  c #342D34",
"t  c #433B38",
"y  c #433A2B",
"u  c #483919",
"i  c #3A443B",
"p  c #344731",
"a  c #344621",
"s  c #4D5116",
"d  c #6B7217",
"f  c #474729",
"g  c #47453A",
"h  c #565738",
"j  c #505230",
"k  c #655436",
"l  c #586832",
"z  c #747827",
"x  c #6B7130",
"c  c #5B6311",
"v  c #383C43",
"b  c #2A3C43",
"n  c #153D43",
"m  c #443E42",
"M  c #164C4E",
"N  c #3C4344",
"B  c #3A4749",
"V  c #395656",
"C  c #314E4E",
"Z  c #3B7678",
"A  c #356A6D",
"S  c #286465",
"D  c #434443",
"F  c #4C4B44",
"G  c #444B4C",
"H  c #4B4C4B",
"J  c #464746",
"K  c #534C47",
"L  c #4C534C",
"P  c #475449",
"I  c #53534C",
"U  c #595749",
"Y  c #444C52",
"T  c #4A4D53",
"R  c #4C5354",
"E  c #4D5C5B",
"W  c #485657",
"Q  c #535453",
"!  c #545B54",
"~  c #5B5B54",
"^  c #535B5B",
"/  c #5B5D5B",
"(  c #565557",
")  c #534E53",
"_  c #645949",
"`  c #625D55",
"'  c #6A5545",
"]  c #4B625B",
"[  c #5C635C",
"{  c #576559",
"}  c #566A4C",
"|  c #66674A",
" . c #63645B",
".. c #676759",
"X. c #6A7459",
"o. c #767659",
"O. c #70724F",
"+. c #495C63",
"@. c #575C63",
"#. c #4D5469",
"$. c #496868",
"%. c #546363",
"&. c #5B6363",
"*. c #596B67",
"=. c #5A736B",
"-. c #497778",
";. c #577978",
":. c #4E6E70",
">. c #646B64",
",. c #6B6C63",
"<. c #636C6B",
"1. c #666766",
"2. c #726D65",
"3. c #6C736B",
"4. c #677569",
"5. c #73746C",
"6. c #777868",
"7. c #687976",
"8. c #747C74",
"9. c #777A77",
"0. c #686D73",
"q. c #635E62",
"w. c #847C6D",
"e. c #837653",
"r. c #798630",
"t. c #73851D",
"y. c #748B4D",
"u. c #59837C",
"i. c #4F8476",
"p. c #79846A",
"a. c #6C837C",
"s. c #67857A",
"d. c #74837C",
"f. c #7B847B",
"g. c #798678",
"h. c #728D70",
"j. c #6E9B5D",
"k. c #39827E",
"l. c #8A9537",
"z. c #888F30",
"x. c #98A435",
"c. c #9BA52E",
"v. c #8B934E",
"b. c #96A84F",
"n. c #A9B351",
"m. c #87856A",
"M. c #868879",
"N. c #88947A",
"B. c #96967A",
"V. c #91906F",
"C. c #94AB6E",
"Z. c #ABB36C",
"A. c #A39A7D",
"S. c #B8C556",
"D. c #B9C66B",
"F. c #94C473",
"G. c #C8D371",
"H. c #C8D462",
"J. c #057984",
"K. c #337C83",
"L. c #487D82",
"P. c #567E82",
"I. c #6E7D83",
"U. c #088791",
"Y. c #348B90",
"T. c #30ACB4",
"R. c #209FA7",
"E. c #498688",
"W. c #548384",
"Q. c #588989",
"!. c #498D92",
"~. c #4B9597",
"^. c #579797",
"/. c #56908F",
"(. c #688986",
"). c #738B84",
"_. c #7B8C83",
"`. c #778886",
"'. c #69948B",
"]. c #74938B",
"[. c #7B948B",
"{. c #799689",
"}. c #689896",
"|. c #779A94",
" X c #6D8D92",
".X c #57A49C",
"XX c #6AA49B",
"oX c #78A599",
"OX c #76A78F",
"+X c #549DA1",
"@X c #58A8A6",
"#X c #51B0B2",
"$X c #68AAA5",
"%X c #77ABA4",
"&X c #69B2AB",
"*X c #78B3AB",
"=X c #68B6B3",
"-X c #77B8B3",
";X c #6CAFB1",
":X c #689DA2",
">X c #2EBCC5",
",X c #13BBC5",
"<X c #4DBCC3",
"1X c #25CBD5",
"2X c #23D2DC",
"3X c #2DC5CE",
"4X c #1FCED9",
"5X c #4DC7CB",
"6X c #6ECCCC",
"7X c #77C1BA",
"8X c #838D83",
"9X c #878B87",
"0X c #84948B",
"qX c #8B948B",
"wX c #889788",
"eX c #949B8C",
"rX c #9B9D8B",
"tX c #959686",
"yX c #8B9C93",
"uX c #869994",
"iX c #939C93",
"pX c #979C97",
"aX c #8D8D89",
"sX c #A39D8D",
"dX c #9AA28C",
"fX c #88A699",
"gX c #9CA393",
"hX c #97A699",
"jX c #8FAC94",
"kX c #A4A58B",
"lX c #A2A593",
"zX c #A6AA9A",
"xX c #AEB299",
"cX c #87ABA4",
"vX c #98AAA4",
"bX c #88B4A9",
"nX c #98B4A8",
"mX c #91B9B4",
"MX c #A6ACA4",
"NX c #A8B4A7",
"BX c #B4B7A8",
"VX c #A8BAB4",
"CX c #B4B9B3",
"ZX c #959BA2",
"AX c #93C3B8",
"SX c #B8C5B8",
"DX c #ABC3B6",
"FX c #A8C68B",
"GX c #C5C7B6",
"HX c #CDD887",
"JX c #B3CDC7",
"KX c #94CDC7",
"LX c #CCD4CC",
"PX c #D8E3E0",
"IX c #C1BDAC",
"UX c #847E81",
/* pixels */
"                                                                                                                                                                                                                                                                                                                                                                R.U.U.U.bXmXAX/.Z Z S Y.Y.U.U.T.                                                                                                                                                                                                                ",
"                      R.Y.Y.K.Z S S S A A A A S A +.$.E +.E W W V 1 %.C *.*.8.7.7.[ 4.*.g.M.4.p.[ 8.3.g.g.].E.Y.Y.+XT.U.J.K.A A ;.7.C 4.h.h.h.wX*.$.*.7.7.(.;.(.L.R.3X>X3X3X,X,X>X>X>X>XT.R.U.U.U.U.U.U.U.U.U.U.U.U.U.U.U.U.U.U.U.U.U.U.U.U.U.U.Y.Y.U.U.U.Y.Y.Y.Y.Y.Y.Y.Y.Y.Y.Y.Y.U.U.Y.Y.U.U.U.U.U.U.U.+X~.Y.Y.J.J.J.J.K.K.K.K.K.A A A A S S S S :.:.M C P g.N.C.m.y.C.Z.HXZ.n.D.n.Z.HXZ.b.v.Z.C.bXXXbXC.l } } Y.4X                2X2X1X1X1X3X,X,X,XR.T.#X#X+X~.U.J.J.U.U.U.U.U.U.J.J.J.J.J.J.J.J.J.S J.S S S J.J.J.J.S J.J.J.J.J.J.Y.Y.Y.U.U.U.U.J.U.U.U.U.U.U.J.J.J.J.J.J.J.J.J.Y.J.J.Y.                    ",
"              J.M C * zXB.& u & M.pXuXyXhXMXVXNXMXlXlXzXzXMXMXqXiX5.4 9XzXdXN.N.V.N.N.N.xXkXV.kXA.B.A.kXA.kXkXM.. . 6 m.v.xXFXHXHXD.Z.G.HXHXD.HXHXxXg ,.rXlXsXrXsXqX_.0X0XfX8.N 9 2 Y b . <.8.5.3.3.1.5.5.9.9.9.9.9.8.8.5.5.5.5.9.9.9.9.9.w.UX9.H & & 2.aXrXpXgXgXlXsXsXM.M.M.m.M.M.6.9XM.6.5.5.9.9X9X9.& & o & 0.`.uXvXvXvXvXZXZXZXpXpXZXvXvXuXI.9 o V.Z.D.G.G.D.G.HXHXS.H.S.H.G.G.G.G.G.HXG.G.G.G.G.HXHXD.D.D.F.FXC.} '.1XU.Y.S S C C 0 0 i 0 J I 1.9.t % 3 % o | 9.6.M.M.M.M.6.w.M.N.6.M.N.M.M.aX9XrXM.N.tXtXtXM.eXrXrXsXzXzXxXBXMXU g y ..w.6.w.6.M.2.2.m.6.M.N.w.6.w.M.M.rXw. .6 I ` 1.D M                 ",
"        U.2 7  ._.7.e zXB.- U ; aXpXyX`.d.g.d.8XhXMXzXMXzXMXyXeX0XhXL 5.gXX.X.m.V.m.O.o.C.C.V.v.v.v.v.V.m.| L 5 < m.V.HXZ.Z.n.G.G.G.G.n.D.D.n.S.HXHXO.- g 8 6.....dXwXdXp.M.iX^ . ) e O 8.LXCXNXCXNXCXJXCXSXCXCXCXVXCXCXNXSXBXSXCXSXSXBXSXSXCXCXM.w ~ I NXlXN.rXzXzXBXBXM.eXM.M.M.9X9XM.qXpXiXtXaXtXlXpX( X . MXvXyXcXvXvXvXvXqXyXqXeXzXiXzXzXMXCXH 8 LXG.H.n.S.H.D.D.D.S.S.H.H.G.S.x.n.H.H.H.n.G.G.HXD.G.G.G.G.H.H.S.b.f 0 ..- 8.8...} ..| j O.p.N.pXlXI O O . tXzXxXzXkXxXGXGXkXBXBXkX6.B.6.N.kXtXeXxXSXGXBXdXzXzXzXSXkXxXGXLXGXLXLX7 + eXeX6.xXxXGXGXkXBXzXtXtXeXlXdXlXxXBXrXlX2.g NXM.M.M.w.~ A             ",
"      2 m 9XiXvX_.4.qXzXrXy g aX.. .i i ! / e &.9XvXMXvXqX>.B G Y e < > v < e { { 3.pX/ I  .{ ,.4.; X.U ..q . 6.B.kXC.n.d b.n.S.b.n.D.G.n.n.D.G.Z.HXHXkXf ..m.6.N.rXgXBXtXtX5.% t w.t O MXCXzXMXMXMXGXCXBXBXBXNXCXCXMXNXNXCXBXCXBXBXSXSXSXBXBXLXGX9.,.# dXN.N.lXlXtXm.,.5.5.5.5.5.6.p.M.M.tXM.M.M.B.M.m.pX4 I zXM.tXtXwXpXpXqXaX9XM.9X9XtXqXeX9XpX1.f v.l.x.H.S.D.G.G.S.n.G.G.G.G.G.x.b.n.H.H.S.c.S.G.D.S.S.H.n.S.n.b.n.D.C...< N vXiXM.M.g.p.p.} } 4.gXg 5 O 2.dXkXC.A.kXA.xXA.A.tXI 5 F M.[ zX6.8.X.g _ ..g.qX9XtXg ; X g 8.M.eXzXgX= qXGXxXtXlXlXgXzXgXBXzXgXN.X.p.N.N.wXtX9.6.g.M.N.p.B.6.M.M.6.e S         ",
"    + &.yXyXR ! i X gXgXM.t F  .q . w H q / 9 Y VXJXPXMXNXvX^ LXPXLXvX+ + 7 uXyX7.vXPXLXCXSXLXVXVXvX+ 7 <.7 8 m.V.C.HXG.v.l.n.b.n.G.HXG.D.D.G.G.G.D.Z.Z.o.g y ..,.,.w.w.w.e.& g w.w.6 % U SXlXN.tXtXtXrXB.B.tXN.M.aXM.9Xf.f.M.9XM.N.M.N.M.tXlXlX9.BXO 8 ` zXCXBXBXxXrXtXeXtXgXlXlXzXkXzXdXkXkXsXsXkXkXkXxX` 2.IXlXxXkXkXsXB.B.m.w.w.w.m.m.V.M.6.9.4 6 k x z.n.n.n.S.S.H.n.n.n.D.G.H.G.S.D.S.S.x.x.S.n.G.S.x.n.n.d z l.b.O.| N.* < VX8XM.N.N.N.g.p.g.g.N.,.- - ..V.m.p.O.O.| | h | I < > 7 / [ [ 0XwX4.[ Q 8.aXiXqXf.f.0.0.0.<.7.3._.qX# gXCX8XhXyX1.B R >.! L [ ! / / ( ^ &.T J R q w 5.8.6.....`  .2.Q # A     ",
"  S . vX0X0XwXyXvX+ 8.lX9Xw F q <.pXJXCXNXCXVXMXqXNXJX&.8XNX7.SXJXPXPXb + yXPXJXDXNXSXSXyXvXVXvXhXDXgXp.p dXy.| O.Z.HXZ.b.c b.n.n.G.G.G.Z.b.Z.G.Z.b.Z.Z.Z.A.V.m.o._ 6 & g u g _ w.w.y % - 6.M.B.tXkXtXtXrXrXkXrXtXtXrXrXtXtXtXtXtXrXM.lXzXM.rXlXpXBX% % X  .M.M.M.w.9X5.,.f.5.5.p.g.M.M.p.M.M.M.M.N.B.tXlX..g xXrXtXrXrXkXzXzXzXkXkXkXkXlXgXrXrX9.6 . s v.x.d x.n.S.n.H.H.H.S.H.x.n.D.G.S.G.G.c.x.S.n.n.x.n.b.z.r.v.x y.j f g.5 0 1.- f ; f f g h }  .g ~ . . . j U h f f h g e L + Y JXVXvX%.. VXDXNXVXMXNXhXMXMXMXBXSXSXSXCXSXNXCX8X= zXCXdXhXyX>.3.9.,.8.5.3.5.5.f.9.9.9.9.I.9.w 3 pX9X6.w.6.5.6. .,.D o     ",
"  > V uX0XuXf.! 7.B [ eXM.e 5 qXVXMX0XvXNXhXMXhXvXhX0XiXyXyXyX[.0XyXVXJX+ vXDXnXDXDXNXVXvXvXVXVXvXzXB.kXZ.FXFXxXZ.Z.Z.b.z z v.D.HXHXD.HXZ.b.D.G.b.n.n.b.v.C.V.xXxXkXV.w.m.` % 6 w.` g 8 % . 5 U 2.5.,.` .. ...,... .Q I F  . . ... ...M.M. .% 9.9Xw.# # 3 . . o 4 I Q iXiXqX3...X.{ [ [ >.4.8.3.5.1./ ,.5.w @ w w - q * 4 ~ 5.,...,.,.,.5.1. .` o - | k x s z x.H.c.S.G.H.n.H.H.H.n.n.H.S.n.n.d S.x.t.x.n.x.z l.n.v.x ; j a 8 * + <.[ 1.9.0.3.`.uXZX_.I.7.7.<.B X = P p.p.4.4.eX! # *.JXVXVXnX*.VXnXvXnXhXhXhXhXjXyXjXzXMXhXhXhXhXNX4.+ yXhXdXzXiXpXzXgXeXhXzXgXhXeXN.gXgXzXgXzXiXi @ 1...o.............t +     ",
"  + 0 0XuXqXqXf.I i MXqX6.- 7 hXMXyX7.hXyXfX0X[.DXvX_.vXvXnXnXfXVX).[.JX+ vXa.fXNXnXnXnXnXvXVXvXuXwXN.C.D.Z.v.y.n.n.b.v.c l.n.D.G.HXG.G.Z.D.G.D.b.n.l.n.b.b.C.Z.Z.A.V.m.B.kXB.... & 3 8 # # 5 , r o % 6 6 6 6 , % % - 6 6 y 8 8 6 - - % & 6 y K t . # % % r t r F F K ,.,.[ Q ~ Q I I Q ~ / ( H ) e 9 5 X , 5 r , @ # r J e , % 3 6 6 % 6 g y y - K O.; o x n.n.H.S.H.H.S.c.H.S.H.H.S.S.t.x.x.S.n.z.n.l.t.d r.l.v.l.y.u O - e * *.NXhXpXMXNXMXSXSXLXSXSXLXLXJXJXMXd.g.wXP eXSXLXB < ] JXbXcXnXnXnXnXfXcXnXhXnXhXfXfXfXfXyXfXvXhXhXvXg.+ vXyXqXqXyXyXhXqXqXyXwXN.wXNXwXdXdXxXgXgXMXJ # 8.5.6...2.2.2. .F % #     ",
"  + . `.[.`.hXhX_.f.qXgXqX7 i VXvXhXhXuX0XyXyXuXvX).{.fXfXfX|.cXnXnX|.VX> cX{.nXvXfXfXcXfX0XcXvX{.jXDXdXFXD.r.Z.n.n.D.Z.b.D.D.Z.D.G.Z.v.b.Z.HXHXHXHXHXD.n.z.Z.Z.v.Z.v.V.O.v.B.B.m.K @ @ # t 6 o 6 6 K ~ K U ` I K K K K _ .._ _ ` _ _ _ _ F t I t 5 o # @ t 6 % . . . 5 % % 3 5 e q e r 6 6 r 9 , , # # 5 3 # 6 , 3 D ) K F g F g F g y g _ 8 6 % % . . z l.x.z.n.n.S.S.S.H.n.n.n.x.z.x.d z z.n.l.n.S.c l.c z z v.v.y.l 7 ! 4 < 8XpX0XqXwXdXeXdXwXN.eXdXeXgXhXNXNXNXNXzXhXVXVXhX0 1 :.JXbXvXnXfXnXfXcXnXjXjXvXfXfXfXfXfXfXfXfXvXnXhXvX< VXfXfXwXfXwXuXyX0XwXf.0Xh.g.N.dXwXp.N.M.yXG 5 / M.p.2.2... .` e # 5     ",
"  + 0 0 v 9.[.uX`.hX8.8X8X4 q yX0XfXyX0XyX[.[.].s.].nXnXcXfXoXnXnXfXcXnXp (.fXoXnXcXfXfXuXfXfXuX[.wXNXN.Z.v.C.b.Z.b.b.Z.D.b.Z.D.D.n.n.n.b.Z.Z.Z.Z.Z.Z.G.n.n.n.b.Z.Z.v.Z.v.Z.V.V.V.B.` 6 ` F ,.` o # 8 F U _ K g t t g g F U ,.2.` 8 t & % @ % . X 6 6 8 6 8 y 8 8 6 6 % % 3 - 6 K 3 8 6 8 g , m m r @ % % @ % y g y - 6 y t t g g g U g 6 . . f k c d d x.c.l.x.x.d t.n.x.x.b.d z.b.z.z.t.z.x.d x.n.r.r.r.l.r.r.v.d ; } L >.# + vXuX_.fXhXyXhXyXdXdXhXhXyXhXnXjXwXjXjXnXDXnXfXvX2 1 ] AXcXcXcXfXcX|.fXcXfXcXcXcXfXfXfXfXfXfXfXnXnXuXVX< nXyX_.fXfX{.{.{.g._.8XwX_.g.g.8Xf.p.6.p.d.< $ - m.6.X.| 2.2.K % @ b     ",
"  + + R G N . B N `.8.9.5.e 7 yXyXfXhXuXuXfXfX[.|.].].fX|.fXfXbXcX].oXbXW.:.cXcXnXnXcXnXnXVXVXnXnXDXjXwXa l C.Z.r.r.n.Z.HXZ.v.v.b.n.n.D.n.D.n.z.l.x.n.n.S.n.Z.b.Z.b.Z.Z.V.Z.Z.Z.y.m.m.K % ,.M.` o . U M.M.M.w.6.6.6.w.w.6.m.w.2.2.2.2.2.U o O t _ _ ' ' ' ' ' ' ' k ' ' y % o F 2.m.w.o.o.6.w.V._ U 3 . . - 6.6.o.O.o.m.w.o.o.O.| O.o.o.U o s r.l.c.c.x.c.n.n.c.z.z.d d l.n.l.c z.S.n.z.n.x.t.x.l.z.t.b.b.r.c r.x j f p 5 5 < N ZXyXfXfXfXfXfXdXfXhXhXhXnXhXfXfXvXjXjXnXnXfX{.|.> 1 :.mXcXcXcXcXcXcXfXoXfXcXfXcXcXcXcXcXcXcXcXcXfXfXVX1 VX[.uX{.{.{.{.g.g.0X{.wX0Xg._.0Xg._.g.8.d.4 # 8 w.6.O...o.U - K # V     ",
"  + E 0XhXiX8X3.. i qX8X3.e 7 hXhXhXfXfXhXfX|.|.|.fXfXfXfXfXcXbXcXcXbXmX|.:.mXmXmXnXmXnXnXnXnXvXnXfXvXvX8X} j.C.j y.v.Z.b.S.S.S.S.n.n.n.b.n.b.d n.Z.H.S.x.n.n.Z.Z.v.v.C.v.C.Z.v.v.m.m.o.g 2.M.g % ..B.B.6.M.M.M.V.M.V.M.V.m.o.V.V.B.A.kXxX% j ' ' ' k k k k k k k k ' ' F # # - M.tXO.| O.x o.m.| t w.F g 5 U ..tXkXm.m.m.m.e.m.m.m.V.A.f & b.z.c.c.n.c.c.c.n.c.c.c.c.c.c.n.c.x.n.x.c.x.c.x.t.n.r.r.t.l.r.r.n.r.= 8 7 - e W 0 hXhXhXhX{.wXwXjXfXfXhXfXfXjXnXvXfXvXnXnXnXfXfXbXmX1 1 -.mXbXbXbXbXbXbXbXcXoXoXbXbXoXcXoXcXbXmXbXbXcXfXmX1 cX{.fXfXuX{._.0X{.{.{.wX{.wX8Xg._.0XM.8X0X< @ e M.6.6._ 8 - g 8 # +.    ",
"  : I._.qXqXeX8X# 8.qXp.>.7 * yXhXhXhXvXfX).|.|.oXbXcXfXfXfX|.mXAXbXmXmXcXV KXnXmXbXbXnXbXcXcXnXjXjXvXnXvXjXX.; a j Z.C.b.b.b.n.G.n.b.l.b.H.G.n.b.n.l.b.Z.G.Z.b.v.v.b.v.v.b.V.O.o.m.m.B.g  .tXB.w.w.tXM.w.w.m.w.B.m.w.m.m.V.B.sXV.V.m.V.sX% ' k ' k k k k k k k k k ' ' t O @ - aXX.| o.o.O.....sX_ V.kXB.o.a O.xXxXO.h O.o.o.e.o.o.m.V.8 ; Z.z.x.z.z.c.c.c.c.n.c.c.z.c.c.x.x.x.z.d d r.t.z.l.x.d d t.r.x c x l a 7 [ *.%.=.+ fXfXwXyX{.wXwXyXfXfXnXfXfXfXfXnXfXcXnXfXoXfXfXfXAXM 1 A mXbX%X%XbXbXmXbXbXbX%X%X%XbX%X%X%X%XbXcXbXoXoXbXn oXfXoXfXnX|.{.{.fXuXwXwX0X{.g.wXyXwXg.8.=.0 @ <.>.I t . 8 F g * $ $.    ",
"  > =.8XwXM.M.8.p hXhX>.{ * + fX0X{.hX[.fXuX|.].cXfXfXbXcXcXoXnXmXmXmXmX$XS KXbXcXbXbXfXcXcXbXbXfXnXnXfXvXnX{ P } O.C.x y.D.v.v.v.v.c l.Z.G.v.n.Z.z.l.v.v.v.z d v.v.O.k O.O.k O.h k O.| o w.w.o.w.w.w.M.V.m.m.w.B.m.w.w.w.V.m.V.V.m.V.B.lXg U _ ' ' ' k k k k k k k k g y % @ q ..U 6.| ....2.M.M.y | kXO.x v.V.o.j h h h _ U ,...2.U 2.F y s x z.z.x.b.z.l.x.x.z.c d x.n.x.z.d l.t.t.z.d b.t.b.d d r.l = 8 8 a 8 7 4.7.[.{.+ fX0X{.wXuXwXyXuXuXnXcXfXfXfXfXoXoXfXfXoXoXbXfXcXbXS M %XbX*XXX%X*X*X-XbXbX*X-XXX$X$X*X%XXX%X%XoXoXOXoXbX(.].bXoXfXcX].{.fXoX{.).].)._._.yXuX0X8.f.d.0 < < + @ g .._ ` 5 % $ $.    ",
"  > Y 7.M.M.g.{ e `.8.3.{ 7 + 0XfXfXfXuXfXfXfXfXmXcXfXbXbXcXmXbX%XbXbXmX5X3X6XbXbXmXbXbXbXbXbXbXbXcXuXuXfXa.f.eXp.V.C.y.v.r.r.d r.l.l l r.l.z.z.r.z.z.l.z z.b.n.v.v.C.O.f u j f y g ; o -  .w.V.w.m.V.V.m.m.V.w.V.V.m.w.w.m.w.w.V.m.m.m.tXo.- g _ ' ' k k ' ' k k j t g 6 , @ 5 X...h | o.o.O.o.m.g o B.O.x x l m.m.O.h h U h ....6. . .6 - . O s s r.l.z l.z d z.z.d z.l.x.d r.z z r.d l.l.t.r.z s a X O # - 3 * $ Y a.{.=.0 fX{.uX{.{.uXfXfXnXjXfXfXfXoXfXoXoXoXoXoXoXbXbXbXAXA S JX-X*X$XXXXX$X&X%X*XXX&X&X$X$X$XE././.XXXX%X}.oXmX|.V AXoXoX|.|.].].).s.].).].[.).g._.jXdXf.7.0 < 5  .O.w.e.| _ % @ . -.    ",
"  + W _.qXqXg.7 J 8.4.{ *.7 * 7.uXuXuX_.{.fXfX|.{.fX|.].(.'.'.'.}.}.}.$X3X2X6X%XcXbXbXbXcXoXoXcXcXfXfXfX_.[._.g.gXX.x C.v.r.b.b.b.Z.s ; b.Z.l.r.c z d d b.v.b.b.z z.v.O.; - . @ . . . . . ` tXrXm.w.M.B.V.m.w.V.V.w.m.m.m.m.m.w.m.w.w.m.B.tX@ o g U ' k ' ' ' ' ' _ U _ 6 4 5 F M.V.m.O.m.m.v.x e.sXO 6 m.x x x r.r.v.y.x v.| m.h 8 y 6 O % 6 y ; k x z z z z z z.n.c s c d d z.r.l.z z c r.v.y.y.; h j * # q . . W s.fX|.$.C uXuXwXuX{.fXfXfXfXcXoXfXoXoXoX%XbXoXoX%X*X%X*X%X*X-.S *XXX&X&X$X$X$X$X$XXX-X-X^.$X&X;X$XXX-X&X&X*XoXQ.i.Z R.-XQ.XX'.'.'.oX|.|.fX|.|.].a.)._.4.g.=.7.< # * .._ _ K g o . X @ -.    ",
"  > W 8XqXaXg.e ! 8.P i e 0 < 7.a.4.7.g.)._.a.7.s.=.u.;.:.:.:.-.i.i.-.E.T.1X~.;.Q.'.|.}.'.|.(.(.).s.).]._.0XfX{.>.X s x y.s c r.Z.b.z b.v.Z.n.c s l x c x v.x x O.x X . 8 a o.h k | V.V.O.6 2.6.` w.aXm.w.w.m.B.B.B.B.V.w.6.w.2.w.w.w.w.V.tX` o . # g _ K t y ; ; X . . . . . & h U rXB.m.O.O.o.| M.8 8 V._ k y.V.Z.V.C.v.v.x o.m._ F y . o I o & ; k e.v.x l.z.z.v.c s d z.x.z r.d d z.l.r.l f a a l } - - q [ 7.*.=.(.(.1 %.fX{.{.{.fXfXoXoX|.'.'.oX|.oX%X%X}.oXXX%XXXXXXXXX$XZ S $XXX^.$X&X-X=X-X-X7XKX7X&X=X-X-X&XKX7X$XXX$XXXXX.XR.>X@XQ.'.OX'.Q.Q.(.'.(.(.s.;.'.|.;.=.7.=.yXB < # . . . . + v J 3 3 L.    ",
"  : 9 8X3.[ = L 8XeXqXd.W < < B P d._.{._.{.{.|.fXfXcXbXoXoXcXbXbXbXbX-XT.2X@X|.oX|.oXcXoX(.'.oXfXnXnXnXNXnXhXvXhXyX8Xp.h s r.r.r.z r.x s s l s l ; ; h ; . u f y O - | V.v.b.n.l.n.n.b.Z.V.& t . 2.M.M.o.o.w.2.w.6...o...6.5.M.M.w.w.w.2.2.2.2.D . o r . : T ZXMXNXCXCXCXCXCXBXBXzXM.sXo.h | j | o.8 O - g | ..f | U 2.2.6.M.M.5.UX5.1.` 2.,.2.I g X O . ; x z l.z c z.d S.z c z s s l x x x . f j l o.g - 5 L { N N W +.C C 7.7.s.;.s.(.|.(.|.%X|.;.;.Q.(.}.Q.W.-.A A Y.Y.Y.Y.Y.R.R.R.T.#XY.E.Y.E.!.+X@X^..X.X~.E.!.@X~.T.>X>X>XT.,X2X,XR.~.~.+X@XA A ;.V V V V 1 ] E C C W *.=.0 # X H 1.3.5.9.tX9.- # A     ",
"  > < d.L F 8 ,.8XhXhXf.B 0 B fX0X_.yX_.fXuXfXfXfXfXOXfXfXcXbXAXAXAXAXAXT.3X6XAXmXbXbXbXbXcXAXAXnXDXDXDXnXNXfXvXvXNXMXhXeXtXy.y.b.d x c s l s l O.; ; h O - g y o O o.V.b.t.t.z.c.x.z.l.x m.X h kXB.o.o.M.M.M.tXrXN.tXgXeXxXlXBXxXxXkXkXxXxXsXsXMXpXX . pXLXPXPXLXLXLXPXLXPXLXLXLXPXLXLXIXB.. 8 m.U ; 8 . . 5 t w.aXtXCXGXGXGXGXCXBXCXGXGXGXGXIXBXIXzXtX9.@ s x z c d z c z.c l l ; a = O V.s x x j O 8 8 e O . < ).uXuX1 > + a.nXjXbXbXcXmXmXmXmXmX*XmXmXmXAXKXAXAXXX-X5X5X5X3X2X3X5X5X5X5X6X-X;X-X7XKX7X7X$X$XS E.&X&X&X=X#X#X=X=XT.4X2X5X#X#X#X#Xi.oXmXKXmXcXbX(.=.=.*.).=.^ e < # _.8XN.M.6.6.2.U 8 @ S     ",
"  0 # 7 L ! 3 ! 7._.g.<.e N %.0XfXyX_.[.{.).a.{.|.|.|.|.OXoXoXOXoXoXoX%X@X>X5X*X%X%X'.}.bXbXbXfXOXOX{.{.fXfX0XyX{.0XwXM.8XgXlX| l l s c s s f | 6 % . - e . 5 6 - o j O.b.b.t.x.x.x.G.n.n.z.v.v.xXv.s B.w.N.tXw.X.wXtXN.M.tXM.tXm.m.p.N.B.rXtXrX8XMX. 9XPXLXCXpXaXqXqXrXtXkXM.M.N.rXtXrXlXzX9.F | g rXqX8 MXgXgXMXlXrXlXMXlXlXrXlXlXlXlXxXBXrXzXrXdXzXzXCXBX` . O s x z c d x V.O X @ # ; O.l y.j . $ @ + < 0 V %.7.].a.< < < s.|.].OXoXOX'.OXOX'.OX'.'.XXXX}.XXXXXXXXXX&XXX&XT.2X<X.X&X-X7X-X7X7X6X7X&X.X.X~.!.~.=X@X~..X.X.X@X.X$X.XY.#X&X&X$XXXXXXXXX}.mXKXQ.'.'.'.u.(.cXnXvXY + + 8.g.p.X.| ....U 8 # S     ",
"  +.+ 5 Q ! D { 4.8.d.`.w 0 <._.wX0X_.{.[.{.{.{.|.|.|.|.|.}.|.}.}.XXoXoX$XR.3X&X%XoX'.%XbXbX%XoXcXcXfXfXfXfXfXfXyXwXdXeXdXwXeXgX8 f f a ; ; . . . # I.9.vX@.@ # . e X | z d n.n.x.G.G.Z.n.z.n.n.x.x ; O.B.kXtXrXtXtXM.tXtXM.M.aXgXeXtXeXN.tXkXdXpX9.< PXPXCXiXNXMXMXMXzXzXMXzXzXzXzXzXzXqXrXCXSX9Xg SXtX8 zXgXeXeX9XaXtXqX8XM.M.rXrXeXgXeXqXqXrXlXtXzXrXtXzXBX9.. . ; f h s ; . o @ . . . . f j j ..$ * q N 7.(.$.;.|.(.< < 2 ].oXoXoXoXoXOXOXoXOXOXOX%X*X*XXX%XXXXXXX$XE.XX&XT.2X<X.X$X7X&X&X@X.X@X.X@X.X@X@X.X=X@X.X.X@X@X@X.X@X@XT.T.@X.X.X@X^.^.^.^.^.XX}.Q./.Q.W.i.u.'.:.(.).* + `.7.8Xm.2...[ Q q @ S     ",
"  ;.+ e [ [ ! { f.0Xg.>.e e 4.0X_._.{.[.[.[.[.{.|.|.|.oX|.'.}.}.}.XXoXXX^.T.5X&XbXQ.XXoXbX%X%XcXbXcXfXfXfXfXfXyXjXhXhXyXgXqXgXzXg - h f = - # # @.`.vXZXuXZXr , ~ ` O f s v.v.z.z.z.c c x x z l.z.r.p.M.rXlXtXB.rXB.tXdXzXxXxXdXdXrXlXzXtXtXN.dXMXR B PXLXvXvXVXNXNXMXMXzXlXBXBXBXxXBXBXzXzXzXBXGX,.xXBX- 6.eXgXgXzXzXzXzXiXgXgXiXhXgXgXgXhXzXrXlXM.tXzXaXgXlXlXg . $ X . . 3 ` zXMXaX,.5.I - | h { + i =.:.;.(.(.:.uX7.< 1 < (.}.}.oXOXcXoXoX%XOX%XbX*XXXXXXX*X$X.X*X-X^.^.=X1X2X6X-X$X.X$X.X@X@X@X@X@X&X=X@X@X@X@X@X@X.X#X@X&X.X#X>X,X+X.X@X@X+X^.^.^.^././.}.^./.W.Q.i.;.$.(.=.+ + 8.f.M.p...{ [ Y > # S     ",
"  7.+ D f.g.>.,.8XwXeX0Xq e 4.0X_.{.{.{.uXfXuX|.|.|.|.oXoXOXoX'././.W.-.Y.T.#X*XmX%XoX%XcX%XbXbXcXcX|.oXfXnXfXhXhXyXyXeXdXdXwXzX .O 8 5 g 4 r G iXvXfXnXI.I.r , ` - . . ; s x j ; ; . - = ; ; y.s y.kXkXlXrXtXkXdXtXdXrXkXzXkXzXxXlXrXxXxXzXkXdXNX9 uXPXCXhXzXNXMXMXMXBXxXzXzXBXxXBXxXxXMXNXzXzXBXgX~ tX# f.gXgXgXgXrXlXzXgXeXeXrXgXeXgXgXgXrXgXlXzXzXtXlXrX5.U F I . # 3.MXzXMXBXzXqX8XtXM.e $ # 9 < *.=.=.] :.u.7.[.W > C < cXoXOX%XoXoXoXoX}.%XoXoX*XAX*XXX*XXX%XXX*X*X$X5X2X1X7X&X&X.X.X@X.X@X@X@X@X@X=X@X@X@X@X@X#X#X@X.X~.@X#X1X1XT..X@X@X@X@X^..X.X^.^.^./.Q.Q.i.i.;.;.] [.+ + + 6.m..._ U g e D # S     ",
"  :.$ q 3.g.8.g.eXgXgX8X7 e 3.0X0X0X{.{.wXyXfX|.oX|.|.oXoXbX}.A A A M S -.$.'.%XbXbX%XcXcX%X%XbXbXoXoXfX{.jXfXhXyXyXdXdXwXdXeXMXP * . I g . 4 + B *.`.0X@.9 % @ I iXaX9X/ ( O . - o h j s k ; k ; | kXtXrXrXlXzXtXdXlXtXzXxXdXkXkXlXxXkXtXlXgXdXgX5 JXPXBXzXzXxXMXzXzXxXxXBXBXzXxXlXzXzXzXgXzXlXxXxX. iX# 3.gXzXzXgXrXgXrXeXrXtXzXrXgXgXeXgXgXtXrXBXBX6.K K O t 5 pX..M.BXtXM.f._.9.8.8.0XqX .3 . + 2 $.u.$.:.A ;.).B . 0 0 < uXoXfXbXfXOX|.oX'.oXoXoX*XbXbX*X*XXXXXXX*X%XXX=X1XT.7X-X&X$X$X@X@X@X@X@X@X@X@X&X@X#X@X@X#X#X@X@X+X#X3X3X1X#X@X.X@X$X$X@X@X&X^./.E./.Q.Q.-.i.;.] ;.nX+ + Y g.X.h U | U g ` # J.    ",
"  $.$ e f.M.3...wXgXiX8X7 q 4._.0X8X0XuXwX0X{.{.{.|.].|.cXoXC M -.XXbXbX*XM '.oXbXoXoXoXoXoXoXfXfXfXfXfXfXfXjXjXjXjXjXeXeXeXeXzXP - ,.>.3.3.8.5.! D . . t ~ # . qXpXyXyXhXvX8XM.O & | s k s j V.% g ..tXlXlXdXzXlXlXgXlXzXdXtXdXrXrXB.dXdXeXtXgXpXq PXLXBXzXzXBXNXzXzXNXxXzXzXxXzXlXzXzXBXlXzXzXBXBX| 8.* 3.zXlXrXeXrXgXqXiXeXiXeXeXeXgXgXtXrXzXrXlXMXrX. - 8 K 9.F M.zXGXm.9.aXiXqXf.d.8.qX5.. R 0.`.).$.u.|.(.=.Y ! 3.gXdX< 7.oXOXfXcXoXoXcXoXOXcXbXoXOXoX*XbXXX}.XX*X'.XX7X1X#X-XXX-X&X$X$X$X@X@X@X#X&X@X@X@X@X@X@X#X@X#X#X=X#XT.1X1X#X@X.X.X@X$X@X@X^./.}.^.E.E.-.-.-.Q.$.(.uX+ : < i e L F  .~ 8 y % J.    ",
"  :.X i qXM.>.I 8XwXqX8X5 7 >.f.f.qX0XuXwX0X{.|.[.|.].oXoX'.V :.AXAXbXmXbXM |.oXOXoX%X%XoXoXoXfXfXfXfXfXfXjXjXhXjXyXjXhXdXeXdXNX7 P GXSXCXNXzXMXgXiXpX5.. 6 5 ~ f.qX7.`.uXpXpXCXM.- h u . - U & X ,.,.5.BXxXtXlXlXlXzXlXB.dXrXdXkXtXgXdXgXkXtXzX8Xw PXSXNXzXNXBXBXNXNXNXNXzXzXzXzXzXlXzXxXxXlXlXxXBXB...# J MXiXeXiXiXeXiXgXeXiXzXhXhXNXgXrXzXrXtXrXrXzXg # # # 3 @ 9.MXrXm.tXtXtXeXiXiXqXqXI w hXVXNXVX[.|.VXVXP P lXkXrXMX7 ] fXoXoXoX|.fXoXfXbXbXbXoXoX%XOXoXOX'.XXOXOXoX.X1X#X*XXXXX&X$X$X.X.X@X@X@X=X@X~.@X@X@X@X@X+X@X=X@X@XT.2X,X#X@X~.@X@X@X^.^.!.^.^.E.E.Q.Q.-.-.-.:.=.=.$ + < + > : . . . q H 9 U.    ",
"  $.X i f.f.,...qXgXiXqX7 e 3.qXqXdXyX{.0XfXfXuXfX{.|.|.|.'.cXoXAXAXbXbX%X1 |.|.oX%XoXoXcXbXcXfXfXfXfXfXhXnXfXjXjXhXdXdXhXdXhXMX= f.NXgXM.8.f.M.M.M.eXMXw.( w.MXvXqX`.`.`.uXqXiX2.8 ; y ; O .. .e _.iX3.,.tXzXzXrXzXBXzXlXdXkXkXkXrXkXSXkXzXxXBX( q PXNXgXzXNXBXzXzXzXNXBXMXzXzXzXzXlXzXzXxXxXzXtX .rXpXi P MXeXeXiXeXeXgXgXgXgXqXgXgXgXeXeXrXqXqXtXgXgXqX3 . . $ e CXzXzXzX6.N.dXzXgXgXgXzXU 8 8 g P E E B W R # ..m.V.m.B.P ] fX|.oXbXbXfXoXcXcXfXfXcXcXoXoXOXOXu.oXOXbXOXM Y./.*X%XXXXX.X$X.X.X$X$X@X$X&X$X@X@X@X@X@X@X@X=X~.@X#X2X1X#X+X@X@X@X@X^.^.~.^./.E./.W.i.i.i.:.P.:.R ! < . + # q L ~ K M. .w T.    ",
"  $.X L _.8X3.3.qXeXwX0Xq e g.f.g.>.{.hX0Xd.d.s.s.uX{.fX{.|.mXnXoXmXmXoXcX1 |.|.cXcXoXcXcXcXcXcXfXfXfXfXfXwXjXhXhXyXhXdXdXyXeXhX7 f.f.8.3.f.f.f.M.M.eXrX9.9XiXpX`._.`._.0X9XpXqX8 & y g & 8 5.9.<._.pXf.. - 6.MXzXzXzXrXBXrXlXzXkXdXlXxXxXzXlXzX1.3 LXGXgXlXzXNXNXzXzXMXMXzXzXzXzXzXzXlXzXlX3.M...U GXM.8 7 gXeXgXhXgXiXiXgXgXgXeXiXeXgXeXqXqXgXeXeXqXqXqX8X~ ~ # 4 xXB.xXBXN.M.tXtXM.N.M.9.1.3 0 9.qXqXqX9 . . - 2._ o.o...3.] '.(.'.oXcXoXfXOXoXoX{.OX].OXoX'.OX'.OXOXcX'.C 7 C bXoXXX}.XX^.$X&X$X.X$X$X$X$X$X+X@X@X@X@X@X@X@X@X#X1X4X#X.X.X@X@X@X.X^././././.E.i.i.-.-.$.V *.P ! 5 9XM.9.g.M.rXrX8 g - T.    ",
"  $.X Q 8X9.4.! g.M.g.f.e e 4.>.i { i g.4.P { *.P =.] 7.s.].fX|.$.(.oX'. XC '.bXcXbXfXbXfXfXfXfXfXfXfXfXjX0XjXvXhX3.7.>.g.N.N.hX* D 4.P >.>.3.3.g.M.N.9.M.pXyX_.`.`.`.`.9XaXiX~ # K ; & 8 8 7 %.*.`.aX/ # - . ~ rXlXzXlXzXkXdXkXkXkXkXzXrXlXrXzX@.: 0.PXzXgXzXMXzXzXxXzXzXzXzXzXzXlXzXzXlXlXtXrXzXrX6._ L X MXqXeXgXeXqXeXgXgXgXiXqXqXqXwX8XeXeXqXwXN.tXqXeXlXCX8 e IXxXxXkXrXrXtXM.N.tXf.qXiX&.*.vXNXvXVX9.# @ y _ O.V.sXrXD 0 ] s.;.].oX X(.|.s.'.s.'.|.oX|.'.OX].OXOXOX].;.V 1 |.|.}.XX%XXX%X^.XX$X$X^.@X$X&X$X@X@X@X@X@X@X@X@X#X1X1X#X.X@X@X@X^.^.^.!.!.~.E.E.E.E.A $.A C [.P * 5 qX8.8.p.2.6.5.q t 5 T.    ",
"  +.$ i 1.3.>.[ ! f.f.f.q 7 P ! } P P { i { 4.{ ] ] ] =.=.] =.=.$.=.V V $.V :.oXs.{.cXbXcXcXfXfXfXfXfXjXjXhXvXhXqXf.0Xf.P 3.gXgXX qXqXf.8.8.f.M.6.M.2.rXMXMXyX0XqX8XiXqX9X9.F 8 U ..| ..y K H [ R 9.9.q % 3 - . ~ BXBXlXdXB.dXdXkXrXrXdXkXkXdXlX1.: . LXBXzXBXBXBXBXBXBXzXzXzXzXzXzXzXzXgXlXzXzXxXzXM. .L $ 8XhXhXhXgXzXMXhXMXMXNXgXhXhXzXhXgXhXhXhXhXhXgXgXgXMX3.g GXzXlXzXlXrXgXtXB.tXN.zXBXg.4.vXhXyXNXMX. o ..e.e.m.A.tX# w 7.].C C |.mXcX|.|.{.{.;.oXbXOX{.fX).{.fXfX].p $.] =.OXoXoX%XXX}.}.^.^.^.^.$X$X@X@X@X@X@X@X@X@X@X@X#X>X1X#X.X~..X^.~.~.~.!.!.Y.E.E.E.-.-.-.:.C 0 < 5 $ [ 8X4.5.,.,.1.F w 3 T.    ",
"  +.# 8XaXaXM.f.8.,.9.9.J 7 { ,.{ 6.g.8.8.g.g.g.h.h._.{.d.=.s.d.).).s.;.] p V C p ] =.].].'.{.{.s.s.).d.d.a.4.=.*.. >.9.i e / F O g D 3.....3.8X6...5 Q qXqX8XiXiX8XpX9XQ . . g t . g 2.. X 1.vX9.9X, . . . - . g CXrXNXxXBXBXxXBXkXrXrXN.B.N.tXaX. . . rXtXrXtXsXlXzXlXrXrXtXtXtXtXM.M.M.M.M.6.p.M.f.>.4 - w iXpXaXaXaX9X9X9X9.7.9.8.3.3.>.,.3.3.3.3.7.7.3.7.0.R 5 MXaX9.rXhXhXyXyXqXwXg.hXSXgXg.yXyXyXpXVX1.8 w.e.w.e.w.w.6 R 7.7.+.=.uXvX7.7._.wXuXuXfX|.d.fXjXfX{.jXfXs.} P } h.j.h.u.u.(.Q.W./././.$X$X@X.X.X.X@X@X+X+X~.~.~.#XT.3XY.Y.k.Z Y.Y.Z A S Z L.E.A Z -.W.;.M 1 2 < . Q f.g.~ .... .` H v , >X    ",
"  B J NXCXGXBXzXMXzXqXiXJ - 3...X.8.>.} { } [ ! 4.*.=.=.p P P ] P =.s.*.$.1 > W 7.d._.7.0 p i P 7.7.8.7.4.g.f.f.8X3.4.[ L 5.L 9.{ | 5.2.6.m.9.,...8 X 3 8 I ~ 3.g @ K ~ `  . .M.BXBXBXxXBXCX@ Q CXCXBXBXMXMXzXlXlXtXN.BXGXCXGXGXGXlXM.MXBXM.aXMX8.>.zXGXGXSXCXBXBXsXw.tXaXzXgXaXzXgXMXNXzXMXzXM.gXeX[ L e 7 - . J aXpXpXhXhXhXhXhXhXiXqXMXNXeXqXqXqXqXqXqXqX9X9.o X K ` ,.3.1.8.9.7.8.8.,.9.f.gXqX0X_.8X9XiXpX2.` ' ' _ h 6 O / i e Q J { } a i 7 p L &.] P i P [ i p P i p X.} x y.j.y.y.y.l P V V S A A Z A -.Z A Z k.k.k.S Y.T.>XT.Y.Z Z A A Z Z Z /./.Q.}./.-.'.-.u.|.;.2 < < 4.0Xf.g.M...~ 1.( ( w 5 >X    ",
"  0 e 9XtXBXBXgXrXtXtX8X! 5 i e e e q ! i U P P * 7 p B B V *.=.=.uX[.[.).P < =._.hXjXfX7.+ * NXSXDXNXNXNXDXSXNXNXDXNXMXeXqXhXf.F X.zX|  .F 8 5 - 6 3 . ( . F I zXM.zXBXGXBXGXGXGXGXSXBXLXGXX U GXBXxXzXzXzXdXzXlXtXrXrXzXN.N.tXtXtXgXzXzXzXzXNX. qXPXLXLXLXGXGXGXBXxXGXSXzXMXSXSXBXBXSXLXGXGXGXGXBXBXpX< N * _.CXJXCXSXSXDXSXSXVXNXhXhXVXMXhXhXhXvXhXVXNXMXiXzX5 ` 9X6.tXlXgXqXqX8.qX8XdXlXkXBXBXBXBXBXBXzXzXNXMXMXeXw.F X 8.SXeXp.p.4.p.N.B.dXwXdXN.M.N.wXg.g.. # g a a O.v.y.r.l t.r.y.j.j.j.y.j.j.j.i.] u.^.E.E.}.-X-X-X*X&X=X@XM S &X@X^.$X$X$X$XXX$XXX/.}.}.'.C :.|.cX7.< 2 0X4.{ g.M.8. ./ 3.1.H 4 3X    ",
"  1 * ..,.M.tX6.2.p.qXM.,.3 - i @ < e ,...j - L &.*.=.s.).].].].).s.'.=.=.B < yXvXhXhXyXfXL * { NXhXhXdXdXg.wXwXwXwXwXwXwXqXyX>.N ! g - . . - - . o O e ` pXgXzXBXkXkXkXrXkXlXzXlXzXlXBXCXM.O rXxXlXrXkXzXrXtXdXdXtXtXzXgXzXlXlXrXgXeXrXlXlXdXCXq w GXgXiXSXzXeXiXzXgXgXeXwXhXhXhXhXNXeXhXeXhXeXzXhXgXhXN e < hXSXDXSXVXNXMXvX)._.fX0XuX).a.fXfXuX0XyXnXyXyXgXzX4 MXqXM.6.M.dXtX1.5.lXzXxXxXxXxXxXxXzXzXlXkXlXxXzXMXzXMXaX# ,.NXs.{.jX{.g.p.p.dXeXMXhXwXN.p.p.dXg.8 8 p - h O.x r.y.C.y.r.y.b.b.j.b.F.j.j.C -.Z /.XXXX-X%X*X$X^.XXXXS L.~.Y.~.~.^.^.^.^.^.^.^./.}.Q.A '.'.|.(.2 < E E >.4... . .>.8.1.Q 6 1X    ",
"  < # g X.6.6.6.M.M.tX8.9.@ g I $ @ 7 g X.7 3.`.`.7.s.s.).(.(.).].].].].].1 < JXhXfXyXyXfXhX{.{.hXhX0XqXeXqXyXeXqXqXqXwXdXdXyXhXP - * O # 8 o g h M.9.lXzXzXlXlXzXkXlXlXkXkXkXlXdXlXlXzXgXI X LXxXlXkXzXlXzXzXrXrXrXlXlXrXrXlXzXtXrXgXzXxXlXeXgXq ! NXzXMXhXMXNXNXMXhXhXzXzXhXhXzXMXNXMXMXhXzXMXhXhXgXhXE < < nXVXnXnXuX{.s.:.$.vXnXuXuX[.fXfXfXfX{.hXhX[.uXiXpX$ qXzXzXM.~ 5.5.9.m.tXkXrXlXlXzXlXlXdXrXrXrXlXlXlXrXdXlXpXq W JX).|.fX{.N.B.C.m.N.N.h.N.h.} g.N.dXM.- 6 8 f l y.x r.b.b.b.b.r.b.b.j.j.j.j.j.$.A W.}./.$X$X$X$X$X}.^.S -X@X+X^.~.^.^.^.^././.^.}./.Q.W.}.(.(.(.< < ] 4.<.3.{ >.&.>.[ F F 6 2X    ",
"  0 7 U U X.6.6.6.2.p.X.2.w - # $ # $ - D 3.3.4.d.7.s.s.).).).).].].].].uXW 7 VXuXyXyXwXyX8XyXqXfXfXyXqXqXqXwXwXwXwXwXwXeXwXqXhXJ g  .% o . 6.tXV.xXlXrXtXtXrXkXlXkXlXkXdXrXrXlXlXlXlXlXMXqX- GXBXxXkXxXgXlXzXdXdXxXzXlXzXzXgXdXtXtXgXzXdXtXdXgX5 >.NXMXzXgXzXzXzXNXgXgXhXhXMXMXMXNXNXMXhXhXhXhXhXhXgXhX[ 5 Y LXDX|.oX'.(.cXfXnXvXnXwXg.g.hXhXhXhXhXhXhXfXhX0XQ D qXtXtXaX9.9.9.9.M.M.m.N.M.N.tXrXrXrXrXrXpXrXrXrXlXlXgXrXL ! LXnXuXg.g.p.p.N.p.p.g.8Xf.h.s.h.g.} N.g O ; | v.b.y.r.y.y.b.b.b.b.b.r.j.j.y.} V A Q.}.}.$X%X*X}.^.}.^.M $X^.^.$X^.^././././.^.^./.Q./.}.Q.u.(.'.> > %.3.&.&.] ! [ / / I J 8       ",
"  0 8.g.2.U 6.M.X.X.p.p.,...8 - . O o e _.d.7.).).a.s.s.).).).).).).].].[.7.i VXuX0X0X_.0XwXwXwXqXqXqXqXhXyX0X0X0X8XqXiX8XwXwXgXg # 6 6 O V.kXkXlXlXrXrXlXrXlXkXlXdXrXdXrXgXdXlXrXrXlXlXMX9.g BXlXkXlXzXdXlXxXzXrXzXzXlXlXxXrXtXtXM.rXlXzXtXeXgXi 9XSXNXgXMXMXMXMXNXNXMXMXzXzXMXNXNXNXNXvXhXhXvXMXMXhXhX7.< B JXfX$.|.cXs.7 nXLXDXDXjXg.{.NXVXVXd.! 3.MXhXhXhX7.hXgXm.N.tX9XM.9X,.6.M.N.M.M.N.6.tXM.N.tXqXqXqXaXeXgXkXrXzX9.5 CXp.g.8Xg.N.N.N.p.g.N.M.g.g.p.h.N.p.X.a g = ; l l r.y.v.y.v.v.b.b.j.r.j.j.p p -.i.oX}.XX%X$X}.}.^.^./.A }.^.^.^.^.^.^././.Q.Q./.}.Q.Q.}.|.(.s.s.$.> N 7.8.8.5.{ { ~ ~ I Q 4       ",
"  0 ! M.M.6._ U g g o.6.5.5.6 X # Q D / 8.=.W 7.`.a.7.s.a.7.7.).).).).s.).%.i NXyX_.0X_.wX8XwXyXqX8X8XwXqX8XwXwX8Xg.8X8X0XwXwXiX7 # g K y xXB.sXsXsXrXrXlXrXlXlXlXgXdXrXeXgXgXgXgXzXlXzXMXaXg BXlXdXlXdXeXgXzXdXrXzXzXdXzXzXrXrXeXrXrXdXgXgXgXgXe 9.NX8XzXNXMXNXNXCXVXMXMXMXMXhXNXMXMXNXNXvXvXMXhXMXhXMX[.1 uXJXuX] ] :.$.u.|.jXDXDXvXhXNXVXCXvX5 3 . / MXhXvX_._.MXM.m.N.M.aXaX....g.M.M.N.M.6.M.zXrX9XaXaX9X9XaXtXtXtXzX6.# MX9XtXtXdXhXwXN.g.p.p.p.p.p.y.y.y.h | - K e P a j l l l O.y.y.l l y.l l P p V '.'.'.'.}././.}.}.}.^.A Z $X^.^.^.^././././.W.W.Q.}.}.(.(.'.(.;.;.7.< + <.,.6.,....... .F I 5       ",
"  B L ~ F t e 8 8 g t 8 8 e . i 8.f.d.7.8.7.4.7.d.a.7.7.).a.a.7.7.7.).7.`.=.L MXqX0X0X0X0X0X0X0X_._.0XwXg.8X8X8XM.8X8X8X8XqX8X8X5 * e . - kXkXtXrXrXlXlXrXrXrXgXgXdXlXlXgXeXgXgXgXxXgXzXMXzX8 BXrXkXdXdXgXeXzXzXzXzXzXgXzXlXrXdXgXzXgXp.wXqXM.iX/ 1.MXMXhXNXVXqX9.qXSXVXvXMXNXNXNXnXnXNXnXnXnXjXhXhXfXvXa.1 JXDXcXnXfX{.{.AXcXC ;.fXvXfXfX_.yX5 . 7 e . iXvXnXfX0XqX8.6.9XrXf.f.M.f.9.iXrXaX9X .9.zX9XqXqXaXaXtXtXaXtXtXtX,.- NXMXpXpXMX8Xg.p.N.g.g.p.p.p.m.V.y.O O g M.3.hXP } a } a a j a a a a 7 a } V (.(.-.Q.}.}.}.}./.}.}.}.M A XX/./.^.^././././.Q.Q.Q.Q.Q.W.Q.(.(.u.7.7.< < <.! L [  ./ ` / ` D 1       ",
"  V w t g U _ ` ` .. .I % . i 8.8.=.7.7.7.7.3.7.d.`.`.4.=.d.`.`.).d.d.).`.<.w MXeXiX8X_._.0X0X{._.0X_.f.8XwX8X8X8X8X8X8Xf.8X0X8X* * O o 8 kXkXrXrXrXdXdXdXrXtXrXgXlXtXgXhXgXiXgXgXeXgXeXpX,.8 GXdXdXgXBXxXgXrXxXxXzXBXzXlXlXeXrXlXeXdXp.N.M.N.hX<.D NXNXVXVX! * . . 3.CXvXvXvXnXNXnXnXnXnXnXvXjXnXfXfXnX0XN JXVXnXnXVXnXVXVXnXbXbXmXvXfXfXhXuXd.*.P hXd.d.8.vX4.0 e iXgXeXgXzXzXgXgXgXzXrXMXlXtXlXrXlXlXrXrXtXtXtXtXaXaXqX1.- MX<.`.uX0XCXNXMXiXf.yXg.f.M.dXm.O.N.tXN.h.yXvXB q 6.h.} 7 { s.} } } p p *.s.(.W.;.(.(.'.Q./.XX}.Q.Q.M S '././.Q././.}./.'./.Q.W.W.;.;.;.u.W.s.s.7.< 9 < 5 5 3 3 9 4 e q # M       ",
"  :.+ # O o o . . . . o % % 8X_.7.7.7.`.8.7.7.7.d.`.7.7.(.).`.d.d.d.`.`.`.[ ! gXqXwX0X0X0X0X0X8X8Xf.f._.0Xf.8X0Xf.M.8XwX8Xf.0Xg.@ . # o m.kXB.rXkXdXrXeXeXiXrXrXiXeXeXeXgXgXgXgXgXiXdXiXyX>.e SXhXgXzXBXzXdXeXgXNXzXzXzXlXlXgXtXeXwX8XqXwX..N.gX<.N NXMXvX< $ 4 9 4 . SXNXNXMXnXnXnXnXnXnXnXnXnXjXvXvXnX=.B JXDXnXnXbXbXnXcXcXnXfXbXcXfXfXuXfXnXvX_.hXNXvX[.0XB + 0 LXMXqXqXeXqXqXqXeXiXqXqXgXkXB.tXlXgXrXtXtXtXtXtXrXeXiX>.3 pX_.*.0.0.I.9X0.I.[.uXuX_.3.X.g.gXSXdXg.4.yXd.< $ P g.s.{ ] s.).g.%.] $.:.7.(. X(.(.Q.'.Q.Q.}.%XQ.Q.M M }./.Q.Q.Q./.}.Q.(.Q.W.Q.Q.;.;.;.W.(.;.7.E < 9 e B e e w 3 5 # 5 3 E.      ",
"  :.+ X H / 1.,.3.9.9.R @ @ 8.8.a.7.7.7.`.8.7.7.7.7.0.d.7.*.7.a.a.a.).a.d.4...qX8XN.M.M.0XM.g.8X8XM.M.wXf.M.8X8Xf.f.f.8Xf.f.f.! . F % o rXB.B.rXdXdXlXgXgXgXzXgXeXtXeXeXeXdXeXqXdXyXhXhXyXyXi NXhXdXzXgXdXgXdXhXMXhXgXgXgXgXgXeXeXqX8XeXdXdXhXNX8.i CXMXiX@.+ + X . N VXNXnXvXvXnXnXvXnXvXnXnXnXfXcXcXnX;.C PXJXmXbXcXbXbXcXcXcXcXcXnXnXbX;.fXfXcX|.{.fX{.].vXyXv < MXNXqXhXqXqXeXeXqXqX8X8.M.rXtXtXtXtXtXaXtXtXeXrXrXtXdX..8 pX_.8XiXiXVXvXI.@.E v b 0 < P qXyXhX3.8.`.`.0.D # . L >.! = P ] W %.*.=.$.;.;.u.'. X(.(.'.'.Q.u.W.Q.V 1 |.Q.Q.Q.Q.Q.Q.Q.Q.Q.W.W.Q.-.:.;.;.;.=.E < : < G N D w 7 N D 5 5 3 #X      ",
"  :.X 5 pXxXBXBXBXCXCX1.X @ 8.d.`.7.7.7.d._.8X9.8.f.8X0X_.3.7.d.7.).).d._.f.7 zXqXM.f.8X8XM.M.f.f.8X8X8Xf.f.0X8XM.f.f.g.g.g.p.7 H M.- . B.B.kXkXkXgXeXgXzXlXgXgXgXgXeXgXhXhXgXhXhXhXhXyXvXnX7 NXdXdXhXeXhXdXhXMXgXgXhXgXeXgXeXgXgXN.hXzXeXMXgXeXf.0 MXdXhXiXhXVXY <.VXNXvXvXnXvXnXnXvXnXnXnXcXnXcXcXcXmX;.n mXAXmXbXcXcXcXbXcXcXcXmXmXbXnXcX|.mXfX].|.fX).[.vXNXhX* . vX0Xf.qX8XM.f.9.8XqXqXg.,.6.g.M.M.g.qXqX9XwXeXkXsXrXU - CXiX`.`.`.0X`.0.0.<.1.w i @ 5 8X0Xf._.f.9.3.9X<.# # X >.3.4.7.=.B =.*.*.a.].;.$.(.|. X'.(.:.;.u.Q.Q.$.1 W.Q.Q.(.(.(.Q.Q.W.W.P.;.;.;.$.V V V 2 > + $ < i J J H &.&.q 5 * 3 >X      ",
"  ;.$ 4 M.kXrXtXrXrXrX[ @ * d.*.] d.d.5.g.M.wXf.8. .g.5...5.M.8Xf.d.g.&.d.! * eXeXM.M.wXM.M.wXM.p.qXqX8XM.M.g.f.8.4.f.[ P >.4.f.f.D r  .m.B.B.tXdXgXgXzXzXzXhXhXhXgXhXvXMXhXhXvXhXhXhXfXvXfX1 DXfXhXhXnXNXNXNXhXyXhXgXhXgXzXzXhXgXhXhXzXMXMXzXhX`.< X 8.} gXhXSXvXvXnXnXvXnXnXvXnXnXnXnXnXbXnXbXcXmXbXmX:.1 $ KXAXmXmXbXbXbXbXbXbXmXmXnXmXmXmX:.(.|.|.|.|.[.hXyXiX4.# &.qX8.f.f.aXzXCXMXhXgXiXqXM.zXhXhXhXf.8X0X[.d.5.9.w.g q qX8.(.:.:.@.*.*.0.^ &.<.3.8 % F wX4.*.4.s.4.d.8.* $ $ 0 E *.*.*.0 ] =.=.{.[.(.(.(. X(.(.P.;.'.].'.Q.;.1 M '.(.W.'.(.(.(.W.;.;.;.P.;.:.$.:.$.E V : # 0 w e 7 q 5 . . . X e 2X      ",
"  :.X 5 ....X.V.V.N.M.>.$ N p.6.h U p.p.O.O.| } 8 . . . . - 5.M.~ ..g.9.# @ . . w F X.6.p.6.6.,. .>.>.! 8 4 - e 7 7 - - ~ f.5.3.F # 5 t X U U 6.g.g.p.8.g.g._.{._.d._._._._.uX[.[.[.[.`.`.V p nXuX[.).{.yXdXyXf.8Xg.8.3.p.g.g.g.g.g.8.8.g.4.g.[ 0 < 5 ! qXhXhXMXyX8.nXhXfXfXuXuXfXfXfXfX|.oXoXoXoXoX%X|.$.M 2 |.|.|.|.cXbXbXmXbXcXcXcXcXbXmXfXa.] (.cXfXa.cXnXvXZX7.i P P 8.3.>.I ! 3.1. .,.qXqX&.pXuXvX0X<.<.0.7.d.R . e 3 r &.] +.+.#.<.&.&.*.@.<.I.] ! 7 8 p.g.4.{ >.8.P i + # w + 7 N W Q B E W E W W +.W $.V C +.+.$.:.:.$.$.$.n b +.+.V +.$.+.W V C V C C 1 b *.7.*.*.%.E : @ $ . X 7 G J F H J 1.Y.      ",
"  $.. i f.g.X.X.m.M.qX3.$ D m.m.B.y.l y.y.x l l h | U # o . . . . 8 g g # X 8 ..t % ,.p.6.6.N.M.2.6.dXdXm.m.X.9...2.M.8 ,.g g F 6 @ .  .9.3.MXNXMXVXVXDXDXVXvXfXyXnXDXNXNXnXuXfXnXVXDXDXDX1 . ].fXhXcXuXuXfXhXfX7.0XhXhXiXiX8X8XiXpXgXgXMXzXqX_.@.: / d.J [ &.Q . . 0 `.DXnXfXuXcXbXnXcX|.|.'.|.oX|.}.;.:.1 '.mXoX|.cXbXcXcX|.fXfXbXfXbXyXfXDXVXwX0XDXhXhXhX[.I.Y 9 . Q MXCXBXBXMXzXzXCXBXCXBXMXM.w.zXlXtXtXtXN.M.tX9XM.5.@ * 7.d.8.8.1./ 1.^ ^ ^ @.&.@.P P { { { g.iXvXg.h X.| h _ K 5 w Q 4 5 i P P P R G Y Y B B B C B B 2 0 b 0 1 1 2 0 C W B b 0 0 N < + > + < $.7.8.7.`.7.$ + X 3.>.,.9.5.9.9.5.M.8 T.    ",
"  $.X ~ rXN.V.B.B.V.N.>.. @ 2.6.A.y.O.l s s s y.l | 8 X # K ` ` t . . . o ~ w.aX9.9XeXg.} } { p.8XM.wXMXlXxXgXgX8XwXSXg.8.hXiXeX9X7 L LXGX8XdXMXhXNXDXNXDXDXnXfXfXnXDXSXDXnXfXcXbXcXmXfXcX1 =.bXmXDXJXJXJXVXnXVXfXVXDXJXDXDXVXnXnXhXhXBXVXSXSXVXZX$ vXVXhX_.8.8.8.7.7.JXDXDXDXmXDXDXmXAXAXmXAXKXKXKXmXKX}.1 %XJXmXmXbXbXbXbXmXmXmXmXmXbXnXDX8.hXhXwXdXhXSXNX! q # # iXLXGXSXBXBXCXBXNXSXCXzXdXhXtXM.tXlXlXM.tXsXlXxXlXxXsX| g.zXeXg.M.M.N.qXeXiX9X0X%.d.[ U p.p.g i ..g.j h y.} h 8 y g y - . 5 U 4.>.8.4.*.E { W *.4.*.{ 7.`.[.a.*.Y 1 0 ] %.*.=.*.&.*.%.b < 1 : 0 *.4.*.{ ! f.< + @ f.,.....,.,.6...3.J S     ",
"  +.+ ~ gXgXm.6.o.2.M.8.@ 8XlXo.v.c l y.s h | h h O . - 2.M.m.w.V.2.o o o K w.w.6.Q J 3.M.M.,.8.d.f.4.3.g.f.wXN.8.g.d.0XuXfXg.yXvXN ^ LXBXwXhXjXvXjXnXjXjXnX{.fXnX|.oXfXfXcXbXcXbX%XoX%X%XC JXAXoXoXcXcX%XOX'.|.oXoXoXOXOXoXoXfXOXfX|.fX{.fX_.VXJX< VXDXVXVXSXDXDXDXDXnXnXbXbXcXcX%XoX%X%X%X*X-X%X*X*X*X$XM M XX$X%XXX}.XXoXoX%XoX%XoXoXcXcXC ).0X8XwXM.N.gX8.7 0 < PXSXMXMXMXhXMXMXgXiXqXpXiXiXrXzXtXpXpXaXeXrXtXM.B.sXsXo.B.GXzX2..._ w.rXqXiX9X5.3.4.o.X.6.i L L } h a h f y - # O % ; - f X.} } p.p.6.} X.X.P U p g ! 3.4.>.4...[ P p 4.4.=.{ ! P P 0 N 0 0 < 0 =.*.g P M.qX7 # * 9. ............. .H M     ",
"  C : I N.N.N.M.6.9XaX[ @ aXrXf y.v.j O l x O.6.F % $ ` w.e.e.O.m.A.8 . X g 6.o.6.~ @ M.pXM.f.8Xg.f.f.f.f.g.0X8X8X8X8.0Xa.0XwXyXVXN P PXLXyXhXhXjXjXnXfXfXfXfXfXfXcXoXcXbXoX%X%X*X%XoX%X7XR.-XbXoXbXoX*XoX%X%XbXbXbXoXoXcXfXfXbXfXfXfXnX{.nXVXvXVX> DXfXfXnXvXvXfXfXcXbXbXcXcXcXbX%X%X*X*X*X-X*X*X&X*X*X-XM KX*X-X$X%X%X%X%X%X%X%X%XcXbXbX'.< 7.d.yXgXtXeXf.>.i 0 * hXMXVXMXMXvXvXpXiXiXpXpXpXpXiXpXpXpXpXpXiXeXrXpXlXlXzX6...lXlXtXtX9.9XpX9.9.tX9.~  .g | e.O.k k O.x k k _ h - # # # - O.O.X.{ X.4.X.4.{ X...} U ~ 4...3.U h 6.4.X.{ i L <.4.*.{ ] W %.B Y W 9 B &.*.4.5.M.9Xe # @ w.5.,.........`  .I 0     ",
"  < 3 D M.tXm.M.tXtXM.q X ~ rX| O.y.O f j j | B...% g M.w.m.m.m.A.kX6 o X tX6.6.M.6.@ ` 6.tXM.9.8.g.8.8.d.d.d.f._._._.g._._.wXqXVXN N PXJX_.d.[.uXjXbXoXoXoXoXcXoXbXbXoX%XXX*X*X*X*X*X*X=X1X#X-X*XXX*XXX%X*X*X%XoXbXbXbXcXoXfXfXbXfXbXfXnXjXnXcXVX1 JXbXvXvXbXnXcXcXcXcXcX%XcXcXbX*X*X*X*X*X*X*X*X&X&X=X@XU.$XbX*X*XXX%X%XoX%X%X%XoX%XoXcXfX2 p _.0XM.9.8X8X8.{ * < P JXNXhXvXvXpXpXiXyXpXpXiXiXpXpXpXpXiXyXiXqXiXlXpXMXMXQ L pX&.`.ZXZXJ ) qX9.5.M.4.3.X.h k k u u e.O.h h f @ % 8 j s s l j p U 6.6.g.M.} U ..{ { } ..6.~ ....F U X.3.* J <.&.*.3.&.&.3.<.^ ^ e G R ! f.qXM.M.i $ 3 9X2.,.........,. .F 0     ",
"  9 + F 6.N.B.B.B.M.M.! $ #  .U ; h f o.h g y g % % 6 ..2.o.o._ ..U . . # aX2.w.M.w.# 9.tXtXf.g.8.8.7.7.d.f._.f.8X8X_._.g.g.yXyXVXN i PXDX).].|.cXcXfXoXcXbXoX%X%X%X-X*X*X*X*X*X*X-X*X;X#X1X#XAX&X$XXX%X*X*X%XXX%XbX%XoXbXoXcXfXfXfXfXnXnXjX{.[.[.1 VXnXcXvXbXbXbXcXcXcXcXcX%XbXbX*X*X*X*X*X-X-X*X-X&X-X#X1X=X*X*X*X*X*X*X*X*X%X*XbXcXcXbXmX1 1 V 7.4.4.4.>.3.4.e 7 9 LXvXyXiXpXpXpXiXiXpXyXiXiXpXpXpXpXpXyXiXpXgXpXgXzXMX,.L CXI 9XCXMX` 6 F 9.9.M.qXeXN.V.b.b.v.k f | U - 8 x v.l.l.l.r.d c s l l y.m.| | ..~ | U X.p.X.4.L { ! ! 3.{ $ i 4.&./ &.! >.>.[ ! e i J J 5.f.qXg.M.L X @ 9. .............2.K 1     ",
"  #.X ! 9.xXkXA.B.tXaXpX# @ . 7 U o.M.6.2.2.` ..e O . . . . . . . . 6 y - ..5.6.9.6. .9.qXqXf.g.f.8.{ <.d.f.f._.0X_.0XuXa.a.yX0XvXY 0 LXVXuX].fXnXbXoXcXoXbXOXbX*X*X*X*X-X-X;X&X;X&X&X;X#X1XT.KX-X-X&X&X&X$X%X*X*X%X%XoX}.oXmXcXfXcXfXfXnXnX;.fXcX2 nXcXcXcXcXcXbXbXmXbXbX%X%X%X%X*X*X-X-X-X-X-X&X-X-X-X#X1X6X-X*X-X-X*X*X*X*X*X*X%XbXcXbXmX2 1 p p ] ] { E &.<.N [ q vXyXpXhXiXpXpXpXhXiXiXiXhXhXhXpXpXiXiXpXpXhXlXzXzXBX| ..GXzXlX6.U 2.5.F 1.9.3.M.m.O.y.l.l.v.V.6.,.- & v.b.x.c.c.c.t.t.z.c.x.x.z.r.s a h 8 U | p.o.U L ~ [ I ~ I 5 * L [ ~ L i J ! P ! / ( R H H  . .3...5.Q X @ 9..... .....U 2.` K M     ",
"  +.X f.9XzXrXB.B.rXpXpX5 # 3. . . .w.6.6.o.2.M. .@ . @ . - 6 g U w.m.6.O y M.6.6.6.5.9.f.g.9.f.g.8.4.f._.f.qX8X0X0X0XwXh.g.{.0XvXW 0 JXVX[.7.(.|.mXoX}.oXcXoXQ.%X-X-X&X-X-X=X&X=X$X$X=X#X3XT.7X-X-X-X$X&X-X-X*X%XXX%X%X%X*X%XoXoXoXoXoXfXbXfXnXfX0 JXcXnXcXbXnXcXcXcXbXbXcX%X%X%XbX*X*X*X-X-X-X-X-X-X-X#X3X5X-X-X-X-XbX-XbXbXbXbXbXcXcXcXcXs.1 1 1 0 C B B 0 i 5 3 : + 7 <.pXvXvXpXhXhXpXpXhXvXvXhXpXpXpXpXpXpXpXMXlXlXxX| 6.BXtXM.aX9.eXaX) e t Q  .p.O.v.Z.v.y.O.U g ; j l.z.t.t.z.z.c.c.t.z.c.c.z.l.x s s ; ; f u ; 6 h | | h t 5 # q [ [ / 1.[ !  .[ [ / ( L Q H ~ ,.5.6.5.Q X # 9X` ` U F F I ` K t M     ",
"  b @ P 8X6.p.m.N.N.M.5.5 < [  .g ....o.6.w.6.w.I @ X X F ..2.O.O.o.O.w.g - M.w...6.5.M.f.g.8.g.8.8.8.0X8Xd.f.f.0X0X{.8Xh.h.jXhXVX] 0 JXVXfX=.s.cXmX|.'.oXbXbX-XXX&X$X&X=X&X@X$X@X&X=X=X5X1XT.6X-X&X&X&X-X&X&X&X&X&X*X*X%X%X%XbX%XoXoXcXfXfXfX|.cX0 VXnXcXcXbXcXcXcX%XbX%XbXcX%X%X%X%X*X*X*X*X-X-X-X=X5X>X1X6X-X-X-X-X*X-X-X-X*X*X*XbXbXcXcXJX1 2 2 < Y E B 9 + + 0 ! F w . 4 qXVXpXpXiXhXpXhXhXpXpXpXpXZXpXpXpXpXpXhXgXrX8 8 lXrX9.9.9X9.D H I Q 9.M.6.p.C.C.x l l | p.h C.b.z.z.d c.n.n.n.z.t.x.x.l.t.c z r.z z z.z.d c O.O.O.O.U # 5 / 1.[ ,.,.5./ ,.~ !  .Q ~ [ I I 6.6.5.8.>.X $ ! Q I K I I I I K - C     ",
"  9 < # * [ p.p.o.X.p.qXq # 7 } h | ..o.o.w.V.M.K O o t F 6 6 8 ; y j y _ - M.M.6.5.9.9.f.g.g.f.8.8.4.f.8X9.3 ,.8X0Xg.g.g.{.hXyXvXW 0 JXnXfXfX|.cX%X}.}.XX*XbX-X$X$X$X&X=X&X@X=X=X=X=X=X5X1X3X6X=X@X=X=X&X=X-X&X-X-X-XXXXXoXXXoXoX%XoXcXoXbXoXfXnX< nXbX|.cXcXcXcXcXcXbXmXbXcX%X%X%XbX-X*X*X&X;X-X-X=X5X1X1X6X-X-X-X*X-X*X*X-X-X*XbXbXbXbXbXmXC 2 1 1 < + . 7 ! hXNXCXpXpXH + < qXNXpXpXpXpXpXpXpXpXpXhXiXZXpXpXiXpXhXrXzX; _ zXpXrXaXaX9.f.9.,...,.8XI U o.j j l x m.V.h y.r.d x.b.z.z.t.c.n.n.l.z.l.r.l.t.t.d d t.t.l.x s j 8 5 o # 8 I I D J [ ,. .[ [ Q Q Q  .3.~ 4 9.M.M.9.5.$ X  .~ ` U U U U U t O -.    ",
"  9 < f.4.7 } X...p.wXiXD : [ i U 2.6.6.m.V.B.kXe $ . 3 3 t t 5 4 5 @ . O O I M.9.M.M.M.f.8Xf.g.f.f.3.8.qX4.# i 8X4.{ s.0XfXfXyXvX$.0 JXnXnXfXcXoXoX%X%X-X-X*X$X$X;X;X=X=X@X=X=X=X=X=X=X5X1X2X6X$X=X=X=X&X=X$X&X&X&X&X%X&XXXoX%X%X%XoXbXcXfXcXfXmX1 JXbXfXcXcXcXcXcXbXmXbX%X%XbX*X-X-X-X*X&X-X;X-X-X=X5X3X1X#X-X-X-X-X-X-X-X-X-X-XbX%XbXbXmX'.0 0 0 1 < < 8.yXiXhXiXqX8XqXiXq # . SXuXpXpXvXpXhXpXpXpXpXZXpXiXhXMXiX9XqXM.% ~ zXtXzXzXlXrXlXdXtXrXtX9XM.8.M.m.m.O.O.| | j X c t.z.z.x.z.l.c.z.z.d z d d c c z d z z z r.x f . $ $ 3 4 @ 4 4 8 4 r 7 e i e g g e w w g I 9.M.9.9.9.X X 5...........` _ ,.5 W.    ",
"  > L qXM.p.p.O.m.6.p.M.J 5 H 3 - U w.6.| O.o...o @ $ 4 ` ..2...` ` g 8 % % 6 M.w...aX8X8X8X8Xf.f.f.f.g.8.! @ X ! &.8.uX).[.[.).|.V V JXmXnX|.cXcX%X%X%X*X*X$X$X$X-X;X&X=X=X=X=X&X=X=X=X<X2X2X6X$X=X&X&X=X-X-X-X-XXX*X-X*X*X%X*X%XoXcXbXnXmX|.=.7.1 7.nXfXcXfXcXbXmXcXbXcX%X%X*X-X*X*X-X&X-X=X&X-X-X=X5X1X3X#X&X-X-X&X&X-X-X*XbXbXbXbXbXbX|.. . . . < < i hXvXhXyXiXgXM.aXqXqX- $ 3.NXhXvXvXpXpXpXpXiXpXhXpXiX8XhX9X>.I - % X ~ U ....X.8.6.m.6.9.M.rXrXkXrXM.m.o.o.O.o.| a r.b.l.z.z.z.c.z.t.d z.r.c s d d d z c z.z.c l 8 - - F Q F g I ~ I [ ~ ~ I I I ~ F g 7 g 6 9.5.8.M.5.9X. X w. .........` F M.F (.    ",
"  + ^ qXM.rXV.m.V.o.| m.q , % o X . # 4 8 8 - # @ @ # q 8 O O ; 8 g y U D % % t g - 6.M.M.9XM.M.f.M.g.f.f.3.i G P 0XyX_.0X0X0X=.] 1 C |.|.].(.(.'.'./.}.XX$X-X$X<X5X6X-X=X=X5X5X5X3X3X3X3X2X2X5X5X5X3X3X3X5X<X<X#X$XXX/.i.W.(.'.'.(.|.).s.s.i i . < + nX].).{.fX[.|.|.).|.oXoXoX|.}.%X%X*X-X-X-X=X=X=X5X3X3X+X!././.E.E.E.E.W.i.i.i.Q.Q.:.C (.[.uX[.9 > . + 7.`._.qXgXtXw.M.5.. 5 g aX8XqX9X8X_.f.9.aXpX8Xf.qXiXqXeXeX9XM.O ..2.U ....~ U U U U | | O.o.o.O.O.O.O.| U h | l l b.b.l.z x.x.n.n.z.r.z c l x x x d z l.r.x f f U g I ~ ...... .~ I ~ ~ U  . .~ g I 8 6 9 pX3.9.9.9.1.. $ 9X . .I F w J w J e ^     ",
"  + e 8Xg.N.N.B.N.M.B.rXe 5 q qX,. .5.5.6.2.2.,.# @ % t g g g 6.....U U t @ 8 5.M.M.M.M.M.M.9XM.M.f.M.9X9XqX0XiXhXgXhXhXyXhXvXvXfX+ + ).|.|.|.|.|.}.%X%X%X%X-X-X#X<X=X-X=X=X5X<X5X5X5X5X5X3X4X3X5X5X5X6X6X6X=X.X^.oXbXbXoXoX|.oXfX].s.1 7 * i Q <.7 < 0 >.g.f._.fXvXfXuX].s.;.(.'.W.;.;.i.-.-.i.W././.=X>X2X#X$X$X%X*X*X%X%X%X%XoX%XmXmXJXJXPXPXJXLXLXLXhXg.5 . I I ~ U F & & tXGXGXrXrXBXMXMXMXzXNXNXBXzXpXgXgXpXtXqXaXpX6 zXBXsXsXB.tXB.tXrXlXrXB.V.m.m.m.m.o.o.o.p.p.m.j . b.z v.d d z.c.z.d d c v.j ; ; ; s x l f ; O 8 I 7 3 e e i g g F I U  ...6...` ..[ t % 3 aX5.9.9.,.H $ @ J 3 O % X % q e 8 8 3     ",
"  : # D D i g L I I ,.M.q 4 g 9X .5.9.M.6.2.9.,.# @ - 8 - g ....U U g F 6 @ K w.9.M.6.3.6.5.5.5.5.6.8.g.f.8Xf.p.f.g.0X0X_._.yX`.[.] 0 DXnXbXcXcXcX%X%X%X*X%XXX$XXX$X$X$X@X$X&X$X&X&X$X@X=X3XT.=X&X$XAXAXAX*X}.XX'.'.'.oXcXcXoXfXoX|.cXp * W N ! J 5 + uXhXNXVXVXJXJXJXJXJXDXcXbXJXJXJXKXKXKXKX%X*X*XmXKX>X2X6XKXKXKXKXKXKXKXKXKXAXAXcXbXbXmXnXnXjXjXDXSXLXLXLXpXr O ,...6 zXCXBXzXNXxXBXzXgXgXeXqXzXeXqXiXyXqXqXqXwXqXtXaXg rXlXsXsXsXtXsXtXlXrXM.X.m.V.m.m.O.o.O.| X.X.X.X O v.x s d z.l.l.z z d s h ; O O . - 8 ; o * q J J q &.3.>. ...` o @ g e g U  ...3. .e @  .9X3.,.5.2.D X $ . F M.aXM.tXsXlXsXsXg R.  ",
"  9 < D H H [  .1.1.8 5.5 5 [ i  .,...5...2.,./ # # 6 F K g ..| U .._ ` q 3 1.w.M.9.6.6.8.9.9.8.3.5.8.g.M.8XM.8Xf.f.f.d.d.7.`.s.).s.C fX|.|.|.oXoX'.}.oXXX$X$X&X&X$X$X$X&X&X$X&X$X&X@X#X#X>X3X6X7X-X&X-X*X%XXX*X*X%X}.}.}.|.'.|.].{.{.{.=.C i i 0 7 < 0XfXfXwX{.d.g.g.uXfXbXmXmXAXAXAXbXbXAXAX-X7X$X^.7X>X1X3X=X&X&X$XXX$X$X%XXXXXXX}.oXoXoXOXoX|.fXfXjX{.wXfXDXNXR . . NXNXiXqXiXhXyXpXiXyXyXqXyXpXqXyXqX0X0X8X8X8Xg.M.M.6 lXxXzXzXsXlXkXsXsXM.g - h | j s f h f ; O X . O l v.d r.c c c c x v.s f & ,.~ e # @ q 7 * 4 w N 0 v G <.3.>.~ U U 8 O 8 g 8 % - - 6 . 5 zXeX5.9.5.5.H X X o M.B.V.B.B.A.sXm.w.8 J.  ",
"  9 # I 3.f.qX8X0X9.5.1.X # / e >.>. . . .` ~ / 3 # D ,.2.U ,.6.6.2.` ` 5 4 ` M.6.g.M.g.f.g.g.8.8.8.g.g.f.g.f.g.f.d.g._._.`.[.s.;.s.=.VXa.|.oX].}.oXXXXXXXXXXX$X$X$X$X$X&X$X$X&X&X$X&X$X=XT.1X6X-X&X&X&X-XAX%X%X%XXXoX}.|.|.|.|.].].s.fXfX].N . 0 0 < VXvXfXuX[.[.fXfXOXoXfXbXAXJXAX%X%X%X*X-X-X-X-X$X#X3X>X2X#X&X&X$X&X&X&X*X%X%X%X%X%X%X%XoXoXOXOX{.uXuXwXfXjXhXNXi 5.NXyXqXpXiXiXyXyXpXyXyXqX0X9X0X0X0X0X0X0X0X0X_.f.qX- tXxXlXtXsXrXsXsXsXw.i p O U j O.f lX,.,.[ L e . ; O.z z d s s ; s l ; % F 5.1.T J v 5 : q G ^ E W E B N @.1.!  .I g 8 U 6. .t ` `  .% I lXrX5.f.9.w.) $ $ X sXm.w.o.o.o.o.U g 3 S   ",
"  9 7 3 P H g F H  .9.9.@ X q R 9 1.1. .` U  .1.3 # Q 6.U g ..6.6...6.w.4 6 8 w.m.M.M.M.g.g.f.g.8.8.f.8XM.f.M.f.f.f.f.f._.[.[.7.s.fX] nX{.{.|.|.|.oXoXXXoXXXXXXXXXXX$X$X$X$X$X$X$X$X$X$X=XT.2X5X&X&X&X*X%XXXXXoX%XoXoXoX|.|.].|.|.|.].{.).fX].<.> 0 + vXuX{.fX{.fXfXfX|.fXcXoXoXcXcXbX%XXX&X*X&X&X-X$X<X1X3X1X#X=X=X$X&X&X&X&X%X%X%X%X%X%X%XcXfXfXfXOX{.uXyXjXwXyXMXi CXgXgXiXpXyXyXyXyXqXqXqXqXqXqXqXqX0X0X8XqX0X0X8X8X9X- M.zXrXM.M.aXM.M.9.,.g i . p - 8 lXSXzXzXMXiXrXMX .O j j z d s k - - 5 o M.5. .1./ 1.( D w e R ^ ] ] %.B @.&./ g O t U 8 ,...w F  .- # 2.eX6.3.,.6.5./ X # . w.o.O.| _ _ U K F 4 S   ",
"  9 7 / 1.~ 3.{  .f.8.,.# @ &.<.1.,. . ..... .` 5 # K ..g g 2.2.......2.w 6 e M.tXN.M.M.M.g.8.8.8.8.g.f.8Xf.f.f.f._.f._.0X_.[.a.7.a.1 ).d.|.|.|.oXoXoXXXXXXXXXXXXXXXXX$XXXXXXX$X$X$X$X$X&XR.1X5X-X%XXX%X%XoXXXoXoXoXoXoXoX|.|.|.].{.].].{.{.|.cX*.. + nXuX_.{.{.uXfXfX|.|.fXfXbXbXbXmXmXmXAX*X&X$X;X@X3X1X2X1X#X-X;X$X&X*X&X&X%X%X%X%X%X%XcXoXoXoXfXfX{.wXyXfXuX0X0Xg zXiXiXyXpXiXyXyXyXqXqX0XqX0XqXqXqXqXqXqXqX9X8XaXqXgXg tXzXrXtXaXaXtX6.M...8 g g - e ~ pX .9.M.aXM.M.zXBXgX% y h h u . . . tX& g ..U 5.3.3...,. .L J ! &.] <.L ! w . % t t K g F F e * # 5 O 8 5.5.8.5.>. .( X @ . O K U _ _ _ U | K 4 M   ",
"  9 5 1./ ~  .! ! [ 5.9.e @ J 8.f.5.,.....,. .I 4 @ F 6. .- 2.2.` _ _ ` t % I w.M.M.M.M.g.g.f.g.g.g.8.8.9.9.9.8.9.9.d._._.`.4.d.|.[.*.s.{.|.|.|.oX|.OXoXoXoXXXXXXXXXXXXXXXXXXXXXXX$X$X$X&XA E.bX*X%X%X%X%XoXoX}.OXoX|.|.fXoX|.|.{.{.d.fX[.|.a.).cXnX< JXhXfXfXfXnXVXbXfXfXfXoXoXbXbXbX%X*XXX^.^.XX$X$X5X1X2X2X6X-X=X;X;X-X*X$X$X%X%X%X%X%X%XcXfXoXOXOXOX0XuXyX0X0X0XM.lXgXiXqXyXyXqXuX0XuXqXqXqXyXqX0XqXqXqXqXyX9XqX9XaXeX- 6.zXtXzXrXtXaX6.5...g ..M.M.gXg.M.5.8Xg.m.p.M.M. .9Xe # @ X . [ 8.M.tX6.I I ,.5.,.3.5.p.6.6.2.6.p...8 g t O g 2.2._ ` ` ` ~ K g q 5 @ # &.8.[ / / ` @.@ # $  ...g K ` | o._ ..8 1   ",
"  0 * @ - 4 5 5 7 q w w G # 7 >.D >.,....... .1.q # M.9X.. .2.2...`  .5.` 5 g 5.` g  .f.f.f.f.8.8.8.8.8.8.9.9.9.d.g.g.d.d.d.7.`.7.[.%.*.fXfX{.fX|.|.oXoX|.}.}.XXXXXXXXXXXXXXXXXXXXXXXXXX*X~.Y.-XoXoXbXbXbXoXcXoXoXoXoXoXfXfX[.|.uX{.).fX[._._.=.nX*.7 DXhXfXfXfXjXfXoXfXcXbXbXoXA E.E.-.E..X&X&X-X&X;X=X3X2X2X=X-X&X=X;X*X*X*X%X*X*X*X%X%XoXoXfXOXOX'.].uXuXyX0X0XhX6.zXiXyXyXyXyXqXuXuX0XqXqX0X0X0X0X0X0X0X0X0X0X8X0X9X8X7 h xXp.6.M.M.5.~ ! 3.4.3.9.eXwXhXqXM.g.g.8.g.p.8.3.7.! # X I M.zXBXBXgX6.L 3.9.9.1.[ 3.6.6.6.6.m.eXtXw. .o 8 `  .K g ` U ` I K ~ ( ) # 5 9.9X9.w.w.0.q.: , $ 9. .g  .6.2.6.2.` 8 1   ",
"  9 < /  .3.5.3.5.8.<.<.0 + e 1.! L ,.5.....3.5.r - aX2.g 6.2.` ,.6.2. .~ - t 6.5.5.. U M.9.9.8.3.8.8.8.9.9.9.d.f.f.d.f.d.d.d.d.a.*.W N hXuX{.{.{.|.|.{.'.].|.|.'.OXOXOXXXXXXXXXXXXXXXXX$XT.1X=X'.oXcXAXmXbXbXfXfXoX{.{.fX|.uXuXuX{._.uX_._.d.yXNXvXB DXhXuX_.).).{.{.|.fXcXoX%Xu.%X%XXX-X-X7X7X-X-X-X;X#X>X5X=X=X$X&X&X$X&X*X*X*X%X%X%XoXoXoXoXOXOX{.s.).{.uX0X0XhXL zXiXqX0XyXyXuXuXuXyXyXyX0X0X0X0X0X0X0X0X0X8X0X8Xf.MX8 _ GXN.8X6.4.[ >.,.3.g.g.M.g.4.0Xg.g.g.p.g.p.g.3.9.9XH # I tXrX5.p.BX8.8.5.3.3.9.5.3.8.6.,.6.p.6.p.6.9.eX8 5 F t K g g 8 6 F ..I F ( # 4 8XiXqXaXw.) 0.: , X 3 w ~ `  .U F 6 y 8 <   ",
"  9 5 ,.>.! [ 8X9X9XM.9.3 $ < / q 8.f...,.5.1./ 5 % `  .U 2.6...5...2...2.y ` 2.6.Q # ` 9X9.8.8.8.8.8.8.9.9.f.d.8.8.g._.d.8.s.g._.hX*.i vXg.{.{.{.{.{.].].].].].OXOXOX|.].}.OXoXXX}.XXoX$X3X1X7XoXoXbXfX=.] V fXfX|.{.uXfXuX[.uXuXyX0X0XuX[.0XyXpXE 7 NXg._.{.{.uXfXfXnXnXbXoX'.XXbXbX$X&XXXXX$X$X$X$X&X#X1X5X@X;X&X&X$X&X*X*X*X%XXXoXoXoXoXoXfXOX'.OX{.s.s.{.0X0Xg.~ eXeXqX0XyXuX0XuXuXyX0X0XqX0X0X0X0X0XuX8XyX0X0XwXeXBX8 tXdXN.qX4.4.g.f.g.f.8X_.g.f.g.g.0Xf.g.M.g.wXM.eXqXiX7 4 pXeXM.g.[ f.7.3.7.9.8X9.8.3.4.>.4.8.8.3.3.8.,.aXF % U ..U ..` U U ..` g K K # 4 aXaX9.3.5./ 9.# # @ 9X .U K K F ..6...8 #   ",
"  9 5 ! / >.8.>.!  .,.1.# $ [ &.Q 3...~ L I / Q 5 % F ` ~  ...U U 2. ...U g g U e o J 1.Q ,.8.8.5.8.8.8.9.9.f.d.8.8.8.d.d.g.g.yX>.0XP L fXg.wXwXuX{.{.].(.(.].|.|.|.].].].|.|.oXOXOXOXOX%X-.A JXcXs.).] { ] < uXvX{.[.yXfXfXuX[.hXuX`.`._.0X0X_.pXX . vXfXhXjXjXjXfXfXfX].].u.'.%X%X%XXXXX.XXXXX.X$X.X@X#X3X6X;X&X&X&X&X-X*X$X%X%X%XoXoXoXoXoXoXoX|.|.{.d.h.jXfXf.qXp.g.M.8XqXuX0XuX0XuX0X0X0X0X0X0X0X0X0X0X8X0X0XwX0X0XqXJ M.6.8.>.{ g.g.d.0X0Xg._.f.f.0XyX8.g._.f.g.8XM.8Xf.f.5 8 ,.8.g.4.] *.4.4.4.7.3.3.3.3.3.4.4.4.4.4.,.3.3.9X( @ M.,.y K U U ` ` 6.` g 6 X - eXaX5.9.9X) 9.3 # @ aX~ g U `  .2.....6 @   ",
"  0 @ R &.R i e i Q Q 1.5 @ H <.! ,.3.,. .~ / ( 3 # % e t  .....5.2.g  .` I 4 g 3 Q 4 q . . i ~ ,.8Xf.f.f.f.f.9.8.8.8.d.8.8.8.wXiXvXL P hXuX0XfXfX{.d.s.s.].'.].].'.'.].].|.].|.oXoX|.|.bX:.V nXfX[.).] h.s.B fXfXuXfXyXuXfXhXnXyX0X0X_._.yXhXhXvX0 8XNX_.g.{.d.s.s.(.(.}.oXoXoX%X*X*X&X;X&X&X&X&X=X&X@X#X3X=X$XXX$X^.^.&X-X*X%X%X}.XXoXoXcXoXcX|.cX{.[.nXfXa.g.g.8.i { g N.wX8X`.8X8X`.8X0X0XuX0X0X0X0X0X0X`.`.8X0X_.pX3.5 3.g.4.4.d.7.`.a.d._.d.d.8.7.yXyX7.8.d.8.8.3.7.g.d.7.e q 3.*.7.4.{ d.{ *.4.=.&.4.4.3.3.7.8.3.3.3.3.3.3.5.! @ I g e K U ~ ~ ~ K K t D @ 5 eX9X1.3.8XI.1.3 # @ g t U ..U g g 6 - 5 #   ",
"  0 < <.*.<./ R 3 e <.8.3 @ w &.&.[ 1.9.9.3./ &.3 @ e t t ` 2.6...U  .,.F g 5 X . D t / H g . . @ Q f.f.f.f.8.8.8.8.8.8.3.4.3.d.*.<.+ [ _.{.g._._.{.s.s.).{._.{.{.{.{.].].|.|.].].'.'.'.|.;.=.=.4.=.W P p s.i =.vXfXfXhXvXMXVXfX0X0X_._.a.hX7.&.7.9 qXd.*.7.7.a.].|.cXcX%XoXoX%X%X%X$X$X$X^.^.^.$X$X^.Y.T.3XY.!.!.$X$X^.;X-X*X*X$X/.}.%XbX}.mXJXmXnXvXVXDXnXs.d.4.&.q * 7.4.p.6.g.f.~ [ 4.8.8.7.0X8X8.7.<.9.`.iXqXqXqX8X! + J ,.L [ 3.3.7.g.8.7.4.4.>.3.4.4.4.4.4.4.&.3.[ { { R 5 # g ,.>.7.*.3.Q P [ *.[ [ >.[ >.,.! ! / / [ >.[ >.! # 3 % 4 6 t D e t 6 3 q e O r M.L 1.5.9X5.G : @ 4 H I U g U  .I 4 F 6 5   ",
"  b < &.3.3.[ 9X>.e 3.f.@ @ w <.W ^ 7.8. .I 1.<.3 # / 5.5. ... .` ` ~  .K 8 5 ,.9.aXrXaXaX9.5.K F . . I F  .5.,.4.3.3.7.7.4.7.d.d.`.$ { g.4.g._.g.g.a.s.s.).).`.`.).).{.s.s.7.fXfXfX_.=.] B ] 4.=.p p =.7.{ W d.a.yXfXvXhXqXhX0Xf.0Xd.d.7.d.d._.<.< NXMXhXhXNXnXnXnXcXcXnXcX(.'.oX%X%X*X*X-X%X$X$XXX}.$XT.>X#X$X$X$X;X;X$X$XXX$XXX%XoXoXoXoX|.|.'.(.].s.7.a._.7.4.! 7 [ 8.X.j dXdXN.p.N.tXN.wXdXwXN.N.wXN.dXhXdXdXjXg.qX4.L 0XM.8XyXfXyXhXdXeXwXeXeXhXzXwXeXM.tXeXhXhXdXgXqXg.L X  .f.g._.d.4.7.[ ] ! *.8.>.*.4.[ >.4.4.4. .>.3.3.3.,.q 3 g 4 4 8 5 4 6 4 % % # # 4 M.8.5.,.0.0.Y : @ 3 K g 8 g ` U g 8 y 5 4   ",
"  B # [ *.>.! 5.1.q 1.3.X X e <.W =.0.7.[ ,.1.5., @ q F ..2.` ..` ` `  .` 6 ,.rXrXB.M.M.M.M.rXM...M.,.8 . X ! M.8.(.@X).g.f.g.g.0XvX. i p.4.0XyXwX{.{.uXuX[._.`.`.(.(.].].a.].JXJXSXhX3.%.N 0 W i = < &.B VXNXfXvXyXyX0Xg.g.hXhXyXeXg.0XyXiXhXpXE # _.hXhXhX_.fXfXfXfXfXfXcXcX%XcX}.}.XXoX*XXX$X*X-XmX-XR.3X=X-X-X&X*X*X-XbX*X*X%X*XAXbXAXmXbXbXcXfXjXnXjXfXhXfXh.{ * 4.M.g.a p.h B.N.p.B.N.p.p.p.N.N.N.dXB.dXN.dXdXwXMX4.{ hXjXwX0X0XuXfXuX0X_._.g.a.g.g.0Xf.g.g.{.g.0X{.0X0X{ # 9X8X8.8.a.4.4.4.h.g.4.4.[ [ 4.4.3.3.4.3.>.5.3.8.3.3.U O g  . .K I K K K K D % @ #  .3.9.8X9.5.J @ @ e J g K t 6 e g t 8 - 4   ",
"  V $ G ^ >.&.9.H q 1.5.# X 7 5.<.<.>.3.5.5.J 9.# @ e ~  ........... .` K % ..tXN.rX..~ w I 5.zX5...f.f...6 . F f.7.E.4.f.f.g.8.8.f.$ Q M.M.M.d.).[.fXfXfXuXuX0X0X[.].].].|.[.s.s.s.:.$.=.B + &.7.<.e . 4.JXhXqXfXqXwX8XdXBXNXhXiXhXgXyXyXhXhXhX&.+ 8.hXhXuXyXfX{.].fXfX].oX|.|.%X%X|.%X%XXXXXbX*X-X-XKXK.R.@X;X&X&X&X&X$X$X%X*X%X}.oXoX|.OXoXoXoX|.fXjX{.{.fX{.4.] 7 4.f.M.p.4.8XN.g.eXgXdXgXwXwXyXwXyXwXhXqXhXzX4.4.hX[ W [.{.].].`.d.a.).).].).).].).d.).d.a.a.a.d.d.d.).g.*.7 d.4.=.4.7.=.4.7.a.s.{ ] { J 4.f.[ R [ [ >.>.X.3.,.[ I X I ....` ` ..2.5.I t 4 $ r 8.8X5.5.9.9.T : # w ~ g g g F K I U ~ e 5   ",
"  V + Q <.>./ <.e 4 1.0.# @ q <.<.1.3.3.,.5.1.<.: @ w F F X.2.6.| 2.M.6. .- 6.tXM.tXO . ( H . ,.lXM.M.F 6.6.w . F 9...4.4.4.3.8.M.qX4 w rX3.8.f.`.a.{.).].0XuXuX[.).).].].].[.|.[.fX|.:.7.N 7 8X_.g.qX7 yXPXhXf.hXM.8Xg.wXg.8.8.f.8XhXiX0X0Xf.qX&.+ 8XMX0XyX0XfX{.|.fXfX|.oXoXoXoX%XoXoXXXXX*X*X$XXX^.-XS C }.$X$X&X$XXX$X$X%X%XXXoX}.oXoXoX|.|.oX|.|.|.{.|.a._.g.>.0 NX8XM.f.8XzXyXhXhXhXjXdXjXyXhXhXyXyXdXfXfXhXhX*.hX4.N |.{.).].[.).].).).).).].].).).s.s.a.s.a.a.d.).8.d.L 7 8.4.=.7.*.=.=.=.7.4.4.*.&.R E W &.>.1.^ / [ >.[ [ R >.X F  .Q U K ..` _ U D e $ r qX5.9.w.w.w.@.: # # g - g K g F U ~ 6.w :   ",
"  +.+ J / ! &.G ( D 9.0.# $ # Q N N 9.8.>.>.@.^ @ @ D Q ~  . .,.~ U ,...6.8 m.tXM.rXK 5 ( t Q 5.zXrX,.aX5.6.2.# 8 ,.L 3.g.g.8Xf.f.iXH i CX6.8.8.%.7.).).d.a.).a.].[.).].].].[.[.[.|.fX7.E 0 < yX_.8.f.f.MXSXzXwXqXwXwXwXg.g.wXqXgXhXeXiX8XqX8XpX3.$ &.iXg.yXuXyXyXfXuX].fXnX|.|.oXoX'.mXoX%X*X*X%X%X}.;XY.R.Y.$X$XXXXXXXXX$XXX$XXXXX}.OX|.].|.].{.{.{.{.|.).{.[.g.*.7 MX0X0X0XuX0XuXyXyXyX0XwXfXfXyXwXyXyXwX0XwXfXhXuXfXd.p uX].].].].].].).).).).).a.a.].].).).).).a.).g.a.8.P i d.a.7.4.4.=.=.7.7.*.4.4.4.4.{ 4.4.g.3.>.>.[ [ ! ,.>.&.@ r K g t t g t g F w r @ 3 f.3.~ 9.5.5.( # + 4 F g U g K I  .g 6 O @   ",
"  *.$ L / / 8.Q 9./ v G # # # &.&.&.7.5.>.,.^ R $ @ - 4 4 q 3 4 4 t H t F 6 6.M.6.M.M.aX9.2.gXtXM.5.[  .` ,.I O g 9.5.3.f.f.f.f.9.9.e q eX,.8.7.4.4.} p._.0X`.`.a.).a.(.[.uXuXuX].[.].*.2 N 0 vX_.<.9XhX8X8XeXgXqXeXqXqXeXiXiXiXhXMXiXeXqXiXgXhX<.+ hXiX0XuX[.nXfXfXjXcXcXbXcXcXcX%XoX%XoX}.*X*X*X*X*X;XR.4X1X5X$XXXXXXXXX%XoXXX}.oXoXoXoXoX|.|.|.{.{.{.{.{.uX{._.i i uX0XyX_._.[.0XuXuXyXuX0X{.0X[.uXuXyXuXfXfXfXfX|.uX).C |.].].].].].].].).).).).].).].].].].{.].a.a.d.d.g.B P yX4.s.4.s.=.4.=.=.wXp.4.N.{ X.X.....,.3.8.4.,.3.4.1./ # 3 . @ 6 8 8 6 % X . q # e 3.5. .5.2.5.^ # , e Q g U h U K 8 e 8 5 3   ",
"  W . D &.<.1.H ! e [ / 5 @ 4 <.&.<.8.3.3.3.1.@.$ $ q I ~ U ~  .U U U ` Q # ..6...6.5.5...U 2..... ./ [ ` ~ 5 % 6 ,.F e g I I D  .1.# 5 5.,.3.`._.d.<.f.8X3.d.8XuX[.`.).`.`.`.`.[.uXVXnXMXVXY NXD 4.8.>.! >.L ! ..4.4.f.gXgXqXqXiX<.3._.qXgXpXpX1.+ MXhXg._.hXuXnXVXDXvX{.{.oXcXcXoXoX(.V %XbXbX*X*X%X^.S T.T.=X$XXXXX$X$X$X$X}.}.}.oX|.oXoX].|.].|.|.{.|.{.[.).d.{ a.{.0X_._._.0X[.[.[.uXuX|.).).{.{.{.{.].{.].|.oX|.|.fXC oX].'.].].].(.'.'.(.).].'.'.).].).].).].).).s.s.`.< L iX8.f.8.3.d.8.X.4.d.4.6.wX4.6.X.....X.,.,.[ >.3.,.1./ # 4 Q F 6 % 8 8 g g H e @ H 5.1.1.9.5.9.) @ 4 D F F K g y y 8 - - - 5   ",
"  +.q i <.&.3 q 9.e 5.&.: @ 4 <.G 1.<.5.3.R <.Q @ $ Q  .....X.2...` U ..g X ..p. .,. .....2....... . ./ 3.~ X . /  .w ,.8X1.~ w D ~ # 5._./ E 9.9.0.9.3.0.&.&.*.<.4.=.7.7.8.0.3.`.uXJXvXvXJXb uX9XyX9X9XqXqXiXyXiXiX9X9.qXf.8.yXJXVXVXVXhXhXpXMX0.@ SXSXg.g._.hXyX0X`._.[.).).7.(.|.|. XW.A Q.}.}././.L.A S M /./.}.}.XX}.}.}.}.oXoXoXoX].].'.;.] a.).].).).g._.g._.yX_.).d.[.0X0X_._._._._._._.{.uX|.fX|.|.|.|.].OX|.|.fXC |.'.'.'.].'.'.'.'.].].'.'.'.).].).].).).).].=.7.d.J # F e [ g D g.M.tXdX6.X.8.8. .4.8.4.,.>.1. .! >./ [ / / $ q 5.,.~ D ~ ,.1./  .5.X J 9.R 9X9X5.5.) : 4 D 6 , X . . o @ # @ X X   ",
"  B e 4 e $ N &.I.< 1.Q 5 @ 0 <.Y 3.<.<.3.3.0.@.$ @ / ~  .` ~ ~ U U ..U [ . L g.M.3...,.....5.2.,.5.5.f.eX~ . [ >.I L ! qXqXf.[ F w # F 9.8.8.9.0XyXhXhX8XwXf.f.8XyXiXyXiXiXiXhXhXhXqX8XhXvX5 LXSXNXCXCXCXlXgXzXvXhXpXiXp.g.gXMXzXLXLXCXvXhXvXMX<.@ hX8X8XhXhXf.qXDXLXSXnXfX7.fXVXDXbXmXAXoX].].;.mXAXmX-.M ;.;.W.Q./.}.(.}.}.'.oXcX|.|.cXfXuXuXuX0X_.d.4.4.*._.d.7.yXg.7.s._._.0X0X_.g.d.d.7.d._.).).).s.(.(.u.s.(.'.'.cXC oX].'.'.'.|.}.'.'.}.'.'.'.'.(.(.(.).'.).).).].).=.e [ >.~ * . I J . g 6.U 7 3.5.L ,.,.[ >.[ [ [ [ ! &.! [ [ X 4 ,.9.5.3.5.9./ Q m Q X / aX/ 9.9.3.f.( : r , X 8 F ~ ,.6.6.5.9.F X   ",
"  + < >.1.0.E @.<.0 1.( 3 # q 1.1.7.3.<.<.1.0.^ $ @ D I U K K U h h U e ` r w tX..6.6.6........... . .5.H q D pX3.3 P L p P &.8.pXw X X rXrXqXqX8XiXiXqXeXqXhX8XwXwXwX0XwXyXyXhXyXfXfXyXhX*.i MXdXgXlXzXzXrXqXM.8X8Xf.M.g.8XeXqX0X .4.>.&.P [ w e # SXgXiXyXhXfXuX{.[.{.].cX].cXfXfX|.oX}.oXcXbXcXAXmXmXA C KXbX%XoX%XbXbX%X%XoXoX|.'.'.fXcX{.cXcXfXuXuXyXfXd.{ 8.8.d.f.f.0Xd.4._.yXhXyXhXuX[.{.fX|.{.|.fXcXcX|.|.}.W.;. XC '.'.'.}.'.'.'.'.'.'.'.].'.(.'.'.'.(.(.).].{.s.].7.N 8.I !  .8 ,.8.e ..p.5. .3.5.~ ,.>.[ [ [ ~ [ ~ [ >.1.>.L X 3 9.9.9.3.1.1./ H H D $ I M.D ,.9.5.9.( # 3 3 # 2.9.2.5.6.6.5.9.t X   ",
"  < 5 3.8.`.9.9.9.N R ( 3 # e 3.3.3.<.3.7.&.<.@.X @ /  ...` ~ U U U U I  .` 6 tXy _ 2.2.5.5.6...2.,. .5.I . ,.>.~ L  . .[ &.`.[ f.# X H qXM._.`.d.`.8._.[.[.uX[._._.`.`.[.0X_.[.[.uXuX0X[.B 4.zX8X8XqXM.tXNXBXMXiXqXqXqX8X0X8X9.8X8Xg.f.M.f.3.8X/ < CX0X_.[.].].(.(.(.'.].|.oX|.|.|.|.|.|. X X X}.P.Q.bX-.C mX}.'.}.}.}.oXOXOX|.|.'.'.].].].'.oX].{.{.{.[.fX_.{.hX[ 0X0X_.hXyX0XyXuXfXuXuXuXfXfXs.fX|.|.|.|.%X%X%X%X%XW.}.A -.'././.'.'.'.'.'.'.'.(.'.(.'.'.'.(.(.(.{.].s.).] L 3.F J L I - #  . .3. .,.[ e  .3. . .~ [  . . .,.1.~ ( D @ 5 1.~ 1./ 1.( / Q t q o e 6.e [ 9.5.8.Q # 3 3 6 ..~  . .,.5.,.2.w $   ",
"  < < >.<.7.9.3.3.D / / # @ q 3.*.&.<.<.<.1.&.&.X # I I ` ......2.2. .g 8 ~ F ....2.` `  . .`  . .,.,. .,. .. 5 9.9.f.8X8X9.8X&.5 i # 8.8Xf.`._.`.`.a._.).).a.].`.`.`.`.`.).).[.[.].[.[.uXB yXhXg.8X0X0XqXf.f.8X8XqXqXqX8XqX9X9.d.8.qXMXMXMXhXNX8.5 hX{.7.).].).).].].(.(.(.(.'.|.|.|.|.oX'.(. X XQ.W.W.-.C JXoX}.'.}.'.'.}.OX}.|.|.oXoX|.|.|.{.|.fXuXuX[.{._.fX_.G 0XuX{._.uXyXyX0X[.|.uX{.[.|.'.|.|.|.|.}.}.}.$X}.$X}.(.A V OX}.'.'.'.'.'.'.'.'.(.(.'.'.'.(.'.].'.=.s.s.=.i Q [ 8 q Q F F 9.9. ./  .>.I ! ,. .F g I ~ U  ...,.,.Q Q t X # / F / I Q Q F g e K % 8 9X .I >.3.f.J # # # 8 ....,.,. .,.` ` q X   ",
"  0 @ G R H D Q 9.( R ( # @ e <.E %.0.1.1.<.0.1.$ 3 ,.................I F ,. ...U 5.2. .3.3. .,.,...,.3. .5.5.I . I 5.,.5.8.9.w . t o 5.g.7.d.`.a.a.s.a.).].).].`.`.`.`.`.).).).).).].].uXe VXpX_.0X0X8X8X8X0XwXqXqXqXqX8XqXqX8X0XyX0XqX_.qXhXqX`.%.] yXa.`.[.[.].].].].].].|.].'.|.|.|.|.|.|.bXcXmXcXcXP.M mX'.}.|.'.|.|.|.|.|.|.|.|.|.{.|.[.|.[.[.[.[.fXuX[.yXiXqX0XyX0X_._.[.uX[.[.].[.[.|.|.|.}.%X|.|.}.}.$X}.^.$X}.$XS M oX'.}.'.'.'.Q.Q.}.}.'.'.(.u.i.u.(.'.(.s.'.;.%.7 L i 3 3 H F D ,.Q D L  .~ U ,. .I ~ F ~ K K ` ` Q K F H 8 X 5 I J F / Q ~ / 1.~ K % 8 M.,.,.5.5.9.g # @ @ - ~ .... . .~ ~ I q @   ",
"  b + ! &.&./ &.9.^ i &.# @ e 3.B ^ 7.<.&./ <.1.@ # U ....U U U U U U I I .. .6.....>. . .8.3.,.8.9.6.5.6.3.3.f.,.o . 8 g F w UX( r O qX3.4.d.7.(.(.a.a.(.7.s.a.a.).`.[.].`.).).].0X]._.iXe SXqXeXhX0X8XqXqXqXqXqXeX8XwXqXeXwXwXhX&.. . q ! % . 0X0.< 3.`.`.].).[.].].].|.|.|.|.|.'.(.|.|.|.'.oXJXJXnX|.(.M mX|.oX'.].'.|.fXoXfXfX|.|.{.{.|.yXuXfXuX0XuX[.0XwX0XiX&.hXhXuXwX_._.[.[.].].].[.|.|.%X}.|.%X}.}.}.:X}.$X$XL.W.Z n Q.u.}.'.XX/.}.XX}.}.}.'.|.(.(.'.(.(.(.|.'.|.|.N < 7 # q e q r . 3 e H [ ~  .,. .I ~ ~ ~ g K ~ ~ ~ F g F F @ 4 1.1.K F ~ / 1./ F I % X  .5.,.,.1.5.w @ @ @ - K ~  .` ~  .I D 5 #   ",
"  b + &.<.1.Q [ 8.R w &.# # w 7.%.*.<.&.<.<.1.( $ % .... .` U U U K K U U ....5.,...>. .>.>. . . .1. .1.>.>.>.>.3.3.$ X D 7 8.MXqX[ H f.s.s.7.d.7.).a.).].).a.).`.).`.).).).[.[.].uXuX[.uX0 NX_.eXdXqXeXhXyX0X8X8XqXqXqXqX8X8XhXL . < 0 nXVXyX3.. v 4 . 8.uX[.].[.).|.fX].).].].|.].).).(.].'.|.'.].cXcXmXC |.|.'.].|.|.|.|.|.|.|.{.[.[.[.fXuX[.yXyXuXyXuX_.0X0XyXd.hXyX0XfXhX_.[.[.].{.[.|.{.|.|.%X%X}.}.:X:X:X:X$X$X/.A A M -.$X%XQ.XX^./.XXW.XX}.}.}.}.|.(.(.'.|.|.].|.uXC < 7 L L I g J q w J F g I ~ ,. .K F I g K ` 2.K g F K F F 5 D 1.,.,.I ~ / ! D D e # % ` ..!  .5.qXw @ q @ 4 ~ .. .~  .~ ,.D q 3   ",
"  N + / 1.>.>.[ _./ R 1.3 - e 1.*.<.*.<.<.( ( Q $ % t g U .... .` U U g U ....,.5.[ [ [ >.[  .>. .>.[ >.,.,.3.<.4.7.H $ e 1./ ,.9.g ..eXs.7.7.a.`.`.a.].[.a.7.7.).(.a.7.`.[.[.[.[._.`._.uX> VX_.eXwXeXeX8X0X8X_.8X8X_.M.M.qXhX7.< =.V a.nXvXuX8.< 3 4 J J vX[.).).).].{.).).).).).].(.'.].].(.'.(.].].cXJXC uXuX|.|.|.|.|.].{.|.{.{.{.fX[.[.[.[.{.0X[.uXfX[._.0XyX7.uX0X_.).[.a.].{.{.].].fX].|.|.|.}.:X:X:X:X:X:X:X:X$X;XM 2 A %X*X$X^.}.i.^././.XX'.}.}.}.}.Q.'.|.|.|.'.].$.0 i [ ! D H H g 8 i e # 7 ~ I g g F e t I  .~ e I I F H Q D g 1.3.1.[ ,.1.F 4 I I t - 6 ~ ,.~ 9.9Xq @ q $ t ~ ~ I ~ ` ` ` t D %   ",
"  0 + R &.<.<.1.f.[ R 1.3 * e <.&.&.&.&.1.<.<.H X # I I K ` U ` U ..` ~ h K .. .3.~ ! [  . .~  . .>.,.>. .>.3.5.<._.9.o F lX .K ` g ..M.8X7.s.7.).7.s.(.).7.7.7.(.7.(.`.).).[.[.).).`._.vX1 VXyX0XwXqXyX0X0XqXwX8Xf._.d.8XhX7.4.hXvX%.nXJXNX*.. . . &.vXJ 3.[.[.).].).).).].).(.].'.].].].].].|.|.].|.|.cXC fXuX|.|.|.{.{.[.{.{.{.).).a.).).[.).d.)._.)._.g._._.`.W _._._.[.{.[.].).].].].].].|.|.}.}.}.:X:X^.+X+X+X@X@X$XE.U.Y.;X*X$X$X$X^./.%XM A XX}.'.}.}.Q.}.}.(.(.(.(.;.V 7 i i q q 5 7 g Q I @ % g e F I F 8 - t K F g I g q H / g w / 1.,.~ I  .1.>.3.Q F % 8 M.9. .I / w @ 5 # 6 g 7 5 q 8 D w # # #   ",
"  0 # &.1.<./ >.5.L T @.5 < e 1.&.^ &.<.&./ ( H $ # g t g U U U ~ U U K g ~ { ..>. .[ >.4... .[ [ ~ >.>.,.,.,.5.3.f.U - g 2.6.` 6 5 . r F d.a.=.s.;.;.7.s.7.7.7.).7.(.].).s.].].).].[.`.ZX0 `.`.<.g.g.4.d.`._.`.`.1.`.^ <.7 . NXvXvXVX`.&.+ . [.ZXiX<.[ H . d.].].[.].].).(.].'.'.(.].].].).].|.].].].].7.W E |.[.].{.{.{.[.uXuX[.fXfX{.fXuX).[._._.g.g.h.g.{.qXyX8.g.g.g.uXuXuX].].{.{.].].].|.}.}.}.}.:X:X+X+X^.+X@X@X@X+X1X2X=X&X$X$X;Xi.}.W.-.}.%X}.'.'.}.}.'.Q.Q.Q.;.P.P.b C %.e # q e Q ~ H 4 - g g K F K F 8 F % t I K ~ I g Q ~ ~ w  .r e e ~ 1./ H w Q Q y 6 ,.g Q M.5.e $ 3 3 / 5 o $ . . . X X 5 4   ",
"  1 < 1.&.>.! [ >.q ! [ 5 # q &.R &.*.<.&.&.@.) $ # w g ~ ` ~ ~ F F t g g U ` 2.9.>.>.4.3.,.>.[ ! ! ! { .. .~ [ ,.! . - O 5 4 - # @ # @ 3 _.8.=.;.u.;.:.;.7.;.(.).7.(.).a.).).].].].).[.*.< . + + =.&.P V B B B Y W V N . @ @ 7 <.7.yXe . E VX`.`.0.VXpX>.9.d.).a.].].{.].).).).].).s.).).(.(.s.s.s.(.(.).B B `.).[.{.].].).).).[.fXwXfXhXyXd.uX0XnX0Xg.wXwX8XwX0X] hX8Xg.[.].].{.].{.].|.'.}.}.}.}.^.^.^.^.~.+X@X+X+X~.@X#X1X2X#X$X$X$X$XM S A *X%XXXXXXX}.}.oX}.W.i.W.;. X(.C V $.] G * r D 3 $ e / ,.2.` g U 2.~ I I . . 6 t 8 ~ Q ~ / H ~ Q D 1. .~ ~ I  .Q e F 6 X e 5.aX .q @ 6 5 ` 8 6 8 # $ $ . $ @ w   ",
"  < $ H ^ &.[ ,.8.i / 1.5 < e &.^ &.^ &.^ ^ @.T @ # D I I U U K g F F t 8 F F ~ 2.,.{ [  ...3.4.~ [ F D g g q  .g 5 # g F 5 . . . $ - L ! P P *.=.7.s.7.7.7.=.7.).s.*.B =.(.`.).(.a.a.*.Y < : &.*.E *.7.7.7.s.s.a.).s.`.<.$ H @ . 3 5 9 v 7.7.. . + 0 7.JXvXuXs.a.).(.).).).d.[.[.[.a.).a.7.a.7.s.a.).(.0.< N vX0X[.{.{.{.[.].s.s.4.4.7.4.7.a.s.7.a.a.hXyX0X_._._.W hX_.[.[.{.).(.).).].'.'.'.}.}.%XL.A -.K.>X3X1X3XT.~.&X#X2X3X&X$X$X$X!.Z !.$X$X}.}.XX}.}.}.%XoX-.:. X|.uX].V V +.Y R 7 5 3 # # D 1.5.6...8 F I U 5 6 % r w w g ~ I L I ! q ! I ! ~ L ~ D Q F g g 6 6  .5.3.q.6 @ 6 % 6 3 4 8 % $ 5 w 6 # e   ",
"  < + R ^ >.! 8.8.J [ &.4 < 0 ^ W Y ^ &.&.1.^ ( # % L g 8 h ..2.| | U U K ` ~ I F 7 R f.8...8.~ F g B.kXgX8 7 e - U _ g g ~ ! L i # $ = - e 8 e J i N G N P E =.7.W 4.{ ] ] E E ] %.*.{ *.0 # ] 4.4.{ ] =.7.a.7.7.7.7.).7.9 q . . . q 9 e B E 9 # @ 0 &.).yXuX].).).[.`.d.d.d.7.).`.`.a.4.4.4.7.4.a.`.[._.0 B vX`.)._._.fX0X_.0Xg.g.g.g._._.d.g.0Xa.yXyXh.g.g.g.7.B _.g.].).).s.].].s.(.'.'.'.}.}.}.Q.M S T.2X3XT.3X2XT.!.R.2X5X$X$X@X.X.X^.$X$X$XXX}./.}./.}.'.:.'.(.:.s.].(.C V ] W N 7 5 e H w @ w I I ~ K ` ~ `  .J [  .1./ / I / Q J J 5 / 5.>.1.1.~ ` I F 8 t - 5 ! 5.1./ r # 5 % t ....K ,.1.6.2.1.6 e   ",
"  < @ >.3.3./ L ! D <.>.5 < q &.%.&.%.W [ <.0./ @ - I ~ ` g g K U g g h t K ` 6.2.8 K 2.,.{ ! ! L rXlXM.zXwX5 5 g U f y - t F 6.9.6 . w 3 . . 3 7 # q R E 7._._._.d.yX_.[.] ] *.=.=.=.d.`.i N d._.a.a.s.7.7.4.7._.`.=.fX<.< 7.0X7.*.v : . e _.^ G # N Y ] a.a.a.4.=.1.( R 7 e e 5 e R R R J J R { *.&.W R R 7 f.3.4.7.d.d.d.d.8.d.7.g.g.g.g.g._._.7.0X_.d.g.8.d.7.B `.7.s.s.{.s.|.].].(.'.(.'.'.'.}.}.Z A T.4X3X~.$XT.3XT.R.2X3X$X$X.X.X$X.X^.^.^.^.^.^././.Q.W.Q.u.(.s.;.'.:.C +.$.%.q @ g 1.5. .F X . . g ` ,.` t I  . .[ >.[ ~ [ / Q J ! e H ! i J / ( I ~ ~ K K 6 - ,.8X9X9X5 # 6 o y K U ......2.U I 5 5 T.",
"  0 + <.^ ^ / / >.! <.3.5 * e <.3.&.<.1.&.^ &.R # * g I g y F w.M.M...8 K U ~ ..2... .2.U y g 8 3.GXM.M.M.iXM.- 8 2.g U U ` M.8 5.5.F  .f.`.`.7.E 7.7.).a.).).).).).*.uX|.{.;.=.;.s.;.] ).i B JXDXMXMXNXNXNXjX_.[.[.).uX*.. nXVXVXvXyXuX`.E . e / m , R P [ ] W B 0 . . . 7.d._._.] *.=.*.s.[.uX`.`.&.*.1.5 G _.`._.`.d.`.d.d.7.4.0.0.4.<.7.8.7.7.4.*.7.4.7.7.^ =.0 7.=.*.*.4.7.7.=.=.;.u.;.;.;.W.Q.Q././.!.T.>XT.E.i.~.>X3X2XT.~.!.^..X^..X^.^./.~././.^.}./.Q.Q.Q.Q.u.(.(.;.1 C V B < $ 3 /  .~ 2.....9.......U 8 I ~ / Q ! W R ( Q / / 9.w >.! >.[ / 1.` ~ ` K ..y e qX9X3.9X5 # 5 O t  .....U ~ U ` K 3 < T.",
"  B X J &.&.>.8./ ! 3.5.* # N <.[ ! R &.W B Y B 3 5 F F g g - F ,.~ g U | U U ~ ! i I 6._ U 6.F I NXeXiXgXgXM.[ ,.m.2.9.,. .MXD . F >.[ a.uXuX].a.(.;.=.7.(.(.E + > 0 =.uXfXs.u.s.'.cXcXnXV W LXvXyX0X0XhXvXuX{.].|.(.(.|.;.0 *.[.vXnXnXnXVX`.< X G N <.1.8 w 7 X $ 5 # `.vXfX[.|.].fXcX|.|.uXuX[.0XNXuX0X9 4.vXfXuXuXyXhXyXhXvXuXhXuXyXuX0XfXhXyXyXyXuXyX0XI.I.=.W yX].[.|.|.cX].(.;.'.|. X}.}.}.:X%X%X;X-X;X3X,XT.@X/.^.Y.1XY.Z Y.!.!.~././.!.E.E.E.E././.Q.W.W.i.;.(.;.P.;.1 C C 1 N : . e % I U ..6..... .K % .. .~ / Q G G Y ( ( 1.! / D w ~ L ( / Q Q  .K 8 g - 5 @.9.9.I.q # D % ` ,.U F ~ ` `  .` 5 @ T.",
"  V X J [ [ 3.3.! J [ >.# # e H G ! G G < 4 3 9 e 5 F I K F 8 ..,.....U U { P i N ] d._.0XhX0X)._.fXuXuXfXvXuXhXSXSXSXSXSXJXVXvX[.1 X nXcX|.'.'.(.(.s.(.(.].|.7.W 0 . . Y uX).).|.|.cX(.bXV C nX).).'.(.(.(.(.(. X(.'.'.(.|.cX7.N 0 4.).7.a.`.9 < 0 %.] 8.I e # @ w q + [.vX|.|.[.fXVXnXfXuXhXvXhX`.yX8.8.N 7.).).a.a.).(.7.7.7.).a._.d.7.7.s.s.a.a.`.).].).7.uX=.*.].(.).|. X(. X(. X}. X}.}.}.}.}.:X^.^.^.^.@X#X#X&X^.E.K.3X<X;X$X@X^.@X@X$X$X}.$X$X$X/./.W.Q.Q.u.;.(.P.+.C 0 0 0 B ^ 3 U M.y % 6 t g 6 F . .  .3.I H / L P e q J N i 8 6 g q F Q H H e D t y y y - 8 1.0.9.5.e # e o K 2....._ `  .` F , # T.",
"  +.X e [ ! [ [ H >.Q w @ $ < e w 4 < * e q e q 3 3 ~ 2...o.K M.,.....} U i W [.|.].|.fXfX|.s.(.'.(.].|.'.'.(.(.u.s.].'.'.'.].u.AXcX1 mX'.;.Q.Q.(.(.}.'.|.%XcXcXcXcX7.*.< 0 =.u.'.(.;.;.;.$.C '.'.'.}.}.}.|. X(.'.'.'.'.Q.;.].uX].'.(.'.'.'.;.W < < N i B g * # w >.^ + V nXfX|.fXVXJXJXvXfXyX0X`.3.. 5 9.N uX7.s.).].[.7.`.d.`.a.`.`.d._.a.s.s.).a.a.).a.a.7.0X=.%.[.'.(. X X X(.W.Q.Q.(.}.}.}.^.^.^.^.^.^.+X~.^.^.^.~.Z S T.3X@X~.+X^.~.!.!.~.~././.^././././.'.'.'.|.'.cX[.+ < 0.>.3.g U X.U  . ._ y 8 8 .  .8.3.>./ / ( R W ^ @.R ! Q I H Q 4 H  . .I F F g y y 8 g I ` 2.1.t % 6 o U w.....2.....` K 6 3 T.",
"  %.+ $ 4 q D R 5 4 q X @ @ + # # # 4 G w e ! >.# q ,.2.U | j X.~ { { [ L N *.s.;.u.;.;.;.u.Q.W.-.i.-.-.Q.Q.W.W.;.;.u.(.Q.'.'.(.}.:.1 bX'.Q.Q.i.;.u.Q.}.|.cXcX|.|.%XcXnXcX(.V C ;.'.'.W.(.;.M cX}.}.}.}.|.}.}.W. X}.Q.Q.Q.W.W.(.(.Q.'.'.'.}.|.cX1 < < i N e 4 R 1.! 3.`.B W |.].s.{.yXqXd.<.B < . B ^ ^ 9.e `.).a.).`.).a.d.a.7.).7.7.7.).a.s.s.s.a.s.).).(.7.7.@.B ].s.(.(.W.(.W.Q.Q.Q.(.Q./.^.^./.^.^.^.^.+X~.~.^.E.^.-.A R.3X+X+X~.~.~.~.~.~.!.!.E.!././.E.W.W.W.W.Q.;.(.uXW : *.8.[ 3 L P } | | U g O . D 3.[ *.^ W ^ W *.1.1.^ ^ Q H H R e G ~ [ ~  . .y 8 j y y y j h U F 8 g e O ..6...2.2...6.U 2.D @ T.",
"  :.+ @ $ X @ # # # $ @ # @ < 3 : # : < 5 N >.~ 7 q { ,.} } h ..7 P ^ Y ] V $.Q.;.i.;.-.-.-.-.-.i././.}.Q.Q.W.u.Q.W.Q.Q.Q.Q.Q.Q.^.T.S '.}.W.W.W.W.Q.-.Q.(.}.}.'.%X%X|.|.|.%X%X'.$.}.%X(.}.W.M bX}.}.}./.Q././.Q./.Q.Q./.}.}./.}.Q.Q.;.Q.(.(.(.oX$.< . . . . . w q ! q 9X`.H + W %.*.i X $ 5 3.NXLXLXSXhX^ e yX).].).(.7.(.(.a.`.(.7.7.(.7.7.7.s.a.a.a.7.(.(.7.I.0.V ].;.(.(.(.;.(.(.Q.W.Q. XQ./.^././././.^.~.^.+X+X!./.-.!.R.3X#X+X+X~.~.~.~.~.!.!.!.!.E.E.E.W.W.W.W.Q.W.;.P.|.< < *.P # ~ I I U g K g o @ 5.( ^ E W E E ^ ^ 5.Q G D D D D D e 1.L e g g g h h | _ f y g y 8 g g ` - % ...._ | 2.2.6...,.I # T.",
"  :.# $ # # @ $ $ $ @ X @ # # 4 < < 4 5 7 0 * 5 7 q I [ ..{ { { p B *.W *.$.$.(.-.W.Q.Q.u.u.Q.Q.Q.}./.Q.Q.Q./.Q./././././././.Q.~.>XR.^.-.-.-.-.Q.Q.A 1 Q.}.}./.}.}.}.}./.Q.W./.}.:X}.-././.2 }.Q./.}.}.}.}.^././.Q./.}././.}.}.W.W.W./.W.Q.}.|.V 1 ;.(.(.(.].`.7.(.7.0 >.( >.R N 0 + 0 <.<.8.hXBXNXSXLXNXY JXa.).a.7.(.`.(.(.7.7.7.7.7.7.7.7.7.7.7.7.).7.7.a.7.0.B ).(.I.(.I.(. X;.W.(.(.(.Q.Q./././.^.!.~.!.^.^.^.!.E.A Z R.3X+X~.~.+X~.~.~.~.^./.!./.E.E.E.W.W.W.P.P.W.W.;.I.< W a.] q F g h U _ 2.8 # @ 0.R E W W W E ^ Q 9 # D F K g g 4 Q F i N w g g g f ; f y 6 - 5 - - - e 8 8 y 6 O - - - - - 6 - < T.",
"  :.B < # . . . $ $ X X # 5 4 5 # 5 5 5 4 5 + . . < < + + 0 i p B E 0 ] =.:.$.(.Q.Q.Q./.Q././.Q./.Q.Q.W././././././.^.^.^.^.^.E.T.3XT.=X$XXXXXXX$X^.A M M Q.}./.^././.^./././././.E.^.E.E./.M XX/./.^.^.}.^.^.^.^././././.^././.W.W.W.-.Q.}.'.%X1 -.cXbX%XcXcXcXcXcXbXnX4.e 8.<.e i 4.).a.=.W B i [ hX8.NX< `.(.s.;.7.7.(.7.a.7.(.).7.7.7.a.a.`.`.d.7.).(.7.7.7.<.B (.7.I.(.(.(.(.W.(.'.(.-.Q.Q.Q./././.!.^.!.!.!.!.E.+X+X~.,X>X~.~.~.~.~.~.~.!.!.!.!.!.E./.E.W.W.W.P.P.;.P.(.I.> B a.3.w Q ~ g g F - . - @ 1.G Y Y R W W &./ R ( ( D e J 5.Q T / ! ..I 8 g a a 8 ; . . . o % - 5 e 4 O - ..U K _ | ` 2.5.~ @ T.",
"  :.0 q t J J D e q q 3 # 3 # g ! P 5 q e N J P N N 0 E 7.).a.{ 7.a.W V $.$.C }.}.'./.^.^.^./././././././.^.^././.^./.^.^.^./.Y.1X2X1X#XXX/././.^./.^./.M M L.$X^.}.$X^.^.^./.!.E.!.!.!.!./.M }./.^.^.^.^.^.^.^.^./.^.^.^./././././.Q.Q././.}.%XM /.}.Q.P.Q.Q.P.Q.(.|.mXE > < < 0 B =.7.=.s.=.=.;.%.0 *.`.0 (.(.(.).a.a.(.].].`.(.`.).).=.`.`.`.7.7.7.(.7.7.7.0.<.b (.;.(.(.I.P.P.(.(.Q.Q.Q.Q.Q.Q./.E./.^./.E.!.!.~.~.~.!.T.>X#X~.~.~.~.~.~.~.!.!.!.!./././.Q.Q.W.W.W.;.;.;.(.C > Y W W G I 5...U g 6 - 5 @ 1.9.<.E W W E E W @.^ ^ / &.<.<.R &.1.5. .h X.6.o.X.| U  .` D 4 . . o O O X w.tXw.w.w.m.6.2.w.H @ T.",
"  V # X 6 F H H T ( ! H / 5 - [ >.3.>.! <.4.8.a.<.4.P s.].s.s.4.=.;.$.C V :.C Q.(./.}.^.^.^.^.^././.^././.^.^././.E.E./.E.!./.!.>X2X1X~.E.E.!.E.E.!.^.;X/.M M /.$X$X$X^.^.!.!.!.!.!.!./.^.$XA ;X/./.!.E./.^.^.^.^.+X}.}.^.^.^.^.^././.W.Q.}.}./.C P.Q./.}.}.}.}.(.Q.|. X'.fX7.< 0 0 < %.7.*.$.:.s.;.:.(.[.7.7.0X7.`.7.=.7.7.7.`.(.(.`.].).).).7.a.7.7.).).7.7.I.0.v [.I.(.(.P.P.P.P.Q.Q.W.Q.-.V P./././.!.!.!.!.!.!.!.!.!.~.K.7X~.~.~.~.~.~.~.!././././././.Q.Q.W.W.P.P.P.;.(.< B p.p.y.O.l j h j g . - | g X 9.9.&.^ W E R R Y Y Y Y Y Y B T @.( F % ....m.p.6...| 6.M.M.2.F % o # % o ~ 6.| .._ _ ~ F H 4 $ #X",
"  + $  .N.B.B.B.M.N.M.tXqX3 * L i { 4.=.4.4.4.4.h.g.B 4.=.=.=.=.:.$.;.V C (.$.-.Q.Q././././.^.^.^.!.!.!.^.^.Z S M S S M S !.!.K.T.2X>X+X!.E.!.!.!.!.!.^.~.E.A S Z &X@X$X^.!.E.E.!.!.~.~.~.;XZ ;X@X^.^.!.Y.E.^.^.^.+X+X^.!.^.@X^.^.^.E.E.^.E.^.W.1 -./.}.}././. X}.}.}. XmXmXVXvX< W &.< 7.0 ] uX].(.7.7._.<.{ NX7.W C E $.$.$.%.;.;.7.).7.7.7.(.7.a.7.a.).7.7.a.<.N `.7.(.;.P.P.;.;.;.P.;.W.Q.V -.}.E.E.E.!.!.!.!.!.!.!.!.$XS =X~.!.~.~.!.!.!.!.!.!.!.E.E.E.W.W.W.W.W.;.;.;. XB P X.y.y.r.r.v.y.x x x V.v.h % I <.R Y R R R Y Y Y Y Y Y H J G H F O ` ..8  ....._ | ..2.2...g 8 5 % 5 . U 6.......`  .F K r # T.",
"  + 7 g.M.B.A.B.B.B.V.B.,.4 - U p.N.g.{ p.g.g.7.yXhXB =.=.:.:.=.u.;.W.;.C A -.S Q.W./.^././././.!.!.!.!.!.!.!.!.E.E.E.Z A E.E.E.T.2X3X#X^.^.^.^.@X@X$X@X@X$X&X&X$X&X&X=X~.Y.!.E.!.~.~.~.E.!.S ^.~.+X~.!.^.~.~.^.^.^.+X+X@X$X^./.^.^.^./.^.^.^./.2 Q.}.%X}.}.}.Q.'.}.mXAXoX|.cXcX7.> @.W 5 &.qXyX`.`._.7.8Xi R 0XE `.7.).].).a.a.=.=.%.E 7.7.=.7.(.7.a.).7.a.(.a.7.N a.7.=.;.;.u.W.W.;.W.-.W.-.;.W.W.E.E.E.E.E.E.E.!.!.!.!.!.Z @X!.~.~.~.~.^.^././.!.E.E.E.E.W.W.W.W.W.;.:.(.C N 7 p h l j j j l O.s l m.s | - X G W R E W W Y Y H G B G F F Q H Q w 6 O y 6 - - 6 8 6 6 6 6 & 6 X . & X ..6.` `  . .` U g 6 % Y.",
"  + e P I X.o.m.m.V.V.V.N.I e X.~ 4...[ [ *.*.] E B B C C C C ] $.:.$.$.M C A A -.W.-.E././.!.~.Y.Y.Y.Y.~.Y.Y.~.~.+X~.~.~.~.~.!.#X4X3X#X^.~.^.^.^.^.^.^.^.^.~.~.~.^.~.~.~.~.~.~.~.~.Y.!.!.!.S ~.!.!.!.~.~.~.!.!.~.~.+X^.^.^.^.^.^.^.^./.E.E./.E.2 :XQ.:X%X%XP.(.W.(.bX%X(.].|.I.].7.+ W =.* d._.[.uX[.*.R 4 . . 0XfXyX).0X[.a.a.=.s.s.a.uX].4.7.=.=.=.7.7.=.*.=.P 0 a.7.7.7.;.;.7.(.(.(.;.;.$.P.-.-.-.Z A Z Z Z Z Z L.Z K.M S /.!.!.!.~.!.!.!.E.E././.E.W.W.W.W.W.W.W.;.(.|.> + 7 i P X.O.h j h s s l s l j j # @ 0.( ^ R L H G G B N D q - 6 8 g e 8 O - - - - O - 6 8 8 8 F Q ` t O X 6.X... . .~ I g - y % Y.",
"  # N N I U ..6.m.V.B.B.M.F 7 ,./ 7 5 R { { { 4.7.=.0 2 > > V $.$.:.;.:.;.$.M A -.-.Z Z Z L.Y.T.T.T.T.3X1X3X>X>X>X>X>X>X3X3X>X>X>X2X2X3X>X3X3X>X>X3X>X>XT.T.T.T.T.T.T.Y.Y.Y.Y.Y.Y.Y.Y.K.Y.!.S Y.Y.E.!.~.~.!.!.E.E.E.!.~.~.^.~./.^./.!.!.E././.W.M -.}.}.:X}.P.Q.Q.P.'.}.'. X X X(.|. XV 1 W W ). XI.%.B > > N *.=.%.=.a.7.=.*.*.*.=.7.7.=.7.0.*.%.*.*.*.7.=.+.N B 0 =.=.*.7.7.*.] V V $.$.;.;.W.;.W.W.;.-.-.A Z Z Z Z A A M S E.E.E.E.L.-.-.-.-.-.-.-.-.-.:.$.;.;.P.;.;.7.B 9 0 7 U y.O.l O.y.y.x x c z x l h O # 9.Q D g g g H q 8 g e g F w e ! >.( >.>.>.>.&.! ^ Q L Q ] &.,. .8 % o 2.....~ U ! I ~ K 6 6 Y.",
"  < ( D F U 2.,...6.p.p. .e 7 R ^ R q 4._.8XdXfXfXd.*.p ] V V $.$.;.|.%XbXoXM -./.^.$X$X$X;X$X@X@X@X@X@X@X#X=X=X=X=X@X@X.X@X@X!.R.2X2X4X1X2X3X<X#X>X3X3X3X3X3X3X3X3X3X#X@X~.~.Y.!.~.~.Y.Y.A S !.^.~.~.^.^.~.^.^.+X!.^.^.!.E.E.E.E.E./.^.^./.-.-.C C /.Q.}./.Q.Q.W.W.(. X(.'.'.(.'.(.'.(.$.;.(.'. X|. X X:.> ].|.(.(.(.|.|.(.'.(.a.7.).a.).(.7.7.7.(.a.`.`.`.7.*.E 0 s.s.7.[.uX`.=.=.*.;.;.;.'.|.}.}.}.}.}.}.$X}.}.}.}.^.}.M -.$X}.^.}.}.}.XXXX}.Q.-.A -.;.;.;.;.(.(.I.=.=.E 0 e * { X.X.| x v.v.v.x x O.x h 8 % @ F q # 8 g w w e - 3 @ _.`.<.=.*.=.*.7.7.=.=.=.*.*.=.*.{ *.E P H @ # . U  .g ~  . . .,.F y 6 Y.",
"  X < R g F ~ 5.[  .>.[ 7 q N &.1.{ &.{ ] 4.4.*.4.*.=.] ;.;.$.$.M (.|.mXmX'.M -./././.!.~.!.!.E.E.!.E..X^.^.^.^.~.!.!.~.!.k.E.~.R.2X2X1XT.!.E.^.~.~.~.~.~.~.~.~.~.^.^.^.^.~.@X@X@X@X~.+X@XK.M @X@X@X@X@X@X@X+X~.~.~.^.~././.^.^.^./.^.$X$X$X:X%XM M }.}.}.}./.}./.Q.Q.}.}.(.(.(.(.Q.Q.W.(.u.;.u.P.;.;.(.$.1 ;.;.:.;.;.;.-.-.-.-.-.;.;.=.:.:.:.:.;.;.;.7.(.7.*.7.E B a.7.).4.7.a.=.*.=.:.:.:.$.;.$.:.-.-.-.;.-.-.-././.L.Q.M -.E.E.E.E.E.E.E.E.E.W.W.-.W.W.Q.;.;.;.P.$.:.=.).Y 0 # 5 H g g f f h ; k x x j y - @ % X 4 ~ 5.5. ...X.! . . d.=.=.7.=.*.*.E W ] { { { *.*.{ *.*.E ! ! 6 % X K ..K ..` F U K % F 6 Y.",
"  : e ( I Q H 1.9.1.( e < e B Y 7.Y 7.3.{ 7.&.B P B V $.$.$.$.u.|.KXmXcXmX%XC -.}.}.W.E.!.!.!.!.E.^.^./.^.^.~.~.~.~.~.~.^.!.Y.T.1X1X,X,XU.R.R.T.~.~.~.~.!.!.E.!.~.~.~.!.~.~.^.~.~.^.^.^.+X!.M ~.~.^.^.~.+X~.~.!.!.!.!.!.!.!.~./././.^./.!./.^.:XC C bX:X}.}.}.}.}.Q.W.(.}.}.(.(.(.(.Q.Q.W.;.;.;.;.Q.;.;.;.V  XW.W.-.;.W.-.L.-.-.-.;.;.;.;.-.;.:.;.;.;.;.;.s.;.7.%.W 7.=.=.] ] V =.=.%.$.$.:.;.:.:.$.:.-.W.-.-.-.-.-./.L.W.M E./.E.E.E.W.E.E.E.E.L.W.L.L.-.-.-.;.;.;.:.:.E W W ^ $ . . - h h O.e.x x x k y . . $ . . / 5.>.4.4...6.N.8 i d.4.*.=.*.&.&.{ ] ] E { &.*.*.&.{ { ] ! Q q @ o F 2.` ` U K g 8 6 y 6 Y.",
"  0 0 R T ( L ,.9.9.0.3 X 3 v N %.Y P ! { g._.3.<.%.$.$.$.:.$.'.mXmX|.'.(.Q.C ;.XX}.W.-.E.E.E.!.E.E.!.!.E.E.!.!.!.!.~.~.~.+X>X#XR.,X#X}..XY.R.3X#X@X+X!.E.E.E.!.!.E.E.E.Y.!.!.!.~.^.^.^.~.^.M ~.+X~.~.+X+X~.!.!.!.!.!.!.!.!.!.!.!.!.!.E.!./././.A M *X}.}.}././.Q.W.P.P.Q.Q./.Q.Q.Q.Q.Q.W.;.;.;.P.W.-.Q.;.V P.W.W.;.-.W.;.L.-.-.-.-.;.;.;.-.-.-.;.:.;.;.;.7.0.0.W Y 0.7.4.*.] ] ] *.;.:.$.V $.(.%X}.;.V :.-.-.W.-.-.L.L.Q.S A W.E.E.W.W.E.W.W.E.L.-.-.-.-.-.-.-.;.:.:.:.W W E P p O.v.v.v.z z.z.l.z z z O.h a j | | f U 7 ! M...X.X.F >.*.] ] *.&.*.{ ] { *.*.{ { { ] *.{ *.<.&./ 5 o o e ` t 6 t t 8 I t t % Y.",
"  b < E ( ( q <.9.0.1.5 $ < +.1 W B 7 >.4.! { &.4.$.$.$.$.$.$.:.:.-.A -.-.-.C W.}.Q.i.i.E.Z E.!.E.!.E.E.E.E.E.E.!.E.E.!.!.~.T.@XA Z '.OXh.bXM S Y.!.E.Z Z Y.Y.E.K.Z K.K.E.Y.E.!.~.^.^.!.!.^.M E.^.!.!.!.!.!.!.!.!.!.E.E.E.E.E.E.E.E.E.E.E.E.E./.-.M :XQ./.Q.W.W.Q.Q.Q.W.W.W.Q.Q.W.Q.Q.W.W.W.L.L.L.L.W.Q.M 2 V (.Q.P.W.-.L.L.L.Z -.P.;.:.;.;.;.;.;.-.;.;.;.;.;.<.P B 7.7.4.*.E %.W V W +.C V '.].|.(.;.;.C V W.W.;.-.M -.W.S C L.-.-.L.W.L.L.L.-.-.-.-.-.-.-.;.;.;.:.:.V $.7.G U y.v.v.z.d t.z.z.t.z.z.r.c x l x | O.x x x h - 8 % & . 8 3.*.*.*.%.{ ] { *.&.{ ] ] ] ] { P ] [ ! ( F @ @ 5 o . o o o 6 _ 6 y @ Y.",
"  C < R ^ @.e ,.8.5.9.7 $ # 0 B @.9 i 3.8.<.&.*.=.*.$.$.$.$.:.:.:.-.-.-.;.-.C ;.u.-.Q./.Q.W.W.W.i.E.E.E.E.E.E.E.E.E.i.E.u.u.OXjXOX} } h.p i.u.s.h.C A A L.E.E.E.S Z E.!.E.E.-.E.E.E.!.!./.^.M /.^.!.!.!.!.!.!.E.E.E.E.!.E.E.E.E.E.E.E.E.E.E.E.W. XM }.Q.Q.W.Q.Q./.Q.Q.W.-.Q.Q.W.-.-.W.W.E.W.E.W.W.W.W.W.-.n A Q.Q.W.W.W.W.W.E.-.-.W.;.-.-.;.;.;.;.:.u.;.;.;.=.7.P B g.=.=.%.=.%.W B N 7 B s.).{.s.s.s.:.$.V A $.:.:.+.$.P.A C Q.-.-.L.L.-.-.-.-.-.-.-.-.;.;.;.;.:.;.:.V C P i X.x r.z z z.r.r.z.z.z z z x z c x z.z z l.v.v.k o O @ - g 3.] { %.] ] { ] *.{ *.{ W W W ] ] ] B D H q @ o t % 6 6 & o 6 t r 6 % Y.",
"  C < @.^ @.e 3.8.8.8.w $ @ N `.I.B 0 [ <.3.>.<.4.*.$.$.$.$.:.:.-.;.;.;.;.:.M ;.u.u.Q.u.u.'.'.u.i.i.Q.i.A -.W.Q.-.Z -.$.h.j.j.j.F.C.j.F.j.j.j.j.OXh.C S W./.E.L.L./.^.!.E.E.E.Z Z Z E.E././.M L./.E.!.E.E.E.E.E.E.E.E.E././.E.E.E.E.W.W.E.Q.E.W.}.2 Q.Q.W.W.Q./.Q.Q.W.W.W.W.-.-.-.-.-.-.L.L.E.E.E.E.E.W.-.M -.W.W.L.-.E.E.E.E.E.-.L.L.P.;.-.;.;.;.;.=.;.7.s.7.d.W P <.] L B *.4.=.] p < *.uX).7.(.s.s.:.'.V C :.+.$.;.A P.:.M (.;.W.-.-.-.-.-.-.:.-.-.;.;.;.:.:.:.:.$.V C W p } x r.r.z r.z.z.z.z.l.l.z.b.v.b.z.l.z d d d z O.& . . # 5 X B ] ] P W R ] ] ! P P P P B P P B J L e X . . % 6 % & % y t 6 t 8 5 Y.",
"  C 5 @.R ^ e 9.g.8.6.i @ + 0 ^ N N ] Y 7.*.*.4.<.*.$.$.$.$.$.$.:.-.;.;.;.:.M ;.Q.u.u.-.$.u.;.u.u.Q.u.W.i.$.Q.'.s.s.h.j.y.C.F.C.C.F.F.j.y.j.y.j.j.C.j.i.C A A Z L.W.E.A -.-.Z -.A Z -.L.Q.Q.M W.Q././.E.E.E.E.E.E.E.W.E.E.E.E.W.W.W.W.W.W.W.W.P.P.M V (.(.W.Q.Q.Q.Q.W.L.W.-.-.E.L.L.E.E.E.W.Q././.E.E.E.L.S L.W.E.L.L.L.E.E.L.L.L.L.L.L.P.;.P.;.W C * p ! [ L L q q ! &.P 0 B P { ] + i ].).] %.=.$.$.$.p 2 C $.C C  X;.;.-.C P.-.-.-.-.-.-.:.:.:.:.:.:.:.:.:.$.:.:.*.N W *.X.y.v.v.v.r.z d t.z.l.z.z.z.l.l.b.z.d z.d v.z.x z v.| - g @ . . G ! ! P i i P J i i i i B B i P P i i e 7 - g g y - y 6 y g 6 6 , Y.",
"  b 5 ( G T G 8.f.8.[ 4 $ : : $ i P *.B > <.4.4.4.{ ] ] $.$.$.$.$.:.:.:.:.:.1 ;.u.'.Q.u.u.u.] $.:.u.;.u.;.:.'.(.u.u.OXj.y.y.C.F.C.jXC.j.r.y.y.y.j.C.C.C.p C ;.$.-.A A -.A -.-.A -.A A Q.W.P.C :.P.L.W.L.W.W.L.W.W.W.W.W.W.W.W.W.P.L.P.P.P.P.P.P.P.C 2 P.;.P.P.W.W.P.L.L.W.-.-.E.E.E.E.E.E././.E.E.E.E.E.-.1 -.E.E.L.L.L.E.E.L.L.L.L.L.-.-.;.:.b + 5 7 L ~ 8 O @ # * ! R B i B R ] ] =.*.).7.E ] *.$.C C V $.$.V V p ;.$.$.:.b P.$.:.:.:.:.:.:.:.:.:.:.:.:.$.$.$.$.$.W V W 3.p.x v.z.l.l.z c d t.z.z.d z z.z.x.z.z d z z.z n.v.l.v.h - = F L # Q [ ,.P { { P P P P P W ] } { { { L P L p 8 F U h y O 6 g 8 6 % K.",
"  9 : 5 9 < q D F Q J 4 @ : < 3 G { &.P G i { >.{ ] ] $.*.*.$.$.$.$.=.;.7.;.1 =.u.u.u.s.(.u.] ;.;.:.;.;.;.(.s.;.i.] i.s.} } X.X.y.j.y.j.j.y.j.r.C.b.l j.} 1 W 1 C A -.$.A $.-.-.-.;.-.:.;.W.1 $.W.P.L.-.L.P.P.P.P.P.W.P.W.W.W.P.P.P.P.P.P.P.P.Q.Q.V V ;.C -.P.;.W.W.W.Q.W.E.W.E.E.E.E.E.E.E.E.E.E.E.E.E.Y.U.Y.E.E.E.E.L.E.E.L.L.L.L.L.-.L.;.n < < e N i q 8 8 e 5 @ X 7 J [ ] N P =.<.{ *.*.W W ] *.*.=.7.=.7.$.7.;.1 :.$.$.b :.:.:.:.:.:.:.:.:.:.:.$.$.:.$.$.$.$.$.$.E W / - = v.z.l.l.d r.l.z.l.z.d z.z.z.d z z x d z z.l.z.z z l f a ! [ @ X I ! [ { L L { *.! { B P P } { >.{ P L 8 5 - 6 6 - - 8 ` g ` % K.",
">X: Y ^ &.J N N e 9 4 $ : , : : G 3.>.R 3.^ i 4.{ <.*.=.=.=.=.=.=.=.=.=.;.*.< *.=.=.s.s.=.=.s.;.].] 7.{.=.=.;.s.h.s.i.] p p i.j.l l y.l y.y.x y.y.l l } p B 1 1 $.-.:.A $.:.-.;.-.-.$.C C ;.p ;.;.;.-.-.;.P.W.P.P.P.P.P.W.W.P.P.;.P.P.P.P.P.P.Q.(.$.$.;.V V $.-.;.W.Q.Q.W.E.E.E.E.E.E.E.!.E.E.Y.Y.E.E.!.T.1XY.!.E.E.E.K.E.E.E.E.L.L.L.L.P.;.n 2 < 0 i * 7 g g g g 8 q J &.f.&.q *.] G P E ] B Y ] %.*.*.%.*.] E :.] V C $.$.b ;.:.$.$.$.:.$.$.$.*.*.$.$.$.$.$.$.:.%.W Y 4 . O o.v.v.r.r.z.z.z.z.z.z.c z.d z z x c c d d d d d s ; 8 - 8 # . . 7 7 7 L p P ! { ! F L F L L ! !  .[ { J - e ~ h 8 j U g g 8 F % J.",
"T.+ 0XpXf.9.M.M.5.&.( @.: @ : # X * 5 q < e . q e e e N e 0 0 0 B Y P B B B < W ] ] { ] a.7.*.P s.d.4.4.=.B C +.V ;.%.N =.] =.j.j.j.l j } } l y.l a l p X.h.p 1 $.7.] V $.:.;.;.;.:.$.$.:.$.1 $.;.;.:.$.;.:.:.;.;.;.;.P.P.W.;.P.;.P.P.P.Q.P.P.;.I.C V ;.C C +.$.S A -.W.W././.Q././././.!.E.E.E.Y.Y.Z Y.T.3XY.E.L.E.E.E.L.L.A A Z Z A Z Z $.M 1 < * 0 5 5 F g F g g i Q ! P D P ^ { R E ^ G G %.&.{ ^ E Y V Y W E %.V 0 C C 0 $.$.$.$.+.+.+.W +.$.+.+.E W W +.+.W + 7 j m.x x v.r.z.x z.r.r.r.z.d d x z x x j h f f 2.o.6.V.6...O . @ X @ g g g P g g L L ! [  .Q I w w e e 8 3 e r X . 8 g 8 f g y 6 - % o @ Y.",
"R.$ `.[.>.3.[ ,.9.f.9.UX/ @ @ $ G D 4 3 G Y ^ R v N N N Y %.`.0X_.0X8.7.3.=.< 7.7.s.`.uX_.d.7 { a.g.4.p.=.4.] =.[.(.;.s.*.=.{ X.p.p.a p p g } p.j 7 P X.} h p E G 0.B 0 B 0 0 B b B B C V N b b 0 V W B 0 C C W *.=.;.;.$.$.:.:.:.:.:.$.:.;.:.V 0 < > 0 0 V $.$.V V :.-.A -.P.L.L.L.L.L.L.L.E.E.K.K.Y.T.1X2XT.T.Y.A L.E.Z A Z M S A Z A Z $.A :.C 0 0 7 i 4 q I F q 7 - - 7 g [ G ! W W H R ^ R H R D q w N B B B B 0 N 9 < < e 0 0 b B B B C V B B B B V N N N * I p.y.b.z z z s c c c d d x x p.O.f F qXpXqXf.5.8.qXaX9XMXM.M.~ ` t 5.O K  ...,.,.X...[ [ ~ U h U ~  .I K F g w 6 3 @ 5 # - - 5 % 3 , 4 @ @ R.",
"R.$ 0 0.P e 3 [ 8X9.aX5.@.$ $ + 9.9.<.&.8.`.`.7.3.4.e <.7.7.d.g.g.d.d.a.7.=.7 7.7.7.7.=.=.%.=.=.%.E _.7.:.;.=.$.;.(.;.;.(.).P 8 g p p a 7 g P 7 7 4 5 7 * i i B N $ 7 4.7.7.7.4.*.W 0 . G @ 4 9.3.*.^ &.7.7.7.4.=.a.`.`.=.E E ] E E W W B W B B < 0 B +.V E ;.(.(. X|. Xu.A A A -.W.Q.Q.Q.Q./.-.Z Z T.3X1X3X1X>XR.K.L.L.Z L.L.L.Z Z Z Z -.-.:.$.V W 0 7 p 7 p - # 3 - 4 g e g F J D J P J H H Q D w D q B B B B Y W B Y B G # N Y E Y B B E *.*.*.%.E E E &.G 4 - N.m.V.v.y.x x l x c l x f h o.6.! R @.1.R ! [ [ [ @.( N R / [ 1. .4 F F g g g L U U L I L P D J I ~ [ ! ~ / ~ L Q D $ e J F t g F D t w $ X T.",
"R.+ G Y 0 N v G <.^ >.^ &.$ $ N &.7.*.3.<.7.=.=.*.] <.7.7.4.=.=.4.4.s.s.7.{ < 7.7.=.=.=.;.7.=.7.=.=.=.=.$.$.:.;.$.;.7.=.4.] . e ! * a ; ; p ; O.V.p.o.o.L . $ $ 5 < G d.*.4.*.*.=.=.=.%.7 < 7 <.E E B W %.%.%.*.%.%.E %.*.*.=.=.*.=.=.4.4.E E E # B =.;.;.:.;.:.:.:.$.$.-.A -.-.L.Q./.^././.E.-.E.E.Z Y.T.1X,XZ Z E.E.L.L.L.-.-.Z Z Z A -.$.C C B L 7 j O.y.y.O.l h 8 5 6 # . # w 5 D F H w H J G &.B 0 Y W W E E E %.%.+.*.0 W %.*.*.%.W E E +.W Y Y B 8.3 0 X . # 8 o.V.m.j l x l x j O # 3 1.R ^ W &.W ^ / &.@.1.<.5.9.*.*./ ( ( X D !  ...~ {  . .[ [ &.[ ! Q R G L P ! P ! R F D X D t e F K K K F t $ X T.",
"T.+ e &.%.W E %.0.9 <.<.T # $ E &.^ E *.*.=.*.=.^ *.9.3.8.<.=.=.=.=.=.=.*.E < 4.=.*.=.=.*.*.*.%.*.] ] E W =.7.*.0.%.N 3.O 7 4.4.} 7 - 8 f j x v.r.v.x o.m.O.j F i 5 . B :.:.] %.*.] d.7.Y < < `.<.*.*.E E %.%.%.%.%.%.*.] *.*.*.*.*.*.*.%.%.+.+.< V $.;.;.:.;.;.:.-.;.W.P.L.-.-.-.A Z L.L.-.A S E.W.E.E.K.U.U.!.Z L.L.L.L.Z A A -.-.A A :.+.V =.P p j O.y.v.r.l.r.x O.O.j a O.j 6 f F ,.~ F 7 3 H B N Y V B Y W E +.+.%.Y E B B =.;.:.*.*.V 0 P a x O.y.y.x c x O.O.f f _ o.j j l s O - o X * 3.<.>.[ *.%.&.^ @.@.^ @.0.1.R %.&.! H < G @.7.&.( H R ( / / [ [ / L R R L P G G F H D m X J F w F D D F t t @ X T.",
"T.+ . E Y Y %.*.7.&.9.0.w @ # %.*.W %.%.%.*.*.*.&.^ q e N [ %.] { =.*.*.*.W 5 <.*.*.=.%.=.*.=.*.=.7.7.+.%.=.0.*.E 0.W . @ 3.X.X.h ; a f ; l r.v.b.r.v.d x x l U ~ [ [ . &.*.%.E ] ] 7._.`.# 9 0.*.*.*.%.^ ] W %.%.%.*.*.%.! ] %.*.*.*.*.%.*.+.*.< *.I.;.P.$.$.:.P.;.-.-.-.-.-.-.-.-.L.-.-.-.S M A L./././.M n Z S S S S S C C M C C V +.V $.=.{ } j.v.v.l.b.b.r.z.z.l.v.x x v.x s h O.o. .e # w T @.@.E B B Y B B B B B B W E < *.*.@.&.i X.y.v.r.r.v.l.z.b.z.z.z.v.v.v.z x s ; | ..~ ~ m H H / [ ^ { &.1./ ^ ^ R ^ Q R G R ( Q G R 7 ^ <.0.<.#.#.B Y R ( / ( J G G Y G B B Y J w D r @ / Q F D D t t r q : X T.",
"T.$ + &.E W %.E ^ ^ ^ @.3 @ 5 @.B W E E E %.=.&.&.q + @ 4 / [ W W %.] E ] P * 7.=.*.%.*.4.E %.<.*.*.%.*.%.%.%.0.*.0.7.W < M.! X.h ; j h ; f l x Z.b.v.v.s s f f ; B.lXI - I J J J G { &.R < G <.@.^ @.^ ^ E E %.^ %.%.*.3.[ ^ ^ ^ %.*.*.@.+.W @.: +.;.$.;.;.$.+.$.$.A S :.-.-.-.-.-.-.Z Z -.M S E.W.-.L.-.M C i.i.i.} i.} } } } } } } y.j P } j O.v.Z.b.r.l.b.l.l.l.r.l.l.l.d z.z x c h - . . q T ^ T B B Y Y W Y Y Y Y E G Y : @.B 0 X y.Z.b.x.r.c d z r.r.r.t.d c z c z.l.z s y 5.<.@.@.1.1.1.@.@.&.@.@.^ ^ / R R / Q ^ ( ^ R R ^ e N B @.0.`._.7.i e Q ( Q J J v D v v Y G e v D @ # / H J J t t g t t , X T.",
"T.$ + &.Y B E E B Y Y R # # 9 *.E W E W P W E ! ! P q 4 e 5 J [ ^ { ] E E B * d.7.7.=.*.*.%.%.*.E %.*.=.=.%.%.=.*.W =.7.*.d. .6.h ; f j ; 8 ; j O.O.; ; ; f ; - g 6.U h w.- X . . . X . X 3 ^ <.&.&.%.@.^ ^ ^ E W E E *.[ Q / &.%.E W %.%.+.V +.> +.$.:.;.=.:.;.:.$.A $.$.-.-.-.-.-.-.-.A -.-.M A A A V M n =.j.y.j.j.j.j.j.y.y.j.j.y.j.y.y.h y.b.b.n.b.r.r.z.l.z.l.l.z.x.b.x.x.z.z z z c 8 6 . @ 5 9 7 v Y W E Y Y Y B G G J v 5 X O U y.r.n.r.x s x z c z c z d t.z d t.d z c O 1.@.@.&.&.1.1.<.&.^ ^ &.^ R ^ R R R ^ ^ / / ^ E ^ < v G W %.0.<./ L F D F H H H H G v e N T H w H X @ H J w J J J F m w 3 X T.",
"T.$ + N Y B W E Y W T ( $ @ v 0.^ E P W P P R ! P { R ! g . . # e *.*.] ^ G 7 d.=.4.<.*.*.=.%.E *.*.*.*.*.E *.%.%.*.E *.%.[  .X.j a s s f = - j | j ; h f f U # t 8 % 8 e t g g F U g K F 9 T &.&.*.<.&.%.^ ^ ^ G Y &.^ R L G J P N E ^ %.+.&.I.< 7.=.;.:.$.+.:.$.+.+.$.$.$.:.;.-.P.;.-.-.;.i.A 2 1 M C n s.j.l y.y.j.y.r.r.y.r.r.x r.v.v.y.x | v.y.v.b.b.l.r.z t.z r.z.z.z.x.x.x.z.z.z.z z.v.x j h 8 # 5 v 0 N N N N e w w v 4 w ..| h l l x l s j l l l c z d t.t.c t.d c d c ; 9./ %.&.&.@.&.@.^ ^ ^ ^ ^ ^ ^ ^ ^ Q ^ R ^ ( ^ ^ ^ 0 0 Y E Y @.&./ R Q D ( H D D J D D T H H D D J @ 6 F N D v w e m q e 3 .   ",
"T.+ + Q R Y W E ^ @.&./ X $ e 0.D R R W N i 3.*.W { >.3.3.L X . 7 8.] P W 0 0 7.*.=.=.*.&.*.E %.<.=.*.*.*.%.*.E E *.%.] i ! P } h ; s s s f ; = 8 8 ; 8 - - | - . o o . g U | | O...|  .1.: v 1.^ &.1.&.^ ^ R H B G B G G L R R J 0 N R 7.@.^ `.< I.=.=.$.$.$.+.+.V $.:.$.+.V :.;.:.:.$.-.A -.-.n 1 V V C } } l y.} } } y.y.y.y.y.y.l O.l l l a l x r.v.r.z z z r.d z d z.z z.z.l.t.z.l.z.z.z.z.z.v.x j s s h ; - e 7 i D # 4 [  ...U f u ; X . . ; O = j ; l c c z r.d c c z v.8  .&.^ ^ &.^ @.^ W E E E R ^ ^ @.@.R ( E ( ^ ^ R E 0 e W Y Y E ( Q Q w w G G N N N N D J G H q q # o 6 H F e e J H H D J 5 X   ",
">X$ X D W W Y &.&.Y ^ 1.X X 3 ( G R P R R + 9.[ ^ 3.1./ D 7 5 i R E E Y R # 7 =.W E *.%.%.%.E %.%.%.@.*.*.*.%.%.] E ] P P { { } | a l l s j f h ; O # % I 7 K f g ..6.X.O.f ; f f h | j H 5 J &.R ^ / R ^ ^ E Y Y N N H R ^ ^ R w w B G N R ^ &.< ^ E E $.$.$.+.+.+.$.$.$.$.V $.$.$.$.$.$.:.-.:.+.1 + 1 P } ] P P P B p } j p p } h h O.O.v.b.b.v.r.r.v.r.v.z r.z r.c z v.b.l.v.z z z d z z.v.z z.d c s c x z k f & 8 K w q i g p } X.X.O.X.j | o.p.y.m.m.l O ; . % j s ; s e.x - F &.E E @.@.^ ^ ^ W R E ^ ^ R R @.( R R R E W Y W v 0 0.@.T G Y e # q 1.( e J N D D N H N 5 3 X . . 6 D Q t w q F F w w 5 X   ",
">X+ + H W W B ^ W Y Y R $ $ 3 T H R H ( ^ v ( < H H 4 . . / *.E P %.E G G + N %.E %.E ^ %.^ *.%.E ^ %.*.%.*.] %.] E E Y W { ..6.U ; m.h U ..X.X.U } U X.I p p.M.| ..X.U | h 8 8 g j j h F 4 5 <.&.^ ^ R R R G R H H ^ ^ ( Y B Y W B v 0 G R ^ ^ 0 W E +.$.$.$.$.$.+.$.V +.:.;.$.C V +.$.$.-.:.:.$.0 =.h.h.j.j.j.j.j.h.N.h.y.X.y.O.y.C.C.y.v.v.l.l.r.r.v.v.r.r.z z.z z z.z.x c d x c c c x x x z O.s j u u f u ; ; f 8 t T 1.! X.6.N.M.p.N.p.p.V.m.V.V.V.V.m.o.- O O - | U O.j f 5 1.^ W ^ &.E E @.@.E E ^ ^ ( ( ^ R R R R W R R W ^ B < <.@.R &.1.< $ 5 >.Q w H H H H H L G 4 e 3 X X F K ~ K e F F 5 4 w 5 .   ",
">X+ # D B 0 e E B N G w X $ $ J T ( H H ( 0.1.# . . . 5 ! >.W B P E P Y R @ E %.] ] E E E E W W E Y G W W ^ E ^ ^ W E P { *.[ 3.F - F { { ^ { W { 4.X.4.>.q P p.g - a 8 f g F e 8 h U j F q : &.L H L Q G G G N G G N w e w v N G G G N q N D v e R E W E +.+.$.+.+.W C V +.$.+.C C V $.$.$.:.P.W i wXh.l l y.y.y.y.y.y.r.y.y.v.v.y.v.r.r.r.r.r.r.l.r.r.z.r.c z x d z.z z.z z x x l s j s j h u O & o ; 8 y # @ I ,.<.1.*.@.P { 3.X.X.X.4.4.4.X.....} | X.| ..; O O X ..~ U U U 8 ( @.E ^ @.E W @.@.^ ^ R ^ E ^ ( R Y W W ^ E ^ ^ T R $ ^ Y G G N 9 . . X # e J N N N N 4 J / J # X X Q F D t t J J 5 6 3 # #   ",
">X+ X q 5 9 G W Y G R w X @ @ @ w Q / 5 G Q v X # X . q R H R P N G G G H # E %.Y Y W W E E E E Y Y ^ ^ @.^ @.%.&.W ^ W W &.&.( F 3 ! ^ G R [ ^ R ! { { R L J J D # @ X 3 - g g O g U j I H 5 v v N D J F T Q ( Q G J G D D G G N G N L J D T J 0 v B Y Y Y W Y W W W V V V V W V C +.$.$.$.$.;.C B B 7 i X.X.} X.} l j } x l O.O.l s l s s l r.x x v.z v.v.z r.d z.v.r.d z d v.s ; f ; - ; X $ . . O 6 h _ 6 q W B W W E W E B H L J ! P L e e e P ! ! D / >.~ Q / e . L g t F q H N G B R E Y ^ ^ ^ ^ R ^ @.T T W E E R E T R Y G &.< W T G N v v 9 X . e R G 4 : 5 w D H F w # X X @ @ . . . . . . $ # @ <   ",
"  $ + 7 9 9 e 9 q e q 5 @ @ X 5 5 q w / e 4 e w e e 5 $ X q e q 9 N G q e < N G N w w v B G Y N Y G Y ^ E W Y W E W E ^ e G G q 4 $ D L P P ] { ! Q L Q ! Q / 1.3.3.H @ . # o ~ K 8 f h I F w H R R i e D J T Q Q R G D N i e N i H R H e v N 7 e v 7 4 e 0 0 0 B G Y Y B Y V V V Y N B W B B 1 B =.4.{ p.p.p.p.{ { P i U } } } } l l l j f s l x l s s x x c l x x z z z x c x j f 6 @ . @ @ o 8 O O % . 3 T @.%.B B B W V +.0 0.<.@.T R ^ &.&.W Q { &.&.>.<.1.3.9.5.[ 4 # K 8 - F R R R Y T B B Y Y ^ G ( G B G N Y T G Y T G W J e : v G Y 1.1.1.H X X 1.H . 4 H ) ) w q w q % X X X . 4 w w v N v G q : T   ",
"  @ # 4 e q 5 q 7 w D e @ @ X r J N w <.G Q &.G G R R ( H q q q e 1.@./ / # 4 G R G G G Y W W E %.W Y W ^ ^ ^ ^ W E <.<.[ / ( / D . L 4.8.3.3.8.8.8.8.3.4.! [ 7.>.d._.d.L 5 % 8 g f f g I L 7 / &.T N v D T Q / R H D D D 3 3 w G / / Q E e J w v J N D N e < e e e e e N e N W W e < N P &. .>.4.{ X.X.X.} P ! } 4.>.{ { { ! { } } } } O.X.O.h j f a a s s ; s j s s s s ; j f ; ; - - g g t & K _ _ U 6 q &.Y +.V B Y W Y W < @.@.@.^ ^ ( E ^ &.^ G N ^ ^ R R R ^ &.<./ / ~ 8 6 I Q R ( &.E @.@.Y Y E Y @.^ @.@.G T R G B R ( ( e J . G &.&.<.1./ # . . # @ ) / D t q q r # # $ $ X X 4 ( ^ ^ @.@.R E 3 # :.  ",
"  $ # # ( w : &.1.R G J : 3 : 4 Q N N G N G H B Y G Y N T ^ ^ &.^ <.^ ^ / X q W P Y Y R W W W W E E W W W E ^ W W ^ R / ! 1.&./ D . ! [ [ [ { { [ [ { } { { P ! L W E *.3.9XL O . 6 8 g I 5 q @.^ T R G J G H G D D D G H D J G R Q H H &.^ ( e G D e H G i L H Q / >.1.1.H e q 3 w &.>.>.>.[ X...4.o.} ..X.g L >.[ } } ! ! L ! U ! U U U { | U U h f ; j a f ; ; ; ; ; O ; 8 O % - - | F g K q X % w H E W Y B W W Y V V V R > *.&.^ E ^ ^ W G R R Y B B G H R R R ^ ^ / 3.1.5 5  .G R G W Y W W G Y B @.E W Y Y E W R @.Y R R R Y &.X G q e # . . # 5 @ . q 5.~ D F K K K K D o $ $ . v ( R W T W Y G 3 @     ",
"  : : # q q < @.@.9 0 w # 3 9 3 ^ N e N 0 v v B B B G B B Y G B B v B v q X 7 G N N B N J G J N e e N B B G G B E R . i J L P J D . J L ! Q L J P J P P P P L L L Q L L ^ [ g 8 % o e  .K 3 R ( G G N v v J T G D D J D T ) ( Y R T N N R ( R N N ( 9 R ( / / / [ &.[ / [ ! # $ . / ,.[ ! P 3 e >.[ L P ! F D ! ! ! ! ! Q I L P L ! ! I I I ! ~ ~ { [ U I - 8 7 O - - 8 6 # 4 t 8 . - ` [ H Y Y Y 0 B W +.:.#.W W +.+.W V Y R 9 *.*.E ^ @.^ R T T G G G G G G H R R R ( E ^ R # # ~ N W T Y W W Y W Y Y Y Y Y Y Y Y Y R Y Y B R ^ N ^ X ^ $ q D K K K Q ` K t ` K r K K K g K t @ @ @ . G R Y W R T T D : @     ",
"  < $ @ X 5 < # 9 Y N e < # 5 # T e 9 v 0 0 B v N G Y Y G B N N B N B N D @ 5 J v 9 v N T J N w N B B B B B B N H w L N N J D D w X q L i i J J P J P J L P P L J L i P ! I 6 g 6 @ 8 5.q e Q G Y G N G G T T H D J D J T Q T T T J H G R R Q H N / N 4 D ~ / ~ ! L L H D G L q q D R J w N D L H ! ! ! J J / ! I Q L J J H L L Q L L I H L L Q L L Q ~ ! Q q $ . # 5 r @ @ g F ` K . 5 H H E E W W B B +.+.+.C V V W W W Y @.9 &.&.R R R W G G R T G N B N G G G G H G E G G q $ r N G B Y Y Y Y W R Y Y G Y Y Y Y W Y Y Y Y T R G 5 X @.9 H m D g F F F K I Q K t U t t D r X X % % . D R Y Y T Y T v # $     ",
"  9 @ $ # w w < N R G v : @ : 3 T N v H Y v e G Y W Y B N B N N B B B B Y @ e R B B B v J v G H Y H G B V Y N R / H ^ G P G J J F X J / i J J J J P L P L P P L P P i g h g _ _ 8 o X D @ w G B N N N N J G T H J J q J I Q I H H v G R R R Q H v Q Q e J Q I I L H H L H ( L Q [ ! L G i J H H H R Q R q 3 H J F L L J F Q / [ 1.( ( ~ L ! I I H H H R Q Q T J q . X $ X X 6 D g F o . # R Y Y B B V V +.+.+.b V W W +.W ( @.# T G e N Y Y Y T R W W T Y R R H D N N G B G ( J . D H N G Y Y ^ W Y W E R Y Y Y T Y Y R Y Y Y R R e 9 : #.v w m t t g F K K K K K K K g H 3 X 4 4 r r X r R T Y T T R v # +     ",
"  > X $ 5 D D q 4 N N e # . # 3 9 w e N G N 5 v B N B B G G B B B Y B Y T # 9 W B B B B Y v ^ T G B B B B B N H w 5 R B i e D H e $ ! L L B J P Q L P P P ! ! L i g i p ; k j j y O o X % w G G v e v w v m w e 5 < # 3 - - % % 3 3 5 5 4 4 q q 4 9 7 5 4 4 4 r 4 4 r e q w e e w w q q 5 q e q q q 9 5 5 # , 4 4 5 5 4 q q q q q q e q q e q e w w v T T H T T w @ # $ $ , , r @ X o @ H R v v v v N B B W Y B B B B Y Y T D # v e N D J G Y G v v G H R R T Y G N N G G R ^ ) $ Q H G Y Y R @.R Y Y Y R Y Y W Y Y Y Y Y G G N v : 4 : 0 G D t t t t t F F F t t 8 y e , # v m r e 6 o 5 Q G G Y Y Y v : +     ",
"  M $ @ 3 J D 9 G v e 9 # 3 q @ D N G B N < 9 0 v 0 v Y Y Y Y W Y Y B B T + : R Y Y B Y W ^ Q v J v N N B B N N @ 3 L P e q w 5 4 4 I { ! 7 p P P N J P P P L ! H I h ; f k f y g % @ @ % 5 w D D 6 3 o r q # , e w e w e D D D w e e D N w q q e w w e q q 7 q 7 4 4 # # # 5 5 # # $ # X # . + $ $ . X . @ . . . . . . . . . . . . . . . . . . . . . . . . . . . . . . X . . . . # . . @ 3 , , : # @ # $ X X 3 $ $ $ # , # @ # . X # # , : : : : , : , , , 5 5 5 3 5 9 0 9 9 # X X q D G Y N T Y Y Y Y R Y B Y B B B B Y N G J 3 : w X v N v H H H H F w m J m F F t r 6 m q . # 3 4 5 4 q F D J G G 9 r # +.  ",
"  K.$ $ : J 9 : G N 5 # F v $ $ v T G Y Y 0 R Y v 9 N B B B B B B B B B N $ $ G B N B B N Y D 9 4 D G R E E ^ <.5 # w q X $ % 5 8 % r e L p D i i D N G P i D F F g g . f j f 6 % o . . . X o # @ @ H 1.5.q.t H 9X9X9XqX9X9X9X9X`.`.I.`.d.8.3.<.0.7.9.9.7.9.9.I.9.9._._.d.9.9.9.9.9.`.d._.9.9.7.7.I.`.9X`.7.<.0X_.0.7._.0X0X9X9.9.3.8.9.9.9.0.5.0.9.9.9.I.9.5 X @ H 0.D @ 9X1.) D H ( ( Q Q H F H F J D t D F t D e w # 3 : # 5 v N v e q w w v v q J D v v v w e e e w r e # . . . . r T T v e v v D G E G G G G N N J N 3 q r 3 . X # B B 9 v Y W B b v B B v v e 9 v v B B Y T T #.#.R v 9 w m v v 9 e $ Y #X",
"    X $ 5 q 9 e N 0 v e 9 9 3 # # T N Y N 9 Y v v e G e v B B B v v v v N < X N N v B v v N v T r v &.E T ( ( e @ % 6 5 % t K K g g . . 3 4 5 * r D H F F F g 4 $ # % ; ; s f 8 O # 9.aX5.. . o @ 6 5.9.( m r r 1.9.8X9.9.9.0.0.0.0.7.I.`.8X9X`.I.7.<.0.0.I.I.I.I.9X9.8._.9X9.9.9.9._.qXaX1.&.0.7.I.9XaXpX0.Y ZX`.7.7.I.`.9X9X0X0X0X0XI.`.9X9X0XqXqXqXqXaXpX: . . 9X9X@ X pX9.5.5.9.5.9.5.2.,.1.3.5.3.5.3.9.9.5.5.9.5./ 7 <.< 0.9.7.5.3.5.5.9.9.5.1.9.5.3.<.5.9.<.8.8.5.5.5./ m @ 4 ( 0.^ N G J J v ^ 5 e H G w D e e 3 5 5 w D w v , . # @.Y #.#.#.Y B C C V V V Y Y Y W Y W #.R Y Y Y Y Y : J J J v Y H $ &.  ",
"    > + < q w N e 9 v v 9 q v 0 9 3 5 : @ $ . . 5 ( N 0 v v N B B B B N N 5 . v e 0 v v B J e G e # 7 9 m r . . # K Q U y h U g y F I g o . . . . X - - # r . O s j & x v.z k & # % aXpX9XUX5 X X # 1.J e m r r e Q ( J T G G D D D G R ( ( / / @.H D e D T T Q T Q w . D H H w L L R &.H T N N v B G T 9.G @ v 0 0 9 > . . 0 Y #.#.#.#.#.T E @.&.>.,.3.0.3.e + 1.9X9.w . tX9.2.6. .,.,... .1.` Q t / 1.6.w.5.9.2.5.5.Q r 9X9 aX9.0.<.,.3.1.1.1.1.3.1.,.1.1.` 5.[ [ 1. .( / @.) : @.H @.^ G J R &.&.( N H @.H G H D ( G J G J T v ( @.e . 1.^ v Y B v v v v v v B B B B B Y T ( Y G v v v q r v v v D H 4 X I.  ",
"      X o + 5 0 v v e 0 r e v 9 v v 3 @ X $ X . # 0 9 0 0 b b b b b b B N 4 . 5 v B B v N N 0 0 0 v 3 o X . . # 6 e 5 e t g U g 8 U _ U g 5 % X . . o # % | l c d d s ; c c u % O o X F ( 5.,.o X X T v q e r r e m J J J H H H m v e r e e r 6 w D / ( ( / ( / I ) m 5 o m ^ Y G Y #.@.T T J J w e m 5 @ @ : @.T v b b b b b 1 2 < 9 v 9 9 < 9 < 9 b b b 9 v 9 Q Q / q 5 ` t t F y F t F Q K K 6 q e m t t H H H q 8 e 4 ) w ( ( H J I ) H H H Q ( J H ) ( ( q.` / / ( ) m ) q.Q D J ) G v e T ) J G G v v D T G N T G v 9 v q 9 w T 5 X r 5 r v e 9 r 9 9 r q v v v v v v H T m w w q r r w r e w t , 6 0.}.  ",
"        M o o # 5 0 v q 9 e e 9 9 e q 9 @ $ $ 9 v G B v v B v B B v b v v : X # v N N N v 0 0 N 0 w e w 3 @ e D Q Q K t % 5 8 y t K U ` U K K w @ @ r # - h k c s c z k s s u ; . # $ % ,.` ` O @ . D % o 3 r 4 e m m F D ) ( ( ( ( ( ( ) K e # 4 D H ( / q.1.1.@.@.@.T $ G <.W W #.@.@.@.<.1.@.) T ) 9 + + + <.&.*.#.#.#.0.*.@.@.@.#.Y Y Y W ( @.@.@.@.#.W Y 9 T ( H 3 r H H / / m / ) H Q ) / ( K F e e m t K F m e X 4 T 3 X 4 e D / @./ Q I F F q 4 v w m v q w e e q t e r r o $ 3 D T T T v 9 q q 9 9 0 v e v N v v : r e v 9 . . # D w w q r r r r r r r r r r r e e e e e r r r t e r e r & , V ^.      ",
"          Y.M # o o % 3 5 9 9 9 9 7 9 3 X o X r r 4 4 4 r 9 4 5 , , , @ o X X o , r r r 3 4 9 e e g e 8 % & 6 % 6 - 6 6 o . . . o o & 6 - % % % o & t o o o . & & o s k ; & o . g 5 o o F K . X . t aX0.0 . o & 6 y t t 6 y t t y 8 t y 6 & o o o X o o % 4 q v v v v e $ 5 r o % % @ % % & & o o o . . . . . . 5 e v J J D J D H H m q e w w e w m m m e r , o % & o & o & & o o o o o & o t K F F t 6 t r t g t 8 8 o % 8 . o . , t t t K H D q r q e 5 $ 5 6 t 5 % 6 8 t t t 6 o . & 8 w t m m w w q r r e w m D w q , 5 q 5 4 o . X . @ # # , 3 5 4 6 r r r 5 , 5 6 r 8 r r r 6 6 6 6 6 & & 9 Z T.          ",
"              T.J.n 2 o o o . X o o o o # < < 2 2 2 2 2 2 2 2 2 2 2 2 2 M n 1 1 2 1 1 1 2 1 2 n M 2 2 2 2 1 2 2 M S S S A S M M M n 2 2 2 2 2 2 2 2 2 1 B 0 1 2 2 1 1 > 2 < 9 N <.^ 0 5 > > 1 0 :.:X#X3X3XU.M n b b 0 0 0 v 0 0 0 1 2 2 2 1 0 0 0 0 1 < < : + $ . . . o & & @ 1 1 1 n M M M S S S A A Z -.:.;.$.n 2 2 2 2 2 2 2 2 2 2 2 n M M M M M M M M M M M S A Z Z A S M M M M M M M M n 2 2 2 2 2 2 2 2 2 2 2 2 1 1 2 2 2 1 2 2 2 2 > > + o o o X . $ 2 2 2 2 2 2 2 2 2 2 1 C V V C 2 2 2 2 2 2 2 2 2 2 2 2 2 2 2 2 1 2 2 > 1 N B G 0 3 % & o o . . . o o o o o % & & & & & & % 4 0 C A A #X              ",
"                      Y.Y.L.-.L.Y.Y.~.#XT.T.>X3X3X1X1X1X1X2X2X2X2X2X2X2X2X2X2X2X2X4X4X4X2X2X2X2X2X2X2X2X2X2X2X                      2X2X2X2X2X2X2X2X1X1X1X1X1X3X3X3X>X>X>X<X<X<X#X<X#X#X<X<X>X1X2X              2X4X4X4X1X1X1X1X3X3X3X3X3X3X3X3X3X3X>X>X>X>XT.T.T.R.Y.Y.~.!.+X3X1X2X2X                      2X2X2X2X2X2X2X2X2X2X2X2X2X2X                                                        2X2X2X2X2X2X2X2X2X2X2X2X2X2X2X2X2X1X1X1X3X3X>X>XR.R.Y.L.0.!.3X3X1X1X1X1X1X1X1X1X2X1X2X2X2X1X1X2X2X1X2X1X3X#X1X1X1X1X1X3X3X3X3X3X3X>X>X<X<X<X#X#X~.L.-.:.<.*.*.<.*.0.<.0.0.0.0.0.0.0.P.                          ",
"                                                                                                                                                                                                                                                                                                                                                                                                                                                <X<X5X<X$X;X                                              #X                                                                                                    "
};
