/* XPM */
static char *cc2fa403020b467eec126267777fb473ed5pxnUdBXvwQrkm[] = {
/* columns rows colors chars-per-pixel */
"296 150 256 2 ",
"   c None",
".  c #010001",
"X  c #090808",
"o  c #140806",
"O  c #171509",
"+  c #0A1516",
"@  c #141314",
"#  c #1C1B1B",
"$  c #181817",
"%  c #0C0E0F",
"&  c #231B19",
"*  c #26120A",
"=  c #1A221C",
"-  c #132410",
";  c #28261B",
":  c #302F10",
">  c #1A1C22",
",  c #0C1A24",
"<  c #241D23",
"1  c #06282A",
"2  c #1A2626",
"3  c #133334",
"4  c #242324",
"5  c #2C2C2B",
"6  c #282827",
"7  c #342C28",
"8  c #2A332B",
"9  c #37352A",
"0  c #292C33",
"q  c #2A3636",
"w  c #333434",
"e  c #3B3C3B",
"r  c #373837",
"t  c #342D34",
"y  c #433C38",
"u  c #443A2B",
"i  c #483A19",
"p  c #3A433B",
"a  c #35462F",
"s  c #35471F",
"d  c #4D5116",
"f  c #6B7217",
"g  c #474728",
"h  c #47453A",
"j  c #565838",
"k  c #515230",
"l  c #655436",
"z  c #586931",
"x  c #747827",
"c  c #6B7130",
"v  c #5B6310",
"b  c #383C43",
"n  c #2B3B44",
"m  c #163C43",
"M  c #443E42",
"N  c #16494B",
"B  c #3C4344",
"V  c #3A4749",
"C  c #3B4B52",
"Z  c #3A5657",
"A  c #2D4D4B",
"S  c #325C65",
"D  c #076E77",
"F  c #3A6768",
"G  c #347074",
"H  c #2F635C",
"J  c #434443",
"K  c #4C4B44",
"L  c #444B4C",
"P  c #4B4C4B",
"I  c #464746",
"U  c #534C47",
"Y  c #4C534C",
"T  c #475449",
"R  c #53534C",
"E  c #585749",
"W  c #444C52",
"Q  c #4A4D53",
"!  c #4C5354",
"~  c #4D5C5B",
"^  c #485657",
"/  c #535453",
"(  c #545B54",
")  c #5B5B54",
"_  c #535B5B",
"`  c #5B5D5B",
"'  c #565558",
"]  c #524E53",
"[  c #645849",
"{  c #625D55",
"}  c #6A5545",
"|  c #4A625A",
" . c #5C635C",
".. c #576559",
"X. c #586A4C",
"o. c #66664A",
"O. c #636354",
"+. c #63645B",
"@. c #69695A",
"#. c #726C5A",
"$. c #6B7359",
"%. c #767659",
"&. c #707646",
"*. c #575D63",
"=. c #4A5B64",
"-. c #496868",
";. c #546462",
":. c #5B6463",
">. c #5C6B64",
",. c #576A69",
"<. c #5A736B",
"1. c #4A7778",
"2. c #547B7C",
"3. c #587777",
"4. c #4D6D71",
"5. c #646B64",
"6. c #6B6C63",
"7. c #656968",
"8. c #726D65",
"9. c #6C736B",
"0. c #677569",
"q. c #73746B",
"w. c #777868",
"e. c #687976",
"r. c #747C74",
"t. c #777A77",
"y. c #686D73",
"u. c #635E62",
"i. c #847C6E",
"p. c #837653",
"a. c #807630",
"s. c #788631",
"d. c #778518",
"f. c #768B4D",
"g. c #5A837C",
"h. c #4C827B",
"j. c #79846A",
"k. c #6C837C",
"l. c #67847A",
"z. c #7B8375",
"x. c #73837C",
"c. c #7B847B",
"v. c #78887A",
"b. c #728F75",
"n. c #739D59",
"m. c #3C817A",
"M. c #899032",
"N. c #98A435",
"B. c #9BA52E",
"V. c #8B924E",
"C. c #96A84F",
"Z. c #A9B350",
"A. c #88856A",
"S. c #838B7C",
"D. c #868778",
"F. c #89937B",
"G. c #96967A",
"H. c #91906F",
"J. c #94A96D",
"K. c #ABB36C",
"L. c #A29B7D",
"P. c #B8C556",
"I. c #B8C66B",
"U. c #9AC26A",
"Y. c #C8D371",
"T. c #C9D564",
"R. c #057B85",
"E. c #2E7D84",
"W. c #4A7D82",
"Q. c #567D82",
"!. c #6C7D82",
"~. c #0C868F",
"^. c #308C92",
"/. c #2AAAB1",
"(. c #21A1A9",
"). c #4B8688",
"_. c #538384",
"`. c #5B8484",
"'. c #548B8C",
"]. c #598A89",
"[. c #599696",
"{. c #549190",
"}. c #688986",
"|. c #738B84",
" X c #7B8C83",
".X c #778886",
"XX c #6A938A",
"oX c #74938B",
"OX c #7B948B",
"+X c #799688",
"@X c #679896",
"#X c #7C9C93",
"$X c #759A95",
"%X c #6C8D91",
"&X c #5CA39B",
"*X c #69A49B",
"=X c #78A59A",
"-X c #75A28E",
";X c #52ADB0",
":X c #69A9A5",
">X c #78ABA5",
",X c #79B2AA",
"<X c #72B6B2",
"1X c #5B9DA2",
"2X c #4FBBC2",
"3X c #60C7C9",
"4X c #44BEC2",
"5X c #838D83",
"6X c #878B86",
"7X c #849284",
"8X c #8B9384",
"9X c #84948B",
"0X c #8B948B",
"qX c #849B8C",
"wX c #8C9A8C",
"eX c #8A9985",
"rX c #949B8C",
"tX c #9B9D8B",
"yX c #959686",
"uX c #8C9C93",
"iX c #869994",
"pX c #939C93",
"aX c #979C97",
"sX c #8E8D89",
"dX c #A39D8D",
"fX c #9AA28C",
"gX c #88A699",
"hX c #9CA393",
"jX c #97A699",
"kX c #8EAC94",
"lX c #A4A58B",
"zX c #A2A594",
"xX c #A6AA9A",
"cX c #AEB299",
"vX c #88ABA3",
"bX c #97ABA4",
"nX c #87B3A8",
"mX c #97B4A8",
"MX c #90B9B4",
"NX c #A5ACA4",
"BX c #A8B4A7",
"VX c #B4B7A8",
"CX c #A8BAB3",
"ZX c #B4B9B3",
"AX c #949BA2",
"SX c #B8C5B8",
"DX c #ACC3B5",
"FX c #9BC4AE",
"GX c #C5C7B7",
"HX c #CCD787",
"JX c #B3CDC6",
"KX c #91CDC8",
"LX c #CCD4CC",
"PX c #DAE4E0",
"IX c #BEBDB2",
"UX c #847F82",
/* pixels */
"                                                                                                                                                                                                                                                                                                                                                                    R.R.nXMXFX].G D D m.^.D ~.                                                                                                                                                                                                                  ",
"                      ^.^.E.G G D H H F F F S Z S Z =.^ ~ ~ ^ ^ C 3 ;.V >.>.r.0.9. .0.>.v.v.5.r. .r.r.z.v.|._.^.^.1X/.R.D G G F <.0.A 0.b.b.j.7X..| ,.e.e.|.3.}.2.(.                    /.~.~.~.~.~.~.~.~.~.~.~.~.~.~.~.~.~.R.R.R.R.R.R.R.R.~.R.^.^.E.R.~.^.^.^.^.^.^.^.^.^.E.E.^.E.~.^.^.R.R.R.R.~.R.R.1X{.^.E.D D D D G E.G G G G S S S S S S S 4.4.N A L z.F.J.A.f.K.K.HXK.Z.I.K.K.HXK.Z.C.K.J.kX-XkXJ.z X.X.^.                                (.(.~./.;X1X1X^.R.D D R.R.R.R.E.R.D D D D D D D D D D D D D D D D D D D D D D D D D ^.^.E.R.R.R.R.R.R.R.R.R.D R.D D D D D D D D D E.D R.E.                    ",
"              D N A = xXyX* u : D.pXiXiXjXNXBXBXNXzXzXxXxXNXNX8XpXq.7 D.cXfXF.H.H.H.F.H.cXlXH.L.L.L.L.lXG.lXlXD.. . 7 A.V.cXHXHXHXI.K.HXHXHXI.HXHXcXh 6.zXzXdXtXtX8X X7X7XgXt.n 0 1 W n . y.r.q.9.9.6.q.q.t.t.t.t.t.r.t.q.q.q.q.t.t.t.t.i.5XUXt.P * * q.yXaXaXdXdXzXdXdXF.F.D.D.D.D.t.6XD.q.q.q.t.6X6Xt.< < o * q..XiXbXbXbXbXbXbXAXaXaXAXbXbXiX!.0 o H.K.I.Y.Y.I.Y.HXHXP.T.P.T.Y.Y.Y.Y.Y.HXY.Y.Y.Y.Y.HXHXI.I.I.U.U.J.X.XX  ~.G H A A A q q r q I R 9.t.y & 6 ; * O.D.w.D.D.D.D.w.i.D.sXw.D.F.D.F.8X8XtXD.8XyXyXyXD.tXfXdXdXxXxXcXVXcX) h u @.i.w.D.i.D.8.#.D.r.D.F.D.t.i.D.6XtXi.@.9 R { 6.J N                 ",
"        R.1 8 +.5Xe.r xXG.; E : sXaXuX.Xx.c.z.5XjXNXxXNXxXBXrXwX7XjXP q.hXX.$.A.H.A.&.%.J.J.J.V.V.V.V.H.j.o.K 4 = D.H.HXK.Z.Z.Y.Y.Y.Y.Z.I.I.Z.P.HXHX&.; h 9 w.#.O.tX8XfXj.S.pX_ X ] r @ r.LXZXBXZXBXZXJXZXSXZXZXZXVXVXZXVXSXVXSXVXSXSXVXSXSXZXZXS.e ) R BXhXD.tXxXzXVXVXD.yXS.F.S.6XF.S.8XpXpXyX8XyXdXaX' . . NXbXuXvXbXbXbXbX0X0X0XyXxX0XxXxXNXZXP 9 LXY.T.Z.P.T.I.I.I.P.P.T.T.Y.P.N.Z.T.T.T.Z.Y.Y.Y.I.Y.Y.Y.Y.T.T.I.C.g 3 @.7 r.r.@.X.@.O.k $.j.F.hXzXU O o . yXcXcXzXlXcXGXGXlXVXVXlXw.G.w.F.lXyXrXcXSXGXVXhXxXxXcXSXlXcXGXLXGXLXLX5 + pXtXw.cXcXGXGXlXVXxXyXyXtXzXfXzXcXBXfXzX8.h NXD.D.D.D.` F             ",
"      , J 6XpXjX X0.yXxXtXu h sX+.+.p p ( ` r :.6XbXNXjX0X5.B L W q > , b 2 9  .O.9.aX) R +. .6.8.: $.E @.w . w.G.lXJ.Z.f C.Z.P.C.Z.I.Y.Z.Z.I.Y.K.HXHXlXg @.A.w.F.tXhXVXyXyXt.& y i.y $ NXZXxXNXBXNXGXVXVXVXVXBXZXZXNXBXBXZXVXZXVXVXSXSXSXVXVXLXGXt.6.O hXF.F.zXzXyXi.#.8.q.q.q.q.w.z.D.D.yXD.D.D.G.D.i.aX5 R xXD.yXyX8XaXaXsXsX6XD.6X6XyX8XrX6XaX7.g V.N.N.T.P.P.Y.Y.I.Z.Y.Y.Y.Y.Y.N.C.Z.P.T.P.M.P.Y.I.P.P.T.Z.P.Z.C.Z.I.J.$.8 B bXpXS.S.z.w.j.X.X.0.fXh 6 % 8.lXlXJ.L.lXL.cXL.L.yXE 6 K S. .xXw.w.$.g o.O.D.8X6XyXp ; X h w.F.rXxXjX$ yXGXcXyXzXzXzXxXhXVXzXhXF.$.j.F.F.8XyXz.w.z.S.F.w.G.8.i.D.w.r H         ",
"    % :.uXuX! ( p X jXzXD.y h +.w . e P w ` 0 W CXLXPXNXBXbX_ PXPXLXbX+ + 8 iXaXe.jXPXLXZXSXLXZXZXNX+ 8 7.w 9 A.J.J.HXY.V.M.Z.C.Z.Y.HXY.I.I.Y.Y.Y.I.K.K.%.h u O.#.#.i.i.i.p.* h i.p.7 * E SXzXF.yXyXyXtXG.G.yXF.F.8XD.6Xt.c.D.6XD.F.D.F.D.8XzXzXt.VXO 9 O.xXZXVXVXcXtXsXtXyXhXzXzXxXlXcXfXlXlXdXdXlXlXzXcX{ 8.IXzXcXlXlXdXG.G.A.i.i.i.A.A.H.F.w.t.5 7 l c M.Z.Z.Z.P.P.T.Z.Z.Z.I.Y.T.Y.P.I.P.P.N.N.P.Z.Y.P.N.Z.Z.f x M.C.&.o.F.= 2 CXS.F.F.D.F.z.j.v.z.F.6.; ; @.H.A.j.%.%.o.o.j o.E > , q _  .` 6X0X0.../ r.6XaX0Xc.c.y.y.y.y.q.9. X0X$ jXZXS.jXpX7.I ! 5.( Y  .( ` ` _ _ :.Q I ! w e q.w.w.@.@.{ +.8.' # G     ",
"  D . bX9X0X8XuXbX+ r.zX6Xr h w 7.aXJXZXBXZXBXNX0XBXLX .6XNX9.SXLXPXPXq + uXPXLXZXBXSXSXuXbXZXbXjXDXhXw.a fXf.o.&.K.HXK.C.v C.Z.Z.Y.Y.Y.K.C.K.Y.K.C.K.K.K.L.H.A.#.[ 7 * h i h [ i.p.u & ; w.D.G.yXlXyXyXyXtXlXtXyXyXtXtXyXyXsXyXyXtXD.zXxXD.tXzXtXVX& & X +.D.6XD.i.6Xq.6.c.q.w.j.z.z.D.j.D.D.D.D.F.G.yXzX@.h cXtXyXtXtXlXxXxXxXlXlXlXlXzXhXtXtXt.7 . d V.N.f N.Z.P.Z.P.T.T.P.P.N.Z.T.Y.P.Y.Y.M.N.P.Z.Z.N.Z.C.M.s.V.c f.g g z.4 q 7.; g : u g h j ..O.h ) . . . k j j g g h h 9 U + P SXCXbX;.. ZXZXCXZXNXBXjXNXNXBXVXSXSXSXZXSXBXZX5X$ xXSXrXhX0X5.9.t.6.r.q.9.q.q.c.t.t.c.t.!.t.e 4 aX8Xw.i.w.q.t.O.6.J o     ",
"  1 C iX9X9Xv.( e.V  .yXD.r ; 8XBXNX9XNXBXjXBXjXbXjX7XpXqXuXuX7X7XuXCXJX+ bXZXNXSXDXBXZXbXNXZXCXjXxXJ.lXK.HXHXcXK.K.K.C.x x V.I.HXHXI.HXK.C.I.Y.C.Z.Z.C.V.J.H.cXcXlXH.i.A.{ & 7 i.{ h 9 & . 6 E 8.q.6.{ @.O.O.6.+.O.) R K O.+.+.+.O.@.D.D.O.& t.6Xi.$ $ 4 . . o 7 R / pXpXwX9.@.@... . .5.0.r.9.q.5.` 6.q.e $ e e 4 w = 5 ) q.6.5.6.6.6.q.6.+.{ o ; o.l c d x N.T.B.P.T.T.Z.T.T.T.Z.Z.T.P.Z.Z.f P.N.d.N.Z.N.x M.Z.V.c : k 9 8 = + y.` 7.t.9.9..XiXbX6X!.e.e.<.V X X T w.j.6.6.rX/ $ ;.JXCXCXmX>.BXBXbXbXjXjXjXjXkXfXfXjXxXjXxXxXfXBX0.O rXxXfXxXpXpXxXjXrXjXxXfXhXrX8XhXhXxXhXxXpXp @ 7.@.#.#.o.#.@.@.$.e +     ",
"  + q 9XiX0X8Xz.R p xX8Xw.; 8 jXNXwX9.jXuXgX9X7XDXbX XbXjXmXbXkXCX|.OXJX+ bXx.uXBXBXmXbXmXbXCXbX9X7XF.J.I.K.V.f.Z.Z.C.V.v M.Z.I.Y.HXY.Y.K.I.Y.I.C.Z.M.Z.C.C.J.K.K.L.H.A.G.lXH.#.. * ; 9 # $ 6 < t o & 7 7 7 7 < & & ; 7 7 u 9 9 7 ; ; & * 7 u U y . $ & & t y t K K U 6.5. ./ ) / R R / ) ` ' I ] r 0 6 X < 6 t < @ $ t I r < & 4 7 7 & 7 h u u ; U %.: o c Z.Z.T.P.T.T.P.B.T.P.P.T.P.P.d.N.N.P.Z.M.Z.N.d.f s.M.V.M.f.s O ; r = 7.NXjXaXNXBXNXSXSXLXSXGXLXLXJXSXBXr.v.F.h wXGXLXV 2 | JXbXjXmXmXmXBXgXjXbXjXbXjXkXkXkXjXuXjXbXjXjXbXv.+ NXwX0X0XrXrXjX0X0XwX7XS.eXBXF.hXfXcXlXhXNXI $ r.w.w.#.$.#.#.+.K & $     ",
"  + . .XOX.XjXjX Xc.wXjXsX5 p BXNXjXjXqX9XuXuXqXbX|.OXgXgXgXiXjXmXmXiXCX, bXOXmXbXgXgXjXkXqXjXbX+XkXFXfXHXI.s.K.Z.Z.I.K.C.I.I.K.I.Y.K.V.C.K.HXHXHXHXHXI.Z.M.K.K.V.K.V.J.&.V.G.G.A.U @ @ $ y 7 o 7 7 U ) U E { U U U U U [ @.[ [ { [ [ [ { K y U y 6 o $ @ y 7 & . . . 6 & & 4 6 r w r t t t t t < < # # 6 6 # 7 < 4 J ] U K h U h K h u h [ 9 7 & & . . x N.N.M.Z.Z.P.P.P.T.Z.Z.Z.N.M.N.f x M.Z.N.Z.P.v M.v x x C.V.s.z 8 / 5 = 5XaX7X0XeXfXyXfXeXF.rXfXrXhXhXBXVXVXVXxXhXCXVXjX8 q -.JXbXbXmXgXbXgXgXmXjXjXjXgXjXgXgXgXgXgXiXbXmXkXbX= CXjXuXwXgXqX0XwX7X0Xv.7Xz.z.S.fXeXj.F.S.pXI 4 ` D.z.8.$.@.O.{ r $ 6     ",
"  + q q b t.OXiX.XjXr.5X6X5 w wX7XjXuX9XuXOXOX Xe.|.mXmXbXgXqXmXmXgXvXmXq }.gXiXmXjXgXgXqXgXgXqX+XqXBXF.K.V.J.C.K.C.C.K.I.C.K.I.I.Z.Z.Z.C.K.K.Z.K.K.K.Y.Z.Z.Z.C.K.K.V.L.H.K.J.H.H.G.{ 7 { K #.{ o # r K E [ U h y y h h K E #.8.{ 9 y * & o & . o 7 7 9 7 9 u 9 9 9 7 * * 4 ; 7 U 4 9 7 r K < M M t @ & & @ * u j u ; 7 u y y h h y E h 7 . . g l v f f N.B.B.N.N.f d.Z.N.N.C.f M.C.M.M.d.M.N.f N.Z.s.s.s.M.s.s.V.f : X.R 5.$ + bXiX XpXjXwXhXrXfXhXjXjXrXhXbXfXeXfXkXBXBXbXkXjX= 3 | DXgXvXgXgXvX#XgXvXgXgXgXgXgXgXgXgXgXgXgXbXbXiXCX= BXwX XuXgX X7X7Xv. X7XeXv.v.v.7Xv.j.w.z.c.2 % ; D.w.#.o.#.#.U & @ r     ",
"  + + ! L B . V B .Xq.t.q.r 8 pXuXjXjXqXiXjXiXOXiX|.OXgX#XgXgXvXvXoXgXvXe.4.gXgXmXmXjXmXbXCXCXmXBXDXjXeX: z J.K.s.s.Z.Z.HXK.V.V.C.Z.Z.I.Z.I.Z.M.M.N.Z.Z.P.Z.K.C.K.C.J.J.H.L.K.K.f.A.A.U & 6.D.{ o . E D.D.D.t.q.w.w.i.i.w.A.i.w.#.8.w.w.E o O y [ [ } } } } } } } l } } y & o U 8.A.i.%.%.w.i.H.[ E 4 . . ; w.w.#.#.%.A.i.%.%.%.o.%.%.%.E O d a.M.B.B.N.B.Z.Z.B.M.M.f d.M.Z.M.v M.P.Z.M.Z.N.d.N.M.M.d.C.V.s.v s.c k g 9 ; 4 2 B jXuXuXkXpXkXkXkXfXjXjXhXNXjXgXkXjXjXkXbXmXkX+XqX, 3 4.MXvXgXgXgXvXvXgXgXgXvXgXvXgXgXgXgXvXvXgXvXgXgXCX2 CX9XqX+X+X X+Xv.v.7Xv.eX7Xv.v.7Xx. Xx.r.c.5 + w i.w.#.#.%.E ; U $ Z     ",
"  + ~ 9XjXpX5X9.. p 8X5X9.r 8 jXpXjXjXuXjXiXiX#X#XgXgXgXgXgXgXnXgXgXmXmX#X-.MXmXmXmXmXmXmXmXmXbXBXuXjXNXF.E n.J.k f.V.K.C.P.P.P.P.Z.Z.Z.Z.Z.C.x Z.K.T.P.N.Z.Z.K.K.V.V.J.V.J.K.V.V.A.A.%.g 8.D.h & @.G.G.i.D.D.D.D.D.D.D.H.A.%.A.H.G.L.zXcX& k } } } l l l l l l l l } } K $ $ ; D.yX#.o.&.c %.A.o.u i.K h 6 E @.yXlXA.A.A.A.p.A.A.A.H.L.g * C.M.B.B.Z.B.B.B.Z.B.B.B.B.B.B.Z.M.N.Z.N.B.N.B.N.d.Z.d.M.d.M.s.s.Z.s.O 9 : = q ! 8 aXjXjXkX7XeXeXkXkXgXjXkXkXjXjXjXkXjXbXjXbXkXgXmXmX3 3 4.MXnXnXnXnXnXmXnXvX=XgXnXvXgXgXgXvXvXMXmXmXgXgXmX8 jX+XqXgXqX+Xv.7X7Xv.v.eX7XqX7Xv.v.7XS.5X5X2 $ r D.w.w.[ 9 ; h 9 $ ^     ",
"  > !. X8X8XrX5X@ r.wXj.+.8 = wXjXjXjXjXkX|.#XiXiXbXvXgXgXgX+XmXFXmXmXMXvXZ JXmXmXbXmXmXbXvXbXbXjXjXbXmXjXfX$.: s k K.J.C.Z.C.Z.Y.Z.C.M.Z.T.Y.Z.C.Z.M.C.K.Y.K.C.V.V.C.V.V.H.J.&.%.A.A.G.h +.yXyXi.i.yXD.i.i.A.i.G.A.i.A.A.H.G.dXH.H.A.H.dX* } l } l l l l l l l l l } } y $ @ ; 8X@.o.%.%.$.#.#.dX[ D.lXH.%.s $.cXcX$.j %.%.%.p.%.%.A.H.9 : K.M.N.M.M.B.B.B.B.Z.B.B.M.B.B.N.N.N.M.f f d.d.M.M.N.f f s.s.c v c z s ; ..>.;.<.+ aXuXwXwX X0XeXwXwXkXjXkXkXjXgXmXgXbXmXgXgXkXgXgXFX3 3 Z MXvXvX=XnXMXMXMXnXMX=X=XvXnXvXgXvXvXnXvXmXgXgXmX3 gXgXqXkXmXqX+X+XuXqXqXqX7X Xv.eXwX7Xz.r.7.8 $ 7.5.U e . 9 K h = % -.    ",
"  , ,.5X8XS.S.r.r jXjX@...= + jX7X XjX9XgXqXqXOXbXgXgXmXvXgXgXmXmXMXmXMX=XH JXnXvXvXvXgXvXbXbXbXgXbXbXkXjXBX..T o.&.J.f s.I.V.V.V.V.v M.K.Y.V.Z.K.M.M.V.V.V.x f V.V.&.c &.&.l &.j l %.o.o i.i.%.i.i.w.D.G.A.A.i.G.A.i.i.i.H.A.H.H.A.H.G.zXh E [ } } } l l l l l l l l h u & @ w O.) w.o.O.@.#.D.D.u o.lX&.c V.H.%.k j j j [ E #.@.8.E 8.K u d c M.M.N.C.M.M.N.N.M.v f N.Z.N.M.f M.d.d.M.f C.d.C.f f x z O 9 9 a 9 8 0.0.OXOX+ uX9X XqXqXqXuXqXqXbXjXqXgXgXgX#XgXgXgXgXgXkXgXvXMXZ m >XnX,X-X=X,XnXnXnXnXnXnX=X=X=X,X=X=X>X=X=X=X-X=XnX}.oXvXgXgXgX+X+XgXqX+Xv.+Xv. X XwX0X7Xw.c.x.q 2 2 + $ h O.[ [ 6 & % -.    ",
"  , W e.S.S.z...q .Xr.9...8 + 9XgXkXgXqXgXqXiXgXCXgXgXmXnXgXmXnXvXmXnXMX3X/.KXMXnXMXnXnXnXmXmXbXbXgXiXqXuXx.c.rXj.H.J.f.V.s.s.f s.M.z z s.M.M.M.s.M.M.M.x M.C.Z.V.V.J.&.g i k g u h 7 o ; +.i.H.i.A.D.D.A.A.H.A.H.H.A.i.i.A.i.i.H.A.A.A.yX%.; h [ } } l l } } l l k y h 7 < @ 6 $.@.j o.%.%.&.%.A.h o H.&.c c z A.A.&.j j E j @.O.w.+.{ 7 ; . O d d s.M.x M.x f M.M.f M.M.N.f s.x x s.f M.M.d.s.x d s X O # ; ; = X L k.OX<.q kX XqXqX+XqXuXgXbXjXgXgXgXgXgXgXgXgXgXgXgXnXnXnXMXF H JXnX,X=X*X-X=X=X>X>X*X>X>X*X=X*Xh._.].@X-X=XXX$XmX$XC CX=XgX+X#XoXoXk.l.|.|.+X9X Xv.+XkXfXc.e.8 2 6 O.#.i.p.o.[ & @ . 4.    ",
"  + ^  X0X8Xz.w I r.5...>.8 + e.qXqXqXv.7XgXkXqX+XgX+X+Xl.XXoXoXoXoXoX:X/./.<XvXvXmXmXnXgX=XgXvXgXgXiXgX X7X Xv.hX%.c J.V.x C.C.C.K.d : C.K.M.x v x f f C.V.C.C.x M.V.&.: ; . $ . . . . . { yXtXA.i.D.G.H.A.A.H.H.i.A.A.A.A.A.p.A.i.i.A.G.yX$ o h E } l } } } } } } E [ 7 5 6 K D.H.A.%.A.A.V.c p.dXO 7 A.c c c s.s.V.f.c V.&.A.j 9 u 7 O & 7 u : l c x x x x x M.Z.f d v f f M.s.M.x x v s.V.f.f.: k g = # w . . ^ e.gX$X;.V 9XwXwXqX+XgXgXgXgXgXgXgX=X#XgXgXvXgX=XvXvX=XvX>XvX4.A >X-X,X>X>X*X>X*X*X@X,X,X@X>X,X,X=X@X,X,X=X>X=Xg.g.F D nXl.-XoXoXXX-XoX+XgX#X#X+Xk.|.+X0.v.5.e.2 $ = @.[ [ U h X . X @ 1.    ",
"  , ^ 5X0X8Xz.r ( r.I p r q = e.r.0.9.v.v. Xx.0.e.<.<.<.,.-.-.<.3.3.3.h.(.(.).3.l.|.oXoXXXOX}.k.x.k.|. X X7XuX X@.X d c f.d v s.K.C.x C.V.K.Z.v d z c z c V.c z &.c X . 9 s %.j l o.H.H.#.7 8.w.{ i.sXA.i.i.A.G.G.G.L.A.i.w.i.#.i.i.i.i.H.yX{ o . $ h { U y u : : . . . . . . * j E tXH.A.%.&.%.o.D.9 9 D.[ c f.H.K.H.J.V.V.c %.A.[ U u . o U o * : l p.V.c M.M.M.V.v d f M.N.x x f f M.M.s.c g s s z z ; ; 9  .9.;.<.|.}.3 ..jX7X+X+XgXiXiXqXOX|.oXgXoXgXgX=X$X=X$X=X$X-X=X=X=XF Z =X@X].>X,X,X,X,XnXMXKXMX:X,X,X,X>XKXMX:X@X*X@X-X@X^.(.*Xl.XX-XXXg.g.}.XX}.}.l.<.oX#X<.<.e.<.uXB # $ . . . . + e I 4 4 1.    ",
"  > 0 5X9. .O Y 7XwX0Xc.! = = V T x.5X7X X X XqXgXgXkXbXgXgXvXnXvXvXnXMX(.(.[.#X#X#X#XvX#X}.oXgXgXmXBXBXBXBXjXbXjXpX5Xj.j d s.s.s.x s.c d d c d z : : j : . i g u * ; o.H.V.C.Z.M.Z.Z.J.K.H.* y . #.D.D.%.%.i.#.i.w.#.8.#.w.q.D.D.i.i.i.#.8.#.8.J . o t . > Q AXNXNXZXZXZXZXZXVXVXxXD.dX%.j o.k o.#.9 O ; h O.O.g o.E 8.8.w.D.D.q.UXq.7.{ 8.6.6.R h X O . : c x M.x v M.f P.x v x d d c c c c . g k z %.h ; ; R _ V b ^ ^ n q e.e.l.<.l.|.OX}.#XvX$X3.3.}.}.%X`.`.2.F F G G G G E.^.~.^.^.&X^.h.1.1.].@X@X{.@X@X].h.'.@X).;X;X;X;X(.(./.(.E.).).{.[.H Z 3.Z C Z Z 3 ~ ^ a A ~ ;.>.q $ . P 5.6.q.t.yXt.; $ S     ",
"  , 2 x.Y K 9 6.7XjXjXc.B 8 V jX9X5XwX XuXqXkXgXqXgXqXkXkXkXnXFXmXFXFXMX(.(.KXFXMXmXvXmXnXvXFXDXmXDXDXDXBXBXkXxXNXBXNXxXrXG.f.f.C.f c v d z d z &.: : j O ; h u o O %.J.C.d.d.M.B.N.M.M.c A.. j lXG.p.%.D.D.D.yXtXF.eXhXrXcXzXVXcXcXlXlXcXcXdXdXxXaXX . aXLXPXPXLXLXLXPXLXPXLXPXLXPXLXLXIXG.. 9 A.E : 9 . . 6 y i.sXyXZXGXGXGXGXZXVXZXGXGXGXGXIXVXIXxXyXt.$ g c c v f f v M.f z z : s * O J.d c c k O 9 9 r % . = .XiXiX3 , + x.mXjXmXnXvXMXMXmXMXMXvXMXMXMXKXKXMXMX@XMX3X;X3X/.(.4X3X3X<X<X<X,X,X<XKXKXKXnX:X*XN h.:X*X,X<X<X:X<X<X^.(.4X;X;X&X;X&X1.=XMXJXCXgXmXl.<.<.,. X5.( w > $ 5XF.F.D.w.w.8.E 9 $ H     ",
"  q $ w Y R = ( 9. Xv.5.r B ..9XjXwX X7X Xv.x.+XOXqX#X+X#X-X#X#X-X=XgXgX[.(.3XnXgXgXXXoXvXmXvXgX#XqX+X7XuXuXeXuXS.7X8XS.S.zXzXo.z z d v d d g o.7 * . ; r . 6 7 ; o k &.C.C.d.N.N.N.Y.Z.Z.M.V.V.cXV.d G.i.F.yXi.$.8XeXF.D.yXA.yXA.A.j.F.G.tXyXtX5XNX. 6XPXLXZXAXsX0X0XtXyXlXD.D.F.tXyXtXzXxXt.K O.g tX8X9 NXhXhXNXzXtXdXNXzXzXtXzXzXzXzXcXVXtXxXtXtXzXxXZXVX{ . O d c x v f c H.O . @ $ : &.z f.k . X + + = q T ;.e.|.e.2 2 = l.+X+X+XgX-X+X=X-Xb.-XXXXX-X-XXXXX*X*X*X*X,X*X,X;X/.;X*X,X<XMX<X<X<XKXKX:X&X[.).).).:X&X{.&X[.{.*X&X*X[.E.:X,X>X>X*X-X*X-XXXMXJXg.XX}.XXg.}.gXmXjXT + + r.v.z.$.O.#.@.E 9 $ N     ",
"  ^ + 6 ! / J ..0.r.t.c.r 8 5.5X0X7Xv. X7X XOXOXOX#X+X+X+XoXoXoXoX$X-X=X=X^.;X,X=X=XXXvXnXnXgXgXvXgXgXgXgXkXgXwXwX0XfXrXpX8XrXtX9 g g s : : . . . $ !.t.bX*.@ # . r X &.x f Z.Z.N.T.Y.K.Z.M.Z.Z.N.c : %.G.lXyXtXyXyXD.yXyXD.D.8XhXrXyXyXF.yXlXfXaXt.2 PXPXZXpXNXNXNXNXxXxXBXxXxXxXxXxXzX8XpXVXSX6Xh SXyX9 xXhXrXrX6X6XyX0X5XS.D.pXpXrXhXrXwX0XtXzX8XxXtXyXcXVXt.. . : g j d : . X @ . . . . g k g O.% $ q p e.}.-.3.OX}.2 2 2 oX=X=XgX-XgX-X-X=X-X-X=X=XnX,X-X=X*X*X*X=Xh.*X,X/./.;X[.*X,X:X:X*X&X*X&X*X&X*X*X&X:X*X[.&X&X&X&X[.&X*X^.^.&X[.[.[.[.{.@X@XXX*XXXg.}.`.g.g.2.}.4.l.k.+ X  X9.S.D.%.@.O.R w @ H     ",
"  ,.+ r  .+.( ) c.7Xz.5.r r 0.9Xv.v. X7X7X9XqXOXOX#X+X#X+XoXoX$XoX=X=X$X@X^.2X=XnXg.-X=XnXgXgXgXnXgXgXgXgXkXgXwXkXjXjXrXfXeXjXxXh ; j g - ; O $ ` .XbXAXiXAXt < ) { O u d V.V.M.M.M.v v c c x M.M.s.j.D.tXzXyXG.tXG.yXfXxXcXcXfXfXtXzXxXyXyXF.fXNX! V PXLXbXbXCXNXNXNXNXxXzXVXBXBXcXVXVXxXxXxXVXGX6.cXVX; r.rXhXjXxXxXxXxXpXjXjXpXjXhXhXfXjXxXtXzXF.sXxXsXdXzXzXh . % X . . 6 { xXNXsX7.q.R ; O.h ..% p <.,.3.l.}.4.iXe.2 2 2 |.oXXXgX-XvX-X=XgX-X=XnXnX-X-X=X>X=XXX>XnXXXXX<X/./.3X,X*X*X*X&X*X*X*X*X*X:X<X*X&X*X&X:X*X[.&X&X:X&X&X(.(.{.[.1X[.[.[.[.[.].].].@XXX}.g.}.2.3.-.|.<.+ + t.z.D.i.@.) ` ! , # D     ",
"  e.+ J c.z.5.6.5X8XrX7Xq r 0.0X X7X X7XqXuXqXqXqX#X+X=X=X#X=X}.}.}.g.3.G ^.;XvXMX=X=XvXvXgXnXvXvXgX+XgXkXbXgXkXjXrXrXrXfXfX8XxXO.O 9 6 h 7 w L pXbXgXbX!.!.t < { ; . . : d c k : : . ; O : : f.d f.lXlXzXtXyXlXfXyXfXtXlXxXlXxXcXzXtXcXcXxXlXfXBX0 iXPXZXjXxXBXNXNXNXVXcXcXxXBXcXVXcXcXBXBXxXxXVXhX) yX$ z.hXjXjXjXtXzXxXhXrXrXtXhXrXjXhXhXtXhXzXxXxXyXzXtXq.E K U . # 9.NXxXNXVXxX0X5XyXS.r % $ 8 2 ,.<.4.| 4.g.e.OX^ , V , vX=X$XgX=X=X=X=X$X=X=X=XnXnXnX=X>X*X=X=XnX>X=X;X/./.<X,X>X@X*X*X&X&X&X&X*X:X:X:X*X:X&X&X:X&X&X&X{.*X;X/.(.{.[.&X:X:X@X[.@X@X[.].%X].`._.2.2.3.3.^ OX+ + + w.A.#.[ E h r J # D     ",
"  4.X q 9.z.r.D.rXfXjX5X8 q 9.7X0X7X7X7X0XwXwXqXqX#X#X#X=XmXoX| F F N A -.-.XXvXMXnXgXvXvXgXgXmXvXqXqXgX+XkXgXjXuXwXfXfXeXfXrXBXT = . R h . 5 + V ,..X9X;.0 & @ R pXsX6X` ' O . ; o k k d l : l : o.lXyXtXtXzXxXyXfXzXyXxXcXfXlXlXzXxXlXtXzXhXfXhX6 JXPXVXxXzXcXBXxXxXxXcXVXVXxXcXzXzXxXxXhXxXzXcXcX. 0X$ 9.hXxXxXjXtXzXpXrXpXyXxXpXhXjXrXhXhXyXtXVXBXw.U U O y 6 aX@.A.VX8XD.c. Xt.r.r.7X0X+.4 . + 3 ;.g.-.1.F 3.|.B . 8 q 2 iX=XgXnXgX$X$X=XXX-X=X=XvXnXnXnXnX-X-X*X>X=X*X<X/.;XMX,X>X*X*X:X&X&X&X&X&X&X*X:X:X:X:X1X:X:X&X:X[.:X;X(.(.;X&X&X&X:X*X*X*X>X@X_._._.]._.4.2.3.| <.mX+ + L z.@.j j o.[ h { # D     ",
"  -.X r z.S.9.@.8XfXrX6X5 q 0.5X7X7X7X0X0X7X7X7X+X+XoX+XvX=XA 3 -.=XnXnXvXm }.=XnX=X=XgXgX#XgXgXgXgXgXgXkXuXjXjXkXfXfXwXrXrXrXxXY ; 5.5.9.q.r.q.) J . . y ) # . 0XpXuXuXjXbX5XS.O * o.d l d k H.& h @.yXzXzXfXxXzXzXhXzXxXfXyXfXtXtXG.fXfXrXeXhXpXw PXLXVXxXxXVXBXxXxXBXcXxXxXcXxXzXxXxXVXzXxXxXBXVXO.w.= 9.xXzXpXrXpXhX8XrXrXhXrXrXrXhXhXyXtXxXtXzXNXtX. ; 9 U t.K D.xXGXD.t.8XpX0Xc.x.r.0Xq.. ! 9.x.|.-.g.$X}.,.T E 6.fXrX2 e.=X#XgXkXgX=XgX=X$XvXnX-X-X=XnXnX=XXX-XnXXX-X<X/.;XnX-XnX>X=X*X:X:X&X&X:X:X*X*X:X1X1X1X:X1X&X:X<X:X~./.(.;X:X[.[.*X:X*X*X[.].@X]._.2.4.1.1.g.-.|.9X+ + # p r K K { ) 9 u & D     ",
"  4.X p 0XS.5.R 8X8X0X5X6 8 5.S.v.0X7X0X0X7X XqX+X+XoX-X=X}.A -.MXFXnXmXvX3 $X#X$X#XgXgXgXgXgXgXgXgXqXgXkXjXkXjXkXfXjXhXfXwXfXBX8 T GXSXZXBXxXNXjXpXaXq.. 7 6 ) c.0Xe..XiXaXaXZXD.: j i . ; E * X 5.5.w.VXcXyXzXzXzXxXzXG.fXtXfXlXtXhXfXhXlXyXxX5Xe PXSXBXxXVXVXVXBXBXBXBXxXxXxXxXxXzXxXcXcXzXzXcXVXG.@.$ I NXpXyXpXpXyXpXxXrXpXxXxXjXBXhXtXzXtXtXtXtXxXh $ # # 4 @ t.NXtXD.yXyXyXrXpXpX0XyXR r jXCXBXCXOX#XCXCXT T lXlXtXxX8 ~ gXgXgXgX+XgXgXgXvXmXnXgXgXgX-X=X-XXX=X-X-X-X&X/.;X,X@X-X=X*X*X[.[.&X:X:X,X*X{.[.1X1X[.:X[.[.:X&X1X/./.(.&X[.{.&X:X*X[.[.'.{.{._._._._.4.4.1.-.<.7.. + > X # > . . . r P 5 ~.    ",
"  -.X B c.c.6.O.8XhXpXyX8 w q.0XwXfXrX X7XwXuXqXgX+X+X#X+X|.gXgXFXFXbXbXvX3 $XoX-XgXgXgXgXgXgXgXgXgXgXjXjXBXkXjXjXjXfXfXhXfXhXNX- S.BXjXS.r.z.D.S.D.rXNXi.' i.NXbX0X X.X.X9X0X0X8.9 : u : O @.+.r  XpX9.6.yXxXxXtXxXVXxXzXfXlXlXlXtXlXSXlXxXcXVX' w PXBXhXzXBXVXxXxXxXBXVXNXxXxXxXxXzXxXxXcXcXxXyXO.tXaXp I NXrXrXpXrXrXjXhXjXjX0XhXfXjXrXrXtX8X8XyXhXhX0X4 . . % r ZXxXxXxXw.F.fXxXfXhXzXxXE 9 w h Y ( ~ V ! Y $ @.A.H.A.G.T | gX#X-XvXmXgX-XgXnXgXgXkXgXgXgX-X-Xl.=X=XnX-XN G ].vX=X-X@X@X*X*X&X:X:X*X*X:X:X:X:X1X1X[.1X&X:X[.1X;X/.(.&X[.&X:X*X@X[.[.'.[.'._.].g.2.g.3.-.Q.,.Y ( # . + @ w R ) K D.+.e /.    ",
"  -.X Y 5X5X9.9.eXrX0X6Xw r z.c.c.@.S.jX7Xz.x.l.e.qX+XqX+X+XBXmXgXmXmXgXvX3 +X+XvXgXgXvXgXgXbXjXgXkXjXkXkXeXfXjXhXfXhXfXrXrXwXhX6 c.c.r.9.c.c.c.S.D.rXtXt.6XpXaX.X X.X X9X6XaX0X9 * u h * 9 q.t.7. XaXc.. ; w.NXxXxXxXtXVXtXzXxXlXfXzXcXcXxXzXxX7.4 LXGXtXzXxXBXBXxXxXcXNXxXxXxXxXxXxXzXxXzX9.D.O.E GXD.9 8 jXrXfXjXfXrXrXjXjXhXrXpXrXpXrXwXwXfXrXrX8X8X0X5X) ) $ 5 cXG.cXVXF.F.yXyXS.F.D.t.5.4 5 t.0X0XuX0 . . ; #.[ p.#.o.6._ }.}.XXgXvXgXgX-XgXgX+X-X+X-XgXXX+X+X-X-XgXb.a 2 p nX=X=XXX-X@X=X>X*X@X*X*X*X:X:X[.[.1X1X&X&X&X:X:X<X/.(.;X[.[.*X*X@X@X[.'.{.].]._.1.2.1.4.-.Z ,.I R 4 6XS.w.z.D.tXyXu h & /.    ",
"  -.X / 5Xt.6.( v.S.c.c.r w 6.@.p X.p v.5.T ....T 0.| 0.k.oXgX#X-.l.=X}.oXA |.jXgXbXgXvXgXgXgXgXkXjXkXkXkXeXjXjXpX0.9.5.z.S.S.xX= J 5.I 5.5.0.0.z.D.F.t.D.aX0X X.X.X.X.X6XsXpX) $ K 7 * 9 9 8 ;.,. XsX` = ; . ( tXzXxXzXxXlXfXlXlXlXfXzXtXzXtXxX*.> y.PXxXaXxXNXxXxXcXxXxXxXxXxXxXzXzXzXzXzXyXtXxXtXw.o.K X xXwXrXfXrX8XrXhXjXjXpX8X8X0X0X7XwXwXwX8XF.eXwXrXzXZX9 r IXcXcXlXtXtXyXF.D.yXz.6XpX..>.bXBXNXCXt.@ @ u [ #.H.dXtXJ q | l.3.oX=XoX}.#Xl.|.b.+X+X-X+Xb.gX+X-X#XqXoXe.C 3 #X$XXX$X=X@X>X@X*X*X*X[.@X:X:X:X:X1X1X1X1X&X&X&X;X/.(.&X&X&X&X[.[.[.{.).'.{.).).h.2.F -.F A OXT # 6 sXt.w.r.8.w.q.w y 6       ",
"  =.% p 7.9.5...( v.c.c.w 5 K E ( T T  .h ..0...| T Y >.>...>.0.| >.Z Z | Z ,.gXl.OXjXbXgXgXgXgXiXuXkXjXjXjXjXjX0Xz.6XS.T 9.hXhX. sX0XS.r.r.c.S.w.D.8.pXNXNX0X9XqX5XpXsX6Xt.K 9 E #.o.@.u U P  .! t.t.w ; 4 ; . ) VXVXzXfXG.fXfXlXtXtXfXlXlXfXzX5.> . LXVXxXVXVXVXVXVXVXxXxXxXxXxXxXxXxXhXzXxXxXcXxXD.@.Y % 5XjXjXxXjXxXNXjXNXNXBXjXjXjXNXjXjXjXjXjXjXjXfXjXhXNX9.h GXxXzXzXzXtXhXyXG.yXF.xXVXv.0.mXjXuXBXNX. o #.p.p.A.L.G.O e e..XA A oXmXvX#X+X+X+X<.=XmX-X+XgXb.+XkXgXoXa ..| <.-X=X=X=X$XXX@X[.@X{.@X:X:X:X:X*X[.[.1X[.&X[.&X:X(.(.;X&X{.[.[.{.{.'.).).G h.h.1.4.4.3.4.A q = 6 X  .6X6.w.6.6.5.P r 4       ",
"  =.$ 5X8X8XD.D.r.6.t.t.J 6 ) 6...w.z.r.w.z.z.v.z.z.v. Xv.>.e.v.v.v.l.0.^ q C V a T >.+X|.|.+X+Xl.e.v.v.v.x.0.>.>.. 5.c.p p ` K O h J 8.@.@.9.5Xt.@.6 / 0X0X5XpXpX5XaX6X/ . . h u . h 8.. X 5.bXt.UX< . . . ; . h ZXtXBXcXVXVXcXVXlXtXtXF.G.F.sXsX. . . tXyXtXyXdXzXxXzXtXtXyXyXyXyXD.F.D.S.S.w.z.D.z.5.5 4 e aXaXsXsX6X6X6X6Xt.r.t.t.9.9.5.6.0.9.6.9.9.9.9.e.y.! 6 NXsXt.tXjXjXuXuXwX8Xz.zXSXjXv.gXuXuXaXCX5.9 i.p.i.p.p.i.7 ! e.e.~ <.uXbXe.e. XqXqXqXgXqXv.gXjXwX+XkXkX0.X.T X.F.f.b.l.l.l.g.g.`.].{.*X:X*X*X*X&X*X&X[.[.{.).'.1X(.(.^.G G G G G G S H G 1.1.F -.4.2.3.3 3 2 2 . Y c.z.X.O.+.+.{ P b <       ",
"  V I BXZXGXVXxXNXxXsXpXI ; 9.@.@.r.@.(  .(  .( 0...>.>.a T T T T >.l.....2 + T e.v. X9.8 q q T 9.9.9.9.0.x.c.c.5X9.6. .Y q.Y t...O.w.%.w.D.t.5.@.9 . 4 r U  .9.h @ U ) { +.@.D.VXVXVXcXVXZX@ / ZXZXVXVXNXNXxXzXzXyXF.VXGXZXGXGXGXzXD.NXVXD.sXNXr.5.xXGXGXGXZXVXVXaXi.yX8XxXhX8XxXhXNXVXxXNXxXS.hXtX .R r 5 ; . I sXaXaXjXjXjXjXjXjXpX0XNXBXrX8X0X0X0X0X0X0X6Xt.o . U ` 6.9.7.r.t.e.r.r.6.t.c.jX0X7X5X5X6XpXaX6.{ } } } j 7 O ` p r ( h X.X.a p ; r T >...T p T ..a 9 T p a o.z c f.n.s.s.f.z T p H H H H F F 1.F F F G 1.G H G ^.(.^.G F F F F F -.-.].].].@X].4.XX<.g.oXe.1 2 = 7.0XS.D.D.O.) +.' / e 6       ",
"  q r 6XyXVXVXfXtXyXyX5X) 6 p 9 r r 9 ) a E K K - 2 8 V p T ..>.>.qXqXqX XL = 5. XjXjXkXe.+ $ BXSXSXVXBXBXSXSXBXBXVXBXNXrXwXjXc.K @.xXO.O.K w 6 ; 7 4 . ' . K R xXD.xXVXGXVXGXGXGXGXSXVXLXGXX E GXVXcXxXxXxXfXxXzXyXtXtXxXF.F.yXyXyXhXxXxXxXxXBX. 0XPXLXLXLXGXGXGXZXcXGXSXzXNXSXSXVXVXSXGXGXGXGXGXVXVXaX= B #  XZXJXZXSXSXSXLXSXCXBXjXjXCXNXjXjXjXjXjXCXBXNXpXxX6 { 6Xr.8XzXfX8X0Xr.0X8XfXzXlXVXVXVXVXVXBXxXxXVXNXNXyXi.K X r.SXeXj.j.0.j.F.G.fXeXfXF.D.F.F.z.z.. O h 9 9 &.V.f.s.z d.s.s.n.n.n.s.n.n.f.f.H g.].h.g.@X,XnXnX>X,X<X*XN A :X*X[.*X*X:X*X@X*X*X].XX$X}.A ,.#XgXe.1 2 9X7.( D.D.w.O.` 8.7.P 7       ",
"  0 = @.6.D.yXw.8.z.8XS.6.4 ; p @ = r 6.O.k ; Y  .>.>.l.|.oXoX|.|.k.|.<.0.V 2 uXbXjXjXwXjXT -  .BXhXhXjXfXv.eXeXeXeXeXeX8X0XwX5.B ( h & . . ; ; . o O r { aXdXxXVXlXlXlXtXlXzXxXzXxXzXVXVXS.O tXcXzXtXlXxXtXyXfXfXyXyXxXzXxXzXzXtXhXrXtXzXzXfXZXw r SXhXpXSXxXrXpXxXhXhXeXeXhXhXxXhXVXrXjXrXhXrXxXjXjXjXV r > jXSXDXSXZXBXNXbX|.+XiXiXuX|.k.gXgXqXqXuXbXuXuXjXxX5 NX0XD.w.D.fXyX5.q.zXxXcXcXcXcXcXcXxXxXzXzXzXcXxXcXxXxXsX# 5.BXl.+XkX+Xb.j.j.fXrXxXjXF.F.j.j.fXj.9 9 a ; j &.c c n.C.n.s.s.C.C.n.C.U.J.f.a -.4.].@X@X,X>X>X=XXX=X*XN 1.'.1.'.{.[.{.{.].[.].XX}.@X}.| }.}.oXk.2 2 ~ _ 5.6.O.@.+.+.t.+./ 7       ",
"  2 $ h @.w.w.w.D.D.yXw.t.$ h U % @ 5 h $.: r.c. Xe.l.k.|.|.|.|.oXoXoXoXOX2 2 JXjXuXuXwXkXjX X XkXkX7X0XwX0XrXwXwX0XwX8XfXkXqXjXI ; = O $ 9 o h j D.i.zXxXxXzXzXzXlXzXzXlXlXlXzXtXzXzXxXhXR X LXcXzXlXxXzXxXxXtXtXtXzXzXtXtXzXxXyXtXhXxXcXzXrXhXw ( BXxXBXxXNXBXBXNXjXhXxXxXjXjXxXBXBXBXNXjXxXBXjXjXfXjX~ 2 2 bXCXBXmXqX+Xl.,.-.bXmXiXiXOXjXgXgXgXqXjXjXOXiXpXaX% 0XxXcXD.) q.q.t.D.yXlXtXzXzXxXzXzXfXtXtXtXzXzXzXtXfXzXaXr ~ JX|.#XgXb.F.G.G.A.F.F.j.S.b.X.v.F.fXD.; 7 9 g z f.c c C.C.C.C.s.C.C.C.n.n.n.n.| F g.@X].=X>X>X=X>X@X@XA ,X@X[.[.'.{.[.@X[.].].XXXX].]._.$Xl.l.l.2 + ~ 7.5.0.) 5.>.5.` J P 7       ",
"  q 8 E E $.w.w.w.8.j.$.8.y ; O % $ % ; h 6.0.0.x.e.l.l.|.|.|.|.|.|.oXoXiX^ 8 CXwXuXuX0XwX7XwX0XwXwXwX0XwX0X0X0X8X8X8X8XwXeXwXxXh h O.& X . w.yXH.cXzXtXyXyXtXlXzXlXzXlXfXtXtXzXzXzXzXzXNX8X; GXVXcXlXcXhXzXxXfXfXcXxXzXxXxXhXfXyXyXhXxXfXyXfXjX6 5.BXBXxXjXxXxXxXBXxXjXjXxXxXNXNXBXBXNXjXjXjXxXjXjXjXjX` 6 L LXDX$X=XXX}.gXgXmXbXbXqXx.b.jXjXjXkXjXjXjXgXjX7X( J 0XrXyX8Xt.t.t.t.D.D.A.F.D.F.yXtXtXtXtXtXaXtXtXtXzXzXhXtXY ( LXmXqXv.b.j.j.F.A.j.z.F.v.l.l.b.F.X.F.h O : o.V.C.s.s.s.f.C.C.C.C.C.s.n.J.f.X.A H }.@X@X=X>X,X@XXX@XXXN @X[.@X@X[.[.'.].].].%X%X]._.].XX}.3.l.|.1 + ~ 0.5.>.( (  .) ` R I 9       ",
"  q r.z.8.E w.D.$.@.j.z.8.@.9 ; . O o r  Xx.e.x..Xk.l.l.k.k.|.|.|.|.oX|.OXe.p CXqX9X9X7X7X7X7X8XwXeXwX0XjXwX7X7X8X5X8XrX5X0X0XjXh $ 7 7 * G.lXlXzXzXtXtXzXtXzXlXzXfXtXfXtXzXfXzXtXtXzXzXNXt.h VXzXlXxXxXfXzXcXxXtXxXxXzXzXcXtXyXyXD.tXzXzXyXyXjXp 6XSXBXjXNXBXNXxXBXBXBXNXxXxXNXBXBXBXBXNXjXjXNXNXNXjXjXe.2 C JXgX;.#XvXl.8 bXLXSXDXkXb.+XBXCXCXx./ 9.NXjXjXkXe.jXfXA.F.8X8XD.8X6.w.D.F.D.F.F.w.yXD.F.yX0X0X0X8XrXhXlXtXxXt.6 ZXz.v.7Xv.F.F.F.j.z.F.D.D.v.j.b.F.j.$.s h - : k z s.V.V.f.V.V.C.C.n.s.n.n.a a <.g.=X%X$X=X:X@X@X%XXX].F @X@X].@X@X@X].].`._.`.%XXX}.`.%X$X}.l.l.;.+ b 9.r.w.q.) O.) ) R / 5       ",
"  q / D.D.w.o.E h g #.w.q.q.7 X # R J ` r.>.^ e..Xk.e.k.k.e.e.|.|.|..Xe..X| p BX0X X9X5X7X7X7XwX0X5X7X0XwX5X8X8X5Xv.5X7X7X0X0XpX8 $ h E u cXG.dXlXdXtXtXzXtXzXzXzXhXtXtXrXhXzXzXhXxXzXxXNX8Xh VXzXfXzXfXtXhXxXfXtXxXxXfXxXzXtXtXrXtXtXfXhXhXhXjXr t.BX7XxXBXNXBXBXZXVXBXNXBXNXjXBXNXNXBXNXbXmXNXjXxXjXNX5X0 iXJXiX~ | ,.| g.#XjXDXDXjXjXCXCXZXbX6 4 . ` NXjXbX X XBXD.A.F.D.8X8X@.@.z.D.D.F.D.w.D.xXpX6X8X8X8X6X8XyXyXyXxXw.# NX8XyXyXfXjXeXS.v.j.j.j.j.j.f.f.f.j [ & U r R s k z z c c f.c z z c z z k s A XX}.}.}.}.}.}.@X@X@X].H F >X@X].@XXX].].].]._.g.`.%X%X}.}.oX}.3.3.e.2 + 5.5.w.$.+.+.@.+.U R 6       ",
"  C Y ) K y r r 9 h y 9 9 r . p r.c.x.e.r.e.0.e.x.x.e.e.|.x.k.e.e.e.|.e..X<.Y NX0X9X7X7X7X7X7X9X Xv.7X7Xv.7X5X5XS.5X5X5X5X8X5X5X6 # r . * lXlXyXdXdXzXzXtXyXtXfXfXfXzXzXhXrXhXhXhXcXhXxXNXxX9 VXtXlXfXfXhXtXzXzXxXxXxXhXxXzXtXtXhXxXhXD.yXeXS.pX` 7.NXNXjXBXZX0Xr.qXSXCXxXNXNXBXBXNXmXBXBXmXjXjXjXjXkXjXx.2 JXDXgXmXgXoX#XFXgXA 3.gXbXgXjX.XpX6 . q r . pXbXNXjX0X0Xw.w.8XtXc.t.c.z.t.rXtX8X8X+.t.xX6XyXyXsXsXyXyXsXyXyXyX6.; BXNXaXaXNX8Xv.j.S.z.v.j.z.j.A.J.f.O O h D.9.jXT X.s X.s s k s s s s - s X.Z l.}.<.}.$X%XXX}.}.@X@XXXN H @X].].XXXX].}.].`.`.`.`.}.g.2.l.}.l.e.e.e.2 2 5.( Y  .+.` { ) { J 2       ",
"  C e y h E [ { { @.+.R & . p r.r.7.e.e.e.e.e.e.x..X.X0.<.x.|.|.x.x.x.x..X7.e NXrXpX5X5X X9X9X X X7X Xv.5X8X5X5X5X5X7X7XS.5X7X5X= = O o 9 lXdXtXtXtXfXfXfXtXyXrXzXzXyXzXxXhXtXhXfXrXhXrXjX6.9 GXfXfXhXVXcXhXtXxXcXzXVXxXzXzXyXtXzXrXfXz.F.S.S.jX7.J BXBXZXBX( = . . 0.SXbXjXNXNXBXNXmXmXmXmXjXjXjXkXjXmXiXr JXCXmXmXCXmXCXCXmXmXmXMXbXgXgXjXqXx.:.T jXc.x.e.bX0.q e pXjXrXjXxXxXhXhXhXxXtXNXzXyXzXtXzXzXtXtXyXyXyXyX8XsX0X7.; NX7..XiX9XZXBXNXpXv.wXv.v.D.fXA.&.H.yXF.z.uXbXV 9 w.j.X.8 ..j.X.X.X.a a ..k.}.e.3.}.}.}.}.}.$X@X].`.m Z }.].].`.].].}.}.}.}.`.2.2.3.3.3.3.e.l.l.0.$ 0 = 6 6 4 4 5 6 r w # m       ",
"  ,.+ # O o o . . . . o & & 5X Xe.e.e..Xe.e.e.e.x.|.e.e.!.|.x.x.x.x.|..X.X .( hX8X8X8X7X7X7X7X5X7Xc.c.v.9Xc.5X7Xc.5XS.8X5Xz.7Xz.@ . O o i.lXG.tXlXtXtXrXrXpXpXrXpXrXrXrXhXhXfXpXrXrXfXpXpX5.r SXhXhXxXVXxXfXyXhXBXxXzXxXzXzXhXyXrX8X5X8XeX@.F.jX0.p BXNXAX2 X 5 8 5 . SXBXNXNXbXBXbXmXmXbXbXBXmXjXjXbXmX<.A JXDXmXmXbXbXmXbXvXbXgXbXbXgXgXqXgXmXbX XjXBXbXOX9XV + w LXNX8XyXrX0X8X0XrXpX0X0XhXlXG.yXzXdXtXyXyXyXyXyXtXrXpX5.4 aX X,.y.y.!.6Xe.!.OXiXiX.X9.$.z.hXSXfXz.0.uXx.2 % K c.r...T l.v.x...~ | ,.e.}.oX}.}.}.}.}.}.oX#X}.`.m N %X}.`.].`.}.}.}.}.}.Q.Q.`.3.3.3.g.}.e.e.^ > 6 r B r r r 4 4 # 6 4 ).      ",
"  4.+ X P ` 7.6.9.t.t.! @ @ r.e.e.e.e.e..Xt.e.e.e.e.y.x.e.<.e.k.k.x.|.k.x.7.@.8X8XS.S.S.7XS.v.5X7XS.S.8Xc.S.5XS.c.c.v.5Xc.c.c.( . K & % tXG.G.tXfXlXzXzXzXzXxXhXyXyXtXrXrXrXrXrXpXrXkXjXpXuXp BXhXfXxXhXfXfXfXhXNXxXhXhXhXhXhXtXrX0X7XrXfXrXzXBX9.p ZXNXpX*.+ % . . B CXBXNXbXbXmXmXbXmXbXmXmXmXgXjXjXmX3.A PXJXmXnXvXvXvXvXvXvXgXvXmXmXbX<.gXgXgXiXOXjXOXOXbXuXe 2 NXNXqXjX0X0XrXrX0X0X5Xr.D.tX8XyXyXyXyX8XyXyXyXtXtXyXfX+.9 aX X5XpXuXCXNX!.*.~ b n q 2 T wXwXjXe.r. X.Xy.J # . Y 5.( - T | ^ ;.;.<.-.3.e.e.}.%X}.}.%X}.g.3.2.`.Z 3 $X}.`.`.`.}.`.`.`.}.Q.Q.`.3.-.3.3.e.<.~ 2 $ 2 I B J r 5 B J 6 6 4 1X      ",
"  ,.X 6 aXxXVXVXVXZXZX7.X @ r.x..Xe.e.e.x. X5Xt.r.c.5X9X X0.e.x.e. X|.x. Xc.5 xX8XS.c.5X5XS.S.v.z.S.5X5Xc.c.7X5XS.v.v.c.v.v.z.8 K S.; . G.G.lXlXlXfXtXzXxXzXzXhXhXhXrXhXjXjXjXjXjXjXjXwXjXmX2 BXfXfXhXrXhXhXjXNXfXhXjXzXrXhXrXzXhXF.hXxXrXNXhXrXc.8 NXpXjXpXjXCXW 7.CXBXjXbXBXbXbXmXbXmXmXmXgXmXbXbXvXmX<.3 mXCXmXmXvXvXvXvXvXvXvXmXmXmXMXvXoXmXgXoXiXgX|.OXbXBXjX= . bX5Xc.8XS.5Xz.t.5X0X8Xz.6.w.z.D.D.z.8X8X6X8XrXlXdXtXE ; ZXpX X.X.X9X.Xy.y.y.7.e p @ 6 5X7Xc. Xc.x.y.0X7.$ $ X 5.0.0.e.>.V <.,.;.e.oX3.-.}.OXoX}.}.-.3.3.g.g.-.3 2.}.}.}.}.}.}.`.g.`.2.3.3.3.-.Z Z Z 2 , + % 2 e J I P *.:.w 6 & 4         ",
"  3.% 5 D.lXtXyXtXtXpX .@ = x.>.| x.t.q.z.S.8Xc.w.+.t.q.@.q.S.5X Xx.v...x.( # rXyXS.S.8XS.S.8XS.z.wX8X8XS.S.z.c.r.6.c. .T 5.9.c.c.J w { A.G.G.yXfXzXhXxXxXxXjXjXjXjXjXbXNXjXjXjXjXjXjXgXbXgX2 DXgXjXjXBXBXBXBXxXrXjXhXzXhXxXxXhXfXhXjXxXxXNXxXjX.X2 X r.X.hXjXSXbXbXmXmXbXmXmXbXmXmXmXmXmXmXmXmXvXmXmXmX-.3 . JXCXmXMXnXmXnXnXvXnXmXCXmXmXMXmX-.l.$X$X$XOXOXjXwXpX0.$ >.0Xr.c.t.6XxXZXNXjXjXpX8XS.xXjXjXjXc.5X9X Xx.w.r.D.h 9 0Xt.}.4.,.*.,.,.y._ :.y.9.9 & K eX0.>.0.l.0.z.r.= % + 8 ~ ,.,.;.q ~ >.<.+XOX|.}.}.|.}.}.e.3.}.oX}.l.3.1 q }.}.3.}.}.}.}.`.3.2.2.3.3.4.-.;.;.^ C , $ 5 e r q w 6 . . . . w         ",
"  4.X 6 @.O.o.H.H.F.S.5.% B z.w.j E j.j.&.o.o.X.9 . . . . ; q.D.) @.z.t.$ $ . . e K $.w.j.w.w.6.+.5.5.( 9 7 ; r 5 5 ; ; ) c.q.6.K $ 6 e X E E w.z.z.r.r.z.z.c.5X7Xx.v. Xc.5XqX7X7X7X5X.X|.Z q BXiXOX|.7XwXkXwXv.7Xz.r.r.z.z.z.z.z.z.r.r.z.0.z.+.q 2 6 ( 0XjXjXNXwXr.NXkXjXgXuXiXgXgXgXiXqXgXgXgX#X=XgX$X-.q 1 iX$X$X$XvXvXnXmXnXvXvXvXvXnXmXgXk.| |.vXiXl.gXCXbXAXe.p T T r.9.5.R ( 9.6.+.6.0X0X:.aXiXbX9X7.y.y.e.x.! . r 4 w :.~ =.Z =.,.:.:.,.*.7.!...( 8 9 r.v.0...>.r.T p @ # e + 2 V ! ! B ^ ^ ~ ^ ^ ~ ^ ;.Z C =.^ -.4.,.-.=.-.q q ^ ^ Z ^ =.^ ^ C A C A A 2 q ;.e.,.;.;.~ > @ % . X w L I P I I 7.^.      ",
"  =.. p c.v.$.$.A.D.8X9.% J A.A.G.f.z f.V.c z z j o.E # % . . . . 9 h h # X 9 @.y & 6.j.w.w.F.D.8.w.fXfXD.A.$.t.@.8.D.9 6.h h U 7 @ . +.t.9.xXBXBXBXZXDXZXZXbXwXqXBXZXCXBXBXqXgXmXCXDXSXDX3 . |.gXjXjXuXuXjXjXpXr.6XjXjXpXrX5X5XpXpXjXjXxXxXyXS.` # _ x.I .. .Y . . r c.CXmXgXiXjXbXmXgX#XoXoX$X#X$XoX3.-.3 }.mXgX$XvXnXvXgXiXgXgXbXgXbXuXjXDXCX0X9XSXjXkXkXOX!.W 0 . / NXZXVXVXNXxXxXZXVXZXVXBXD.i.xXzXtXyX8XF.F.yX6X6Xq.$ = 9.x.r.r.7.` 7._ _ ' *.*.*.T T X.X.X.z.pXbXz.j $.O.j o.U ; r / 7 4 p T L Y ! L W L B B V V B B 1 q q q 3 3 2 q C ^ n q q 0 b 2 + + + 2 ;.e.e.9..Xe.+ % X 0.5.6.t.q.t.t.q.S.r       ",
"  =.X ) hXF.H.G.G.H.F.5.. @ 9.w.L.f.&.z d d d f.z o.9 o $ U +.{ y . . . o ) i.sXt.6XyXz.X.X...z.8XS.8XBXzXcXhXhXF.8XSXz.r.jXpXyX6X5 P LXGXF.rXNXxXBXDXBXSXSXBXkXgXjXDXSXDXCXkXgXmXgXmXiXbX3 <.bXBXCXJXJXJXCXmXBXgXCXDXJXDXDXCXmXBXjXjXCXCXSXSXCXaX% bXCXjX Xr.e.r.9.e.JXDXDXCXCXDXDXCXFXFXMXFXJXKXKXMXKX%X3 =XJXMXMXvXnXvXmXmXmXmXCXMXbXmXDXr.jXxX8XrXhXSXBXR q # $ pXLXGXSXVXVXVXVXBXSXVXxXkXhXyXD.yXzXzXD.yXdXzXcXzXcXdXO.z.xXrXz.F.D.F.yXyXpX6X9X;.x. .E j.w.h p @.v.k j f.X.j 9 u y u ; . 6 E 6.5.r.0.>.~ ..^ >.0.>...0. X5Xr.<.L 2 8 | | ,.<.>.:.,._ r 2 2 + q ,.y.>...( c.2 % @ c.6.@.@.6.6.q.+.9.I H     ",
"  =.+ ) hXhXA.w.%.8.D.r.@ 5XzX%.V.v z f.d j o.j j O . ; 8.D.A.i.G.#.o o o U i.i.w./ I 9.5XS.6.r.r.c.0.9.v.S.8XS.r.x.z.7XqXgXv.wXNXp ( LXZX8XhXfXbXkXbXkXkXmXqXkXmXqXqXkXgXgXnXvXnX>X=X=X>Xa JXFX=X=XvXgX=X-XXX$X=X=X-X$X-XgX=XgXgXgX#XkX+XkX XCXJX2 CXDXCXZXSXDXDXDXSXmXmXmXvXvXvX=X=X>X>X>XvXnX>X,X>X,X$XN N $X=X=X=X$X$X=X=X=X=X=X=X=XvXvXV v.7XF.8XD.F.hXr.8 w 2 PXSXNXNXNXxXNXNXjXpXqXaXaXpXpXxXyXaXaXsXyXtXtXD.G.dXdX%.H.GXxX8.@.[ i.tX8XrX6Xq.9.0.$.$.w.p Y T X.j s j g u ; & O & ; - g $.X.X.j.j.w.X.$.$.j E a h E 9.9.5.6.@. .T a 5.0... .( T L 8 B q 0 2 8 >.>.h K S.0X5 $ # t.O.@.$.@.O.@.O.O.P N     ",
"  C > R F.F.F.D.w.8XsX .@ sXfXg f.V.k O z c %.w.K & % { i.p.p.&.A.L.9 . X h w.%.t.) @ S.aXc.c.5Xz.c.v.c. Xc.9X5X5X5Xr.7Xx.9X0XuXCXB I PXLX0XkXjXjXjXmXgXgXgXgXgXgXgXqXgXnX=XvX=XvX>X=X>X<X^.,XnX=XnX=XnX=X=XnXnXnXnX-XgXvXgXgXvXgXgXgXmX+XbXBXbXCX1 DXgXgXmXbXbXgXgXgXvXnXvXvXvXnXvX,X,X>X>X,X>X>X,X,X>XMXN KX,XnX=X=X>XvX=X>X>X=X=XvXvXmX|.2 0.z.rXhXyXrXD.5.r q $ jXBXZXNXNXNXbXaXpXpXaXaXaXpXpXpXpXpXaXaXpXrXtXaXzXzXxXw.+.zXzXsXyXt.6XaXt.t.yXt.) +.h o.p.&.l l &.c l l [ j ; & & $ - o.$.$.X.@.6.@.0.O.$.@.X.E X.6.@.8.E h w.6.@.O.p Y 5.0.5...( ( ..V W W 0 B :.>.9.q.D.6Xr $ @ i.q.8.@.@.O.+.{ +.R q     ",
"  3 4 J D.8XA.D.8XsXD.r X ) tXo.&.f.O g k k o.G.@.& h D.i.A.A.A.L.lX7 o X yXw.w.D.w.$ { w.yXD.t.9.x.r.r.x.c.x.c.c. Xv.v. X X7X0XCXp B PXJX Xv.qXqXjXbXgX=X=X=XvX=XvXmX=X=X=X,XnX,X,X,X,X<X/.:XnX,X@X,X=X=XnXnX>X=XnXnXMXgXgXgXgXvXgXbXgXmXgXmXjXCX3 JXvXbXbXbXmXvXvXvXvXvXvXvXvXnX,X>X,X>X>X,X,X,X,X,X,X:XD *XMXnX,X=X=X>X=X=X=XvX=XgX=XvXgX1 q  X5XD.w.6X6Xr._ = 2 ^ JXBXjXbXjXaXaXpXpXaXpXpXpXaXaXaXaXpXuXpX0XaXxXaXNXNX/ Y pX>..XAXAXI ] 0Xt.q.D.0.9.#.j j l i i p.&.j j g O & 9 k d d z k a E w.w.z.D.X.E @.O.o.X.@.8.E @.@.h E $.w.= I 5. .5.9.:. .y.7._ ~ w L ! / z.8XD.S.p % ; D.8.@.@.@.@.@.6.+.K q     ",
"  q + K w.F.G.G.G.D.D.) % $ +.E : j g #.j h y h & & 7 @.#.#.#.[ #.E . . O sX8.i.D.i.$ t.yXyXz.z.r.r.9.9.c.c.c.c.5X5X Xv.x.v.uXpXCXp q PXZXv.|.qXjXgXgXgXgXnX=XgX=X=XnXnX>X,X>X,X>X,X,X>X;X(.1XMX>X*X*X>X,X>X=X=X=XnXvX=XvX=XvXgXgXgXgXmXmXgX+XOXOX2 CXmXbXbXvXbXvXvXvXvXvXvXvXnXnXvX,XnX,X>X,X,X,X,X,X<X;X(.<X,X,X>X>X>X,X,XvX>XvXnXvXvXmXmX2 3 V e.0.6.5.5.9.7.r 8 6 LXbXuXuXaXaXaXaXpXaXpXpXpXaXaXaXaXaXuXpXaXjXaXjXxXNX5.Y ZXR 6XZXNX{ t K t.t.D.0XrXF.J.J.C.V.l g o.E & 9 c V.M.M.M.s.f v d c z f.A.o.o.o.) O.E $.j.@.$.T ..E E w. .% p 0. .`  .( 5.5. ./ r p I J q.z.sXz.D.Y X % t.+.@.@.@.@.@.@.8.U 3     ",
"  =.X ( t.cXlXG.G.yXyXaX$ @ . 8 E %.D.w.#.#.{ @.r O . . X . . . . . 7 u ; @.q.w.r.w.+.i.8X0Xz.z.c.r...5.x.c.c. X5X5X7XqXx.k.uX9XNXL 8 LXCXqX+XgXmXmXgXgXgXvX$XnXnX,X>X,X,X,X>X:X>X:X>X>X;X/.1XKX,X,X,X>X>X=X>XnXnX>XvX=XXX-XMXvXgXgXgXgXmXmXe.gXAX2 CXbXvXvXvXvXvXvXmXvXvXvXvXvX>XvXvXnXnXnX,X,X,X<X,X,X;X/.3XnX,X,X,X,X,XnXnXnXvXvXnXvXnXmX1 3 q q ~ | ..(  .5.p ` q bX0XaXaXpXaXaXaXjXpXpXpXjXjXjXaXaXpXpXaXaXjXxXzXxXVXo.@.GXxXzXw.E 8.8.K 5.t.9.D.A.&.f.M.M.V.H.w.6.; * V.C.N.B.B.B.d.d.M.B.N.N.M.s.d a h 9 E O.w.%.E K E O.R E R ; = Y  .) T p J ( K ( ` / Q P P +.@.9.@.q./ X % t.@.+.+.@.@.) 8.{ U q     ",
"  =.X c.6XxXtXG.G.tXaXaX6 $ 9.+.O.O.i.w.w.%.8.D.+.@ . @ . ; 7 h E i.A.w.O u D.w.w.w.q.t.c.z.r.c.x.r.0.c.5Xc.0X5X0X7X9XqXx.v.7X9XNX! q LXCX9Xe.k.#XMX=XoXgXgX=Xg.>XnX,X,X<X<X<X:X:X:X:X:X<X/.;XKX<X<X,X:X,X,X,X,X>X=X=X=X=XvX=X=X=X=XgXgXgXvXgXbXAXq JXvXbXvXvXmXvXgXvXvXvXvX>XvXvXvX>X>XnXnX,XnX<X<X<XMX:X(.<XnXnXnXnXnXnXnXnXnXnXnXvXvXvXgXe.2 3 2 q V V V q p 4 4 # % q 7.aXbXbXaXjXjXaXaXjXbXbXjXaXaXaXaXaXaXaXNXzXzXcXo.w.VXyXD.sXt.sXsX] r y / O.j.&.V.K.V.f.&.E h : k M.M.d.d.M.M.B.B.d.M.B.B.M.M.c d d : : g i : : j o.o.j y 6 # w  .+.) 5. .( +. . .` ' ! / P ) 6.q.w.q./ X $ 6X` { E K K R { U y N     ",
"  n $ P 5Xw.j.A.F.F.D.q.6 2 ..+.h @.#.%.w.i.w.i.R @ X X K O.w.#.#.%.&.i.h ; D.i.@.w.q.S.c.z.r.z.r.r.r.9X5Xx.c.c.5X9X X7Xj.b.fXjXCX_ q JXCXgX<.l.vXMX$X}.=XnXnXnX=X>X*X:X<X:X:X:X:X:X:X:X;X4X/.KX<X:X:X>X<X>X,X>X>X>X>X,X,XnX=XnXgX=XgXvXgXgXgXiXvXq CXmXgXgXbXvXvXvXvXvXvXnXvXvXvXvX,X,X,X,X>X,X,X,X<X3X;X/.KXnXnXnXnXnXnXnXnXnXvXvXnXnXvXvXJXq 2 2 2 L ~ B 6 + + w ( P e . 5 uXCXaXaXpXjXaXjXjXaXaXaXaXAXaXaXaXpXpXjXhXtX9 9 zXtXt.t.6Xt.J P ] / t.D.w.j.J.J.c z z o.j.j J.C.M.M.f B.Z.Z.Z.M.d.N.N.M.d.v x s.x x M.M.f v &.c &.#.E $ 6 ` +. .6.6.9.) 9.) / +./ `  .R R w.w.w.w.5.X % ( / R U R R R R U ; A     ",
"  0 2 $ =  .j.j.%.$.j.8Xw $ 8 X.E o.@.#.%.i.H.D.U % % y K 7 7 9 : u k u ) ; D.D.w.q.t.t.c.z.z.c.r.r.9.c.5Xt.= 7.5X9Xv.v.b.7XjXwXbX^ 8 JXBXkXgX#XvX=XoXXX$XvXnX,X*X:X:X:X<X:X:X:X<X<X<X<X2X4X/.3X:X:X:X,X:X,X<X,X,XnXnX=X*X=X=X=X=XgXgXgX=XnXgXgXbX2 CXbX#XvXvXgXgXvXvXvXMXnXvX>X>X,XnXnX,X,X>X>X,X,X<X3X/./.KX,X,X,XnXnXnXnXnXnXvXnXvXnXnXbXCXA 2 3 2 2 X . 8 / aXBXZXaXaXP + 2 0XNXaXaXaXaXaXaXaXaXaXjXpXAXaXaXpXaXjXpXxX7 [ xXaXtXsXsXt.D.t.5.@.6.5XR E %.k z z c A.H.j f.s.f N.C.M.M.d.B.Z.Z.M.M.M.s.M.d.d.f f d.d.M.x d k 9 6 X @ 9 R R h I ` 6.+. .` R R R +.6.) 5 t.D.D.t.9.% X +.) [ E E E ) E u O -.    ",
"  0 2 c.6.8 X.$.@.z.8XpXp >  .p E #.w.w.A.H.G.lXr % . 4 4 y y 6 5 6 @ . o O R D.t.D.S.S.c.5Xc.z.z.S.9.r.0X5.$ p 5X0...l.7XuXgXuXbX~ q JXmXmXqXjXgX=X=XvXnXnX,X*X>X>X,X,X<X:X:X<X<X<X<X<X2X4X/.3X:X<X<X<X:X<X:X,X,X>X>X=X=X=X=XvXvXgX=XnXgXgXvXgXmX0 JXbXgXvXvXvXvXvXnXMXMXvXvXnXnXnXnXnX,X,X,X,X<X<X<X3X/./.<X,X,XnX,XnXnXnXnXnXnXnXvXvXnXmXoXq q q 2 2 = r.pXpXjXpX0X5X0XpX0 @ . SXpXaXaXbXaXjXaXaXaXaXAXaXpXaXNXpX6XyXD.& ) xXyXxXxXzXtXhXfXyXtXyX6XD.w.A.A.A.&.&.&.o.k X v d.M.M.N.M.M.B.M.M.f x f f v v x f x f x s.c g . X % < 5 @ 5 5 w 5 5 5 r p r h h r e e h R t.S.t.t.t.X X q.@.O.@.O.@.{ [ #.6 Q.    ",
"  , Y 8XS.z.j.$.A.w.z.D.J 6 P 4 ; E i.w.o.#.%.#.X @ % 5 { @.8.@.{ { h 9 & & 7 D.i.@.6X5X5X5X5Xc.c.S.c.x.r.R % X /  .r.iX|.OXOX.XiXC C JXmXmXqXgXgXgX=XvXnX,X*X=X>X,X>X:X<X<X<X:X:X:X<X<X3X4X/.3X:X<X,X:X<X<X<X,X,X*X,XnXnXnXnXnX=X=XvXvXmXmX#X<.e.2 e.CXgXvXgXgXnXmXvXvXnXvX>XnXnXnX,X,X,X,X,X>X<X<X<X3X(.(.:X>XnX,X,X,XnXnXnXnXnXMXnXnXmX$X. . . . + 2 q jXbXjXuXpXjXD.sXsXsX; % 6.NXjXbXbXaXaXaXaXpXaXjXaXpX5XjX0X5.R ; & X  .E @.@.@.w.w.D.w.r.D.tXtXdXtXD.A.%.%.$.%.o.s x C.M.M.M.M.B.M.d.f M.s.v d f f x x v M.M.v z 9 ; ; K / K h R ) R  .) ` R R R ) K h 5 h t t.q.r.D.q.6X. X i.+.@.@.@.@.{ K D.K }.    ",
"  + _ 8XS.tXH.A.H.%.o.D.r < & o X . # 7 9 9 ; $ @ @ $ w 9 * O : 9 h u E J & & y h ; w.F.D.6XS.D.D.D.z.c.c.0.p L T 9XuX XiX9X9X0.~ 3 A iXOX|.}.}.}.}.%X%X$X>X,X:X;X3XKXMX<X<X;X2X;X;X2X;X4X/./.3X3X2X;X;X;X;X;X;X;X*X-X].g.g.}.XXXX}.+X|.k.e.p p . 2 . bX|.|.OXiXOX#XOX|.oX-X=X=X$X$X=X=X,X,X,X,X,X,X<X2X(.(.[.].].'.h.h.h.2.h.2.2.3.g.g.,.A |.OXuX9X8 + . + e.|.5X0XzXyXi.D.q.. 6 h sX5X0X6X5X Xc.t.sXaX5XS.0X0X0XyXyX6XD.O @.6.E O.#.) E E E E O.o.$.%.%.o.%.$.$.o.E j $.z z C.C.M.x N.N.Z.Z.M.s.x v z c c c f x M.s.c g g E g U ) O.@.@.O.) R ) ) E +.O.) h R 9 t 0 aX0.t.t.t.7.X % 6X+.O.R K e I e I r _     ",
"  + r 5Xz.F.F.G.F.A.G.tXr 6 w yX6.+.q.q.w.8.8.6.$ @ & y h h h w.@.O.E E y @ r q.D.D.D.D.D.D.6XD.D.z.S.6X6X0X6XpXjXjXjXjXpXaXNXNXgX+ + .XOX#X$X$X$X$X>X>X>X>X,X<X;X<X<X<X<X:X;X;X;X<X<X<X<X/.(.(.;X;X3X3X<X<X:X{.{.=XnXvXgX#X#XiXiX Xe.8 2 O p Y 5.6 2 q 5.c.v. XjXbXgXiX|.k.<.k.}.3.3.3.3.4.4.1.2.].].>X/./.1X>X>X>X>X>X=X=XvX=X#XgXmXmXJXLXPXPXLXLXLXLXhXz.; . R R ) ) h * * yXGXGXtXpXVXNXNXNXxXBXVXVXxXaXjXjXaXyXsXsXaX7 xXVXdXdXG.yXG.yXtXzXtXG.H.A.A.A.A.j.%.%.j.j.A.k . C.x V.f f M.B.M.f x v V.d : : : g c z g : * 9 R w 4 r r r h h K U E +.@.w.@.{ @. .y & 4 sXq.t.t.6.P % @ I 4 @ & o & w r 9 9 4     ",
"  > $ J J p K Y R R 6.S.w 5 h 6X+.q.t.D.w.8.t.6.$ @ ; 9 ; h @.@.E E h K 7 @ U i.t.D.w.9.w.q.q.q.q.w.t.t.c.5Xz.r.v.c.7X7X X XuX XOX| q DXmXvXgXgXvX=XvX=X>X>X-X*X*X=X*X*X*X:X:X:X:X,X:X:X:X;X(.<X,X=XKXFXFXnXXX-XXXXXXXgXgXgXgXgXqX#XjXa - ( p / J 4 + qXjXBXCXBXSXLXJXJXJXDXgXmXJXJXJXJXJXJXKX=XvXvXMXKX(./.3XKXKXKXKXKXJXJXKXKXFXMXvXmXmXmXmXmXjXkXDXSXLXLXLXpX5 O @.@.7 xXZXVXxXBXcXVXxXhXhXrX8XxXrX0XpXuX0X0X0X0X0XyXsXh yXzXdXdXdXyXdXyXdXtXA.%.A.H.H.A.&.%.o.o.$.$.$.X O V.c d f M.N.N.x x c d j : O O . ; 9 : X = w I I w :.0.5.+.@.{ o O h r h E O.@.9.+.r @ +.6X9.6.q.8.J X % . K D.sXD.yXdXzXdXdXh     ",
"  0 2 J P P  .+.7.5.9 q.6 6 ` p +.6.@.q.@.8.6.` $ # 7 K U h @.O.E @.{ { w 4 @.i.D.r.w.w.r.t.r.r.9.q.r.z.S.7XS.8Xc.c.c.c.x.e.|.l.|.l.V gX#X+X+X#X#XXXXX=X=X=X=X=X>X*X*X*X:X:X:X:X:X:X:X:X:X/.4XKXMX,X>X,X>X=X=X>XnX=X$X%XXXoXXXoXoXOXOX+X0.V p r w 8 = 9XkXgXqX+Xv.v.b.qXkXmXmXMXFXFXMXMXMXFXMXnXMX>X].<X/./.4X<X>X>X*X@X=X=X=X=X=X$X$X$X=XgX#X-X+XgXkXkX+XqXuXSXNXR . . BXVXpX0XpXjXpXaXpXuX0X9X0XpX0X0XqXiX9X5X5X5Xv.S.S.7 dXcXxXxXdXzXlXdXdXD.h ; j o.k d g k g : O X . O z V.f s.v v v v c V.d g * 6.` r # @ r 5 = 5 e V q b L 7.9.5.) E E 9 O 9 h 9 & ; ; 7 . 6 xXrXq.t.q.q.I X X X F.G.H.G.G.G.dXA.i.9 D   ",
"  0 # R 9.c.8X5X7Xt.q.6.X $ ` r 5.5.+.O.O.{ ) ` 4 # J 6.8.E #.w.w.#.{ { 6 5 { D.t.z.D.c.c.z.z.z.r.r.z.v.z.z.z.c.S.c.c. X X X Xl.3.k.<.CXv.+X-XoX$X$X=X-X*X=X=X=X=X=X=X>X*X*X:X:X:X:X:X:X<X/.4X<XnX>X>X>XnXMX=X=XvX=X=XoX$X$XoX#XoXoXl.qXgXOXp . q 8 = CXjXgX9XqXqXiXgXqXgXgXvXFXJXFXgX=X=X,XnX,X,X,X@X&X/.(.4X<X:X>X>X>X>X>X>X>X>X=X>XvX=XgXgXgX#XqX+XqXqXqXkXgXjXBXp q.ZXrX0XpXpXpXuXuXaXuXuXiX9X6X7X9X7X7X7X9X7X7X Xc.8X; yXcXzXyXdXtXdXdXdXi.a a O E k o.g zX6.5. .Y r . : c c x f d d : d z : & K q.7.Q I b 6 > w L _ ^ ^ ^ C B *.7.( +.U h 9 E w.@.y { { +.& R zXtXq.S.t.i.] % % X dXA.i.%.%.#.#.E h 4 H   ",
"  0 q 4 I P h K P +.t.t.@ X w ! 0 7.5.+.{ E +.7.4 # / w.E h @.w.w.@.w.i.5 7 9 i.D.D.D.D.c.z.z.z.r.r.z.5XS.c.S.c.c.c.c.c. X XOXe.e.gX~ mX+X+X+XoX$X$X=X$X=X=X*X*X*X*X=X=X*X*X*X*X*X*X*X:X<X^.4X<X,X=X>X>X>X$X$X=XvX=X#X#X#X#XoX+X+X#X|.+X|.gX.X<.+ q + bXwX9XqX9XiXgXgX+XgXgXgXgXgXvXvX=X=X>X,X,X,X,X*X;X/././.1X,X,X>X>X>X>X>X>X>X>X=X=X=XgXgXgXgXgX+X+XqXqXkX0XuXNXe VXjXjXpXpX0XuXpXuX0X0X0X0X0X0X0XqX9X9X5XqX9X9X7X5X8X; D.zXtXD.D.sXD.D.t.6.h p . a ; 9 zXSXxXxXNXpXtXNX+.O k k x f d l ; ; ; o D.8.+.9.` 5.' J e r ! _ | | ;.V *.:.` h O y E 9 6.5.e K +.; $ 8.rXw.9.6.w.q.` X $ . i.%.#.o.[ [ E U K 5 N   ",
"  0 q ` 5.) 9...+.c.w.6.$ @ :.7.7.6.+.+.$.$.+.{ 6 # U @.h h 8.#.@.O.@.8.e t r D.yX8XS.S.S.z.w.r.r.r.z.c.5Xc.c.c.c.c.c. X9X5X7Xx.e.l.8 |.v.+X+X+X#X=X=X$X$X$X-X-X-X-X*X*X*X*X*X*X*X*X*X:X:XD /.<XnX=X=X=X=X=X$X=X#X#X#X=X=X#X+XOXoXOX|.+X+XOXiXvX,.. + NXqXv.7XqXqXqXgX+X#XgXgXvXvXnXmXMXMXMX,X,X>X>X:X2X/./.4X:XMX>X>X>X,X>X>X>X=X=X=X>XvXvXgXgXgXgXqX+XqXqXuX9X9X0Xh cXpXpXuXpXpXuXuXuX0X0X9X0X9XuX0X0X0X0X0X0X6X6X6X0XhXh yXxXfXyXsXsXsXw.D.@.9 h J ; r ) aX+.t.S.8XD.D.xXVXdX$ u j j i . . . yX* h @.E q.9.9.@.6.+.K I ( >...0.Y R e . & y y U h K K r = # 6 @ 9 q.q.r.q.5.+./ X @ . O U E [ [ [ E O.U 7 N   ",
"  0 6 5.` ` +.( (  .q.t.r @ I r.c.q.6.+.$.6.+.R 5 @ K w.O.7 8.%.[ [ [ { y & R i.D.D.D.D.z.z.z.z.z.x.r.r.r.t.t.r.t.t.c.5X Xc.0.x.iXOX;.e.qXqX+X#X-XoX$X=X=X=X=X-X-X-X-X-X-X*X*X*X*X*X*X*X>XF h.MXnX=X=X=XvX=X=XoX#X#X$X#XgXiXOX#X+X+Xv.gXqXqXk.|.vXmX2 JXjXkXgXjXBXCXbXgXgXgXgX#XnXnXnXvXvX*X].[.*X*X:X3X4X/.4X<X,X,X,X>X,X>X>X=X>X>X>X>X=XgXgXgXgXqX+XqXqXqXuX9X9X5XD.zXpXpXqXuXuX0X0XiX0X0X0X0XuX0X9X0X0X0X0X0X6X0X5X6XyX; w.xXrXxXtXyX8Xw.q.@.h $.D.D.hXz.D.q.8Xz.D.z.S.D.+.6Xr $ @ X .  .r.D.yXw.R R 6.q.6.9.q.j.w.w.w.w.z.@.9 h y O h 8.8.[ { { { ) U h w 6 @ $  .r. .` ` { *.@ $ % +.+.h U { o.%.[ O.9 3   ",
"  q = @ ; 5 6 6 8 w e e L $ q 5.J 5.6.@.+.+.+.5.w $ i.6X@.O.#.#.#.[ O.q.{ 7 h q.{ h O.z.z.v.c.r.r.r.r.r.r.t.r.t.c.r.x.x.t.x.e..Xe.OX..>.gXiX+XqX#X#XgXgX$XoX$X$X$X$X$X$X=X-X-X-X*X*X*X*X,X).).nX=X=XnXnXnX#XgX=X=X#X#X#XgXgXOXqXqX Xv.gX+X+X X>.NX>.2 DXjXkXkXgXjXgXgXgXgXmXvX$XF 1._.1.h.*X>X,X,X,X,X<X/./.4X<X,X,X,X,X,X,X>X>X,XnXvXvXgXgXgXgX=XqXoXoXiXqXuX7XqXjXw.xXpXuXuXuXuX0XiXiX9X0X0X9X9X9X9X9X9X9X9X9X9X5X9X6X5X8 h VXz.w.S.D.9.) E 9.6.9.t.rX8XjX0XS.z.z.r.z.z.r.9.e._ # X E D.zXVXVXhXw.Y 9.t.t.7. .9.w.w.w.w.D.rXyXi.+.o 9 { +.U K { E { R U ) ' ] $ 6 t.6Xt.i.i.y.u.> < % t.O.h O.t.8.w.#.[ 9 2   ",
"  0 2 ` +.9.q.9.q.r.y.7.q + r 7.( Y 6.q.@.@.9.q.t & sX8.K w.#.{ #.w.8.+.) ; y q.q.q.. E S.t.t.r.9.r.r.r.t.t.t.x.c.v.x.v.x.x.x.x.k.,.^ p jXqXqX+X+X#X+XoX|.oX$XoXoX$X-X-X$X$X-X-X-X-X-X-X:X(./.<X}.-XgXFXCXmXmXgXgXqX+X#XgX#XqXqXqX X XqX X Xx.uXBXbXp SXjXqX+Xv.v.+X+XqXgXgXgXgXg.=X>X*X,X,XnXMX,X,X,X>X1X(.3X:X,X>X>X>X>X>X>X,X>X>X>XgX=XgXgX=X-X#X+Xl.|. XqX7X5XpXT xXpXqX9XwXuXiXiXiXuXuXuX9X9X9X9X9X9X9X9X9X5X9X5Xc.NX9 o.GXF.8Xr.5.+.5.6.0.z.x.S.x.9.7Xx.z.v.x.z.j.z.9.t.6XP $ R yXtX8.D.VXr.r.q.9.9.t.q.9.r.w.6.w.j.w.j.w.t.rX9 6 K y U K h 9 7 h @.R J ' # 5 5XpX0XsXUX] y.> < X 4 e ` { +.E K 7 u 9 2   ",
"  0 6 6.7.(  .5X6X6XS.t.4 % 4 _ w r.z.@.6.q.7.` 6 & O.O.) 8.q.@.q.@.8.@.8.u { 8.w./ # { 6Xt.r.r.r.r.r.r.t.t.c.c.r.r.v. Xx.r.l.v. XkX>.p bXv.+X+XqX+X+X+XoXoX+X+X#X$X$XoXoXoX-X=X$X$X$X=X:X/./.<X=XgXbXgX>.~ V gXgXqXOXiXiXqXqXqXqXuX9X9XqX7X7XuXaX~ 8 BXv.v.+XqXqXgXgXmXmXbX=XXX=XMXnX=X>X*X*X*X*X:X*X>X;X(.3X@X>X>X:X*X>X>X>X,X=X=X=X=X=X=XgXgX-Xb.#X+Xx.l.7X7X7Xv.E rXwXqXqXwX0X9XiXiXuXqX9X0X9X9X9X9X9XiX5XuX7X9X0XrXVX9 yXfXF.wX5.0.v.v.c.v.5X Xx.c.x.x.7Xv.v.S.z.7XS.rX0X0X5 5 hXrXS.z.+.c.9.9.e.t.5Xt.r.9.6.5.0.r.r.9.9.r.5.6XK & ) O.E O.{ E E O.[ h U U $ 7 8X0Xt.9.q.' t.$ $ @ 6XO.E U U K @.w.O.9 $   ",
"  0 6 ( _ 5.r.5.( +.6.7.# %  .:./ 9.@.) K R ` / 6 & K O.) O.@.E E 8.@.@.E h h E r o I 5./ 6.r.r.q.r.r.r.t.t.t.t.r.r.r.x.x.x.v.fX0.9XT Y gXv.qXqXqX+X+X|.k.}.oX#X#XoXXXoXoXoX$X-X-X$X-X-XvX1.F JXvXl.|.| ..| 2 qXbXOXqXqXkXgXqX7XkXqXv. X X9X9X.XaX. . xXfXjXjXjXjXgXgXgXOXoXg.}.=X=X=X*X*X@X*X*X*X*X*X@X;X(.3X>X,X>X>X,X,X>X=X>X=X=X=X=X=X=X=X-X-X#X+X+Xb.b.kXkXS.eXj.v.S.5XwX9X9XiXiXiXqX7X7X9X9X9X9X9X9X9X5X9XqXwX9X9X0XK S.w.r.5. .x.v.v.9X9Xz. X Xc.qXuXr.v.5Xv.z.7XS.7Xc.c.6 9 6.r.v.0.| >.0.0.0.e.9.0.0.0.9.6.0.0.0.0.5.9.9.5X_ % D.#.u K ) E { { w.{ h 7 o ; rX6Xq.t.6X] y.4 # @ 8X) h E { O.#.@.@.7 @   ",
"  q $ ! :.! p r p / / 5.6 @ P 7.( 6.9.6.+.) ` ' 4 $ & r y O.O.O.q.8.h O.{ U 5 h 4 / 5 w . . p ) 6.5Xc.c.c.c.c.t.r.r.r.r.r.r.r.7XpXbXY T jX0XqXuXgX+Xv.l.l.oXoXoXoXXXXXXX+X#X+X$X#X#X#X$XvX-.Z mXiX9X X| b.0.V gXjXuXgXuXqXgXjXNXuX9X7X X XuXjXpXbXq 5XBXS.c.7Xv.k.e.l.}.oX=X=X=X=X>X,X>X>X:X:X:X,X,X,X*X;X(.<X:X@X*X@X[.>X,X>X=X=X@X$X=X$XvX#XvX#XvX+XqXbXgXb.v.x.r.a ..h F.0X6X.X6X5X.X XqX9X9X9X9X9X9X9X9X.X.X5X9X XaX9.4 6.r.0.0.x.e..Xx.x. Xx.x.e.e.uXuX9.r.x.r.r.r.0.x.x.9.r w 9.>.e.0...x...>.0.<.>.0.0.9.9.r.r.0.0.0.6.9.9.q.( @ R h r K E ) ) ) U U y J $ 6 rX6X7.9.UXt.7.4 # @ h y E @.) h h 7 ; 6 #   ",
"  q 2 7.>.y.` ! 4 r 7.r.4 @ e :.>. .7.t.t.9.` :.4 @ r y y { 8.w.@.E +.6.J h 6 X . J y ` P h . . % / c.c.c.c.r.r.r.r.r.e.e.9.9.x.>.y.% ..7X7Xz. X+X+Xk.l.v.+X+X+X+X+X+XoX+X+X+XoXoXXXXXXX$X<.>...0.5.T T a 0.p >.bXgXjXjXbXNXZXjX0X0X X Xe.jX9.>.9.6 0Xx.>.e.0.k.oX#XvXvXvX$X=XvX,X>X=X*X*X[.[.[.*X*X@XG 1X(.E.'.).:X*X[.>X,X,X>X$X}.$X>XvX$XMXJXCXmXbXCXDXCXk.x.0. .w = 0.5.w.w.c.c.)  .0.r.e.e.9X5Xr.9.7.t..XpX0X0XqX5X( % J 5.Y  .9.0.9.x.r.9.9.0.5.9.0.0.0.0.0.0.>.9. .....! 6 $ h 5.5.e.>.9.( T :.>. . .5. .5.5./ ( _ (  .5. .5.( $ 4 & 5 7 y J r y 7 4 w r @ w S.Y 5.q.6Xq.L > @ 5 P R E h E +.U 5 K 7 6   ",
"  n 2 :.0.9. .6X5.r 9.c.@ % e 7.^ _ e.r.+.R 5.7.4 # ` q.q.O.@.O.{ { ) +.U 9 6 6.t.8XtX8X8Xt.q.U K . . R K +.q.6.0.9.9.9.e.0.9.r.t..X% ..v.0.v. Xv.x.x.l.x.v. X|.|.x.|.OXl.l.e.gXgXgX X<.| B | 0.>.a a >.9...Y x.e.uXaXbXjX0XjX9Xc.5Xx.r.e.x.c. Xy.= NXNXjXjXBXmXbXbXjXbXmXgX}.XX$X=XvXvXvXnX=X=X=X@X@X*X;X(.<X:X:X>X>X>X>X=X=X=X=X=X=X-XgX-X+X+XXX|.oXl.e.k. Xe.0.( 6  .w.$.k fXfXF.z.F.eXF.8XfXeXF.F.eXF.fXhXfXfXfXv.0X0.Y 7XS.5XuXjXuXjXfXrX8XrXrXjXxX8XrXS.rXrXhXhXfXfX0Xv.Y X +.z.x. Xx.0.9. ...T >.r.5.>.5. .5.0.0.0. .5.9.0.0.6.r 4 h 7 7 9 6 7 7 7 & & $ $ 5 S.r.q.8.y.y.W > @ 4 U h 9 h { E h 9 u 6 6   ",
"  C $  .>.5.( 9.7.w 7.9.X X r y.~ <.y.e. .5.7.q.< @ w K @.8.{ @.{ { { +.{ 7 6.tXtXG.D.D.D.D.tXD.+.D.5.w . X ( S.r.k.&X|.x.v.z.z.9XNX. p x.0.7XwXqX+X+XqXqXOX X.X.X.X|.oXOXk. XJXLXSXjX9.*.e q Y a + 2 :.B CXBXgXbXuXpXqXz.v.jXjXpXwXx.5XpXpXpXaX! $ c.jXjXjXv.gXgXgXgXgXgXvXvX=XvX$XXX=X=XvX=X=X>XnXMXMX^.(.<XMX,X,X>X,XnXnXnXnX=XvXFXnXFXmXnXmXbXgXkXmXgXjXjXuXx...= 6.D.j.a j.k G.H.j.G.F.j.j.j.F.F.F.fXG.fXF.fXfXeXNX0...jXkX0X7X7XiXuXqX9X X Xv.k.x.v.7Xv.v.v. Xv.7X+X9X7X..$ 6X5X9.r.k.0.0.0.x.v.e.0. . .0.0.9.9.0.9.5.q.9.r.9.9.E O h +.+.U R U U U U J & @ # +.9.t.5Xt.q.I @ @ r I h U y 7 r h h 9 ; 5   ",
"  Z % L _ 5. .t.P w 7.9.$ X q 9.y.y.5.9.q.q.I t.# @ r ) O.@.$.O.@.@.O.{ U & #.yXF.tX+.` e R q.xXq.@.z.c.@.5 . K c.e.h.0.v.v.z.r.r.c.% R D.D.S.x. XOXgXiXgXiXiX9X9XOXoX|.oX$X$Xe.l.l.4.-.,.B + :.e.7.r . 0.SXjX0XrX0X7X7XkXVXBXjXpXjXjX0XuXjXjXaX:.+ r.jXjXiXiXgXOXoXiXgXoX#X#X$X>XvX$X>X=X$X*XnX,XnXnXKXG ^.[.>X>X>X>X>X>X=X>XnX=X@X=X=X$X#X-X#XgX#XqXjX+X+XwX7Xe...8 6.v.S.j.6.8XF.z.rXhXfXhXF.7XwXqXwXwXjXwXjXxX0.0.jX..^ qX+X|.oX|.x.x.k.|.oX|.|.+X|.x.v.x.k.k.k.x.v.x.|.v.>.8 x.0.<.<.e.<.0.e.k.x.......V 0.c. .!  . .5.5.@.9.6. .R % R @.@.{ { @.8.q.R y 5 % w r.5Xq.q.t.t.Q > # e ) h h h K U R E ) r 6   ",
"  C + / 7.5.` 7.r 5 7.9.# @ w y.7.7.9.9.6.q.7.7.> @ e K K @.8.w.O.8.D.w.O.; w.yXD.8XO . ' U . 5.zXD.D.K w.w.e . K t.+.0.0.0.9.r.c.0X6 e tX9.r.c..Xx.OX|.|.qXuXuX9X|.|.oXoX|.OXiX#XgX$X,.e.p 8 5X5Xv.qX8 wXPXjXv.jXS.S.v.8Xv.r.r.v.5XjXpX9X9Xc.0X>.+ 5XNX9XuX9XgXOXiXiXgXOX#XgX#X=X=X=X=X$X$XvX,X@X@X].,XS A @X:X*X>X>X*X=X>X>X>X$X=X$X=X=XgX+X#XqX#X#XqX+XqXx. Xv.5.8 BX5XS.v.7XxXwXjXjXjXfXfXfXuXjXjXwXwXkXgXkXkXjX>.jX0.p #XoX|.|.+X XoXx.x.x.|.+XoX|.v.k.l.k.l.k.k.x.|.e.x.T q r.0.<.e.,.<.<.<.e.0.0.>.>.! ( ~ :.5.5._ _ ..5... .! 5.% K +./ E U @.{ [ E J r X w 0X9.t.i.i.i.*.> # # h ; h U h K E ) w.e >   ",
"  =.+ I ` ( :.P _ J t.9.$ % # / p B t.r.5.5.*._ @ @ J / ` +.+.6.) E 6.@.w.9 D.yXD.tXR 6 / y / q.xXtX6.sXq.w.8.# 9 9.( 0.z.r.5Xc.c.0XP p VXw.r.r.;.e.|.OXx.k..Xk.OXOX|.oXoXoXOXOXOX#XgXe.~ q 2 uX Xr.c.c.xXSXxX8X0X8X7X8Xv.v.8X0XjXjXrXpX5XqX5XaX9.%  .rXc.wXqXuXiXgXiXoXgXmX#X#X=X=XXXMX$X>XnX>X>X>X@X>XE.^.^.:X=X@X@X-X=X=X=X=X$X$X$X$XoXoXoXoXoX+X+X+X+X|. X9Xv...8 NX0X9X7XqX7XqXuXwXwX7XeXuXgXuXwXwXwXwXqXqXkXjXqXuXx.q iXoXoXoX X+XoXoX|.|.|.|.k.x.oXoX|.|.|.|.k.|.v.x.r.T p x.e.e.0.0.0.<.e.0.>.0.0.0.0...0.9.z.9.5.5. ...( 5.5.:.@ w U J y y h u h K e w @ 4 c.9.) t.8.q.' $ @ 5 K h E h U R +.h 7 O @   ",
"  ,.% Y _ _ r./ t.` b L # $ $ :.:.:.e.9.5.6._ ! @ @ ; 5 5 w 4 5 5 y U y K 7 w.D.w.D.D.sXt.8.dXsXD.q. .+.+.6.R O h D.q.9.c.z.c.c.t.t.r w yX5.r.9.0.0.( r. X7X X|.k.|.}.k.$XiXiXiX.XOXoX,.1 B q bX.X7.6XjX5XS.rXhXwXrXwXwXrXrXrXrXjXxXpXwX0XuXjXjX7.+ jXpX9XqX9XmXjXgXjXbXbXbXgXvXvXgX$XvX#X$XvXnX>X,X>X>X~././.;X:X@X@X-X=X=X=X$X$X$X=X=X=X=X#X+X#X+XoXOXOX+XiX X Xa a wX9XuX X X9X9XqXqXiXqX7X X9X9XqXqXiXqXgXgXgXgXqXqXx.V #XoXoXoX+XoXoXoX|.|.|.k.|.|.oXoXoXoX+XoXk.x.v.x.v.V T uX0.l.0.l.<.0.<.<.+Xj.0.F.X.$.$.@.@.6.9.r.0.6.9.6.5.` # 4 . O 7 9 9 7 & X . w $ r 9.q.+.q.8.q._ $ < r / h E h E U 9 r 9 6 4   ",
"  ^ . J :.7.7.P ( r ` ` 6 @ 5 7.:.y.e.9.9.9.7.*.% % w R ) ) ) O.E E E { / $ O.w.@.w.q.q.@.E 8.@.+.+.` +.{ ) 6 & 7 6.J r h R R J +.5.# 5 q.5.9..X Xx.7.c.5X9.x.5XiX9X.X|..X.X.X.XOXiXCXBXBXCXW BXI 0.t.5.( 5.Y E @.5.0.v.jXhX0XqXaX7.e.5X0XpXpXaX7.% NXjXv. XjXqXBXCXCXbXOXoXiXgXgX#X=X}.Z vXnXnXvX>X>X%XS ^.(.:X@X@X@X=X$X=X=X$XXX$X=X$X=X#XoX$XoX#X#X#X#XOXqX|.v...k.7X9X X X+XqXOXOXOX9XqX#X|.|.+X+X+XOXoX+XoX#XgX#X#XgXA gXoXXXoXoXoX}.}.}.}.|.|.|.|.|.oX|.oX|.|.|.|.l.l.v.2 Y yXr.c.r.9.x.r.@.0.j.0.w.8X0.w.$.@.$.@.6.6. .5.9.5.7.` $ 7 / K 7 & 9 9 y h P r @ P 9.5.5.t.q.t.] @ 6 J K K E h u u 9 ; 6 ; 6   ",
"  =.w p y.:.4 w t.r 9.:.> @ 5 7.L 5.y.9.9.! 7./ @ % / +.O.O.@.8.@.{ E O.h X O.z.+.5.+.@.@.#.@.+.+.+.+. .9.) X . ` +.e 5.5X5.) e J ) # q. X` ~ t.t.y.t.9.y.:.>.>.7.0.<.e.e.r.y.9..X9XJXNXbXJXn iX6X0X6X6X0X0X0X0XpXpX6Xx.0Xc.r.pXLXCXZXCXjXjXjXNXy.@ SXSXz.z. XjXuX9X X XOXk.|.e.l.OX#X%Xe.F `.%X%X}.}.1.F A N }.}.@X@X@X@X%X%X$X$X=X=XgXoXoXoX3.| l.|.|.|.v.v. Xv. XuX Xv.x.+X9X9X X X Xv. X+X+XOXqXqXqXqXoX+X+XoX#X#X+XgXa oXoXXXXXoXoXoX%XXXoXoX|.}.|.|.oX|.oX|.|.|.oX3.e.x.I # P r  .h J z.D.yXhXw.$.r.r.+.0.9.0.6.5.7.+.( 5.`  .` ` % w q.6.) J ) 8.5.` +.q.X I t.! 6X6Xq.q.] > 5 J 7 < . . . o @ $ $ X X   ",
"  V r 5 r % V >.!.2 7./ 6 @ q y.W 0.y.y.9.9.y.*.% @ ` ` O.{ ) ) ) E @.)  .. K z.S.9.@.6.@.@.q.6.6.q.q.c.yX` .  .5.R Y ( 0X0Xt. .P e # K t.r.r.t.9X0XjXjX7X8Xv.v.5XwXpXuXuXpXpXjXjXjX0X5XaXbX6 LXSXBXZXZXZXzXjXxXbXjXpXpXj.z.hXBXjXLXLXZXNXjXbXNX7.@ jX5X5XxXjXv.eXDXLXSXNXuXe.uXCXDXbXmXDXgXoXoX3.MXFXMX1.N 3.3.3.}.}.%X}.%XoXXX#XgX$X#XgXgXiXuXiXiX Xx.0.0... Xx.9.wXv.e.x. X X9X9Xv.c.x.x.e.x. X|.|.|.l.k.l.l.l.}.oXoXvXA =XXXXXXXXXoXoXXXXXoXoXXX}.oX|.|.|.|.oX|.|.|.oX.X<.r  .+.) = . U I . K w.E 8 9.q.Y 6.6. .5. . .....( :.(  . .% 5 6.t.q.q.q.t.` / J / X ` sX` t.t.9.c.' > 0 & X 9 U ) 6.w.q.q.t.J X   ",
"  + 2 5.7.y.~ *.7.q 7._ 4 $ w 7.7.e.9.7.y.7.y._ % @ J R ) U U E h h E r u.w e yX@.w.w.w.$.#.@.@.@.+.+.q.P w I aX9.4 T Y a T  .r.aXe X X tXhX0X7X5XpXpXwXwXwXjX7X8X0X0X7XqXuXuXjXuXgXkXwXjX>.p BXfXhXzXxXxXtX8XS.5X5Xc.S.v.8XrX0X7X+.6.5.>.T ..e r $ GXjXpXwXjXuX9XOXqXOXoXbX|.vXiXiX#XiXoXgXvXnXvXFXMXMXF A JXnXvX=X=XnXnXvX=X=X#XoXoX|.gXvXOXbXvXgXqXuXuXjXx...r.r.x.v.c.9Xx.0. XuXjXuXkXiX9XOXgXqX+X#XgXgXgX#X$X$XQ.3.oXA XXXXXXXXXXXXXXXXXXXXXXoXXX}.}.}.|.|.}.|.oXoXl.oXe.p r.R E +.w 6.q.r @.z.w.@.9.q.) 5.5. . . .)  .`  .5.7.5.Y X 4 t.t.t.9.5.5. .P R J % R D.J 6.t.q.t.' # 4 4 $ 8.t.8.q.t.w.q.t.y %   ",
"  2 6 9.r..Xt.t.t.B ! _ 4 $ r e.e.0.y.9.y.:.7.*.X @ ` +.@.{ ) E E E E U @.{ 7 yXu [ #.8.q.q.w.@.8.9.+.q.R . 6.5.` Y +.5. .>..X .c.$ % P 8XS. X.X.X.Xr. X XOXiXOX X X X.XOXqX XOXOXiXiXqXOXB 0.xX5X5X8XS.yXBXVXNXpX0XqX0X5X9X5Xt.5X5Xz.c.S.c.r.5X` 2 ZX9X XOXoXOX|.|.l.|.|.$X#X$X$XoXoX$X$X%X%X%X%X2.}.vX4.A MX$X}.$XXX$X=X$X$X$X$XXXXXoXoXoXoX#XoX+X+X+XqXgX X XjX..8X7X7XjXuX7XuXuXuXiXqXqXjXiXk.gX#X#X#X$X#X>X>X>X=XQ.%X| 4.XXXXXXXX}.XXXXXXXX}.XX}.}.}.}.}.}.|.|.oXoXl.k.| T r.K K Y R ; # +.+.9. .6. .r +.9.+.+.`  .+.+.+.5.5.) ' J % 6 5.) 7.` 5.' ` / y w % r w.r  .t.q.r./ $ < 4 7 @.) @.+.6.q.5.q.e %   ",
"  2 2 5.7.e.t.9.9.J ` ` # @ w e.>.;.7.7.y.7.:.:.X # U R ) O.@.$.8.8.O.h 9 { K O.@.8.{ { +.+.{ +.+.6.5.+.5.+.. 6 t.t.z.5X5Xt.5X:.4 p # r.5Xc..X X.X.Xk. X|.|.k.oX X.X.X X.X|.|.OXOXoXOXOXiXV uXjXc.5X0X0X0Xc.c.5X5X0X0X0X5X0X6Xt.x.r.0XNXNXNXjXBXr.4 jX Xe.|.oX|.|.oXoX}.|.}.}.oXoX$X$X$X#X%X}.%X%X}.2.Q.3.A JX=X$XXXXXXXXXoX$XoX$X$X=X#X+X+XOX+X#XiXqXqX#XOX+XgX5XL 9XwX+X X9XwXuXqXOXiXiXOXOXiXoX$X$X$X$X$X@X@X@X@X@X@X}.Z A -XXXXXXXXXXXXXXX}.XX}.}.XX}.}.}.}.oXoX,.l.e.,.p Y  .8 w R P P t.i.+...+.5.R ( 6.+.K h R ) ) { @.6.6./ / y X $ ` K ` U / / K h r U & 9 6X+.R 5.9.c.I # # # 9 @.+.6.5.+.6.{ { w X   ",
"  q $ L ! P J / t._ ! _ # @ r y.~ ;.y.7.>.y.y.7.% 4 5.+.@.O.O.O.O.O.O.U K 5.+.@.E q.8.+.9.9.+.6.6.@.6.9.+.q.q.E . R q.6.q.r.t.e . y % q.r.e.x..Xk.k.l.k.|.oX|.oX.X X.X.X|.|.|.|.|.|.oXoXiXr CXaX X9X7X5X5X5X9X0X0X0X0X0X5XqXqX5X9XpX7X0X XqXjX0X.X;...qXk..XOXOXoXoXoX|.oXoX$XoXoXoX$X%X$X$X$XvXvXMXvXvXQ.m MX%XXXoXXX$X$XoX$X$X+X+X#X#XOX#X#XqXOXOXqXOXgXqX9XwXpX0X9XuX9X X X5X9X XOXoXOXOXOX#X$X$X=X$X$X@X$X$X@X@X@X@X=XZ m =XXXXXXXXX}.}.}.%X$XXX}.}.3.3.g.}.}.}.l.|.3.| q Y p 4 ; P I h 6.R h P +.` ) 5.+.R ` K ) U U { { / U K P 9 % 6 R I K ` / ) ` 5.) U & 9 D.6.5.q.q.t.h $ @ % ; ) @.@.+.+.) ) U w @   ",
"  n + ( :.:.` :.t._ p ` # @ r 9.V _ e.y.>.` 7.5.@ # E +.O.E E E E E E E E @.O.w.O.@.5.+.+.r.9.6.r.t.w.q.w.9.9.z.6.o . 9 h P e UX/ t o yX9.0.x.e.}.}.k.k.}.e.l.k.k.|..XOXoX.X|.|.oXiXoX.XpXe SXqXwXjX0X5X0X0X0X8X8X0X5X0X8XwX0X0XjX>.. . w ( # . 9Xy.2 0. X.XOX|.OXoXoXoX#X#X#XiX#XXX}.oXoXoX}.#XJXJXbXOXQ.m MX$X=XXXXXoX#XgXiXgXgXqX+XOXOXqXiXiXiXqX9XqX+XqX7X7XpX .jXjXqXqX X X XOXoXoXoXOXOX#X>X%X$X=X$X$X@X$X@X:X:X2.Q.F 3 g.g.@XXX-X].@X$X@XXX%XXX$X}.}.XX}.}.l.$XoX$XOXp 2 w $ w w w w . 4 r P  .) O.5.+.E ` ) ) h U ) ) ) K h K K % 5 5.5.U J ) ` 5.` J U & o +.q.6.6.5.q.e @ @ % ; U ) +.{ ) +.R J 6 $   ",
"  n + :.7.7./  .r.! e :.# $ e e.;.>.7.:.7.7.7.' % & @.#.O.{ E E E U U E E $.O.w.6.@.5.+.5.5.+.+.+.5.+.5.5.5.5.5.9.9.% X J 8 r.NX0X .P c.l.l.e.x.e.|.k.|.oX|.k.|..X|..X.X|.|.OXOXOXiXiXOXiXq BX XwXkXwXwXjXuX7X5X5X0X0X0X8X7X5XjXY . 2 q mXCXuXy.. b 5 . t.iXOXoXOX|.#XiX|.|.|.oX#XoX|.|.|.oXoXoX|.oXvXvXmXA iXiXoXoXoX$XiX#XiX#X#X+X#X#XOXgXqXOXuXiXqXuXqX X7X7XuXx.jXwXqXuXjX+XqXOX+XoXOXiXOX#X$XvX=X@X@X@X@X@X@X*X:X].F F m 1.$X=Xg.$XXX].@X2.$XXXXXXXXX$X}.}.XXoX$XoX$XiXV 2 6 Y Y Y h I w r I K h R ) 6.+.U K R h U { 8.U h K U K K 6 J 5.6.8.R ) ` ( J J r $ & { +.) +.q.sXe @ r % 6 ) @.+.) +.) 6.J w 4   ",
"  B + ` 7.7.5...5X` ! 7.4 ; r 7.>.7.,.7.y.~ _ / % & h h ) @.@.O.{ E E h E O.$.5.q. .....5. .+.5.+.5. .5.5.6.9.y.7.e.P % r 5.` 5.t.h @.rXx.e.e.k..X|.k.oXOXk.e.e.|.}.k.e..XOXOXOXOX X.X.XiX, CX XwX8XwXwX5X7X5Xc.5X5X5XS.S.wXjX9.2 <.C k.mXbXiXt.> 4 5 I J bXOX.X|..XoXOX|.|.|.|.|.oX|.|.oXoX|.|.|.oX|.vXJXA iXiXOXOX+X+X#XoXOXOXOX+X+XgXqXOX9X+X XqXOXqXiXOX5XqXiXe.9X9X X|.+Xx.oXOXoXoXOXiXOX$X$X$X$X@X@X@X@X@X@X@X@X:X:XN 1 F >X,X=XXX@X1.XX].}.@XXX$XXX$XoXl.%X$X$X$XoXoX;.0 r  .R h P P h w h r # 7 ) R h h K r y R +.) r R R K P / J h 5.9.5.` 6.5.P 5 R R y ; ; ` 6.) t.6Xw % r % y ) ) R ) { { { y J &   ",
"  q + ! :.7.7.7.c. .! 7.4 = r y.:.:.:.>.7.y.7.P X $ R R U { E { ) @.O.) h E O.O.9.) ( ..+.+.` +.+.5.6.5.+.5.9.q.5. Xt.o K zX+.U { h o.F.5Xe.l.e.|.e.l.}.|.e.e.e.}.e.|..X|.|.oXOX|.|..X.XbX0 CXiX7X7XqXwX9X9XqXqX5Xc. Xx.5XjX9.0.gXbX;.CXJXBX,.. . . *.bXJ 9.OXOX|.OX}.|.|.|.|.l.|.oX|.|.oXoXoX#X#XoX$XiXgXV gXiXiX#X#X+X+XOX+XOX+X|.+Xk.v.|. X|.v.|. X|.+Xx.7X5X.X~ v.v. XOXOXOXOX|.|.OX+XoXOX$X$X@X@X@X@X@X@X@X@X1X1X1X1XW.D ).>X>X>X=X:XXX].>XN F $X@XXX$XXX}.@XoX}.}.}.}.3.C 2 p p w w 6 5 y / R @ & h r J U K 9 ; y U J h R h 9 P ` J e ` 7.6.) R +.7.5.9./ K & 9 D.t.+.R ` e @ 6 # 7 h 5 6 w 9 J e $ $ #   ",
"  q # :.7.7._ 5.q.Y Q *.6 2 r 7.:._ :.7.:.` ' P % $ h y h E ) E ) E E U h ) O.@.5.+. .+.6.5.+. . .) 5.5.@.6.6.q.9.c.E ; h 8.q.{ 7 6 . w K x.k.<.l.3.3.e.l.e.e.e.|.e.}.oX|.l.oXoX|.oXOX.XvX0  X X5.z.v.0.x..X X.X.X7..X_ 0.8 . BXbXbXCX.X:.+ . OXAXpX7. .P . x.OXoX$XoXoX|.}.oX|.oXl.oX|.oX|.oX#XoXoXoXoXe.^ ~ iXOXOXOX+XOXOXiXiXOXiXgX+XkXqXv.OX X+Xx.v.x.v. X0XwXr.v.v.x.qXqXiX+XoXoXOX+XoXoX$XoX%X@X@X@X@X@X@X[.[.1X1X1X{.(.4X<X>X>X*X>X1.@X_.1.@X=X@XXXXXXX@XXX}.}.}.3.Q.Q.q V ;.r $ w r R ) P 5 ; h h U K U K r K & y R U ) R h / ) ) e +.w r r ) 5.` P e R / u 7 6.h / D.q.r % 4 4 ` 6 % % . . . X X 6 5   ",
"  0 2 7.>.5.( ..5.w (  .6 # w :.! :.>.7.:.:.*.] % $ e h ) { ) ) K K y y h E { 8.t.6.@.9.9.6.6. .) ( ( ..@.+.) +.6.( . ; O 6 7 ; $ @ $ @ 4  Xe.<.3.g.3.4.3.e.3.}.|.e.|.|.k.|.|.oXoXoX|.OX,.2 . + + >.>.T C C C C ^ ^ C B . @ @ q y.e.aXr . ! mX.X.Xy.ZXaX5.t.x.|.k.oXoXoXoX|.|.|.oX|.l.|.}.k.k.l.l.l.}.}..XV B .X X X+X|.|.|.|.|.OXkXiXuXkXiXx.qX7XNX9Xv.eX0XS.7X9X..jX7Xv.qX+XoX+X+XoXoXoXoXoXoX%X@X%X].@X[.[.[.1X1X[.[.1X1X(.4X:X:X*X*X@XN A F >X>X=X=X$XXX@X=X@Xg.2.g.3.%X!.A Z ;.| I = 5 J ; X r ` 6.8.{ h E 8.) R R . . 7 y 9 / / ) ` U ) / J 7.+.) ) R +./ r K 7 X r q.sX+.w @ 7 6 { 9 7 9 # % % . % @ e   ",
"  2 % P _ :. .5.r.p ` 7.6 2 r >._ :._ :._ _ *.Q @ $ J R E E E U h h K y r h K ` 8.6... .O.+.9.9.)  .K h h h w +.h 6 # h K 6 . . . % ; K ( T T >.>.e.l.e.e.e.<.e.|.l.;.V <.}..X|.}.e.k.;.W 2 > :.:.~ >.e.e.e.l.k.l.|.e..X7.X P @ . 4 6 5 b t.e.. . + 8 e.JXbXiXl.l.|.}.|.|.|.x.OXOXOXx.|.k.e.k.e.e.k.|.}.y.2 p bXqX9X+X+X+XOXoXl.l.e.e.e.0.e.k.k.e.x.k.jXwX7Xv. X.XY jX7XOXOXOX|.k.|.|.oXXXXX}.%X%X>X1.S 4.G /././././.{.:X;X(.2X:X:X>X:X).1._.>X*X@X@X@X@XXX%X=X$X1.4.%XOXiXoXZ Z ^ ^ Y 5 6 4 # $ J 6.q.w.+.r K R E 6 7 & w e e h ) R P R ( w ( R ( ) Y ) J R K h h 7 7 +.q.9.u.t @ 7 & 7 4 5 9 & % 6 e 5 $ e   ",
"  2 + ! _ 5.( r.r.I  .:.5 2 q _ ^ W _ :.:.7._ ' $ & Y h 9 j O.#.O.o.E E U { ) R K 5 R c.r.@.r.) K h G.dXhXw 5 r ; ) [ h h ) ) P p # % + ; r 9 r I p B I B T ( 5.9.Y 0.....| ~ ~ | ..>...>.8 $ ..0.0.....<.e.l.e.e.e.e..Xe.0 t . . . w 0 e V ~ 8 # @ 8 :.x.uXiXoX|.|.OX Xx.x.k.e..X|.x.k.0.0.0.e.0.k..XOX.Xq B bX|.x. X XjX9X X9Xv.v.v.v. X Xx.v.9Xk.uXuXx.v.x.v.e.B  Xv.+X|.|.l.|.|.l.}.}.oXXXXX%X$X_.N H (./.(.^.;X/.(.).^./.2X*X*X*X@X@X[.*X>X@X@X@X].XX}.@X}.4.}.}.<.l.oX}.A Z ^ ^ B 5 6 r K e % e R R ) U { ) { +.I  .+.7.` ` R ` / I I 6 ` q.5.5.7.) { R K r y ; 6 ( q.7.` t $ 6 & y 6.6.U 6.6.q.8.6.t w   ",
"  2 $ 5.9.9.` Y R J 7.5.6 2 q :.;.;.;.~  .7.y.` @ ; R ) { h h U E h h h u K ) w.8.9 U 8.6.o.E R R tXzXA.xX0X4 5 h E u u & y K t.t.7 . r ; . . ; 5 $ w ! ~ e. X X Xx.uX|.OX| | >.<.<.>.x. Xp p x. Xk.k.e.e.e.0.e. X|.0.gXy.2 e.9Xe.>.b > . w .X~ I $ B W | k.k.k.0.<.5.( ! 8 r r 6 r ! ! Y I I ( ..>.:.~ / P 8 c.9.7.e.x.x.x.x.r.e.9.x.v.x.c.v. X7Xe.9Xv.x.v.r.x.e.V  Xe.k.l.OXl.OXoXoX}.}.}.oXXXXX$X@XF F ^./.(.[.*X^././.^./.2X:X*X*X@X*X@X@X{.@X[.[.XX'.].`.g.`.3.l.l.e.|.4.A Z -.;.w @ y +.q.+.K X . . h { #.{ y R +.@. .5...) .._ / I ( r P ( p I ` ' R ) ) U U 7 ; 5.5X6X6X6 $ 5 o u U E @.@.@.8.E R 6 4   ",
"  q + 7._ _ ` ` 5./ 7.9.6 = r 7.0.:.y.5.:.( *.! $ # h ) h u h i.D.D.@.9 h E ) @.8.$.[ #.j u h 9 6.GXD.S.D.pXD.; 7 #.h j [ [ D.9 q.q.K +.c..X.Xe.~ e.e..Xk.|.|..X|.|.<.iX#XOX3.<.3.l.3.| .Xe V JXZXNXNXBXBXBXkX X7XOX|.iX,.. bXCXmXbXaXiX.X_ . r ' M > ! I ....( V 8 . . . e.x. X X..,.<.,.k.OXuX.X.X>.5.7.6 L .X.X X.Xx..Xx.x.e.9.0.y.y.7.e.e.e.e.0.>.e.0.e.e._ 7.q e.<.>.,.0.e.e.<.<.3.3.3.3.3.g.g.`.].].'.^.(.^.h.3.{.;X/.4X;X'.).{.[.[.[.[.{.].'.].].[.@X].].].g.l.g.}.!.3.3 A Z B 2 % 4 ` @.) 8.@.@.i.@.O.O.E 9 E ) ` / ( ~ ! _ / ` ` t.e 5.( 5. .` 7.{ ) { U @.u r 0X6X9.6X6 $ 6 O y O.@.@.E ) E { U 4 2   ",
"  V X I :.>.5.q.` ( 9.q.= $ B 7. .( ! >.~ V W B 4 6 K K h h & h 6.{ h E o.E E ) R y R w.[ E w.h R BXrXrXxXhXD...6.A.#.i.6.{ NXh . K +. .x.iXiX|.k.}.<.,.e.k.|.^ + 1 q <.iXgXl.l.l.}.vXvXmXZ ^ LXbXwX7X8XjXmXqXOXoX$X}.}.#X3.q ,.9XbXmXmXmXCX.X# X I B y.5.9 r 5 X % 6 # .XbXgX#X#XoXgXvX#XiXqXiX9X9XBX0X9X8 0.bXgXiXiXiXjXuXjXbXiXjXiXuXiX9XgXjXuXuXuXiXuXiX.X.X<.^ uXOXOX#XOXgXoX}.3.%X$X%X$X%X@X$X>X>X,X,X<X2X(.(.@X].].^./.^.F 1.).).'.'.]._._._.2.1.].]._.2.`.2.3.}.3.!.3.3 A A 3 B > . r & U E @.w.@.@.O.U & +.O.) ` / L L W ~ _ 7.( ` J e ) Y ' ` / / +.U 9 h ; 6 *.t.t.!.w $ J & { 6.E K ) { { +.{ 6 @   ",
"  C X I .. .9.0.( I ..5.# $ r P L ( L L 2 6 4 5 r 6 K E U h 9 @.6.@.O.E E O.K p B ..r. X7XjX7Xv. XgXiXiXgXbXqXjXSXSXSXSXSXJXCXbX Xq . bXvXoXoXoX}.}.l.}.|.|.OXe.^ q . . T iX|.}.oX#XvX}.bXZ A mX|.|.}.}.}.}.}.}.%X}.}.oX}.$XgXe.p q 0.|.e.k. X8 2 8 | ~ r.R r # @ e w + OXbXiXiXOXgXCXbXgXiXjXbXjX.XaXr.t.B e.|.|.l.k.|.}.e.e.e.|.k.|.x.e.e.l.l.k.k..X|.oX|.e.iX,.,.OX}.|.$X}.}.}.}.%X%X%X%X@X@X@X@X@X@X{.{.{.1X1X[.>X[._.G /.;X<X:X1X[.@X@X@X@X@X>X>X=X].].2.`.`.3.3.}.e.^ C q q q V ( 4 E D.u & 7 u h 7 K . . +.9.R P ` Y I r q I B p 9 7 h w P / P I r J y u u u ; 9 7.y.t.q.r $ r o U q.O.O.{ { O.{ K < #   ",
"  =.X r  .(  . .P 5./ e @ % 4 r e 5 2 = r q r w 4 4 ) 8.@.$.U i.$.@.O.O.R p T OXOX|.iXgXiXoXl.}.XX}.oX$X%X}.}.}.g.l.oX}.XXXXXXl.DXvX3 CXoX3.g.g.}.}.oX}.$XvXvXvXvXgXe.;.2 q 0.3.}.}.3.3.3.-.A oX}.oXoX%X$X$X%X}.}.%X%X%X`.3.oXiXoX}.l.oX}.|.3.^ , 2 V r J h # $ r 7._ + C mXgX$XgXCXJXJXbXgXuX9X.X9.. 6 t.V uXe.l.|.oXOXe..Xx..Xk..X|.x. Xk.l.l.|.k.k.|.k.k.e.iX0.;.OX}.}.%X%X%X}.}.}.`.}.%X%X%X%X].].[.[.[.[.[.[.[.[.].G H (.4X1X[.[.[.{.).).'.'.{.].].].].].}.}.}.%X$XXXgX9XX > y.5.9.h ) @.E O.O.[ u 9 9 . +.r.9.5._ ` _ ! ~ _ *.! ( / R P / 5 P +.+.R K K h u u 9 h R { 8.6.y & 7 o E i.o.@.#.@.O.{ U t 4   ",
"  -.+ % 5 w J ! 6 5 w X @ @ % # $ $ 5 I e r / 5.$ w 6.#.E o.h @.) .... .Y p ;.l.3.3.3.3.3.g.`.g.2.2.4.1.g.}.g.e.3.3.e.l.g.}.XX}.oX4.3 vXXX}.}.3.3.2.}.oX$XvXvX$X#XvXvXmXvXe.Z A 3.%XoXl.}.3.m vXXX%X%X@X$X$X%XQ.%X%X`.Q.`.`.Q.}.}.}.}.%XXXXX$XvX3 2 2 p p w 6 / 5./ 9. XV ^ #XoXl.OXuXqXx.5.B 2 . V _ ` t.r .X|.k.|..X|.k.x.k.e.|.e.e.e.|.k.l.l.l.k.l.k.|.}.e.e.*.C oXe.}.}.}.}.`.`.`.].}.}.}.%X].].].{.{.[.[.{.{.[.2.@X1.H ~.4X[.[.{.[.{.[.{.).).).).'.]._._._._.`.g.g.3.}.iX^ , :.r. .; Y T ( O.o.E k o . J 9. .>._ ! _ ! >.7.7._ ( / P P ! r L )  .` +.+.u 9 h u u u k j E K 9 h 9 O @.w.#.#.%.#.w.E 8.J @   ",
"  ,.+ @ % X @ @ # $ % @ @ @ 2 4 2 $ # 2 6 B 5.) 5 w ) $.o.o.k @.8 K ( L _ V ;.l.3.2.3.3.3.1.4.-.g.}.}.XX}.g.2.3.g.g.`.`.`.].].`.[.^.H }.XXg.g.g.2.`.3.g.}.%X%X%X#XvX$X$X$X>X#X%X-.$XvX}.%XQ.3 vX@X@X%X}.}.}.].`.].`.`.}.@X@X%X%X}.].2.}.}.}.}.#X-.2 . . . . . e 8 / w 6X6XP + ^ ;.:.p X % 4 9.NXLXPXSXjX_ e aX.XoX|.}.e.}.}.k..X}.e.e.}.e.e.e.l.l.k.k.e.}.}.e.}.y.C oX3.}.}.}.2.}.}.`.`.}.}.].].].].].].'.{.{.{.[.[.'.].1.'.~.4X1X[.{.{.{.{.{.).).).'.'.)._._._._.2.`.}.g.3.e.OX2 2 ,.L @ ) E R E h U h o @ q._ _ ~ ^ ~ ~ _ _ 9./ I J J J J J r 7.Y r h h h h j o.[ g u h u 9 h h { ; & @.@.[ o.#.#.w.@.@.R #   ",
"  ,.$ % # # @ % % % @ X @ # # 5 2 > 5 6 q 8 = 4 5 q R +.@.O. . .r B ..T ..| -.}.3.g.`.`.g.g.g.`.`.XX].`.`.].].].].].].].].].].`.)./.^.].1.4.1.1.`.`.F 3 `.@X%X}.@X$X%X%X].`._.].@X$X@X1.].}.1 $X_.].@X@X@X@X].].]._.%X%X%X%X@X@X2.g.g.]._.`.%X$XZ 3 <.k.|.}.OX.Xe.}.e.q 5.( 5.! V q + q 7.7.r.jXCXBXSXPXBXL JXk.|.k.e.}..X}.}.e.e.e.e.e.e.e.e.e.e.e.e.|.e.e.e.e.y.V .X}.!.}.Q.}.}.2.Q.}.}.}.].].].].].{.'.'.'.{.[.{.'.1.F S ~./.1X{.{.[.{.{.{.).{.'.'.'._._._.2.2.2.2.2.g.2.2.!.2 ! r.( w K h j E [ #.9 @ @ y.! ~ ^ ^ ^ ~ _ / 0 $ J P U h h 5 / P p B e h g h g : h u 7 ; 6 ; ; ; r 9 9 r 7 O ; ; ; & ; 7 ; 2   ",
"  ,.V 2 $ . . . % % X X $ 6 5 6 $ 4 6 6 5 4 % . . # 2 % + 8 a a V ( 8 ~ ,.<.-.}.g.`.].].].}.}.g.].`._.g.].].].].{.{.].].[.[.].)./.(.(.:X:X@X@X@X*XXXF N 3 `.@X].%X].].].'.].].'.'.).'._.W.].3 @X].].@XXX@X@X@X[.[.].].].].XX].].h.2.2.1.`.@X%X#X3 4.vXnXvXvXvXvXvXvXmXmX0.r r.6.r p 0.v.k.<.^ V a  .jXe.BX2 .X|.l.3.e.e.k.e.k.e.}.|.e.e.e.k.k..X.Xx.e.|..Xe.e.e.<.V !.e.!.}.}.}.}.}.}.%X}.3.`.`.].].'.[.'.{.'.'.'.).).[.[.{.~./.{.).{.{.{.{.{.).'.'.'.'._._._._.Q.2.2.2.3.2.}.!.+ V t.0.e / E h h j ; . & $ 7.L W W ! ^ ^ :.` ! _ _ J r I q./ Q ` ( +.R 9 h s s 9 ; . . . o & ; 6 r 6 O ; @.E U [ O.[ 8.q.) @   ",
"  ,.q w y I I J r w 8 4 # 4 $ h ( I 6 8 r p I T B p q ( e. Xx...e.x.T C ;.-.A %X%X}.].XX].XX].].].].].].].XX].].].[.'.].[.@X].^.4X/./.1X@X{.{.].[.].@X].3 N 1.:X@X@X@X@X'.{.'.).).'.'.).'.].N @X].[.].[.[.[.[.[.'.'.[.@X@X'.].].].].].`.].}.@X>XN }.%X].W.`.`.2.}.}.$XmX~ + 2 2 q I >.e.<.l.<.<.<.;.q >..Xq }.}.}.|.k.k.|.oXOX.X}.|.|.|.<..X.X.Xe.e.e.}.e.e.e.y.,.n }.e.}.}.!.Q.Q.}.}.`.`.`.`.`.`.]._.'.{.'.).'.'.'.{.{.).^.(.;X{.{.{.{.{.{.'.'.).'.'.'.].]._.`.2.2.2.2.2.2.}.A , L ! ~ L R 8.6.E h 7 ; 6 @ 7.t.7.~ ^ ~ ~ ~ ^ *._ _ ` :.7.7.! :.5.q.O.j %.w.%.$.o.E O.{ h 5 . . o $ O o i.yXi.w.i.A.w.#.i.P @   ",
"  Z # X t K P P P ' / K ` 6 ;  .+.9.5.( 5.0.r.r.0.0.L e. Xx.0.0.<.<.-.A Z 4.A `.}.}.XXXX[.[.[.{.].'.'.].'.@X].].].h._.].h._.].)./././.{.).).).h.).).[.>X].3 3 ].@X:X*X[.'.'.'.).).).'.'.@X:XF :X].{.'.).].[.{.[.[.@X@X@X[.[.[.@X[.'.]._._.@X@X%XA 2.].}.@X@X@X@X}.}.$XoX}.uXe.2 0 q 1 | e.,.;.,.g.2.,.}.OXe.e.9Xe.|.e.,.e.e.e..X}.}..XOX|.x.|.e.e.e.e.|.|.e.e.!.y.b OX!.}.!.!.3.Q.Q.}.`.2.`.2.Z 2.].].].'.'.).).).).).).).).D MX{.{.{.{.'.'.'.'.'.'.].].].]._.`._.2.2.2.2.2.!.2 V w.j.f.&.z g j k h . & o.h X t.t.:._ ^ ~ ! ! Q W W W W W B Q *.' K & @.#.D.j.w.$.o.8.D.D.8.K & o $ & X ) w.O.#.[ [ ) K P 5 %   ",
"  + % +.F.G.G.G.D.F.D.yXyX4 = T p ..0.5.5.0.0.0.z.z.p 0.0.>.>.<.;.-.3.C A }.-.4.].]._.].].'.[.[.'.'.'.'.[.[.G N N N H N H '.).G ^./.(.[.).).).).).).'.'.'.1.F H 1.:X[.:X[.).).).).).{.'.'.:XG ,X@X{.{.'.1.).{.[.[.[.@X[.).'.@X'.[.@X_.W.]._.].Q.3 4.].@X$X%X}.%X%X%X%X%XMXmXCXbX2 ^ :., e.q ~ iXoX}.e.e. X0...BXe.^ A ~ ~ -.;.;.3.<.e..Xe.e.e.}.e.k.e.k.|.e.e.e.y.B .Xe.!.3.e.e.3.3.3.2.3.2.`.Z -.@X_._.).).).).).).).).).:XS ,X{.).{.).'.'.'.'.].'._._._._._._._.2.2.3.3.2.oXV h $.f.f.s.s.V.f.c c c H.A.j * R 7.! W ! ! ! W W W W W W P V L P P $ { #.9 O.@.@.O.O.#.8.8.@.h 9 6 & 6 . ) w.@.@.@.{ +.K U t #   ",
"  + 8 z.D.G.L.G.H.G.H.G.8.5 ; E j.F.v...r.v.z.0.wXkXp >.<.,.,.4.3.3.2.3.A F -.Z `.g._.[.].].].].'.).).'.'.'.).h.h.).1.G F 1.1.1.[././.1X[.[.[.[.[.*X:X:X@X:X:X:X:X:X:X:X[.).).).).{.[.{.).).H {.{.[.{.).{.[.'.{.[.[.[.[.[.:X{.'.{.'.'.].].].].].1 ].@X>X@X%X%X}.%X%XMXFXgXoXvXbXe.+ *.^ 4  .0X0X.X|. Xr.6Xp ! 9X( x.e.|.oX|.l.k.<.<.;.~ e.e.<.e.k.e.k.|.e.l.l.l.e.B k.e.3.3.3.3.l.2.2.g.3.2.4.2._._._._.Q._.).).).).).).'.).G @X).{.{.{.{.{.{.'.'.'._._._._._.h.2.`.2.2.4.}.C p 8 a j z k k k z &.d z A.d o.; X L ! ! ~ ^ ! W W P L V P P K / P R e 7 O y 7 ; ; 9 9 7 7 7 7 * 7 . . * X O.w.{ { @.+.{ E h 7 &   ",
"  + q Y R @.%.A.A.H.H.H.F.U 9 $.E 8.@. ...>.>...~ p V V C A A Z | 4.-.-.N A Z F 4._.1._.].].).).).^.^.).{.).).{.{.[.{.{.{.).).).;X/./.1X[.{.[.[.[.[.[.[.[.{.'.{.{.[.{.{.{.{.{.'.{.).).).).).N '.).).'.{.{.{.).).{.[.[.[.[.[.{.[.[.[.[.'._._.].Q.1 $X_.$X>X>X2.}.`.}.nXgX}.oXOXe..Xe.+ ^ >.$ c.5XOX9X9X:.! 6 . . 9XgXuX|.iXOXk.k.<.l.e.l.iXOX0.e.<.y.<.e.e.<.,.<.! q k.e.e.e.3.3.e.}.}.}.3.3.-.3.1.1.1.F F F F F G G 1.G 1.N S ].).).).'.'.'.'.).'.].]._._._.Q.2.2.2.2.3.}.OX, + 6 p j %.o.j k j d d z d z k j # @ y._ _ ! Y P L L B B J r ; 7 w h r 9 O ; ; ; ; O ; 7 9 9 9 K / { y o . w.@.+.+.+.) E g ; u &   ",
"  $ B p R E @.w.A.H.G.G.D.J 5 5.) 5 6 Y ......9.0.0.8 2 , + Z ;.-.4.3.-.3.-.N F 4.1.-.4.-.1.).;X^.^.(.(././././././././.;X;X/././././././././.(./././././.^.^.^.^.^.^.^.).).).G E.W.).G W.).H W.^.).).{.'.).).).).).).'.{.{.'.'.{.{.'.'.).'.].2.N 2.@X@X$X%X2.}.`.2.}.%X}.%X%X%XQ.oX|.Z 8 ~ ^ |..X!.;.C , + B ,.<.| <.e.e.<.,.,.,.<.e.e.<.e.y.,.;.<.,.,.e.<.~ B V q <.<.,.0.e.,.| Z Z -.-.3.3.2.3.2.g.2.4.-.-.F 4.F F F S N H W.1.1.1.1.1.1.1.1.1.1.4.4.4.-.-.4.3.3.3.3.e.V 2 w 8 E f.&.c &.f.f.c c v x c z j O $ t./ J h h h P r 9 h a h P e r ( 5._ 5.5.5.5.:.( ( ( Y ^ ..>.5.+.9 & o #.$.@.) E ( R ) U 7 7   ",
"  2 _ J J E 8.$.@.w.j.j.+.w 8 Y ( ! q 0.v.7XpXjXuXx.;.a | ^ ^ ;.-.3.$XvXnX$X3 1.}.XX@X*X:X:X:X1X:X[.&X&X:X:X<X<X:X:X&X:X[.&X&X).~././.(./.4X;X;X;X;X;X/.;X;X4X/./.;X4X;X[.{.).).).).).W.1.S N ).{.{.[.{.{.[.{.[.[.'.{.{.'.).1.W._.).].@X].].1.4.A A }.`.@X}.}.`.`.`.}.%X}.}.}.}.}.}.}.}.-.3.|.|.%XoX%X%X,.+ OX#Xe.}.|.#XoX}.oX|.l.e.|.k.}.}.e.e.e.}.e..X.X.Xe.,.~ q e.e.e.OXiX.X<.<.;.<.e.e.%X$XoX%X%X%X%X$X$X@X@X@X@X].@X3 1.=X@X@XXXXX@X@X@XXXg.-.H 1.3.3.3.3.l.}.e.<.<.~ q r # ) $.$.&.c V.V.V.c c &.c j 9 & @ P w $ w h e e r ; 4 @  X.Xy.<.,.<.>.e.e.<.<.<.>.>.>.;...>.( T T $ $ . E O.h ) +.O.+.6.U u 7   ",
"  X 2 ! h K ) q.` +.5. .8 q B :.7._ :...( 0.0. .9.;.<.| <.<.-.-.3 }.#XMXMX}.N 4.].].].'.'.).).h.h.h.h.@X[.[.[.{.'.).).'.'.1.h.).~././.(.^.).W.[.{.{.{.{.{.{.{.[.[.[.[.[.[.[.[.[.[.[.{.[.1XG N 1X1X1X1X[.:X1X[.[.{.{.{.{.{.{.{.{.{.].@X:X:X*X*X>Xm 3 $X@X@X@X}.%X}.`.`.%X%X}.}.}.}.}.}.}.}.3.3.3.2.2.3.}.-.3 3.3.-.3.3.3.1.1.2.1.1.3.3.,.4.4.4.4.3.3.3.e.}.e.,.y.^ V k.e.|.0.e.e.<.,.,.,.4.4.-.3.-.4.4.1.4.2.1.1.1.].].1.`.N 1.2.h.).2._.W.W.1.2._.1.1.2.`.`.2.3.3.e.-.,.<..XL 0 $ 4 K h h g g j : z c c k u ; @ & X 5 ) q.q.+.@.@.E . . x.<.<.0.<.;.;.~ ^ ........>.>...>.>.( ( ( t & . U #.U @.{ K E U & U 7   ",
"  > r _ R / P 5.t.7.` r 2 r V W e.W e.9...9.>.B W V ^ | | -.-.3.#XDXmXvXMXvXA 4.@X@X_._.).).).).).{.{.'.{.{.'.'.{.{.{.{.[.).^.^.(.(.~.~.R.~.^.{.{.{.{.).).).).).{.{.{.).'.{.[.{.{.[.[.[.[.).N {.{.[.[.[.[.{.).).).).).).).'.'.'.].'.].].'.].].@XA A nX*X@X@X@X%X%X].`.}.$X%X}.}.}.}.`.}.2.3.3.3.3.`.3.3.3.Z oX2.2.4.3.Q.1.2.2.1.1.3.3.3.4.3.3.4.3.3.3.3.3.l.3.e.| ^ e.0.<.~ ~ C <.<.;.-.-.4.3.-.4.-.-.3.2.1.1.1.1.1.].1.2.N 2.].h.2._._._.Q.Q.2.1.Q.2.2.1.3.4.3.3.3.4.,.^ ^ W _ % . . & j j &.a.c c c l u . . % . . ` q.5.5.5.@.w.F.9 p x.0.>.<.>.>.>.......( ..>.>.;.>.......( ( w o o U #.{ { E U h 9 7 u 7   ",
"  q q ! Q _ Y 6.t.t.y.4 X 4 b n =.L T ( ..v. X0.7.;.-.-.~ 4.-.}.mXCX#XoX}.}.A 3.$XXXh.1.).).).).).).'.'.h.).'.).).).{.'.{.[./.;XR.~.&XXXXXm.^./.;X1X[.).).).).).).).).).1.).).).{.[.[.[.{.{.N '.[.[.[.[.[.'.).).).).).).).).).'.'.'.).).'.'.'.].F N >X@X@X@X%X].`.`.2.2.`.}.}.].`.}.`.`.2.2.2.3.2.Q.2.`.3.C e.2.`.2.1.2.2.W.1.1.4.3.3.<.3.1.3.3.3.4.3.3.e.e.y.y.! P 0.e.e.>.....~ ;.<.,.-.Z ~ }.vX$X3.Z -.1.-.g.1.1.1.1.].H F 2.Q.W.W.Q.2.2.2.1.1.1.4.4.4.4.4.4.3.4.4.4.^ ^ ~ I a &.V.V.V.x M.M.M.x x x &.j s k o.o.g R 8 ( D.@.@.6.K 5.>.| | >.>.;...| ..;.;.;.....| ;...>.5.>.` 6 % X r { y 7 y y t U y y &   ",
"  n 2 ~ ! ' w y.t.q.7.6 % 2 ~ 0 ^ V 6 5.0.( ( >.0.;.-.-.-.-.-.4.-.4.F 4.4.4.A 2.XX].2.1.1.G ).'._.).h.h._.h.h.).).).h.).).{.;X*X-.F b.b.b.kXN D G ).).G G G G ).G G G G W.G ).).'.[.[.).'.{.N ).{.'.'.).'.'.).).).).).).W.W.W.W.W.W.W.).).)._.].4.N $X].].]._._.`.`.`.2.2.`.`.`.`.`.`.`.Q.Q.2.2.2.2._.`.N 1 C }.`.2.2.1.2.W.1.F 4.2.3.4.3.3.3.3.3.3.3.3.3.3.0.y.T B e.e.0.,.~ ;.^ ^ ^ ~ A C |.oX#Xl.3.3.A A g.2.2.2.3 4.Q.A A 2.4.1.2.2.2.2.1.1.1.1.1.1.3.3.3.4.3.4.4.Z ;.e.I E f.V.V.M.f x M.M.d.M.M.s.v c z c o.&.c c c j ; 9 * * . w e.>.;.>.....| | >.>.;.| ....| ..T .. .( ' P @ @ 6 o . o o o 7 [ 7 u *   ",
"  C 2 ! ! *.r 6.q.q.t.q % # q C *.8 p 9.r.5...>.<.;.-.-.-.-.-.4.4.4.4.4.3.4.A 3.g.3.g.].g.g.g._.1.h.1.1.h.h.1._.).h.1.h.g.b.b.kXkXX.T b.a X.l.l.b.A F F 1.).).1.H G W.'.).W.1.1.).).'.'.].[.N _.].'.'.).).).).).).).).'.).W.W.W.W.W.W.W.W.)._._.%Xm @X`.]._.`.`.].`.`.`.2.`.]._.1.1.2.2.2.2.Q.Q.2.2.2.Q.4.3 F }.`.Q.2.2.W.W.W.1.2.`.2.4.4.3.3.3.3.4.3.3.3.3.<.e.T B v.<.<.| <.;.^ V p 8 A k.|.OXl.l.l.<.-.Z | -.-.-.Z -.Q.S A `.4.1.2.1.1.1.1.4.4.4.4.3.4.4.4.4.4.3.,.Z B W p $.c s.s.x M.s.x M.M.x x x c x v c M.x x M.V.V.l o O @ ; h e.| ..;.| ~ ;.~ ;...;...^ ^ ^ | | ..V J P w @ o y & 7 7 * o 7 y t 7 &   ",
"  C 2 *._ *.r 9.w.w.r.r % + b .X!.L q ..7.0.5.5.0.,.;.-.-.-.-.4.4.3.3.3.3.4.q 3.g.3.g.g.g.XXXXg.1.h._.2.H 1.2.].1.F 4.| b.n.n.J.U.J.n.U.J.n.n.n.kXb.A Z g.]._.1.1.].@X'.W.2.1.1.F 1.h._.].].m 1.].'.'.).).)._.).).)._._.]._._.Q.W.Q._._._._._.Q.%X1 }.`._._.`.].`.`._.g.2.2.1.1.1.1.1.1.1.1.W._._._.W.W.4.m -.`.Q.1.1.2.W.2.W.2.1.W.2.2.3.4.3.3.3.<.<.<.e.l.e.x.( T 0.| Y V :.0.<.( a = >.iX.Xe.l.l.l.,.|.Z a -.Z | 3.F Q.4.A }.3.2.3.4.1.1.4.4.4.4.4.4.4.4.4.4.3.-.=.C C ! a z c s.s.x s.M.M.M.M.M.M.M.V.V.C.M.M.x f f f x &.* . . # 6 X V ..| T ^ ! ....( T T T T V T T V I T r X . . & 7 & * & u y 7 y 9 6   ",
"  C 6 *.! _ r t.z.w.w.p % @ q _ V B ~ L e.>.>.0.5.;.| -.-.-.-.-.-.4.3.3.4.4.q 3.g.g.g.3.-.g.<.g.g.g.g.g.3.-.g.XXl.l.b.J.f.J.U.C.C.U.U.n.s.n.s.n.n.J.J.$.A F F -.1._.W.F 1.1.1.1.F F 1.1._.].m 3.].]._.).W.W.W.W._._._._.Q.Q.Q.Q.Q.Q._.Q.Q.Q.Q.Q.Q.m Z }.}.Q.`.].`.`._.1.2.1.1.2.2.1.1.1.1._.].]._._._.W.1.A 2._.W.1.1.1.Q.W.W.1.1.1.2.2.2.3.3.3.^ V , q ( ..Y Y 8 q ( ..I 8 B T ....X p |.|.| ;.,.;.;.-.q 1 a -.a A oX4.3.4.A Q.4.4.4.4.4.4.4.4.4.4.4.4.,.4.4.4.,.,.;.n ^ >.$.f.V.V.V.s.f f x M.M.M.M.M.M.N.C.M.f M.f V.M.c x V.o.; h @ . X T ( ( T p p T I p p p p V V p T T p p r 8 ; h h u : u 7 u h 7 7 <   ",
"  n 6 ~ L Q L r.z.r. .5 % # > % p T >.V , 7.0.0.0...| | | -.-.-.-.4.<.4.4.4.3 <.g.}.l.l.3.g.| | <.g.3.g.3.-.XXl.l.l.b.f.X.f.J.U.J.K.J.C.z s.s.s.f.C.C.J.a A e.-.4.F S 4.-.4.4.F 4.F F `.Q.3.A -.2.2.Q.1.W.W.2.W._._.Q.Q.Q.Q.Q.Q.W.Q.Q.Q.Q.W.Q.Q.Q.A 3 3.3.2.2.Q.Q.2.2.2.2.1.1.1.2.2.2.1.W.'.].'._.).).W.1.3 4._.W.1.1.W.Q.Q.W.1.1.1.1.2.4.3.4.q X 2 6 Y ) 7 O O @ = / ! V p B Y | ~ <.;.|.e.^ ~ ;.;.V p Z ;.;.Z C q 3.-.-.4.q 3.-.4.4.4.4.4.4.4.4.,.4.4.,.4.4.-.-.;.^ C ^ 9.j.c V.M.M.M.x v x d.M.M.f x M.M.N.M.x f x M.x Z.V.M.V.j ; O K Y $ R  .5.T ....T T T T T T | ( .... .T T ( a 9 U E U u O 7 h 9 7 &   ",
"  0 > 0 w 2 w J P / I 5 @ > > 4 I .. .T L p ..5.....| ;.;.;.-.-.-.-.3.3.e.3.3 ,.l.g.g.l.k.<.| <.3.4.3.<.<.}.l.<.<.| h.b.X.z $.X.f.f.f.n.n.f.n.s.C.C.z f.X.8 ^ 3 A F 4.-.-.-.-.4.3.3.4.-.3.2.3 -.2.2.2.1.2.2.Q.2.Q.Q.Q.Q.Q.Q.2.2.Q.Q.2.2.Q.Q.2.Q.Q.Z Z 3.A 3.Q.3.Q.Q.`.`._._.2.2.2.2.)._.).).).).).).).).^.D 1._.W.W.W.W.W.Q.W.1.1.1.1.1.2.3.3 2 2 r p r 5 9 9 r ; @ X 6 I  ._ B T <.7.| >.;.^ ^ ~ ;.,.,.e.<.e.| e.e.3 ,.-.-.q ,.-.-.4.4.4.4.4.,.,.,.;.;.-.-.-.-.-.-.;.^ ^ ` ; O V.M.M.M.f M.M.M.M.M.f M.M.M.f x x c f x M.M.M.x x z g a E  .@ o R ( ....Y Y ..>.( ..V T T |  .5...T Y 9 6 ; 7 7 ; ; 9 { h { &   ",
"  > W _ :.I B B r 0 5 % > < > > L 9.5.! e._ p 0.( 0.>.<.<.<.<.,.<.<.<.<.e.,.2 ..<.<.l.e.<.>.k.e.|.~ e.+X<.<.<.l.b.b.g.| a a l.f.z z c z f.f.c f.f.z z z a p 2 3 -.4.-.F -.-.4.3.3.4.-.A A 3.q 3.3.3.3.3.3.Q.Q.2.2.2.2.2.Q.2.2.2.2.2.2.2.Q.2.2.Q.}.=.=.3.C C -.4.3.Q.]._._._.2.h.).)._.).).).).W.W.).).).^.(.).'.W.W.W.W.W.W.W.W.W.1.1.1.W.3.3 2 2 q r = 7 y g g h 9 9 J  .c.>.w >...I T ~ _ V L | ;.;.,.;.;.| ~ ,.~ Z C -.-.q 3.4.-.-.-.-.-.-.;.;.;.;.;.;.;.-.-.,.;.W W 5 . O %.V.V.s.s.M.M.M.M.M.M.v M.f x x x v z f f f v f d : 9 ; 9 $ . . 8 9 8 T p I ( ../ K K K Y Y / R +. ...h ; 9 ) j 9 j E h h 9 U &   ",
"  + 9XuXc.t.S.S.q.:.' *.> @ > $ X # 5 w 2 r . q r r r B r q q q B L T B B B 2 ^ | | ..| k.e.>.^ k.x.0.0.>.V V ^ ^ <.;.p <.| $.j.f.n.z k X.X.k f.z s k a $.j.a 2 ;.e.| Z -.4.3.3.3.4.-.-.,.;.0 -.3.3.4.-.4.4.4.4.3.3.2.2.Q.Q.2.2.2.Q.3.2.Q.Q.2.3.e.n C 3.C A ^ -.Z F 1.2._.].]._.].].'.'.).).).).G W.G W.^.(.E.W.W.).).W.1.1.F F F G G F F -.n 0 2 $ q 6 6 h h h h h h R R K J I ( _ T ~ _ L L ..:..._ ~ ^ W C ^ ~ ;.C q V B q ;.-.-.~ ^ ~ ^ ^ ^ =.~ ~ ^ ^ ^ ~ ~ ^ + 8 k A.c c M.s.M.c M.s.s.s.M.f x c x c c k j g g 8.#.w.D.w.@.O . @ o % h h h T h h Y Y (  .+./ R e e r r w 4 r w % . 9 h 9 g h u 7 ; & o @   ",
"  + .X9X7.9. .6.t.c.t.6X' @ @ % L J 5 4 L W ' Q b B B B P :. X9X X7Xr.e.e.7.2 e.e.k.|.iX Xx.2 ..z.v.0.j.>.0.| <.OX}.3.e.,.<.X.o.j.j.s a a h X.j.k 8 T @.X.h r ~ L y.B q B q q B q B V V C n q q q C ^ V q V C ^ ,.<.3.<.-.-.,.,.,.,.,.-.4.3.,.Z q > + q 0 C -.-.Z Z -.4.-.1.2.2.1.1.1.1.1.1.1.1.1.G E.(././.(.^.^.F 4.W.F S G N S F G F F -.S -.A 0 q 6 e 7 w R K r 8 ; ; 8 h  .I / / ~ L ! _ ! P / I w r B V V B V q B 0 2 2 q 0 q q V V V C C C V V V C B n B = R j.f.C.c x x d f v v f f c c j.$.g K 0XaX0Xc.q.r.0XsX6XNXS.D.) { y q.O U O.@.6.6.@.@. . .) E h E ..O.R U K h e 7 4 @ 6 # ; ; 6 & 4 4 5 @ @   ",
"  % q y.Y r 4  .5Xt.sXq.*.% % @ t.t.5.:.r..X.Xe.e.0.r 0.e.e.x.v.x.x.x.e.e.<.8 e.e.e.0.<.<.~ <.<.;.~  X0.,.<.<.-.3.}.3.3.}.|.h 9 h a a 8 8 h h 8 6 6 6 5 $ a p B B X 8 0.e.e.y.y.>.^ q . L @ 6 t.9.:.( :.e.t.e.0.0.e..X.X0.~ ^ ~ ~ ~ ^ ^ V ^ B B 2 q V ~ C ^ <.}.}.}.$XoX3.Z F -.4.2.`.`._.]._.1.F G (.(./.(.(.(.^.G 4.4.4.1.1.1.G G G 4.-.4.4.=.^ ^ 8 4 r 8 a ; $ 4 & 5 h 9 h K I J J P I P P ' J r J w V V V V W W V W V L $ B W ~ W B V ~ ,.,.,.;.~ ~ ~ *.I 5 ; F.A.H.V.s.c c z c v z c g j %.w.( ! *.7.! ( .. . .` ~ V ! _  .7.+.5 J K h h h T R E Y R Y I J I R  . .( ) ` ) Y / J % r J J y h K J J e % X   ",
"  + L W q B b L 7._ >._ *.% % V :.e.>.0.0.e.<.<.;.( 0.r.e.0.>.<.0.0.l.l.9...2 0.e.<.<.,.<.e.<.0.<.<.>.,.-.-.-.3.-.3.3.<.0.... r E = s : : a : &.H.j.%.%.K . X % 4 = I r.>.e.,.,.0.<.<.;.q 2 q 7._ ~ V ^ ;.;.;.;.;.;.~ ;.>.,.,.,.,.<.<.y.<.~ ~ ^ $ V <.3.3.4.3.4.-.-.-.-.-.F 4.1.2.`.}.%X].]._.1._._.1.G ^.(.(.G 1.W.W.1.1.1.1.1.F F F F 4.-.C V p T 8 k &.f.f.c k k 9 ; 7 # . $ e 4 J K K e P I L >.V q W ^ ^ ^ ~ ~ ;.;.~ :.0 W ;.,.,.=.^ ~ ~ =.^ W W V q.4 q X . $ 9 %.H.V.k z c z c k O $ 4 7.! _ ~ :.( _ ` :.u.7.y.9.t.>.>._ _ ' % J ( +.@.)  .+.+. . .:...( / ! L Y T / T ( / P J X J y r K U U U I e % X   ",
"  @ e :.;.^ ~ ;.y.8 7.7.Q $ % _ :._ ~ >.>.<.>.<._ >.t.9.9.5.<.>.>.<.<.<.>.( 2 0.,.,.<.<.,.,.,.;.,.| ~ ~ ^ <.e.,.y.;.B 9.O 8 0.0.X.8 ; 9 g k c V.s.V.c %.A.&.k K p 4 . V ;.-.~ ;.;.| x.e.L 2 2 .Xy.,.,.~ ~ ;.;.*.;.;.;.,.| ;.>.,.,.,.,.,.;.;.=.~ 2 C =.3.4.4.3.3.4.3.3.`.2.2.1.1.4.F 1.W.1.1.S A 2.Q.2.1.G D D '.F 1.1.W.1.4.F S 4.4.-.-.-.^ W 7.h a k &.f.V.s.M.s.c &.&.k i o.k 9 g h 5.) P w 4 P V B W V V W ^ ~ =.~ =.W ~ V V <.3.,.,.;.C q T s c c f.f.c v c &.&.g g [ %.k k z d O ; o X = 9.7.5. .>.;.:._ *._ _ *.y.7.! ` :.( P 2 L *.e.:.~ P ! _ ` _  . ._ Y ! ! Y T L L P P I M X I I e J J J K e y @ X   ",
"  + . ! W W ;.>.e.:.t.y.e @ $ ;.,.^ ;.;...>.>.>.:._ q r B  .;.| ..>.;.,.,.~ 8 5.;.;.<.;.<.,.<.,.<.e.e.~ ;.<.y.>.~ y.! . @ 9.$.$.j : s g : z s.V.C.s.V.f c c z E )  . .. :.,.;.~ | _ e. X.X@ 5 y.,.,.,.;._ | ^ ;.;.;.;.,.;.( ..;.,.,.,.,.;.,.=.,.2 ,.e.4.3.-.-.4.2.2.4.1.1.4.4.4.4.-.1.4.1.1.A N F 1.].].].N 3 -.H A A Z Z A A N A A A Z Z | <...X.j.V.V.M.C.C.M.M.M.M.V.c c V.c d j &.%.O.r $ e Q *.*.! L V L V V V B V V ! ~ 2 <.,.*.:.p $.f.V.s.s.V.M.M.N.M.M.M.M.V.V.x x d : o.@.) ) M I P `  ._ ..:.7.` _ _ ! _ / ! L ! _ / L ! q _ ,.y.y.=.=.L Q ! _ ` ' I L L W L V V W I e J t @ ` / P J J y y t t > X   ",
"  + + >.~ ^ ;.~ _ _ _ *.4 @ 6 *.V ^ ~ ~ ~ ;.<.:.>.q + @ 5 `  .~ ^ ;.| ~ | ^ = e.<.;.;.,.0.~ ;.y.,.,.;.,.;.;.;.y.>.y.e.^ 2 S.R $.j : k j : g z c K.C.V.V.d d g g : G.zXR ; / I I I L ..:.! 2 L 7.*._ _ _ _ ~ ~ | _ ;.;.>.0. .( _ ~ ;.,.,.*.=.^ *., =.,.=.3.3.4.F -.-.F Z -.4.4.4.4.4.4.F -.4.A A 2.2.4.1.4.N A <.f.f.X.X.X.z z z X.X.X.f.k T X.k &.V.Z.C.s.M.N.M.M.M.s.M.M.M.f M.x c v j ; . . r Q _ Q V V W W ! W W W W ~ L W > *.V 0 X %.K.C.N.s.v f x s.s.s.d.x v x v M.M.c d h q.7.*.*.7.7.7.*.*.:.*.*._ _ _ ! ! _ / _ _ _ ! ! _ r B V *.y..X6Xe.p r / ' / I I e J b b W L r b J @ $ ` P I I y y h y e < X   ",
"  % + :.W V ~ ~ V W W ! $ $ 0 ,.~ ^ ~ ^ ^ ~ ( ( _ T q 5 r 6 I  .....| ~ ~ V = x.e.e.<.,.,.;.;.,.~ ;.,.<.<.;.;.<.,.~ <.e.>.x.+.w.j : g g : 9 : k &.&.: : : g : ; g w.E j i.; . . . . X . . 4 _ 7.:.:.*.*._ _ _ ~ ^ ^ ~ :. ./ ` :.:.~ W *.;.=.W ~ + ~ ;.,.3.3.,.3.-.-.S -.-.4.4.1.4.4.4.1.-.4.1.N F F S A 3 3 X.f.f.n.n.n.n.n.s.s.f.f.s.f.f.f.j f.C.C.Z.C.M.s.M.M.M.M.N.M.N.N.N.N.M.x x x k 9 7 . @ 6 0 q b W Q ~ W W W V L L I b 6 X @ E f.s.Z.s.z d c x v x v x f d.x f d.f x k O 5.*.*.:.:.7.7.7.:._ _ :._ ! _ ! ! ! _ _ ` ` _ ~ _ 2 b L ^ ;.y.7.` Y K J P P P L P L b e B Q P e I X @ P I e I I I K M e 4 X   ",
"  % @ B W V W ~ W ^ Q ' % @ b e._ ~ W ~ T T ! ( T ..! ( h . . # r >.>.| _ V 8 x.<.e.0.,.,.<.;.~ ,.,.,.,.,.~ ,.;.;.,.~ :.;. .+.@.k s d d g - : k o.k : j g g E $ y 9 ; 9 y y h h K E h P P 5 Q >.:.>.y.:..._ _ _ L W :._ Y Y L I T V ~ _ *._ :.t.2 e.<.3.4.-.=.4.-.Z S -.-.-.-.3.4.2.2.4.-.2.2.F 1 1 N a m l.n.z z s.n.f.s.s.f.s.c f s.V.V.V.c c V.s.V.C.C.M.s.x x x s.M.M.M.N.N.N.M.M.M.x M.V.c k j 9 O 5 b q B V B B w e e e 5 p O.[ j z z c z d k z z z v x f d.s.v d.f v f v : t._ ;.:.:.*.:.*._ _ _ _ _ _ _ _ _ / _ ! _ ~ _ _ ~ q q W ~ W *.:.` ! / J ' P J J I J J Q P P J J I @ 7 P B J b e r M w r 4 .   ",
"  + @ / ! W ^ ~ _ *.:.` X % r y.J ! ! ~ B p 0.>.~ ..5.9.9.Y X . 5 r.| ^ ~ q q e.,.<.<.>.:.,.~ ;.7.<.>.:.,.;.,.~ | ,.;.| p ( T X.j : d d d d : O 9 9 : a ; ; O.; . o o . h E o.o.#.#.O.+.7.> b 7._ :.7.>._ _ ! P V L V L L Y ! ! I q B ! y.*._ 6X2 t.<.<.-.-.-.=.^ Z =.4.4.~ Z 4.3.4.-.-.4.-.4.3.q 3 Z Z a X.z z X.z z c c c s.f.f.s.c &.z z k s z c s.V.s.x x x s.f x f M.x M.M.N.d.M.M.M.M.M.M.M.V.c d d d j : ; r 5 p h $ 5  .+.X.E d s : X . . : O - k : z v v c s.f v v x V.9 +.:._ _ :._ *._ ^ ~ ~ ~ ! _ _ *.*.! ~ ~ ~ _ _ ! ~ q r ^ W W ~ ~ ~ / e e L L B J B B J I L P w w $ X 7 P P r r I I I J I 6 X   ",
"  % % J ! ^ L :.:.W _ 7.X X 4 ' L ! T ! ! + t. .` 9.7.` J 8 6 p ! ~ ~ W ! $ q <.^ ~ >.;.;.;.~ ;.;.;._ ,.,.,.;.;.| ~ | T L ..X.@.o.: z z d k g j : O O & R 9 U g h @.8.$.#.g : g g j o.k P 6 I :.! _ ` ! _ _ ~ W W V V P ! _ _ ! e e V L B ! _ >.2 _ ~ ~ ;.-.=.=.^ =.=.-.4.-.Z -.-.=.-.-.-.-.4.4.^ 3 X 3 T X.T T j k p q X.k s a E k j &.&.V.C.C.C.x M.V.s.M.x x x x v x V.C.M.V.x x x f x M.V.x M.f v v v c x l g * 9 U e w p h a ( $.%.$.$.k o.%.j.f.A.A.z O : . * k k : d p.c & P >.~ ~ *.*._ _ _ ! ! ~ _ _ ! ! *.~ ! ! ! ~ ! W ! b q y.*.Q L W e # r 7._ e I B J J B P B 6 4 X . . 7 J / y e w P P y e 6 X   ",
"  + + P ^ ^ C _ ^ W W ! % % 4 Q P ! P _ _ b ~ 2 P P 5 . . _ >.~ ^ ;.~ L L + B ;.~ ;.~ _ ;._ ,.;.~ _ ;.,.;.>.| ;.| ~ ~ L ^ ..@.w.E : A.j E O.$.$.E X.E @.R a j.D.O.@.$.E o.j 9 9 h k k j K t 6 7.:._ _ ! ! ! L ! P P _ _ ~ W B W ! V b q L Q ~ _ q ! ~ =.;.;.;.;.=.=.;.Z ~ ,.3.-.A Z ^ -.-.4.4.4.;.0 5.b.F.n.f.n.n.H.b.F.j.f.$.%.o.f.J.J.V.V.M.M.M.s.s.V.V.s.M.x M.x x M.M.c v f c z z v c c c c &.d k i i g i : : g 9 y Q 7./ @.w.F.D.j.F.j.j.H.A.H.H.H.H.A.%.; O O ; o.E o.k g 6 7._ ^ _ :.~ ~ *.*.~ ~ _ _ ~ ~ _ ! ! ! ! ! ! ! Q _ V 2 7.*.! :.7.> % 6 5./ r P P P P P Y L 5 r 4 X X I U ) U r J K 6 7 e 6 .   ",
"  @ # J V q e ~ V B L e X % % I P ' P P ' y.7.# . . . 6 ( 5.~ V ^ ~ ^ W ! $ ~ ;.| | ~ ~ ~ ~ ^ ^ ~ W L ^ ^ _ ~ _ _ ^ ~ W ..>...9.K 4 T X..._ ..^ ..5.$.6.5.w T j.h ; a 9 g h K 9 9 j E h K w # :.Y P Y / L L L B L L B e r e b V L L L V w B J e r ! ~ ^ ~ =.=.=.~ =.^ C Z ^ =.=.A A Z -.-.=.4.3.W p eXj.z z s.f.f.s.f.f.s.f.V.V.V.f.V.s.s.s.s.s.s.M.x s.M.s.v x c f M.x M.x x c c z d k d k j i O * o : 9 u # @ R 6.y.7.,.*.T ..9.$.$.$.9.5.8.$.O.@.X.o.@.o.@.; O O X @.) E E E 9 ' *.~ _ *.~ ! *.*._ _ ! _ ! _ ~ ! Q ! ! ~ ! _ _ Q ! + _ W L L V 0 . . X $ w I B B B B 5 I ` I $ X X / K J y y I I 6 t 4 # #   ",
"  + X w 6 0 L ^ W L ! e X @ @ @ r / ` 6 L / b X $ X . q ! P ! T B L L L P $ ~ ;.L ^ ^ ^ ~ ~ ~ ~ W W _ *.*._ *.;.:.^ _ ^ ~ :.:._ K 4 ( ..L !  ._ ( ( _  .! Y I I J # o X 4 ; h h O h E h R I 6 e b B J J P Q / ' / P I I J J L L B L B Y J J Q J q b V W L W ^ W ^ ^ ^ Z W C Z ^ Z A ^ ;.;.-.;.3.n B V 2 p X.&.X.&.X.z d &.c z c c z d v d d z s.c x V.x V.V.x s.f M.V.s.f x f V.d i g : ; ; X % . . O 7 j [ 7 w ! V ^ ^ ~ ^ ~ V P Y K / T Y r r r I / ( J  .5.) / ` r . K h y K w P V L V ! ~ W _ _ _ _ ! _ *.Q Q ! ! ~ ! ~ Q ! W L :.2 ! Q L B b b 0 X . r ! L 5 > 6 e J P P e $ X X @ $ . . . . . . % # @ 2   ",
"  % @ q 0 0 r 0 r r r 6 @ @ X 6 6 w e ` r 5 w e w w 6 % X w r w 0 B L w r 2 V L B e e b V L W V W L W _ ~ ^ W ^ ~ ^ ~ _ r L L w 5 % J Y I T ....( ( ( ( ( ! _ 7.9.9.T % . $ o ) U 9 g j R P e P ! ! p r J I Q / / Q L J B p r B p P ! P r b B q r b q 5 w r q q V L L W V W W C C W B V ^ V A 0 V <.0...j.j.w.w.X...T p E E X.X.o.z z z g g d z c z d d c x v z x x x x x c v c k g 7 @ . @ O o 9 O o & . 4 Q *.,.C C C ^ C =.q y.y.*.! ! _ :.:.~ ( ..>.:.5.7.7.9.t.q. .5 # U 9 ; P ! ! ! W Q V V W W _ L _ L V L V W Q L L Q L ! I e > b L W 7.7.7.P % X 7.P . 5 I ] P e w e r & X o X . 5 e e b B b P w > ]   ",
"  @ $ 5 w w 6 w 8 e J r @ @ X t I B e 7.L / :.L L ! ! _ P w w w r 5.*.` ` $ 5 L ! L L L W ^ W ~ ;.^ W ^ _ _ _ _ ^ ~ 7.7. ._ _  .J . ( 0.9.9.9.r.r.r.r.9.0.(  .9.5.x. Xx.Y 6 & 9 h g g h R R q *.:.Q V b J Q / ` ! P J J J 4 4 p L ` _ / ! w I e b I B B B r 2 w r w r r B r V ^ ! e 2 B L  .+.5.0.( $.$.$.X.T ( ..9.@.......E  .X.X.o.o.$.$.o.j g g s : d d i d k d d d d : k g : : ; ; h h y * U [ [ E 7 r :.W =.C C C ^ W ^ 2 *.*.*._ _ ~ ~ _ :._ L B _ _ ! ! ! _ :.7.` ` ) 9 7 U / ! _ :.~ *.*.W W ~ W *._ *.*.L Q ! L V ! ~ ~ e I . L >.*.y.7.' $ . . # @ ] ` J y w w t # $ % % o X 5 _ _ _ *.*.^ ~ 4 $ 4.  ",
"  + $ $ ' e > *.7.! L I > 4 > 5 ~ B B L V L P V W L W V P _ _ :._ 7._ _ ` X w ~ T L L ! ^ ^ ^ ^ ~ ~ ^ ^ ^ ~ _ ^ ^ _ ! _ ( 5.:.` J . ( .. ....... . ...X.....T / Y ^ ( >.9.6XK O . 7 9 h R 6 r *._ Q ! L I L P L J J J L Q J I P ! / P P :._ _ e L J r P L p T P / ` 5.7.5.P e w 4 e :.>.5.+. .@.@.w.%.X.@.@.h Y 5. .X.X.( R Y E R R E E E ..O.E j j g : g s g : : 9 : : O : 9 * & ; ; O.K h U t X & e P ~ ^ W C ^ ^ ^ C C C ! , ,.:._ ~ _ _ ! L ! ! W V V L P ! ! ! _ _ ` 9.7.6 6 +.L ! L ! W ! ! L W V *.~ ^ W W ~ ! ! *.Q ~ ~ ! W :.X L w e # . . # 6 @ . w q.) J K U U U U J o % % . b ~ ! ! Q ! W L 4 @     ",
"  > > $ r w 2 *.*.0 q e # < 0 4 _ B w B q b b V V B L V V W L V V b C b w X q L B B V B I L I B r r B V V L L V ~ ! . p I Y T I J . I Y / ( Y I T I T T T T Y Y Y ( Y Y _  .h 9 & o r { U ; ! ~ L L V b b I P L J J I J Q ] ' W ! Q V B ! _ ! B B ~ 5 ! ' ` ) `  .5. .)  .( $ X . ` 6.` / I 4 r 5. .Y T ( K J ( ( ( ( / R R Y K Y E ( R R R R ) )  ...E R ; 9 8 O ; ; 9 7 O 7 y r . ; {  .P W W W q V ^ =.,.=.^ ^ ^ ^ ^ C W ! 0 >.,.~ _ *._ ! Q Q L L L L L L P ! ! ! ~ ~ _ ! $ $ ) B ! Q W ! ! W ! W W W W W W W W W ! W W V ! _ B _ X _ % w J U U U / { U y { U t U U U h U y % @ @ . L ! W ! ! Q Q J > @     ",
"  2 % @ X 5 2 # 0 W V w 2 # 6 $ Q w 0 b q q V b B L W W L V V V V B V B J @ 6 I b 5 b B P I B e B V V V V C V V P e Y B B I J J r X q Y p p I I T I T I Y T T Y I ( p T E U 7 h 7 @ 9 q.9 r / L W L V L L Q Q P J I J I Q ] Q Q Q I P L ! ! / P V ` B 5 J ) ` ) ( Y Y P J L P w w J ! I e p J Y P / ( ( J I ) ' / / P I I P Y Y / Y R R K Y Y / Y Y / ) ( / w % . $ 6 5 @ @ h K { U . 6 P L ~ ~ W ^ V C =.=.=.C C C ^ ^ ^ W *.0 :.:.! ! ! ! L L ! Q L B V V L L L L P L ~ L P w % w B L V W W W W ! ! W W L W W W W ! W W W W Q ! L 6 . *.0 P M J h K K K U U / U y E y y J t X X & & . J ! W W Q W Q b $ %     ",
"  0 @ % $ e e 2 V ! L b > @ > 4 Q B b P W b r L W ! W V B V V B V V V C W @ w Q V V B b I b L P W P L V C W V ! ` P _ L I L I I I X I _ p I I I I T Y T ( Y T T T T p h h h [ [ 9 o X J @ e L V B B B B I L Q P I I r I U / U P P b L ! ! ! / P b / / r I / R R Y P P Y P ' Y /  ./ Y I p J P P P / / ! r 4 P I K Y Y I K / ` ` +./ ' ' Y ( R R P P P ! / / Q I w . X X X X t J h K o . # ! W W V C C C =.=.=.n C Z ^ =.=.=.*.$ Q P e B W W W Q ! ! ! Q P ! ! P J V V L V L ~ I . J P B L W W _ ! W ! ~ ! W W W Q W W ! W W W ! ! r 0 > =.b e M y y h K U U U U U U U h I 4 X t 5 t t . t ! Q W ! Q Q b $ +     ",
"  + X % 6 J J q 5 B V r $ . $ 4 0 e r B L B 0 b V B V V L L V V V C C W Q $ 0 W C C C V W b _ Q L V V V V V B P e 6 ! B p r J P r % / Y Y I I T ( Y T T T ( ( ( p h p a : l k k u O % X & e L L b e b e b M e r 6 2 # 4 ; ; & & 4 4 6 6 5 5 w w 5 0 q 6 5 5 5 w 5 5 w r r e r r e e r r 6 w r w w w 0 6 6 # 4 6 5 6 6 5 w w w t t w r r w r r r e e b P Q P Q Q e @ $ % % < < t @ X o @ P ! b b b b B V C ^ W B V V C W W Q J $ b e B J I L W L b b L P ! ! Q W L B V L L ! _ ] % / P L W L ! *.! W W W ! W W ! W W W W W L L B b > 0 > q L J y y y y y K K K y y r u r < # b M t r 7 o 6 / L L W W W b > $     ",
"  m % @ 4 I J 0 L b r 0 # 4 w @ J V L V V 2 q q b q b W W W W ^ W W V V Q + > ! W L W W ! _ / b I b B V V V B V @ 4 Y T r w e 6 5 5 R ..( 8 a T T B I T T T Y ( P R h : k l g u h & @ $ & 6 e J J t 6 X t t $ < r e r e r J J B e r r J B e r w r e e r w w w w q 5 5 # $ $ 6 6 # # % $ X # . % % % . X . @ . . . . . . . . . . . . . . . . . . . . . . . . . . . . . . X . . . . $ . . @ 6 < < > # @ # % X X < % % % $ < # @ # . X # # < > > > > 4 > < < < 6 6 6 4 6 0 q 0 0 # % X w J L W V ! W W W W ! L V W V V V V W B L I 4 > e X b V b P P P I P e M I M I I y t 7 M w . $ 4 6 6 5 r P J I I L 0 t $ =.  ",
"  G % % > I t > L B 6 # P b % % b Q L W W r ! W b 0 V V V V V V B B V B B % + L B B V V V W J 0 5 J L ! ~ ~ _ 7.6 # e w X % & 6 7 & w r Y p J p p I B L I p B P K h h . g k g 7 & o . . . o o $ @ @ P 7.q.u.y U 6X6X6X0X6X6X6X.X.X.Xt..Xx.r.e.y.y.e.t.t.t.t.t..Xt.t. X Xx.t.t.t.t.t..Xx. Xt.t.e.t.!..X6X.Xe.7.9X Xy.e. X9X9X6Xt.t.9.t.!.t.t.y.q.y.t.t.t.!.t.6 X @ I y.J @ 6X7.] J P ' ' / / P P P P I J y J P y J r r # 4 > # 6 b b b r r e e b b w I J b b b e r r r e t t $ . . . . t Q Q b r b b I L ~ L I L L B V I B 4 w t 4 . X # V C 0 n W ^ C n b C C b b r 0 r b V V L Q ! =.=.Q b 0 e M b b 0 r % W   ",
"    X % 6 r 5 e B q b e 5 5 4 # $ Q V W V 6 W b b r L r b V V V b b b b B 2 X V B b B b b B b Q t e :.~ Q ~ ' r @ & 7 6 & y U U h y . . 4 5 6 = 9 J P K K K h 5 o O & 9 : d g 9 O $ t.sXq.. . o @ 7 q.t.' M t t 7.t.5Xt.t.t.y.y.y.y.e.t..X5X6X.X!.e.7.y.e.!.!..X!.6Xt.r. X6Xt.t.t.t. X0XsX7.:.y.e.!.6XsXaXy.L AX.Xe.e.!..X6X6X9X9X9X9X!..X6X6X9X0X0X0X0XsXaX> . . 6X6X@ X aXt.q.q.t.q.t.q.9.8.5.9.q.9.q.9.t.t.q.q.t.q.` 0 7.2 y.t.y.9.9.q.q.t.t.q.7.t.q.9.y.q.t.y.r.r.q.q.q.` M @ 5 / y._ B L I I b _ 6 w P L e J e r 4 6 6 e J r b < . > *.W =.=.^ W C C C C Z C W W W ^ W ^ =.! W W W W W > I I I b W I % ;.  ",
"    + + 2 w e b r 0 b b 0 w b q 0 4 6 > @ % . . 6 ' B q b b B V V V V B B 6 . b r q b b V V e L e $ q 0 M t . . $ U / E u j E h u K E h % . . . . X ; ; # 5 . O d k * c V.x l * $ & sXaX6XUX5 X o $ 7.I r M t t r / ' I Q L L J J J L ! ' ' ` ` *.P J w J W Q / Q / e . J P P e Y Y ! :.P Q B B b B L Q t.L @ b q q 0 , . . q W =.=.*.Q ^ W ~ *.>.5.5.0.y.y.r @ 7.6Xt.e . yXt.8.w.+.6.6.@.+.6.{ R y ` 6.w.D.q.t.8.8.q.R t 6X0 sXt.9.7.6.9.6.7.7.7.9.5.6.7.7.{ q. ...5.+.' ` *.] > *.P *._ L I ! :.:.~ B P *.P L P J ~ L I L I Q b / ` r . 7.' b W V b b b n n b V C B V V L ! ! W L b b b w t b b b J P 5 X !.  ",
"      X o + 6 w b b r q t r b t b r 4 @ X % X . $ q 0 q q n n n n n n V B 5 . 6 b B B b B b q q q b 4 o . . . $ 7 r 6 u y h E h 9 E [ ) J 6 & o . . o $ & o.l v f f d : v v i * o o o P ' q.8.o o X Q b w r t t t M P P I P P P M e r t r t t 7 e J ` ' ' ' ' ' U ] M 6 o M _ W L L =.*.Q Q I I e r M 6 @ % > *.W b n n n n n m 3 2 0 n 0 0 2 0 2 0 n n n 0 b 0 / / ` w < { y y K u K y J / U U 7 w e M y y P U U t 9 r 5 ] e / ' P I U ] P P P / ' I I ] / ' u.{ ` ` ' ] M ] u./ J I ] L b r Q ] I L L b b J Q L V Q I b t b w 0 e P 6 X t 6 t b r 0 t t t t w b b b b b b P Q J e e w t t e t r e y < t y.@X  ",
"        m o o # 6 q b q 0 r r 5 0 w w 0 @ % % 0 b V b b b V V V V b n b e # X # B V B B b q q b q e r e 4 @ r J / / U y & 6 9 u y U E { R U U y $ @ t $ ; j j v d v a.l d d i : . $ % & 8.{ { @ @ . J & o 2 t 5 r M M I J ] ' ' / ' ' / ] P e $ 5 J P _ ` *.*.7.*.*.*.Q % L 7.^ ^ *.*.*.*.y.7.7.] Q ' 0 + + @ 7.:.,.=.=.*.y.,.,.*.*.=.W W W ! ! *.*.*.*.*.^ W 0 Q ' P < t P Q ` ` M ` ] P / ] { ' U I r r M y U K M e X 5 Q 4 . 5 r J ` u.{ / U I K w 5 b e M M w e r r t y e t t o X 4 J Q Q Q b 0 w w 0 0 0 e w b V r b > t r b 0 . . $ J e e w t t t t t t t t t t t r e e r r t t t y r t e t & < Z [.      ",
"          ^.N $ o o < 4 6 5 0 0 w q 5 4 X o o r t t t t t t 5 6 6 < 4 $ o . . o 6 t w t 6 5 0 e r J r 9 & * 9 & 7 7 7 7 o . . . o o * 7 7 ; & & o * y o o o . * * o d l : * o . J 6 o o K U . . . M sXy.q . o & 7 u y y 7 y y y y 9 y y 7 & o o o . o o & 5 w b b b b w % 6 w o < & $ & & & * * o o . . . . . . 6 e b I I I I I P P M w e e e e y M J M e t 6 o & * o o o * * o o o o o * o y U K I y 7 y w y J y 9 9 o & r . o . < y y J U P J w t w e 6 % 6 7 y 7 ; 7 9 y y y 7 o . * 9 y h J M b e w w t e e J J e w < 5 t 6 5 o . . . @ $ # < 4 6 6 7 t t t 6 < < 7 t 9 7 t t 7 7 7 7 7 * * 6 G             ",
"                D m 1 o o o . o o o o $ # 2 2 1 1 1 1 1 1 1 1 1 1 1 1 3 n q 3 3 1 3 3 3 3 3 3 3 m 1 3 3 1 3 1 1 m A S S F A N N 3 3 1 1 1 1 1 1 1 1 1 q B q 3 1 2 3 2 , 1 2 8 B 7._ q 6 , , 2 q ,.*X;X4X4XR.N 3 q q q 0 0 b q q q 0 2 1 1 2 0 0 q 0 0 2 2 , @ % . . . o * * $ 3 3 3 3 m N N N H H S F F 4.4.3.;.3 1 1 1 1 1 1 1 1 1 1 1 3 m m N N N N N N N N N H G F F F S N N N N m m m 3 3 1 1 1 1 3 1 1 1 1 1 1 1 3 3 1 3 3 3 1 1 1 1 1 + + o o o . . X 2 1 3 1 1 1 1 1 1 1 3 A C C A 1 1 1 1 1 1 1 1 1 1 3 1 3 1 1 3 3 2 2 1 0 b L L q 6 < * o o . . . o o o o o & * * * * * * & 6 q A S F                 ",
"                      ^.E.1.1.1.W.^.{.1X/./.                                                                                                                              4X4X2X;X;X;X;X;X4X                                                              /.;X;X(.^.^.^.{.).1X                                                                                                                                                                  (.^.^.1.e.).                                              ;X                          2X2X;X;X1X{.W.4.,.,.,.,.,.,.y.y.y.y.y.y.y.y.y.2.                          ",
"                                                                                                                                                                                                                                                                                                                                                                                                                                                ;X2X    :X:X                                              ;X                                                                                                    "
};
