/* XPM */
static char *_[] = {
/* columns rows colors chars-per-pixel */
"64 64 18 1 ",
"  c None",
". c #181818",
"X c #393939",
"o c gray35",
"O c #667777",
"+ c #63757D",
"@ c #647A7A",
"# c gray48",
"$ c #5B6D80",
"% c #606080",
"& c #607080",
"* c #6D6D92",
"= c blue",
"- c #6D8080",
"; c #808080",
": c gray74",
"> c #EFDECE",
", c white",
/* pixels */
"                                                                ",
"                                                                ",
"                                                                ",
"                                                                ",
"                                                                ",
"                                                                ",
"                                                                ",
"                                                                ",
"                                                                ",
"                                                                ",
"                                                                ",
"                                                                ",
"                                                                ",
"                                                                ",
"                                                                ",
"                                                                ",
"                                                                ",
"                                                                ",
"                                                                ",
"                                                                ",
"                                                                ",
"                                                                ",
"                                                                ",
"                                                                ",
"                                                                ",
"                                                                ",
"                                                                ",
"                                                                ",
"                                                                ",
"                                                                ",
"                                                                ",
"                                                                ",
"                                                                ",
"                                                                ",
"                                                                ",
"                                                                ",
"                                                                ",
"                                                                ",
"                                                                ",
"                                                                ",
"                                                                ",
"                                                                ",
"                                                                ",
"                                                                ",
"                                                                ",
"                                                                ",
"                                                                ",
"                            ;#:::#;                             ",
"                           ##oXoXo##                            ",
"                         ,#oXXo#oXXo#,                          ",
"                        =#oXo#>,>#oXo#=                         ",
"                        ooXo#:>,>:#oXoo                         ",
"                         oXo#:>,>:#oXo                          ",
"                       %#.Xo#:,,,:#oX.#*                        ",
"                       +o.X#:>,,,>:#X.o+                        ",
"                       #..o#:>,,,>:#o..#                        ",
"                      @o.Xo#:>,,,>:#oX.o@                       ",
"                      #X.Xo#:,,,,,:#oX.X#                       ",
"                     -o..Xo:>,,,,,>:oX..o$                      ",
"                     #X..o#:>,,,,,>:#o..X#                      ",
"                    $oX.Xo#:>,,,,,>:#oX.Xo$                     ",
"                    #X.XXo#:>,,,,,>:#oXX.X#                     ",
"                   &oX.XXo#:>,,,,,>:#oXX.XoO                    ",
"                   oXX.XXo#:>,,,,,>:#oXX.Xo#                    "
};
