/* XPM */
static char *_[] = {
/* columns rows colors chars-per-pixel */
"64 64 15 1 ",
"  c None",
". c #181818",
"X c #393939",
"o c #5A5A5A",
"O c #557171",
"+ c #62757C",
"@ c #717171",
"# c #7B7B7B",
"$ c #607580",
"% c #666699",
"& c #6D8080",
"* c #808080",
"= c gray74",
"- c #EFDECE",
"; c white",
/* pixels */
"                                                                ",
"                                                                ",
"                                                                ",
"                                                                ",
"                                                                ",
"                                                                ",
"                                                                ",
"                                                                ",
"                                                                ",
"                                                                ",
"                                                                ",
"                                                                ",
"                                                                ",
"                                                                ",
"                                                                ",
"                                                                ",
"                                                                ",
"                                                                ",
"                                                                ",
"                                                                ",
"                                                                ",
"                                                                ",
"                                                                ",
"                                                                ",
"                                                                ",
"                                                                ",
"                                                                ",
"                                                                ",
"                                                                ",
"                                                                ",
"                                                                ",
"                                                                ",
"                                                                ",
"                                                                ",
"                                                                ",
"                                                                ",
"                                                                ",
"                                                                ",
"                                                                ",
"                                                                ",
"                                                                ",
"                                                                ",
"                                                                ",
"                                                                ",
"                            *#-;-#*                             ",
"                           *=oXXXo#=                            ",
"                          #oXXo#oXXo#                           ",
"                         #oXo#-;-#oXo#                          ",
"                        *#oXo#-;-#oXo#*                         ",
"                        ooXo#=-;-=#oXoo                         ",
"                        Xo.o#=-;-=#o.oX                         ",
"                        .X.o#=-;-=#o.X.                         ",
"                       %..Xo=-;;;-=oX..%                        ",
"                       $o.X#=-;;;-=#X.o$                        ",
"                       +o.o#=-;;;-=#o.o+                        ",
"                       #..o#=-;;;-=#o..#                        ",
"                      ; ..o#=-;;;-=#o.. ;                       ",
"                      +o.Xo#=-;;;-=#oX.o+                       ",
"                      #X.Xo#-;;;;;-#oX.X#                       ",
"                      o..Xo=-;;;;;-=oX..o                       ",
"                     &o..X#=-;;;;;-=#X..o&                      ",
"                     #X..o#=-;;;;;-=#o..X#                      ",
"                     oX.Xo#=-;;;;;-=#oX.Xo                      ",
"                    @oX.X#=;;;;;;;;;=#X.XoO                     "
};
