/* XPM */
static char *_[] = {
/* columns rows colors chars-per-pixel */
"64 64 39 1 ",
"  c None",
". c #181818",
"X c #393939",
"o c #5A5A5A",
"O c #557171",
"+ c #5E717B",
"@ c #5A7878",
"# c #667777",
"$ c #63737B",
"% c #667A7A",
"& c #697878",
"* c #717171",
"= c gray48",
"- c #DE0000",
"; c #E30000",
": c #874B2D",
"> c #80512E",
", c #824F33",
"< c #845231",
"1 c #885533",
"2 c #F75A08",
"3 c #EF7B18",
"4 c #F7B521",
"5 c #EFA573",
"6 c #556A80",
"7 c #606080",
"8 c #607580",
"9 c #6B7986",
"0 c #71718E",
"q c #666699",
"w c blue",
"e c #668080",
"r c #55AAAA",
"t c cyan",
"y c #808080",
"u c gray74",
"i c #EFBD9C",
"p c #EFDECE",
"a c white",
/* pixels */
"                                                                ",
"                                                                ",
"                                                                ",
"                                                                ",
"                                                                ",
"                                                                ",
"                                                                ",
"                                                                ",
"                                                                ",
"                                                                ",
"                                                                ",
"                                                                ",
"                                                                ",
"                                                                ",
"                                                                ",
"                                                                ",
"                                                                ",
"                                                                ",
"                                                                ",
"                                                                ",
"                                                                ",
"                                                                ",
"                                                                ",
"                                                                ",
"                                                                ",
"                                                                ",
"                                                                ",
"                                                                ",
"                            12<-2<<-:                           ",
"                         y<<<-2<-22<-<<                         ",
"                       t<<<2-2-222-222<<6                       ",
"                      e<<2-323222-223-2<-<                      ",
"                     ><--23232232233-322-2,                     ",
"                    :<2-32525253i4i342-22< >                    ",
"                   r<-23-52i3i3i3i3i333-2222y                   ",
"                   <-2-352i3i4p4p3i3i4352-2<-                   ",
"                  7<--224i2i4i4pip4p4p435222<q                  ",
"                  <--22453i4pippiip4p4p5332-2<                  ",
"                  <<2-253iipipppppip4p4p42-2<-                  ",
"                  <--2235ipippaaappipip4342<2<                  ",
"                  <2-3354pipp=uuu=ppip4p4333<<                  ",
"                  -<335454p=uoXXXo=uaip54323-<                  ",
"                  <-253535=oXXo=oXXo=p4p342-2,                  ",
"                  <<22535ioXo=pap=oXoip44<22<                   ",
"                   <-2-5p=oXo=pap=oXo=p322<2;                   ",
"                   -<-2-3oXo=upapu=oXo<<2<2<                    ",
"                    <<-<2o.o=upapu=o.o2<<-<                     ",
"                     -<2<X.o=upapu=o.X<-<+                      ",
"                      <<<.XoupaaapuoX..$                        ",
"                       $o.X=upaaapu=X.o&                        ",
"                       @o.o=upaaapu=o.o$                        ",
"                       =..o=upaaapu=o..=                        ",
"                       o..o=upaaapu=o..o                        ",
"                      8o.Xo=upaaapu=oX.o9                       ",
"                      =X.Xo=paaaaap=oX.X=                       ",
"                     ao..XoupaaaaapuoX..o                       ",
"                     $o..X=upaaaaapu=X..o%                      ",
"                     =X..o=upaaaaapu=o..X=                      ",
"                    roX.Xo=upaaaaapu=oX.Xoy                     ",
"                    $oX.X=uaaaaaaaaau=X.Xo$                     ",
"                    =X.=uaaupaaaaapuaau=.X=                     ",
"                   0o=uaau=upaaaaapu=uaau=o*                    ",
"                   o=uau=o=upaaaaapu=o=uau=o                    ",
"         wayrqO#$$$=uau=oo=upaaaaapu=oo=uau=                    "
};
