/* XPM */
static char *_[] = {
/* columns rows colors chars-per-pixel */
"63 64 16 1 ",
"  c None",
". c #181818",
"X c #3A3A3A",
"o c #5A5A5A",
"O c #5D7474",
"+ c #63747C",
"@ c #717171",
"# c #7B7B7B",
"$ c #627680",
"% c #687880",
"& c #608080",
"* c cyan",
"= c #808080",
"- c gray74",
"; c #EFDECE",
": c white",
/* pixels */
"                                                               ",
"                                                               ",
"                                                               ",
"                                                               ",
"                                                               ",
"                                                               ",
"                                                               ",
"                                                               ",
"                                                               ",
"                                                               ",
"                                                               ",
"                                                               ",
"                                                               ",
"                                                               ",
"                                                               ",
"                                                               ",
"                                                               ",
"                                                               ",
"                                                               ",
"                                                               ",
"                                                               ",
"                                                               ",
"                                                               ",
"                                                               ",
"                                                               ",
"                                                               ",
"                                                               ",
"                                                               ",
"                                                               ",
"                                                               ",
"                                                               ",
"                                                               ",
"                                                               ",
"                                                               ",
"                                                               ",
"                                                               ",
"                                                               ",
"                                                               ",
"                                                               ",
"                                                               ",
"                                                               ",
"                                                               ",
"                           &#-:-#&                             ",
"                         #-#oXXXo#-#                           ",
"                        #ooXXo#oXXoo#                          ",
"                       #oX.o#-:-#o.Xo#                         ",
"                      *#o.Xo#;:;#oX.o#*                        ",
"                      ooXXo#-;:;-#oXXoo                        ",
"                      Xo.Xo#-;:;-#oX.oX                        ",
"                      .X.Xo-;:::;-oX.X.                        ",
"                      +o.X#-;:::;-#X.o+                        ",
"                      #..o#-;:::;-#o..#                        ",
"                     Oo..o#-;:::;-#o..oO                       ",
"                     $o.Xo#-;:::;-#oX.o$                       ",
"                     #X.Xo#;:::::;#oX.X#                       ",
"                    = ..Xo-;:::::;-oX.. =                      ",
"                    +o..X#-;:::::;-#X..o%                      ",
"                    #X..o#-;:::::;-#o..X#                      ",
"                   =oX.Xo#-;:::::;-#oX.Xo=                     ",
"                   +#X.Xo#-;:::::;-#oX.X#+                     ",
"                   #oX.Xo#-;:::::;-#oX.Xo#                     ",
"                  @#X.XXo#-;:::::;-#oXX.X#@                    ",
"                  ooX.XXo#-;:::::;-#oXX.Xoo                    ",
"                  #oX.XXo#-;:::::;-#oXX.Xo#                    "
};
