/* XPM */
static char *_[] = {
/* columns rows colors chars-per-pixel */
"65 65 175 2 ",
"   c black",
".  c #697878",
"X  c #0000A1",
"o  c #0000C9",
"O  c #0000C7",
"+  c #555555",
"@  c #000098",
"#  c black",
"$  c #408080",
"%  c blue",
"&  c #00009F",
"*  c black",
"=  c #000071",
"-  c black",
";  c #000071",
":  c black",
">  c #000071",
",  c #62757C",
"<  c #B07041",
"1  c #895930",
"2  c #7E5027",
"3  c #68491E",
"4  c #B16F42",
"5  c #88552D",
"6  c #64707C",
"7  c #63747A",
"8  c #647480",
"9  c #63747E",
"0  c #808080",
"q  c #63737C",
"w  c #63747D",
"e  c black",
"r  c #808080",
"t  c black",
"y  c black",
"u  c #64747E",
"i  c #000099",
"p  c #000098",
"a  c #62727D",
"s  c #000095",
"d  c #000097",
"f  c #000047",
"g  c #00009A",
"h  c None",
"j  c #000071",
"k  c #000099",
"l  c #000049",
"z  c #666699",
"x  c #0000B0",
"c  c #000047",
"v  c #0000B0",
"b  c #697887",
"n  c #000047",
"m  c #0000B1",
"M  c #000071",
"N  c #0000F8",
"B  c #000048",
"V  c #0000AF",
"C  c #000049",
"Z  c #0000B0",
"A  c #000049",
"S  c #0000AF",
"D  c #6B7986",
"F  c #00009F",
"G  c #000048",
"H  c white",
"J  c #000078",
"K  c #000048",
"L  c #804F27",
"P  c #000047",
"I  c #63757E",
"U  c #000048",
"Y  c #64747D",
"T  c #000048",
"R  c #6D6D92",
"E  c #63747D",
"W  c #63757D",
"Q  c #000078",
"!  c #66707A",
"~  c #000098",
"^  c #5D7474",
"/  c #000098",
"(  c #000097",
")  c #000098",
"_  c #637680",
"`  c #66757C",
"'  c #667380",
"]  c #0000E0",
"[  c #608080",
"{  c #0000E0",
"}  c navy",
"|  c #000070",
" . c #000098",
".. c #000060",
"X. c #000040",
"o. c #000047",
"O. c #000040",
"+. c black",
"@. c #61747D",
"#. c black",
"$. c black",
"%. c #64757E",
"&. c black",
"*. c #63747E",
"=. c #63737B",
"-. c black",
";. c #64737C",
":. c black",
">. c black",
",. c black",
"<. c black",
"1. c #000041",
"2. c black",
"3. c black",
"4. c #000040",
"5. c #202020",
"6. c #202020",
"7. c #202020",
"8. c #202020",
"9. c black",
"0. c black",
"q. c black",
"w. c #63727D",
"e. c #647A7A",
"r. c #558080",
"t. c #0000A0",
"y. c #0000F8",
"u. c #000078",
"i. c black",
"p. c #0000E0",
"a. c #000070",
"s. c #F8F800",
"d. c #C0C000",
"f. c #C87848",
"g. c #0000B8",
"h. c #F09058",
"j. c #986038",
"k. c #A8A800",
"l. c #F89860",
"z. c #F8B890",
"x. c #F8C0A0",
"c. c #F8B080",
"v. c #D08050",
"b. c #885830",
"n. c #F8B898",
"m. c #F8A070",
"M. c #F8C8B0",
"N. c #F8D8C0",
"B. c #E88858",
"V. c #805028",
"C. c #282828",
"Z. c #D88850",
"A. c #202020",
"S. c gray22",
"D. c #B07040",
"F. c #A06038",
"G. c #905830",
"H. c #000048",
"J. c #C0C0C0",
"K. c #606060",
"L. c gray66",
"P. c #000040",
"I. c #0000D0",
"U. c #0000B0",
"Y. c #000088",
"T. c #000060",
"R. c #000098",
"E. c #484848",
"W. c #000058",
"Q. c gray44",
"!. c #505050",
"~. c #0000C8",
"^. c #584020",
"/. c #0000E8",
"(. c white",
/* pixels */
"                                                                                                                                  ",
"                                                                                                                                  ",
"                                                                                                                                  ",
"                                                                                                                                  ",
"                                                                                                                                  ",
"                                                                                                                                  ",
"                                                                                                                                  ",
"                                                                                                                                  ",
"                                                                  . X o O +                                                       ",
"                                                              . @ t.t.t.y.# $                                                     ",
"                                                          % & t.t.t.t.y.u.i.*                                                     ",
"                                                          = p.t.t.t.p.u.i.i.i.-                                                   ",
"                                                          ; a.p.p.p.u.i.i.i.i.:                                                   ",
"                                                          > a.a.a.a.i.i.i.i.i.,                                                   ",
"                                                          < s.a.a.a.i.i.i.i.d.1                                                   ",
"                                                          2 s.f.g.f.h.j.g.f.k.3                                                   ",
"                                                          4 l.z.x.c.v.b.n.z.v.5                                                   ",
"                                                          6 l.z.c.m.m.m.m.m.v.7                                                   ",
"                                                          8 l.z.h.M.N.N.z.B.v.9                                                   ",
"                                                        0 q l.z.h.m.m.m.h.B.V.w e                                                 ",
"                                                    r t y i.C.m.m.m.f.m.B.Z.C.i.u                                                 ",
"                                                r i p A.A.A.S.D.D.F.F.G.G.V.C.i.H.a                                               ",
"                                              s d g.g.A.A.A.J.K.i.i.V.i.i.L.K.H.H.H.f                                             ",
"                                            g h g.g.g.A.A.A.i.i.i.a.P.P.a.i.i.a.a.a.a.j                                           ",
"                                          k h y.I.U.g.A.i.i.Y.Y.Y.Y.T.a.a.a.a.a.Y.Y.a.a.l                                         ",
"                                        z x y.I.I.U.R.P.i.i.P.a.a.Y.T.Y.Y.Y.Y.Y.T.P.P.Y.a.c                                       ",
"                                        v y.y.I.U.R.P.P.i.i.i.P.T.T.T.T.T.T.H.H.P.P.Y.a.Y.a.b                                     ",
"                                      . U.U.I.U.U.P.P.P.i.i.i.i.P.H.P.H.P.u.u.u.T.Y.t.t.a.a.n                                     ",
"                                      m y.y.y.y.a.P.P.E.E.E.i.i.i.P.P.P.P.P.P.P.W.t.g.t.t.a.M                                     ",
"                                      N U.I.y.y.y.a.E.K.Q.Q.!.!.i.i.i.P.P.P.P.P.t.t.g.t.Y.H.B                                     ",
"                                      V I.I.Q.Q.Y.K.E.E.!.K.Q.Q.!.!.E.i.P.P.P.P.t.t.g.t.u.H.C                                     ",
"                                      Z U.Q.Q.R.v.E.S.S.S.E.!.K.K.Q.Q.!.E.i.i.H.t.~.Y.t.a.a.A                                     ",
"                                        S Q.I.v.v.F.F.V.P.S.E.E.E.!.K.Q.Q.!.E.I.I.I.I.a.H.H.D                                     ",
"                                        e F t.v.v.F.^.^.P.K.!.S.i.i.E.!.K.Q.Q.!.E.Q.u.I.a.G H                                     ",
"                                          e J v.v.F.F.^.P.K.K.S.i.i.S.S.E.!.K.Q.Q.A.a.a.a.K                                       ",
"                                              L V.V.V.^.P.!.K.S.P.P.v.F.V.S.E.E.K.A.H.H.H.P                                       ",
"                                                I Y.Y.a.P.P.P.P.P.P.v.v.F.F.V.H.H.H.H.H.U                                         ",
"                                                e Y U.Y.Y.Y.a.a.T.T.v.v.F.F.V.P.H.H.H.T R                                         ",
"                                                  6 U.R.u.u.u.u.u.u.V.V.V.V.^.P.P.P.P.E                                           ",
"                                                  z U.R.a.T.T.W.H.P.H.u.R.R.R.R.Y.T.P.W                                           ",
"                                                    Q a.T.T.H.H.H.P.u.R.g.I.p.p.I.g.T.!                                           ",
"                                                    ~ R.Y.Y.a.a.a.H.Y.g.I.p.p./.p.I.g.^                                           ",
"                                                    / R.Y.Y.u.u.u.H.Y.g.I.p.p.y.I.I.g.r                                           ",
"                                                    ( R.Y.Y.u.u.u.H.Y.g.I.p.p.y.I.I.g.0                                           ",
"                                                    ) g.R.Y.u.u.u.H.Y.g.I.p.p.y.I.I.g.e                                           ",
"                                                    _ g.R.Y.u.u.u.W.Y.g.I.p./.y././.t.                                            ",
"                                                    ` g.R.Y.u.u.u.W.T.U.U.y.y.y.y.y.h                                             ",
"                                                    ' g.R.Y.u.u.u.W.P.~.p.I.g.g.g.I.]                                             ",
"                                                    [ g.~.g.u.u.u.W.P.~.Y.R.g.g.g.t.{                                             ",
"                                                    } g.u.u.u.u.W.W.U.Y.Y.Y.t.t.t.Y.|                                             ",
"                                                       .W.u.W.W.P.P.W.i.T.u.Y.u.u.u...                                            ",
"                                                      X.W.W.W.W.P.P.i.i.H.T.T.T.T.H.o.                                            ",
"                                                      O.P.P.P.P.P.i.i.i.i.H.H.H.H.H.+.                                            ",
"                                                      @.P.P.P.i.i.i.i.P.i.i.i.i.i.i.#.                                            ",
"                                                      ' P.P.P.i.i.i.i.P.P.P.P.i.i.i.$.                                            ",
"                                                      0 P.P.P.P.P.i.i.i.P.P.P.i.i.i.Y                                             ",
"                                                        $.P.P.i.i.i.i.P.i.i.i.i.i.i.%.                                            ",
"                                                        &.P.i.P.i.i.i.i.P.P.P.i.i.i.*.                                            ",
"                                                        =.P.P.P.P.i.i.P.P.P.P.P.i.i.-.                                            ",
"                                                        ;.i.i.i.P.i.i.P.P.P.P.P.i.i.:.                                            ",
"                                                        >.P.P.P.P.P.i.P.P.P.P.i.i.,.<.                                            ",
"                                                        1.P.P.P.P.P.i.i.i.i.i.,.2.3.                                              ",
"                                                        4.5.6.7.8.9.0.q.w.e.r.                                                    ",
"                                                                                                                                  ",
"                                                                                                                                  "
};
