/* XPM */
static char *_[] = {
/* columns rows colors chars-per-pixel */
"65 65 183 2 ",
"   c black",
".  c black",
"X  c #687480",
"o  c #0000C9",
"O  c #0000C8",
"+  c cyan",
"@  c #808080",
"#  c #000099",
"$  c #0000A0",
"%  c black",
"&  c #555555",
"*  c white",
"=  c #0000A1",
"-  c #0000A0",
";  c black",
":  c #000098",
">  c black",
",  c #000098",
"<  c black",
"1  c #000097",
"2  c #64747E",
"3  c #B06F40",
"4  c #885730",
"5  c #805127",
"6  c #684920",
"7  c #B17140",
"8  c #895831",
"9  c #63737B",
"0  c #63737C",
"q  c #64757E",
"w  c #63747D",
"e  c black",
"r  c #607080",
"t  c gray40",
"y  c #63747E",
"u  c None",
"i  c #62747D",
"p  c #408080",
"a  c gray16",
"s  c #282828",
"d  c #000048",
"f  c #000049",
"g  c #000099",
"h  c #000098",
"j  c #000048",
"k  c #000097",
"l  c #000049",
"z  c #5555AA",
"x  c #00009A",
"c  c #000048",
"v  c #000098",
"b  c #000046",
"n  c #000099",
"m  c #000048",
"M  c #808080",
"N  c #0000B7",
"B  c #00004A",
"V  c #00009A",
"C  c #000048",
"Z  c #0000B7",
"A  c #000048",
"S  c #0000B9",
"D  c #000048",
"F  c #0000B9",
"G  c #000049",
"H  c #0000B8",
"J  c #000043",
"K  c #0000D2",
"L  c #000048",
"P  c #0000D1",
"I  c #000078",
"U  c #000048",
"Y  c #64757D",
"T  c #000047",
"R  c #63737C",
"E  c #63747D",
"W  c #557171",
"Q  c #64757C",
"!  c #5E7979",
"~  c #000079",
"^  c #000060",
"/  c black",
"(  c #000060",
")  c #000040",
"_  c #000079",
"`  c #000041",
"'  c #000078",
"]  c #00003F",
"[  c #00006F",
"{  c #000040",
"}  c #63757D",
"|  c #000040",
" . c #61757D",
".. c #000040",
"X. c #63727D",
"o. c #000040",
"O. c #60757C",
"+. c #000040",
"@. c #000045",
"#. c gray13",
"$. c black",
"%. c #66777D",
"&. c #556A80",
"*. c #666680",
"=. c #6D6D6D",
"-. c #55AAAA",
";. c #000058",
":. c black",
">. c #000058",
",. c black",
"<. c #000041",
"1. c #000040",
"2. c black",
"3. c black",
"4. c black",
"5. c #63747D",
"6. c black",
"7. c black",
"8. c #64747C",
"9. c #63747E",
"0. c #000040",
"q. c #64737C",
"w. c black",
"e. c black",
"r. c #00003F",
"t. c black",
"y. c #667380",
"u. c #637680",
"i. c #63757D",
"p. c #63757D",
"a. c #64767C",
"s. c #6A6A80",
"d. c #0000A0",
"f. c #0000F8",
"g. c #000078",
"h. c black",
"j. c #0000E0",
"k. c #000070",
"l. c #F8F800",
"z. c #C0C000",
"x. c #C87848",
"c. c #0000B8",
"v. c #F09058",
"b. c #986038",
"n. c #A8A800",
"m. c #F89860",
"M. c #F8B890",
"N. c #F8C0A0",
"B. c #F8B080",
"V. c #D08050",
"C. c #885830",
"Z. c #F8B898",
"A. c #F8A070",
"S. c #F8C8B0",
"D. c #F8D8C0",
"F. c #E88858",
"G. c #805028",
"H. c #282828",
"J. c #A86840",
"K. c gray22",
"L. c #B07040",
"P. c #A06038",
"I. c #905830",
"U. c #C0C0C0",
"Y. c #606060",
"T. c gray66",
"R. c #202020",
"E. c #000048",
"W. c #000088",
"Q. c #000060",
"!. c #0000B0",
"~. c #000040",
"^. c #000098",
"/. c #2020F8",
"(. c #000058",
"). c #0000C8",
"_. c #0000D0",
"`. c #505050",
"'. c #484848",
"]. c #0000E8",
"[. c gray44",
"{. c #584020",
"}. c white",
/* pixels */
"                                                                                                                                  ",
"                                                                                                                                  ",
"                                                                                                                                  ",
"                                                                                                                                  ",
"                                                                                                                                  ",
"                                                                                                                                  ",
"                                                                                                                                  ",
"                                                                                                                                  ",
"                                                                                                                                  ",
"                                                              . X o O +                                                           ",
"                                                          @ # $ d.d.f.% &                                                         ",
"                                                      * = - d.d.d.f.g.h.;                                                         ",
"                                                      : j.d.d.d.j.g.h.h.h.>                                                       ",
"                                                      , k.j.j.j.g.h.h.h.h.<                                                       ",
"                                                      1 k.k.k.k.h.h.h.h.h.2                                                       ",
"                                                      3 l.k.k.k.h.h.h.h.z.4                                                       ",
"                                                      5 l.x.c.x.v.b.c.x.n.6                                                       ",
"                                                      7 m.M.N.B.V.C.Z.M.V.8                                                       ",
"                                                      9 m.M.B.A.A.A.A.A.V.0                                                       ",
"                                                      q m.M.v.S.D.D.M.F.V.w                                                       ",
"                                                    * e x.M.v.A.A.A.v.F.G.h.r                                                     ",
"                                                  t y h.H.x.A.A.x.A.F.J.H.h.u i &                                                 ",
"                                              p a s H.h.K.L.L.P.P.I.I.G.H.K.h.h.d f                                               ",
"                                            g h k.H.H.h.U.Y.h.h.G.h.h.T.Y.R.E.k.W.Q.j &                                           ",
"                                          k !.f.f.H.H.H.h.R.k.~.h.~.k.h.R.g.!.W.k.k.Q.l z                                         ",
"                                        x !.c.!.j.f.H.H.H.^.^.^.~.k.^.^.^.!.!.W.W.W.W.k.c .                                       ",
"                                      t v !./.f.^.^.H.H.h.~.W.W.W.(.!.j.j.).d.k.W._.^.W.Q.b                                       ",
"                                      n c./.f.!.^.k.~.h.h.~.k.k.k.(.!.).).!.^.k.d._.j.^.W.m M                                     ",
"                                    t N _._.!.^.g.(.~.h.h.h.~.k.Q.~.(.^.^.g.g.k.d.f.f._.^.k.B                                     ",
"                                    V c.f.f.j.k.k.~.`.`.'.h.h.~.~.~.~.~.(.(.(.k.W.d.d.d.W.W.C                                     ",
"                                    Z ].].!.!.k.k.`.Y.[.Y.[.Y.'.~.~.~.~.~.~.~.~.(.W.W.W.g.k.A                                     ",
"                                    S ].]._.[.[.W.Y.'.'.[.[.[.[.[.'.'.~.~.~.~.~.W.W.j.).E.E.D                                     ",
"                                    F _._.[.[.^.V.'.K.K.K.'.`.Y.[.[.[.Y.'.~.~.W.d.j.).^.k.E.G                                     ",
"                                    H _.f.[._.V.V.P.P.G.'.K.K.K.K.'.`.Y.[.[.Y.'.'.[.^.g.k.E.J                                     ",
"                                      K _.[.d.V.V.P.{.{.~.Y.`.K.~.K.K.K.K.'.Y.[.[.R.g.E.E.L                                       ",
"                                        P I g.V.V.P.P.{.h.Y.Y.K.h.h.V.P.G.K.K.'.'.R.E.E.U M                                       ",
"                                          . Y G.G.G.G.{.~.Y.Y.K.~.~.V.V.P.P.G.E.E.E.E.T .                                         ",
"                                              R g.(.~.~.~.`.Y.K.~.~.V.V.P.P.G.~.h.h.E M                                           ",
"                                              W g.(.~.~.~.~.~.~.~.E.G.G.G.G.{.~.~.h.Q                                             ",
"                                              . g.W.k.k.(.~.~.h.~.Q.k.k.k.d.Q.Q.~.h.!                                             ",
"                                                ~ W.g.g.(.~.~.h.E.k.k.k.d.d.g.g.~.h.p                                             ",
"                                                ^ W.g.g.(.~.~.h.Q.E.Q.g.g.g.Q.E.~./                                               ",
"                                                ( Q.Q.(.~.~.h.h.E.Q.^.^.^.^.k.Q.~.)                                               ",
"                                                _ W.(.(.(.~.~.h.~.^.!.!.!.!.W.k.E.`                                               ",
"                                                ' W.(.(.(.~.~.h.~.^.!.!.!.!.W.k.E.]                                               ",
"                                                [ g.(.(.~.~.~.h.~.^.!.!.!.!.^.g.E.{                                               ",
"                                                } ~.Q.Q.~.~.~.h.E.^.!.!.!.!.^.g.~.R                                               ",
"                                                | Q.~.~.~.~.~.h.h.^.d.d.d.d.d.g.~. .                                              ",
"                                                ..~.~.~.~.~.~.h.~.d.d.d.d.W.d.g.~.X.                                              ",
"                                                o.~.~.~.~.~.~.h.g.d.d.d.d.W.d.d.~.O.                                              ",
"                                                +.~.~.~.~.~.~.~.d.Q.^.^.^.k.E.E.g.@.                                              ",
"                                                @ #.h.h.h.h.h.h.h.k.^.^.^.k.(.~.~.$.                                              ",
"                                                  %.~.h.h.h.h.h.h.k.g.g.g.k.(.~.h.&.                                              ",
"                                                  *.~.h.h.h.h.h.h.h.(.(.(.(.~.~.h.=.                                              ",
"                                                  M ~.h.h.h.h.h.h.h.h.h.h.h.h.h.h.-.                                              ",
"                                                    ~.~.~.h.h.h.h.~.~.~.~.h.h.h.h.+                                               ",
"                                                    ;.~.~.h.h.h.h.~.~.~.~.h.h.h.:.                                                ",
"                                                    >.~.~.h.h.h.h.~.~.~.~.h.h.h.,.                                                ",
"                                                    <.1.o.2.3.4.5.~.~.~.~.h.h.h.6.                                                ",
"                                                                . 7.~.~.~.h.h.h.2.                                                ",
"                                                                  8.h.h.h.h.h.h.9.                                                ",
"                                                                . 0.~.~.~.h.h.h.q.                                                ",
"                                                                w.~.~.~.h.h.h.h.e.                                                ",
"                                                              + r.~.~.~.~.~.~.h.t.+                                               ",
"                                              . . * M @ W y.u.i.~.~.~.~.~.h.h.h.h.p.a.s.@ M .                                     "
};
