/* XPM */
static char *_[] = {
/* columns rows colors chars-per-pixel */
"65 65 173 2 ",
"   c black",
".  c #697878",
"X  c #0000A1",
"o  c #0000C8",
"O  c #0000C7",
"+  c #555555",
"@  c #000098",
"#  c black",
"$  c #55AAAA",
"%  c black",
"&  c #0000A1",
"*  c black",
"=  c #000097",
"-  c black",
";  c #000098",
":  c black",
">  c #61757D",
",  c #B17140",
"<  c #865931",
"1  c #7E4F28",
"2  c #6A4822",
"3  c #B16F3F",
"4  c #85572E",
"5  c #64757D",
"6  c #63757E",
"7  c #62757D",
"8  c #63747D",
"9  c cyan",
"0  c #65737D",
"q  c #63737E",
"w  c #6D8080",
"e  c black",
"r  c #62747C",
"t  c #808080",
"y  c #000099",
"u  c #61737C",
"i  c #000099",
"p  c #000097",
"a  c #000047",
"s  c #000099",
"d  c None",
"f  c #000049",
"g  c #000098",
"h  c #000047",
"j  c #608080",
"k  c #0000B0",
"l  c #000048",
"z  c #0000B0",
"x  c #5B6D80",
"c  c #00004D",
"v  c #0000AF",
"b  c #000072",
"n  c #0000FA",
"m  c #000048",
"M  c #000048",
"N  c #000043",
"B  c #717171",
"V  c #282828",
"C  c #5D7474",
"Z  c #00009F",
"A  c #000048",
"S  c #000078",
"D  c #000048",
"F  c #815028",
"G  c #00004A",
"H  c #64757E",
"J  c #000048",
"K  c #668080",
"L  c #000048",
"P  c #6D6D6D",
"I  c #0000B0",
"U  c #0000B1",
"Y  c #607080",
"T  c #0000AF",
"R  c #0000AF",
"E  c #62747D",
"W  c #808080",
"Q  c #607379",
"!  c blue",
"~  c #68717B",
"^  c #000071",
"/  c #0000D1",
"(  c #0000B6",
")  c blue",
"_  c #000058",
"`  c white",
"'  c #000040",
"]  c #000040",
"[  c black",
"{  c #000041",
"}  c black",
"|  c black",
" . c #000040",
".. c #64737D",
"X. c #000040",
"o. c #627676",
"O. c #63737E",
"+. c black",
"@. c #64747C",
"#. c black",
"$. c #63747D",
"%. c #62747D",
"&. c black",
"*. c black",
"=. c black",
"-. c black",
";. c black",
":. c #64767C",
">. c black",
",. c black",
"<. c black",
"1. c black",
"2. c black",
"3. c black",
"4. c #63747D",
"5. c black",
"6. c black",
"7. c black",
"8. c black",
"9. c black",
"0. c black",
"q. c black",
"w. c #0000A0",
"e. c #0000F8",
"r. c #000078",
"t. c black",
"y. c #0000E0",
"u. c #000070",
"i. c #F8F800",
"p. c #C0C000",
"a. c #C87848",
"s. c #0000B8",
"d. c #F09058",
"f. c #986038",
"g. c #A8A800",
"h. c #F89860",
"j. c #F8B890",
"k. c #F8C0A0",
"l. c #F8B080",
"z. c #D08050",
"x. c #885830",
"c. c #F8B898",
"v. c #F8A070",
"b. c #F8C8B0",
"n. c #F8D8C0",
"m. c #E88858",
"M. c #805028",
"N. c #282828",
"B. c #D88850",
"V. c #000098",
"C. c #202020",
"Z. c gray22",
"A. c #B07040",
"S. c #A06038",
"D. c #905830",
"F. c #000048",
"G. c #C0C0C0",
"H. c #606060",
"J. c gray66",
"K. c #000040",
"L. c #0000D0",
"P. c #0000B0",
"I. c #000088",
"U. c #000060",
"Y. c #484848",
"T. c #000058",
"R. c gray44",
"E. c #505050",
"W. c #0000C8",
"Q. c #584020",
"!. c #63747D",
"~. c #0000E8",
"^. c white",
/* pixels */
"                                                                                                                                  ",
"                                                                                                                                  ",
"                                                                                                                                  ",
"                                                                                                                                  ",
"                                                                                                                                  ",
"                                                                                                                                  ",
"                                                                                                                                  ",
"                                                                                                                                  ",
"                                                                  . X o O +                                                       ",
"                                                              . @ w.w.w.e.# $                                                     ",
"                                                          % & w.w.w.w.e.r.t.*                                                     ",
"                                                          = y.w.w.w.y.r.t.t.t.-                                                   ",
"                                                          ; u.y.y.y.r.t.t.t.t.:                                                   ",
"                                                          ; u.u.u.u.t.t.t.t.t.>                                                   ",
"                                                          , i.u.u.u.t.t.t.t.p.<                                                   ",
"                                                          1 i.a.s.a.d.f.s.a.g.2                                                   ",
"                                                          3 h.j.k.l.z.x.c.j.z.4                                                   ",
"                                                          5 h.j.l.v.v.v.v.v.z.6                                                   ",
"                                                          7 h.j.d.b.n.n.j.m.z.8 9                                                 ",
"                                                        0 t.h.j.d.v.v.v.d.m.M.t.q                                                 ",
"                                                    w e t.t.N.v.v.v.a.v.m.B.N.t.t.r                                               ",
"                                                t y V.C.N.N.Z.A.A.S.S.D.D.M.N.t.F.F.u                                             ",
"                                              i p s.s.N.N.C.G.H.t.t.M.t.t.J.H.F.u.u.F.a %                                         ",
"                                            s d s.s.s.C.C.C.t.t.t.u.K.K.u.t.t.u.u.u.u.u.f                                         ",
"                                          g s.e.L.P.s.C.t.t.I.I.I.I.K.I.I.I.I.I.I.I.u.u.F.h                                       ",
"                                        j k e.L.L.P.V.t.t.t.F.u.u.I.K.I.I.I.I.V.V.u.V.I.u.l %                                     ",
"                                        z e.e.L.P.V.K.K.t.t.t.U.U.U.K.U.U.U.u.u.u.V.I.u.I.u.x                                     ",
"                                      j P.P.L.P.P.K.K.K.t.t.t.t.F.F.K.F.K.r.r.r.U.I.w.w.u.u.c                                     ",
"                                      v e.e.e.e.u.K.K.Y.Y.Y.t.t.t.F.K.K.K.K.K.K.T.w.s.w.w.u.b                                     ",
"                                      n P.L.e.e.e.u.Y.H.R.R.E.E.t.K.K.K.K.K.K.K.w.w.s.w.I.F.m                                     ",
"                                      j L.L.R.R.I.H.Y.Y.E.H.R.R.E.E.Y.t.t.K.K.K.w.w.s.w.r.F.M                                     ",
"                                        z Y.Y.V.z.Y.Z.Z.Z.Y.E.H.H.R.R.E.Y.t.t.F.w.W.I.w.u.u.N                                     ",
"                                        B V L.z.z.S.S.M.K.Z.Y.Y.Y.E.H.R.R.E.Y.L.L.L.L.u.F.F.C                                     ",
"                                          Z w.z.z.S.Q.Q.K.H.E.Z.t.t.Y.E.H.R.R.E.Y.R.r.L.u.A 9                                     ",
"                                            S z.z.S.S.Q.K.H.H.Z.t.t.Z.Z.Y.E.H.R.R.C.u.u.u.D                                       ",
"                                            9 F M.M.M.Q.K.E.H.Z.K.K.z.S.M.Z.Y.Y.H.C.F.F.F.G                                       ",
"                                                H I.I.u.K.K.K.K.K.K.z.z.S.S.M.F.F.F.F.F.J %                                       ",
"                                                K !.P.I.I.I.u.u.U.U.z.z.S.S.M.K.F.F.F.L P                                         ",
"                                                  I P.r.r.r.r.r.r.r.M.M.M.M.Q.K.K.K.K.H                                           ",
"                                                  U r.V.L.L.L.L.V.V.T.T.K.U.U.T.T.K.t.Y                                           ",
"                                                  T W.L.y.~.~.~.L.V.T.T.K.K.K.K.K.t.t.K                                           ",
"                                                  R W.L.y.~.~.~.L.V.V.F.K.K.F.T.T.K.t.$                                           ",
"                                                  E W.y.e.e.e.e.~.L.V.F.K.F.F.T.T.K.K.W                                           ",
"                                                  Q W.y.e.e.e.e.~.L.V.F.K.T.U.U.U.T.K.!                                           ",
"                                                  ~ W.e.e.e.e.e.~.W.V.U.K.T.U.U.U.T.K.9                                           ",
"                                                  ^ W.e.e.e.e.e.e.W.V.U.K.T.U.U.U.T.K.9                                           ",
"                                                  / ~.W.W.W.W.W.W.e.W.V.K.T.U.r.r.T.K.!                                           ",
"                                                  ( ~.W.P.P.P.P.W.~.e.V.K.T.U.T.T.r.K.%                                           ",
"                                                  ) W.r.V.V.V.V.T.r.s.V.K.T.T.F.F.K._                                             ",
"                                                  ` K.r.I.I.I.I.r.K.U.U.K.K.K.K.K.K.'                                             ",
"                                                    K.F.r.r.r.r.U.K.t.t.K.K.K.K.K.K.]                                             ",
"                                                    [ F.F.F.F.F.F.K.t.t.t.K.K.K.K.K.{                                             ",
"                                                    } t.t.t.t.t.t.t.t.t.t.t.t.t.t.t.|                                             ",
"                                                     .t.t.t.t.t.t.t.t.t.t.t.t.t.t.t...                                            ",
"                                                    X.K.t.t.t.t.t.t.t.t.t.t.t.t.t.t.o.                                            ",
"                                                    O.K.K.t.t.t.t.t.t.K.K.K.t.t.t.+.%                                             ",
"                                                    @.t.t.t.t.t.t.t.!.t.K.t.t.t.t.#.                                              ",
"                                                    $.K.t.t.t.t.t.t.!.t.t.t.t.t.t.%.                                              ",
"                                                    &.K.K.t.t.t.t.t.!.K.K.K.t.t.t.*.                                              ",
"                                                    =.K.K.K.t.t.t.t.!.t.t.t.t.t.t.-.W                                             ",
"                                                    ;.K.K.K.K.K.t.t.t.K.K.K.t.t.t.t.:.                                            ",
"                                                      >.,.<.1.2.3.4.K.K.K.K.K.K.K.t.5.                                            ",
"                                                                    6.7.} [ 8.8.9.0.q.                                            ",
"                                                                                                                                  ",
"                                                                                                                                  "
};
