/* XPM */
static char *_[] = {
/* columns rows colors chars-per-pixel */
"65 65 173 2 ",
"   c black",
".  c #558080",
"X  c #00009F",
"o  c #0000C8",
"O  c #0000C7",
"+  c #808080",
"@  c #717171",
"#  c #000098",
"$  c None",
"%  c black",
"&  c #55AAAA",
"*  c black",
"=  c #00009F",
"-  c black",
";  c #000071",
":  c black",
">  c #000070",
",  c black",
"<  c #000070",
"1  c #62737E",
"2  c #B07040",
"3  c #895732",
"4  c #805027",
"5  c #674621",
"6  c #AF6F40",
"7  c #885731",
"8  c white",
"9  c #63747D",
"0  c #65757A",
"q  c #6A6A80",
"w  c #00003F",
"e  c #62727C",
"r  c #627689",
"t  c #000098",
"y  c #63757D",
"u  c #000099",
"i  c #667780",
"p  c #000098",
"a  c #000048",
"s  c #408080",
"d  c #0000B7",
"f  c #000048",
"g  c #0000B4",
"h  c #000070",
"j  c #0000F8",
"k  c #00006B",
"l  c #0000B0",
"z  c #000089",
"x  c #0000B0",
"c  c #00008B",
"v  c #0000F8",
"b  c #000070",
"n  c #0000B0",
"m  c #000088",
"M  c #0000B0",
"N  c #000088",
"B  c #0000B1",
"V  c #000048",
"C  c #0000B0",
"Z  c #000070",
"A  c #815128",
"S  c #805028",
"D  c #000070",
"F  c #657280",
"G  c #000088",
"H  c #000048",
"J  c #61757D",
"K  c #627680",
"L  c #607580",
"P  c #627676",
"I  c #608080",
"U  c cyan",
"Y  c black",
"T  c #000078",
"R  c black",
"E  c #000078",
"W  c black",
"Q  c #000060",
"!  c #61747D",
"~  c #64747C",
"^  c #66757C",
"/  c #000087",
"(  c #5E7979",
")  c #0000A1",
"_  c #000040",
"`  c #0000D1",
"'  c navy",
"]  c #000088",
"[  c #000040",
"{  c #00004A",
"}  c black",
"|  c #6B7986",
" . c black",
".. c #668080",
"X. c #63747D",
"o. c #65737D",
"O. c #68717B",
"+. c #000040",
"@. c #666680",
"#. c #000041",
"$. c black",
"%. c blue",
"&. c black",
"*. c black",
"=. c #627180",
"-. c #64737D",
";. c #000040",
":. c black",
">. c black",
",. c black",
"<. c #63727E",
"1. c #697887",
"2. c #000048",
"3. c black",
"4. c gray22",
"5. c #373737",
"6. c #5555AA",
"7. c #6D6D6D",
"8. c #607080",
"9. c #60717D",
"0. c #63737D",
"q. c #63757D",
"w. c #5E717B",
"e. c #6A8080",
"r. c #0000A0",
"t. c #0000F8",
"y. c #000078",
"u. c black",
"i. c #0000E0",
"p. c #000070",
"a. c #F8F800",
"s. c #C0C000",
"d. c #C87848",
"f. c #0000B8",
"g. c #F09058",
"h. c #986038",
"j. c #A8A800",
"k. c #F89860",
"l. c #F8B890",
"z. c #F8C0A0",
"x. c #F8B080",
"c. c #D08050",
"v. c #885830",
"b. c #F8B898",
"n. c #F8A070",
"m. c #000040",
"M. c #F8C8B0",
"N. c #F8D8C0",
"B. c #E88858",
"V. c #282828",
"C. c #805028",
"Z. c #000098",
"A. c #202020",
"S. c #D88850",
"D. c #000060",
"F. c #C0C0C0",
"G. c #B07040",
"H. c #A06038",
"J. c #905830",
"K. c #606060",
"L. c gray22",
"P. c #000048",
"I. c #0000D0",
"U. c #0000B0",
"Y. c gray66",
"T. c #000088",
"R. c #000058",
"E. c gray44",
"W. c #505050",
"Q. c #484848",
"!. c #584020",
"~. c #483818",
"^. c white",
/* pixels */
"                                                                                                                                  ",
"                                                                                                                                  ",
"                                                                                                                                  ",
"                                                                                                                                  ",
"                                                                                                                                  ",
"                                                                                                                                  ",
"                                                                                                                                  ",
"                                                                                                                                  ",
"                                                                                                                                  ",
"                                                                                                                                  ",
"                                                                                                                                  ",
"                                                                  . X o O +                                                       ",
"                                                              @ # $ r.r.t.% &                                                     ",
"                                                          * = r.r.r.r.t.y.u.-                                                     ",
"                                                          ; i.r.r.r.i.y.u.u.u.:                                                   ",
"                                                          > p.i.i.i.y.u.u.u.u.,                                                   ",
"                                                          < p.p.p.p.u.u.u.u.u.1                                                   ",
"                                                          2 a.p.p.p.u.u.u.u.s.3                                                   ",
"                                                          4 a.d.f.d.g.h.f.d.j.5                                                   ",
"                                                          6 k.l.z.x.c.v.b.l.c.7                                                   ",
"                                                        8 9 k.l.x.n.n.n.n.n.c.0                                                   ",
"                                                      q w m.k.l.g.M.N.N.l.B.c.e                                                   ",
"                                                  r t m.V.u.k.l.g.n.n.n.g.B.C.y                                                   ",
"                                              * u Z.y.m.V.A.A.n.n.n.d.n.B.S.V.u.i                                                 ",
"                                            * p f.f.D.V.A.A.F.G.G.H.H.J.J.C.V.u.a s                                               ",
"                                            d f.f.f.m.A.A.m.K.L.u.C.C.u.u.u.u.P.P.f *                                             ",
"                                          g f.t.I.U.m.A.A.m.u.u.p.u.m.u.Y.K.u.p.p.p.h                                             ",
"                                        8 j t.I.U.Z.P.u.u.m.m.T.P.m.u.u.u.p.p.p.T.T.p.k                                           ",
"                                        l U.I.U.Z.y.P.m.u.u.m.p.P.R.y.T.T.T.T.P.D.p.p.z                                           ",
"                                        x t.t.U.p.D.D.m.u.u.m.P.P.R.y.D.D.P.P.P.p.T.T.p.c                                         ",
"                                        v I.m.K.E.W.m.m.u.u.u.m.P.R.y.P.y.y.y.p.T.T.r.T.b                                         ",
"                                        n t.Q.K.E.E.Q.m.u.u.u.u.m.m.m.m.m.m.m.T.f.r.r.T.m                                         ",
"                                        M I.Q.W.K.K.K.W.m.u.u.u.u.m.m.m.m.m.T.f.f.r.r.T.N                                         ",
"                                        x Z.c.Q.W.W.E.E.W.u.u.u.u.u.m.m.m.m.T.f.f.r.r.T.y.8                                       ",
"                                        B U.c.H.Q.W.K.E.E.W.u.u.u.u.u.m.m.m.T.f.f.r.T.T.p.+                                       ",
"                                        . U.c.H.K.K.Q.W.K.E.W.L.u.u.u.u.u.u.T.f.r.T.T.p.V                                         ",
"                                          C c.H.K.K.L.Q.Q.W.K.W.L.u.u.u.y.y.U.p.I.T.y.T.Z                                         ",
"                                          * A S C.K.Q.p.Q.Q.W.K.E.Q.p.I.I.I.I.U.p.p.p.p.D                                         ",
"                                                F K.W.p.m.W.Q.W.K.K.W.U.U.U.U.p.U.p.P.P.@                                         ",
"                                                  G T.p.m.m.c.Q.Q.Q.!.p.p.p.p.P.P.P.P.H                                           ",
"                                                  J Z.T.T.T.c.c.C.!.~.P.P.P.P.m.P.P.P.K                                           ",
"                                                  L Z.r.Z.T.C.C.C.!.~.P.P.P.P.m.m.u.u.P                                           ",
"                                                  I T.Z.U.Z.!.!.!.~.~.m.m.m.m.m.m.m.u.U                                           ",
"                                                  + T.Z.f.U.r.Z.T.T.R.R.u.m.m.m.m.m.Y                                             ",
"                                                    T Z.f.f.f.U.Z.Z.p.R.u.u.u.u.u.u.R                                             ",
"                                                    E Z.f.f.f.f.f.Z.p.R.m.m.m.u.u.u.W                                             ",
"                                                    Q Z.f.f.f.f.f.U.y.R.m.m.m.m.m.u.!                                             ",
"                                                    ~ Z.f.f.f.f.f.U.T.D.m.P.m.m.m.m.^                                             ",
"                                                    / f.I.f.f.f.f.Z.T.D.m.m.m.m.m.m.(                                             ",
"                                                    ) I.T.f.f.f.f.I.U.R.R.m.m.m.m.m._                                             ",
"                                                    ` T.Z.Z.Z.Z.Z.p.I.T.m.m.m.m.m.m.'                                             ",
"                                                    ] T.Z.Z.Z.Z.Z.T.m.m.m.m.m.m.m.[                                               ",
"                                                    { P.T.Z.Z.Z.Z.y.m.m.m.m.m.m.m.}                                               ",
"                                                    | P.p.T.T.T.y.D.u.u.u.u.u.u.u. .                                              ",
"                                                    ..P.P.R.R.R.R.u.u.u.u.u.u.u.u.X.                                              ",
"                                                    s m.m.m.u.u.u.u.u.u.m.u.u.u.u.o.                                              ",
"                                                    * m.m.m.m.u.u.u.u.u.m.u.u.u.u.O.                                              ",
"                                                      +.m.m.m.u.u.u.u.u.u.u.u.u.u.@.                                              ",
"                                                      #.m.m.m.u.u.u.u.u.m.m.m.u.$.%.                                              ",
"                                                      &.u.u.m.u.u.u.u.u.m.m.m.u.*.                                                ",
"                                                      =.m.m.u.u.u.u.u.-.;.:.>.} ,.                                                ",
"                                                      <.u.m.m.u.u.u.u.1.                                                          ",
"                                                    * 2.m.m.m.m.u.u.u.3.*                                                         ",
"                                                    4.m.m.m.m.m.u.u.u.u.5.                                                        ",
"                                    * * + 6.7.8.9.0.L.m.m.m.m.u.u.u.u.u.L.q.<.w.e.. & + %.*                                       "
};
