/* XPM */
static char *_[] = {
/* columns rows colors chars-per-pixel */
"64 64 20 1 ",
"  c None",
". c #181818",
"X c #373737",
"o c #393939",
"O c gray25",
"+ c #5A5A5A",
"@ c #5A7878",
"# c #61747D",
"$ c #7B7B7B",
"% c #5B6D80",
"& c #606080",
"* c #6A6A80",
"= c #607080",
"- c #558080",
"; c #608080",
": c cyan",
"> c #808080",
", c gray74",
"< c #EFDECE",
"1 c white",
/* pixels */
"                                                                ",
"                                                                ",
"                                                                ",
"                                                                ",
"                                                                ",
"                                                                ",
"                                                                ",
"                                                                ",
"                                                                ",
"                                                                ",
"                                                                ",
"                                                                ",
"                                                                ",
"                                                                ",
"                                                                ",
"                                                                ",
"                                                                ",
"                                                                ",
"                                                                ",
"                                                                ",
"                                                                ",
"                                                                ",
"                                                                ",
"                                                                ",
"                                                                ",
"                                                                ",
"                                                                ",
"                                                                ",
"                                                                ",
"                                                                ",
"                                                                ",
"                                                                ",
"                                                                ",
"                                                                ",
"                                                                ",
"                                                                ",
"                                                                ",
"                                                                ",
"                                                                ",
"                          @X$,111,$X&                           ",
"                        oo+$$$$$$$$$+oo>                        ",
"                       o+++oo+++++oo+++o                        ",
"                      O$ooo..+$$$+..ooo$X                       ",
"                      $o++...$,,,$...++o$                       ",
"                      ++$,o.o,<1<,o.o,$++                       ",
"                      o$,<o.+,<1<,+.o<,$o:                      ",
"                     %+,11o.$,<1<,$.o11$+*                      ",
"                     #$,,,,,1111111,,,,,$#                      ",
"                    #+$$$$+++++++++++$$$$+=                     ",
"                   +$+oo..oo$,111,$oo..oo+$+                    ",
"                  ++oooo..o+,<111<,+o..oooo++                   ",
"                 oooo+,+..o+,<111<,+o..+,+oooo                  ",
"                 +o.+$,o..o$,<111<,$o..o,$+.o+                  ",
"                 o.o+$,o..o$,<111<,$o..o,$+o.o                  ",
"                 o.o$$$$$$$$$$$$$$$$$$$$$$$o.o                  ",
"                -o.o+$+o...............o+$+o.o-                 ",
"                #o+$o.ooooooo$o.o$ooooooo.o$+o#                 ",
"               =+$+oo++++++++$o.o$++++++++oo+$+=                ",
"              o$+o..o+++$++++$o.o$++++$+++o..o+$o               ",
"             o+o...o++++o++++,o.o,++++o++++o...o+o              ",
"            ; ..o..oooooooooo$o.o$oooooooooo..o.. ;             ",
"            o......o+++++++++$o.o$+++++++++o......o             ",
"           =.o....o++++$+++++$o.o$+++++$++++o....o.=            ",
"           o...o..o++++o+++++$o.o$+++++o++++o..o...o            "
};
