/* XPM */
static char *_[] = {
/* columns rows colors chars-per-pixel */
"64 64 23 1 ",
"  c None",
". c gray9",
"X c #181818",
"o c #373737",
"O c gray22",
"+ c gray25",
"@ c #5A5A5A",
"# c #5A7878",
"$ c #6D6D6D",
"% c #627676",
"& c #61727B",
"* c #7B7B7B",
"= c #5B6D80",
"- c #606080",
"; c #6A6A80",
": c #617380",
"> c #558080",
", c #6D8080",
"< c cyan",
"1 c #808080",
"2 c gray74",
"3 c #EFDECE",
"4 c white",
/* pixels */
"                                                                ",
"                                                                ",
"                                                                ",
"                                                                ",
"                                                                ",
"                                                                ",
"                                                                ",
"                                                                ",
"                                                                ",
"                                                                ",
"                                                                ",
"                                                                ",
"                                                                ",
"                                                                ",
"                                                                ",
"                                                                ",
"                                                                ",
"                                                                ",
"                                                                ",
"                                                                ",
"                                                                ",
"                                                                ",
"                                                                ",
"                                                                ",
"                                                                ",
"                                                                ",
"                                                                ",
"                                                                ",
"                                                                ",
"                                                                ",
"                                                                ",
"                                                                ",
"                                                                ",
"                          #o*24442*o-                           ",
"                        OO@*********@OO1                        ",
"                       O@@@OO@@@@@OO@@@O                        ",
"                      +*OOOXX@***@XXOOO*o                       ",
"                      *O@@XXX*222*XXX@@O*                       ",
"                      @@*2OXO23432OXO2*@@                       ",
"                      O*23OX@23432@XO32*O<                      ",
"                     =@244OX*23432*XO44*@;                      ",
"                     &*22222244444222222*&                      ",
"                    &@****@@@@@@@@@@@****@:                     ",
"                   @*@OOXXOO*24442*OOXXOO@*@                    ",
"                  @@OOOOXXO@2344432@OXXOOOO@@                   ",
"                 OOOO@2@XXO@2344432@OXX@2@OOOO                  ",
"                 @OX@*2OXXO*2344432*OXXO2*@XO@                  ",
"                 OXO@*2OXXO*2344432*OXXO2*@OXO                  ",
"                 OXO***********************OXO                  ",
"                >OXO@*@OXXXXXXXXXXXXXXXO@*@OXO>                 ",
"                &O@*OXOOOOOOO*OXO*OOOOOOOXO*@O&                 ",
"               &@*@OO@@@@@@@@*OXO*@@@@@@@@OO@*@&                ",
"              O*@OXXO@@@*@@@@*OXO*@@@@*@@@OXXO@*O               ",
"             O@OXXXO@@@@O@@@@2OXO2@@@@O@@@@OXXXO O              ",
"            1OXXOXXOOOOOOOOOO*OXO*OOOOOOOOOOXXOXXO1             ",
"            OXXXXXXO@@@@@@@@@*OXO*@@@@@@@@@OXXXXXXO             ",
"           $.OXXXXO@@@@*@@@@@*OXO*@@@@@*@@@@OXXXXO.$            ",
"           OXXXOXXO@@@@O@@@@@*OXO*@@@@@O@@@@OXXOXXXO            ",
"          %XXXXXXXOXOOOOOOOOO*OXO*OOOOOOOOOXOXXXXXXX%           ",
"          OXOXXXXXO**********2OXO2**********OXXXXXOXO           ",
"         ,XXXXOXXO@@@@@@@@@@@*OXO*@@@@@@@@@@@OXXOXXXX,          ",
"         OXXXXXXXO@@@@*@@@@@@*OXO*@@@@@@*@@@@OXXXXXXXO          ",
"        %XXOXXXX@@@@@@O@***************@O@@@@@@XXXXOXX%         ",
"        OXXXXXOOXOOOOOOO@XXXXXXXXXXXXX@OOOOOOOXOOXXXXXO         "
};
