/* XPM */
static char *_[] = {
/* columns rows colors chars-per-pixel */
"64 64 44 1 ",
"  c None",
". c #161616",
"X c #181818",
"o c gray20",
"O c #393939",
"+ c gray25",
"@ c #555555",
"# c #5A5A5A",
"$ c #5D7474",
"% c #5E717B",
"& c #5E7979",
"* c #627676",
"= c #63737B",
"- c #647A7A",
"; c #697878",
": c #717171",
"> c #7B7B7B",
", c #CC0000",
"< c #DE0000",
"1 c #874B2D",
"2 c #80552B",
"3 c #804E31",
"4 c #845231",
"5 c #F75A08",
"6 c #FF600B",
"7 c #EF7B18",
"8 c #F7B521",
"9 c #EFA573",
"0 c #556A80",
"q c #606080",
"w c #6A6A80",
"e c #657280",
"r c #71718E",
"t c #666699",
"y c blue",
"u c #558080",
"i c #668080",
"p c #6A8080",
"a c #55AAAA",
"s c #808080",
"d c gray74",
"f c #EFBD9C",
"g c #EFDECE",
"h c white",
/* pixels */
"                                                                ",
"                                                                ",
"                                                                ",
"                                                                ",
"                                                                ",
"                                                                ",
"                                                                ",
"                                                                ",
"                                                                ",
"                                                                ",
"                                                                ",
"                                                                ",
"                                                                ",
"                                                                ",
"                                                                ",
"                                                                ",
"                                                                ",
"                             t<5e  s<y                          ",
"                       <5ee*=<575<=<5<                          ",
"                      -5<5<7<77775<5<5e                         ",
"                    q< 75<757778775<5<<==,                      ",
"                   <555<7755878h8785<5<<5<6                     ",
"                  s5<7<7<858788g88785855<5<;                    ",
"                  5<5<7<858788ghg88785858<7<s                   ",
"                 &5555785878g8gghg887858<8<5<                   ",
"                 5<57775878g8ghhggg8g787878775                  ",
"                =<75788878g8ggghhg8g8g8g88887<;                 ",
"               =<7<858g88g8ggghhghggg8ggghg778<i                ",
"              =<7<7588hgg8gghghhhghghfghgg87878=u               ",
"            s=<7<8<858ghghghghhhhhghhghgh87878<7=u              ",
"           *<<5<85878g8ghghhhhhhhhhhhhhhg8g7878<7<w             ",
"          <<<5<758g8g8gghhhd>dhhhd>dhhhg8g8g8858<7<%            ",
"        e<<<5758888g8gghd>#>>>>>>>>>#>dgg8g8878785<<=           ",
"      s<5<55<57778g8g8gd###OO#####OO###dgg8g78785<7<5<i         ",
"     =<<<5<55<75888g8gd>OOOXX#>>>#XXOOO>dhg88785<7<4<5<<u       ",
"    <<<<5<55<758<85ghg>O##XXX>ddd>XXX##O>hhg887<5<4<4<<<42      ",
"     e<5<5<4557588ghgh##>dOXOdghgdOXOd>##hhh8585<5<4<544@       ",
"      s<5<5<<7587gggggO>dgOX#dghgd#XOgd>O8ghg8555<4444r         ",
"        =<<45<77888878#dhhOX>dghgd>XOhh>#588858<5444=           ",
"         =4<45<8788787>ddddddfhhhfdddddd>858<855444=            ",
"         :44<<578775<#>>>>###########>>>>#8<5<4<444s            ",
"          4444<57<7#>#OOXXOO>dhhhd>OOXXOO#>#<4<4444             ",
"          u44<4447##OOOOXXO#dghhhgd#OXXOOOO##<444<4             ",
"           444<44OOOO>d#XXO#dghhhgd#OXX#d>OOOO44<43             ",
"           a4<4<4#OX#>dOXXO>dghhhgd>OXXOd>#XO#4<44              ",
"            14<44OXO#>dOXXO>dghhhgd>OXXOd>#OXO444               ",
"             s444OXO>>>>>>>9fhhhhhf9>>>>>>>OXO4=                ",
"                =OXO#>#OXXXXXXXXXXXXXXXO#>#OXO0                 ",
"                uO#>OXOOOOOOO>OXO>OOOOOOOXO>#O$                 ",
"               =#>#OO########>OXO>########OO#>#e                ",
"              O>#OXXO###>####>OXO>####>###OXXO#>O               ",
"             o#OXXXO####O####dOXOd####O####OXXXO#+              ",
"             OXXOXXOOOOOOOOOO>OXO>OOOOOOOOOOXXOXXO              ",
"            OXXXXXXO#########>OXO>#########OXXXXXXO             ",
"           s.OXXXXO####>#####>OXO>#####>####OXXXXOXt            ",
"           OXXXOXXO####O#####>OXO>#####O####OXXOXXXO            ",
"          wXXXXXXXOXOOOOOOOOO>OXO>OOOOOOOOOXOXXXXXXXp           ",
"          OXOXXXXXO>>>>>>>>>>dOXOd>>>>>>>>>>OXXXXXOXO           ",
"         &XXXXOXXO###########>OXO>###########OXXOXXXX;          ",
"         OXXXXXXXO####>######>OXO>######>####OXXXXXXXO          ",
"        iXXOXXXX######O#>>>>>>>>>>>>>>>#O######XXXXOXX;         ",
"        OXXXXXOOXOOOOOOO#XXXXXXXXXXXXX#OOOOOOOXOOXXXXXO         ",
"        XXXXOOXXXXOO#OOO#XXXXXXXXXXXXX#OOO#OOXXXXOOXXXXe        ",
"        X.OO.XXX.XXOXOOO#XX.XXXXXXXXXX#OOOXOXXXXXXXOOXXO        "
};
