/* XPM */
static char *_[] = {
/* columns rows colors chars-per-pixel */
"63 64 41 1 ",
"  c None",
". c gray9",
"X c #181818",
"o c #373737",
"O c #393939",
"+ c #555555",
"@ c #5A5A5A",
"# c #5A7878",
"$ c #667777",
"% c #64747E",
"& c #667A7A",
"* c #717171",
"= c #7B7B7B",
"- c #DE0000",
"; c #E00000",
": c #844F2C",
"> c #804D33",
", c #894E3B",
"< c #835231",
"1 c #8E5539",
"2 c #F75A08",
"3 c #EF7B18",
"4 c #F7B521",
"5 c #EFA573",
"6 c #556A80",
"7 c #666680",
"8 c #6A6A80",
"9 c #667380",
"0 c #687880",
"q c #627689",
"w c #666699",
"e c #558080",
"r c #608080",
"t c #6D8080",
"y c #55AAAA",
"u c cyan",
"i c #808080",
"p c gray74",
"a c #EFBD9C",
"s c #EFDECE",
"d c white",
/* pixels */
"                                                               ",
"                                                               ",
"                                                               ",
"                                                               ",
"                                                               ",
"                                                               ",
"                                                               ",
"                                                               ",
"                                                               ",
"                                                               ",
"                                                               ",
"                                                               ",
"                                                               ",
"                             i;<-                              ",
"                            9-22<-y                            ",
"                           2-2242--9                           ",
"                         e2-2-333--2%                          ",
"                        9<-2-243422-2-y                        ",
"                      i-<-3-33344322-2-%                       ",
"                    i%-2-3-4344s44322-3-%w                     ",
"                   <-<2-4-4344sdss42-4-4-2-u                   ",
"                  *-<2-4-424s4sds4s32-3-4-2-%                  ",
"                  -2--2-3-4s4sdsds4424-4-3-2-->                ",
"                 %2-22-4-43ssssdsss43232322-2<-,               ",
"                ;2-2-242424s4ddsds4s43233322-22-               ",
"               %2-2-223443s4sdddsds4s434432-2--<%              ",
"              ; -2-3234s444sdsdddsds44s4s422--<-<              ",
"             i2-22323234ssssddddddddssds424-2--<-i             ",
"             --223243424sdsdsdddddsdsdsss4-2-2--<%             ",
"            r<2-323343s4ssdsdddddsdddsss424-4-2<-<+            ",
"            <--223343s4ssdsdsdddddsdsds4s42424-2<-<            ",
"            -<--234344sddsdp=pdddp=pdsdss443422-2<-            ",
"           -<-2233343sddp=@=========@=pdss444322-2<7           ",
"           i-<2-222244d=@@@OO@@@@@OO@@@=s4s4222-2<-:           ",
"            <--2-2-434p=OOX@==OXO==@XOO=ps434--2<-<9           ",
"            %<2<2-2343=O@XO=p=OXO=p=OX@O=3442-2-2<-<           ",
"            %-<2<23433@@=X@=s=OXO=s=@X=@@44432-2-<<%           ",
"            <<--<2<324O@pO@=d=OXO=d=@Op@O343432-<<<%           ",
"            <<<<-<2<43O@d@=pd=OXO=dp=@d@O434343<<<<<           ",
"            <<2<<-<324=pppp45addda54pppp=3<3<3<2<<<1           ",
"            <-<2<<323@====@@@@@@@@@@@====@3<3<-<-<<i           ",
"            d<<<<-<@=@OO@=pp=@OXO@=pp=@OO@=@<2<<<<<            ",
"             i<<<<@@OOOO@ppsp=OXO=pspp@OOOO@@<<<<<             ",
"               <<OOOO@XO@ppdp=OXO=pdpp@OX@OOOO<<$              ",
"               i%@OXO@XO@psdp=OXO=pdsp@OX@OXO@%                ",
"                %OXXO@XO=ssdp=OXO=pdss=OX@OXXO6                ",
"                wOXX======35addddda53======XXO                 ",
"                iOXX@@@OXXXXXXXXXXXXXXXO@@@XXOi                ",
"                &O@=OXOOOOOOO=OXO=OOOOOOOXO=@O0                ",
"               9@=@OO@@@@@@@@=OXO=@@@@@@@@OO@=@%               ",
"              O=@OXXO@@@=@@@@=OXO=@@@@=@@@OXXO@=o              ",
"             O@OXXXO@@@@O@@@@pOXOp@@@@O@@@@OXXXO@o             ",
"             OXXOXXOOOOOOOOOO=OXO=OOOOOOOOOOXXOXXO             ",
"            OXXXXXXO@@@@@@@@@=OXO=@@@@@@@@@OXXXXXXO            ",
"           eXOXXXXO@@@@=@@@@@=OXO=@@@@@=@@@@OXXXXO.i           ",
"           OXXXOXXO@@@@O@@@@@=OXO=@@@@@O@@@@OXXOXXXO           ",
"          6XXXXXXXOXOOOOOOOOO=OXO=OOOOOOOOOXOXXXXXXX8          ",
"          OXOXXXXXO==========pOXOp==========OXXXXXOXO          ",
"         qXXXXOXXO@@@@@@@@@@@=OXO=@@@@@@@@@@@OXXOXXXX#         ",
"         OXXXXXXXO@@@@=@@@@@@=OXO=@@@@@@=@@@@OXXXXXXXO         ",
"        tXXOXXXX@@@@@@O@===============@O@@@@@@XXXXOXXr        ",
"        OXXXXXOOXOOOOOOO@XXXXXXXXXXXXX@OOOOOOOXOOXXXXXO        ",
"       $XXXXOOXXXXOO@OOO@XXXXXXXXXXXXX@OOO@OOXXXXOOXXXX        ",
"       OXXOOXXXXXXXOXOOO@XXXXXXXXXX.XX@OOOXOXX.XXX.OO.X        "
};
