/* XPM */
static char *out[] = {
/* columns rows colors chars-per-pixel */
"113 151 10 1 ",
"  c None",
". c #04193F",
"X c #021A43",
"o c #03396B",
"O c #C3242F",
"+ c #E7333B",
"@ c #0696DB",
"# c #0FEFFB",
"$ c #DDDDDD",
"% c white",
/* pixels */
"                                                                                                                 ",
"                                                                                                                 ",
"                                                                                                                 ",
"                                                                                                                 ",
"                                                                                                                 ",
"                                                                                                                 ",
"                                                                                                                 ",
"                                                                                                                 ",
"                                                                                                                 ",
"                                                                                                                 ",
"                                                                                                                 ",
"                                                                                                                 ",
"                                                                                                                 ",
"                                                                                                                 ",
"                                                                                                                 ",
"                                                                                                                 ",
"                                                                                                                 ",
"                                                                                                                 ",
"                                                                                                                 ",
"                                                                                                                 ",
"                                                                                                                 ",
"                                                                                                                 ",
"                                                                                                                 ",
"                                                                                                                 ",
"                                                                                                                 ",
"                                                                                                                 ",
"                                                                                                                 ",
"                                                                                                                 ",
"                                                                                                                 ",
"                                                                                                                 ",
"                                             .........................                                           ",
"                                             .........................                                           ",
"                                             .........................                                           ",
"                                             .........................                                           ",
"                                            $.........................$                                          ",
"                                    .........###############@@@@@@@@@@.........                                  ",
"                                   ..........###############@@@@@@@@@@..........                                 ",
"                                   ..........###############@@@@@@@@@@..........                                 ",
"                                   ..........###############@@@@@@@@@@..........                                 ",
"                                  $..........###############@@@@@@@@@@..........$                                ",
"                               ....##############################@@@@@oooooooooo....                             ",
"                              .....##############################@@@@@oooooooooo.....                            ",
"                              .....##############################@@@@@oooooooooo.....                            ",
"                              .....##############################@@@@@oooooooooo.....                            ",
"                             $.....##############################@@@@@oooooooooo.....$                           ",
"                          ....###################################..........oooooooooo....                        ",
"                         .....###################################..........oooooooooo.....                       ",
"                         .....###################################..........oooooooooo.....                       ",
"                         .....###################################..........oooooooooo.....                       ",
"                        $.....###################################..........oooooooooo.....$                      ",
"                     ....########################################..........ooooooooooooooo....                   ",
"                    X....########################################..........ooooooooooooooo.....                  ",
"                    .....########################################..........ooooooooooooooo.....                  ",
"                    .....########################################..........ooooooooooooooo.....                  ",
"                    .....########################################..........ooooooooooooooo.....                  ",
"                    .....###############...............##########@@@@@@@@@@oooooooooo..........                  ",
"                    .....###############...............##########@@@@@@@@@@oooooooooo..........                  ",
"                    .....###############...............##########@@@@@@@@@@oooooooooo..........                  ",
"                    .....###############...............##########@@@@@@@@@@oooooooooo..........                  ",
"                   $.....###############...............##########@@@@@@@@@@oooooooooo..........$                 ",
"               .....###############..........%%%%%%%%%%.....#####@@@@@@@@@@@@@@@..........%%%%%.....             ",
"               .....###############..........%%%%%%%%%%.....#####@@@@@@@@@@@@@@@..........%%%%%.....             ",
"               .....###############..........%%%%%%%%%%.....#####@@@@@@@@@@@@@@@..........%%%%%.....             ",
"               .....###############..........%%%%%%%%%%.....#####@@@@@@@@@@@@@@@..........%%%%%.....             ",
"               .....###############..........%%%%%%%%%%.....#####@@@@@@@@@@@@@@@..........%%%%%.....             ",
"               .....###############.........................#####@@@@@@@@@@@@@@@....................             ",
"               .....###############.........................#####@@@@@@@@@@@@@@@....................             ",
"               .....###############.........................#####@@@@@@@@@@@@@@@....................             ",
"               .....###############.........................#####@@@@@@@@@@@@@@@....................             ",
"               .....###############.........................#####@@@@@@@@@@@@@@@....................             ",
"               .....###############.........................#####@@@@@@@@@@@@@@@....................             ",
"               .....###############.........................#####@@@@@@@@@@@@@@@....................             ",
"               .....###############.........................#####@@@@@@@@@@@@@@@....................             ",
"               .....###############.........................#####@@@@@@@@@@@@@@@....................             ",
"               .....###############.........................#####@@@@@@@@@@@@@@@....................             ",
"               .....####################...............#####@@@@@@@@@@@@@@@@@@@@ooooo...............             ",
"               .....####################...............#####@@@@@@@@@@@@@@@@@@@@ooooo...............             ",
"               .....####################...............#####@@@@@@@@@@@@@@@@@@@@ooooo...............             ",
"               .....####################...............#####@@@@@@@@@@@@@@@@@@@@ooooo...............             ",
"               .....####################...............#####@@@@@@@@@@@@@@@@@@@@ooooo...............             ",
"               .....########################################@@@@@@@@@@@@@@@@@@@@ooooooooooooooo.....             ",
"               .....########################################@@@@@@@@@@@@@@@@@@@@ooooooooooooooo.....             ",
"               .....########################################@@@@@@@@@@@@@@@@@@@@ooooooooooooooo.....             ",
"               .....########################################@@@@@@@@@@@@@@@@@@@@ooooooooooooooo.....             ",
"               .....########################################@@@@@@@@@@@@@@@@@@@@ooooooooooooooo.....             ",
"                   $.....##############################@@@@@@@@@@@@@@@@@@@@ooooooooooooooo.....$                 ",
"                    .....##############################@@@@@@@@@@@@@@@@@@@@ooooooooooooooo.....                  ",
"                    .....##############################@@@@@@@@@@@@@@@@@@@@ooooooooooooooo.....                  ",
"                    .....##############################@@@@@@@@@@@@@@@@@@@@ooooooooooooooo.....                  ",
"                    .....##############################@@@@@@@@@@@@@@@@@@@@ooooooooooooooo.....                  ",
"                    .....####################@@@@@@@@@@@@@@@@@@@@..........ooooooooooooooo.....                  ",
"                    .....####################@@@@@@@@@@@@@@@@@@@@..........ooooooooooooooo.....                  ",
"                    .....####################@@@@@@@@@@@@@@@@@@@@..........ooooooooooooooo.....                  ",
"                    X....####################@@@@@@@@@@@@@@@@@@@@..........ooooooooooooooo.....                  ",
"                     ....####################@@@@@@@@@@@@@@@@@@@@..........ooooooooooooooo....                   ",
"                        $.....@@@@@@@@@@@@@@@@@@@@@@@@@@@@@@@@@@@@@@@@@@@@@oooooooooo.....$                      ",
"                         .....@@@@@@@@@@@@@@@@@@@@@@@@@@@@@@@@@@@@@@@@@@@@@oooooooooo.....                       ",
"                         .....@@@@@@@@@@@@@@@@@@@@@@@@@@@@@@@@@@@@@@@@@@@@@oooooooooo.....                       ",
"                         .....@@@@@@@@@@@@@@@@@@@@@@@@@@@@@@@@@@@@@@@@@@@@@oooooooooo.....                       ",
"                         .....@@@@@@@@@@@@@@@@@@@@@@@@@@@@@@@@@@@@@@@@@@@@@oooooooooo.....$                      ",
"     .........................OOOOOOOOOO@@@@@@@@@@@@@@@@@@@@@@@@@@@@@@ooooooooooooooo...................         ",
"     .........................OOOOOOOOOO@@@@@@@@@@@@@@@@@@@@@@@@@@@@@@ooooooooooooooo....................        ",
"     .........................OOOOOOOOOO@@@@@@@@@@@@@@@@@@@@@@@@@@@@@@ooooooooooooooo....................        ",
"     .........................OOOOOOOOOO@@@@@@@@@@@@@@@@@@@@@@@@@@@@@@ooooooooooooooo....................        ",
"    $.........................OOOOOOOOOO@@@@@@@@@@@@@@@@@@@@@@@@@@@@@@ooooooooooooooo....................$       ",
" ....@@@@@@@@@@@@@@@@@@@@@@@@@ooooo+++++OOOOOOOOOOOOOOOoooooooooooooooooooooooooOOOOO.....ooooooooooooooo....    ",
".....@@@@@@@@@@@@@@@@@@@@@@@@@ooooo+++++OOOOOOOOOOOOOOOoooooooooooooooooooooooooOOOOO.....ooooooooooooooo.....   ",
".....@@@@@@@@@@@@@@@@@@@@@@@@@ooooo+++++OOOOOOOOOOOOOOOoooooooooooooooooooooooooOOOOO.....ooooooooooooooo.....   ",
".....@@@@@@@@@@@@@@@@@@@@@@@@@ooooo+++++OOOOOOOOOOOOOOOoooooooooooooooooooooooooOOOOO.....ooooooooooooooo.....   ",
".....@@@@@@@@@@@@@@@@@@@@@@@@@ooooo+++++OOOOOOOOOOOOOOOoooooooooooooooooooooooooOOOOO.....ooooooooooooooo.....   ",
".....@@@@@@@@@@@@@@@@@@@@@@@@@@@@@@ooooo+++++++++++++++OOOOOOOOOOOOOOOOOOOOOOOOO+++++.....ooooooooooooooo.....   ",
".....@@@@@@@@@@@@@@@@@@@@@@@@@@@@@@ooooo+++++++++++++++OOOOOOOOOOOOOOOOOOOOOOOOO+++++.....ooooooooooooooo.....   ",
".....@@@@@@@@@@@@@@@@@@@@@@@@@@@@@@ooooo+++++++++++++++OOOOOOOOOOOOOOOOOOOOOOOOO+++++.....ooooooooooooooo.....   ",
".....@@@@@@@@@@@@@@@@@@@@@@@@@@@@@@ooooo+++++++++++++++OOOOOOOOOOOOOOOOOOOOOOOOO+++++.....ooooooooooooooo.....   ",
".....@@@@@@@@@@@@@@@@@@@@@@@@@@@@@@ooooo+++++++++++++++OOOOOOOOOOOOOOOOOOOOOOOOO+++++.....ooooooooooooooo.....   ",
".....@@@@@@@@@@@@@@@@@@@@@@@@@@@@@@@@@@@ooooo.....++++++++++++++++++++++++++++++.....oooooooooooooooooooo.....   ",
".....@@@@@@@@@@@@@@@@@@@@@@@@@@@@@@@@@@@ooooo.....++++++++++++++++++++++++++++++.....oooooooooooooooooooo.....   ",
".....@@@@@@@@@@@@@@@@@@@@@@@@@@@@@@@@@@@ooooo.....++++++++++++++++++++++++++++++.....oooooooooooooooooooo.....   ",
".....@@@@@@@@@@@@@@@@@@@@@@@@@@@@@@@@@@@ooooo.....++++++++++++++++++++++++++++++.....oooooooooooooooooooo.....   ",
" ....@@@@@@@@@@@@@@@@@@@@@@@@@@@@@@@@@@@ooooo.....++++++++++++++++++++++++++++++.....oooooooooooooooooooo....    ",
"    $....................oooooooooo@@@@@@@@@@ooooo..........+++++++++++++++..............................$       ",
"     ....................oooooooooo@@@@@@@@@@ooooo..........+++++++++++++++..............................        ",
"     ....................oooooooooo@@@@@@@@@@ooooo..........+++++++++++++++..............................        ",
"     ....................oooooooooo@@@@@@@@@@ooooo..........+++++++++++++++..............................        ",
"     ....................oooooooooo@@@@@@@@@@ooooo..........+++++++++++++++..............................        ",
"                         .....@@@@@@@@@@@@@@@@@@@@oooooooooo...............ooooo.....                            ",
"                         .....@@@@@@@@@@@@@@@@@@@@oooooooooo...............ooooo.....                            ",
"                         .....@@@@@@@@@@@@@@@@@@@@oooooooooo...............ooooo.....                            ",
"                         .....@@@@@@@@@@@@@@@@@@@@oooooooooo...............ooooo.....                            ",
"                         .....@@@@@@@@@@@@@@@@@@@@oooooooooo...............ooooo.....                            ",
"                         .....@@@@@@@@@@@@@@@@@@@@@@@@@ooooooooooooooooooooooooo.....                            ",
"                         .....@@@@@@@@@@@@@@@@@@@@@@@@@ooooooooooooooooooooooooo.....                            ",
"                         .....@@@@@@@@@@@@@@@@@@@@@@@@@ooooooooooooooooooooooooo.....                            ",
"                         .....@@@@@@@@@@@@@@@@@@@@@@@@@ooooooooooooooooooooooooo.....                            ",
"                         .....@@@@@@@@@@@@@@@@@@@@@@@@@ooooooooooooooooooooooooo.....                            ",
"                         .....@@@@@@@@@@@@@@@@@@@@@@@@@ooooooooooooooooooooooooo.....                            ",
"                         .....@@@@@@@@@@@@@@@@@@@@@@@@@ooooooooooooooooooooooooo.....                            ",
"                         .....@@@@@@@@@@@@@@@@@@@@@@@@@ooooooooooooooooooooooooo.....                            ",
"                         .....@@@@@@@@@@@@@@@@@@@@@@@@@ooooooooooooooooooooooooo.....                            ",
"                         .....@@@@@@@@@@@@@@@@@@@@@@@@@ooooooooooooooooooooooooo.....                            ",
"                         .....@@@@@@@@@@@@@@@@@@@@..........oooooooooooooooooooo.....                            ",
"                         .....@@@@@@@@@@@@@@@@@@@@..........oooooooooooooooooooo.....                            ",
"                         .....@@@@@@@@@@@@@@@@@@@@..........oooooooooooooooooooo.....                            ",
"                         .....@@@@@@@@@@@@@@@@@@@@..........oooooooooooooooooooo.....                            ",
"                         .....@@@@@@@@@@@@@@@@@@@@..........oooooooooooooooooooo.....                            ",
"                         .....@@@@@@@@@@@@@@@.....$   $.....ooooooooooooooo.....$                                ",
"                         .....@@@@@@@@@@@@@@@.....     .....ooooooooooooooo.....                                 ",
"                         .....@@@@@@@@@@@@@@@.....     .....ooooooooooooooo.....                                 ",
"                         .....@@@@@@@@@@@@@@@.....     .....ooooooooooooooo.....                                 ",
"                         .....@@@@@@@@@@@@@@@.....     .....ooooooooooooooo.....                                 ",
"                                                                                                                 "
};
