/* XPM */
static char *tile008[] = {
/* columns rows colors chars-per-pixel */
"65 66 82 1 ",
"  c black",
". c black",
"X c #B77648",
"o c #E06800",
"O c #E06700",
"+ c #B97746",
"@ c #BF754A",
"# c #6D6D6D",
"$ c #808080",
"% c #E16900",
"& c None",
"* c #B77848",
"= c #63757E",
"- c #63737D",
"; c #65737E",
": c #65737D",
"> c #5F757C",
", c #627676",
"< c #647680",
"1 c #62747D",
"2 c gray44",
"3 c gray70",
"4 c #00B1B1",
"5 c #00B0B0",
"6 c gray47",
"7 c #00B1B1",
"8 c #00C8C8",
"9 c #62757E",
"0 c #00ADAD",
"q c #005858",
"w c #63737B",
"e c #00B1B1",
"r c #584020",
"t c #573E1F",
"y c #00AEAE",
"u c #00C8C8",
"i c #57401D",
"p c blue",
"a c cyan",
"s c white",
"d c #555555",
"f c #808080",
"g c #558080",
"h c #5D7474",
"j c #617979",
"k c #64757E",
"l c #66757C",
"z c #666699",
"x c #E06800",
"c c #F88820",
"v c #C87848",
"b c #C86000",
"n c #A86840",
"m c #986038",
"M c #D0D0D0",
"N c #D8D8D8",
"B c #00B0B0",
"V c gray91",
"C c #984800",
"Z c #888888",
"A c #00F8F8",
"S c #C0C0C0",
"D c #885830",
"F c #484000",
"G c #307800",
"H c #383000",
"J c black",
"K c #00C8C8",
"L c #008080",
"P c #704828",
"I c #406000",
"U c #009800",
"Y c #485800",
"T c #009898",
"R c #00E0E0",
"E c #505050",
"W c #007070",
"Q c #005858",
"! c #503818",
"~ c #584020",
"^ c #63747D",
"/ c white",
/* pixels */
"                                                                 ",
"                                                                 ",
"                                                                 ",
"                                                                 ",
"                                                                 ",
"                                                                 ",
"                                                                 ",
"                                                                 ",
"                                                                 ",
"                                                                 ",
"                                                                 ",
"                                                                 ",
"                                                                 ",
"                                                                 ",
"                                                                 ",
"                                                                 ",
"                                                                 ",
"                                                                 ",
"                                                                 ",
"                                                                 ",
"                                                                 ",
"                                                                 ",
"                                                                 ",
"                                                                 ",
"                                                                 ",
"                                                                 ",
"                                                                 ",
"                                                                 ",
"                                                                 ",
"                                                                 ",
"                                                                 ",
"                                                                 ",
"                                                                 ",
"                                                                 ",
"                                                                 ",
"                                                                 ",
"                                                                 ",
"                                                                 ",
"                                                                 ",
"                                                                 ",
"                                                                 ",
"                                                                 ",
"                                                                 ",
"                                                                 ",
"                                                                 ",
"                                                                 ",
"                                                                 ",
"                                                                 ",
"                                                                 ",
"                                                                 ",
"                                                                 ",
"                                                                 ",
"                                                                 ",
"                                                                 ",
"                                                                 ",
"                                                                 ",
"                        .XooO+@#.                                ",
"                       $%xccvbbb&*=-;:>,.                        ",
"                      <1xcccvnmmmbbbMMMN23                       ",
"                   $45BMVVMxnnmmmmmCZZZZZ6                       ",
"                  78AAMVMVSSDDDDDDFGGGHHJJ9.                     ",
"                 0KABLMMSSZZPPPPPPPIIUYUJJTqw.                   ",
"                 eKRASVVVSMZZEFYGGGUHHHHJTTWQrt                  ",
"                 .yuKKKBBTTTTTLLLLLLWWWWLWWQ!!~i                 ",
"     ....pas$$dfghj9^QQQQQQQQQQQQQQQQQQQQQ!!!~~kl,z$p            ",
"                                                                 "
};
