/* XPM */
static char *tile009[] = {
/* columns rows colors chars-per-pixel */
"65 66 62 1 ",
"  c black",
". c gray77",
"X c gray91",
"o c gray91",
"O c #E9E9E9",
"+ c #E7E7E7",
"@ c gray91",
"# c gray91",
"$ c None",
"% c gray91",
"& c gray91",
"* c gray91",
"= c #E7E7E7",
"- c gray81",
"; c #808080",
": c gray81",
"> c gray81",
", c #555555",
"< c #D0D0D0",
"1 c #D0D0D0",
"2 c gray82",
"3 c white",
"4 c gray80",
"5 c gray81",
"6 c gray40",
"7 c #D7D7D7",
"8 c #63747D",
"9 c #60717D",
"0 c #AFAFAF",
"q c #584020",
"w c #594020",
"e c #71718E",
"r c #583F21",
"t c #6D6D6D",
"y c #594020",
"u c #584020",
"i c #63747D",
"p c #64727B",
"a c #667380",
"s c #6D6D92",
"d c black",
"f c gray91",
"g c #E80000",
"h c #C80000",
"j c #E00000",
"k c #D8D8D8",
"l c gray69",
"z c #505050",
"x c #202020",
"c c #484848",
"v c gray44",
"b c #888888",
"n c #584020",
"m c #989898",
"M c gray47",
"N c #503818",
"B c #000078",
"V c #000070",
"C c #483818",
"Z c #000060",
"A c #000048",
"S c white",
/* pixels */
"                                                                 ",
"                                                                 ",
"                                                                 ",
"                                                                 ",
"                                                                 ",
"                                                                 ",
"                                                                 ",
"                                                                 ",
"                                                                 ",
"                                                                 ",
"                                                                 ",
"                                                                 ",
"                                                                 ",
"                                                                 ",
"                                                                 ",
"                                                                 ",
"                                                                 ",
"                                                                 ",
"                                                                 ",
"                                                                 ",
"                                                                 ",
"                                                                 ",
"                                                                 ",
"                                                                 ",
"                                                                 ",
"                                                                 ",
"                                                                 ",
"                                                                 ",
"                                                                 ",
"                                                                 ",
"                                                                 ",
"                                                                 ",
"                                                                 ",
"                                                                 ",
"                                                                 ",
"                                                                 ",
"                                                                 ",
"                                                                 ",
"                                                                 ",
"                                                                 ",
"                                                                 ",
"                                                                 ",
"                                                                 ",
"                                                                 ",
"                                                                 ",
"                                                                 ",
"                                                                 ",
"                                                                 ",
"                                                                 ",
"                                                                 ",
"                                                                 ",
"                                                                 ",
"                                                                 ",
"                                                                 ",
"                                                                 ",
"                   .XoO+@#$ffff$%&+*=-                           ",
"                 ;:fffffffghhhgfffffff>,                         ",
"                ;<fffffjhhhhhhhhhjfffff1;                        ",
"                :fffffjhhhhhhhhhhhjfffff23                       ",
"               4fffffffffjhhhhhjfffffffff56                      ",
"               7kkkkkkkkkkkkkkkkkkkkkkkkkl89                     ",
"               0llllllllllzxxcvllllllllllbnnqwe                  ",
"               mmmmmmmmmmmmMvvvmmmmmmmmmmvNNnnnrt                ",
"               BVVVVVVVVVVVVVVVVVVVVVVVVVVCCNnnnyu               ",
"               ZAAAAAAAAAAAAAAAAAAAAAAAAAACCCNnnnnipas;d         ",
"                                                                 "
};
