/* XPM */
static char *tile015[] = {
/* columns rows colors chars-per-pixel */
"65 65 89 1 ",
"  c black",
". c #6D6D92",
"X c #935831",
"o c #C87747",
"O c #D88851",
"+ c #F79840",
"@ c #F89841",
"# c #F99840",
"$ c #F89940",
"% c #D78750",
"& c #C97949",
"* c #915831",
"= c #6D8080",
"- c #A26037",
"; c #8F5731",
": c #C47645",
"> c #974800",
", c #F9881F",
"< c #994700",
"1 c #808080",
"2 c #D88751",
"3 c #F09058",
"4 c #C87847",
"5 c #815029",
"6 c #687480",
"7 c #F87800",
"8 c #6F4729",
"9 c #5555AA",
"0 c #D8874F",
"q c #825128",
"w c #F97900",
"e c #005757",
"r c #D98850",
"t c #805028",
"y c #004040",
"u c #C67B4C",
"i c #62747E",
"p c #AA683F",
"a c #CF8050",
"s c #A06038",
"d c #003F3F",
"f c #558080",
"g c #F19057",
"h c #F19059",
"j c #F88920",
"k c None",
"l c #805028",
"z c #005858",
"x c #005959",
"c c #003F3F",
"v c #EF9158",
"b c #B4693C",
"n c #008080",
"m c #503818",
"M c #4E3716",
"N c #006D6D",
"B c #005858",
"V c #704828",
"C c #584020",
"Z c #503817",
"A c #4F3817",
"S c #503818",
"D c #503818",
"F c #513717",
"G c #64767C",
"H c #6A6A80",
"J c #C87848",
"K c #F89840",
"L c #F8A858",
"P c #F88820",
"I c #F87800",
"U c #E06800",
"Y c #C86000",
"T c #B05000",
"R c #885830",
"E c #905830",
"W c #805028",
"Q c #704828",
"! c #A86840",
"~ c #584020",
"^ c #00B0B0",
"/ c #005858",
"( c #A06038",
") c #684820",
"_ c #004040",
"` c #007070",
"' c #984800",
"] c #503818",
"[ c white",
/* pixels */
"                                                                 ",
"                                                                 ",
"                                                                 ",
"                                                                 ",
"                                                                 ",
"                                                                 ",
"                                                                 ",
"                                                                 ",
"                                                                 ",
"                                                                 ",
"                                                                 ",
"                                                                 ",
"                                                                 ",
"                                                                 ",
"                                                                 ",
"                                                                 ",
"                                                                 ",
"                                                                 ",
"                                                                 ",
"                                                                 ",
"                                                                 ",
"                                                                 ",
"                                                                 ",
"                                                                 ",
"                                                                 ",
"                                                                 ",
"                                                                 ",
"                                                                 ",
"                                                                 ",
"                                                                 ",
"                                                                 ",
"                                                                 ",
"                                                                 ",
"                                                                 ",
"                                                                 ",
"                                                                 ",
"                                                                 ",
"                                                                 ",
"                                                                 ",
"                                                                 ",
"                                                                 ",
"                                                                 ",
"                                                                 ",
"                                                                 ",
"                                                                 ",
"                                                                 ",
"                                                                 ",
"                                                                 ",
"                                                                 ",
"                                                                 ",
"                                                                 ",
"                                                                 ",
"                                                                 ",
"                                   .XoO+@#$%&*=                  ",
"                                  -JKLLLKPIIUY;                  ",
"                                 :PKPIIUYYTTTT>                  ",
"                                 ,UYYTTTTTTTTT<                  ",
"                    123456       7YTTTTTTTRRTT8                  ",
"                   90LLLKJq      wYTTTTETEWQRQe                  ",
"                   rLLLPU!t      IYTETWTTTRRQ~y                  ",
"                  u^LLP!!W/ipa   s(TTTTW)~~Q~_d                  ",
"                  fghjk`lzxcvb   nRWT'W/)__]]mM                  ",
"                                 NBV'CZASDFGH                    ",
"                                                                 ",
"                                                                 "
};
