/* XPM */
static char *_[] = {
/* columns rows colors chars-per-pixel */
"64 64 17 1 ",
"  c None",
". c gray9",
"X c #181818",
"o c #393939",
"O c gray35",
"+ c #6D6D6D",
"@ c #63737E",
"# c #647A7A",
"$ c gray48",
"% c #5B6D80",
"& c #666680",
"* c #607580",
"= c #71718E",
"- c #608080",
"; c #808080",
": c gray74",
"> c white",
/* pixels */
"                                                                ",
"                                                                ",
"                                                                ",
"                                                                ",
"                                                                ",
"                                                                ",
"                                                                ",
"                                                                ",
"                                                                ",
"                                                                ",
"                                                                ",
"                                                                ",
"                                                                ",
"                                                                ",
"                                                                ",
"                                                                ",
"                                                                ",
"                                                                ",
"                                                                ",
"                                                                ",
"                                                                ",
"                                                                ",
"                                                                ",
"                                                                ",
"                                                                ",
"                                                                ",
"                                                                ",
"                                                                ",
"                                                                ",
"                                                                ",
"                                                                ",
"                                                                ",
"                                                                ",
"                                                                ",
"                                                                ",
"                                                                ",
"                            $$  $$                              ",
"                            OO  OO                              ",
"                            OO#*OO                              ",
"                            OOooOO                              ",
"                            OOOOOO                              ",
"                            OO$$OO                              ",
"                            oO$Ooo                              ",
"                            oO$OoX                              ",
"                            oO$OoX                              ",
"                           ;oO$OoX;                             ",
"                           +oO$OoX+                             ",
"                           @oO$OoX@                             ",
"                           @oO$OoX@                             ",
"                          +OoO$OoXO+                            ",
"                         ;$XoO$OoXX$;                           ",
"                        >OOXoO$OoXXOO>                          ",
"                        OoOXoO$OoXXOoO                          ",
"                       oooOXo$::$ooOooo                         ",
"                      ;oXOOooO$OoXXOOXo;                        ",
"                      oXoOoXoO$OoXXoOoXo                        ",
"                     - XoOXXoO$OoXXXOoX -                       ",
"                     oXXoOXXoO$OoXXXOoXXo                       ",
"                    %oXXOOXXoO$OoXXXOOXXo%                      ",
"                    oXXoooXXoO$OoXXXoooXXo                      ",
"                   &oXoXXXXXoO$OoXXXXXXoXo=                     ",
"                   oXoX$$$XXoo$:ooXX$$$XoXo                     ",
"                   ooXOO$OXoXXXXXXoXO:OOXoo                     ",
"                   oXOo$oOoXX.XX.XXoOo$oOXo                     "
};
