/* XPM */
static char *_[] = {
/* columns rows colors chars-per-pixel */
"64 64 17 1 ",
"  c None",
". c gray9",
"X c #181818",
"o c #373737",
"O c #393939",
"+ c gray25",
"@ c #5A5A5A",
"# c #6D6D6D",
"$ c #607379",
"% c #647A7A",
"& c #7B7B7B",
"* c #607580",
"= c blue",
"- c #408080",
"; c #808080",
": c gray74",
"> c white",
/* pixels */
"                                                                ",
"                                                                ",
"                                                                ",
"                                                                ",
"                                                                ",
"                                                                ",
"                                                                ",
"                                                                ",
"                                                                ",
"                                                                ",
"                                                                ",
"                                                                ",
"                                                                ",
"                                                                ",
"                                                                ",
"                                                                ",
"                                                                ",
"                                                                ",
"                                                                ",
"                                                                ",
"                                                                ",
"                                                                ",
"                                                                ",
"                                                                ",
"                                                                ",
"                                                                ",
"                                                                ",
"                                                                ",
"                            &&  &&                              ",
"                            @@  @@                              ",
"                            @@%*@@                              ",
"                            @@OO@@                              ",
"                            @@@@@@                              ",
"                            @@&&@@                              ",
"                            O@&@OO                              ",
"                            O@&@OX                              ",
"                            O@&@OX                              ",
"                           ;O@&@OX;                             ",
"                           #O@&@OX#                             ",
"                           $O@&@OX$                             ",
"                           $O@&@OX$                             ",
"                          #@O@&@OX@#                            ",
"                         -&XO@&@OXX&-                           ",
"                        =@@XO@&@OXX@@=                          ",
"                        @O@XO@&@OXX@O@                          ",
"                       +OO@XO&::&OO@OO+                         ",
"                       OX@@OO@&@OXX@@XO                         ",
"                      oXO@OXO@&@OXXO@OXo                        ",
"                     ;OXO@XXO@&@OXXX@OXO;                       ",
"                     OXXO@XXO@&@OXXX@OXXO                       ",
"                    ;OXX@@XXO@&@OXXX@@XXO;                      ",
"                    oXXOOOXXO@&@OXXXOOOXXo                      ",
"                   ;OXOXXXXXO@&@OXXXXXXOXO;                     ",
"                   oXOX&&&XXOO&:OOXX&&&XOXo                     ",
"                   OOX@@&@XOXXXXXXOX@:@@XOO                     ",
"                  $OX@O&O@OXXXXXXXXO@O&O@XO$                    ",
"                  OO@OO&@@OXXXXXXXXO@@&OO@OO                    ",
"                 *O@OOO&&@@&:@OO:&&@@&&OOO@O*                   ",
"                 $OOOXO&O@XXXXOOXXXX@O&OXOOO$                   ",
"                >OOOXXO&@@XXXXOOXXXX@@&@XXOOO>                  ",
"                $OOXXX@&&@XXXX@@XXXX@&&@XXXOO$                  ",
"                OOXXXX&&O@XXXXXXXXXX@O&&XXXXOO                  ",
"                OXXXXX&&@@X&:&&&&:&X@@&&XXXXXO                  ",
"                OX.XXX&&@@X@@ @@ @@X@@&&XXX.Xo                  "
};
