/* XPM */
static char *_[] = {
/* columns rows colors chars-per-pixel */
"64 64 38 1 ",
"  c None",
". c #161616",
"X c #181818",
"o c #373737",
"O c #393939",
"+ c gray25",
"@ c #555555",
"# c #5A5A5A",
"$ c #5D7474",
"% c #5A7878",
"& c #6D6D6D",
"* c #627676",
"= c #66757C",
"- c #7B7B7B",
"; c #DE0000",
": c #E10000",
"> c #83552E",
", c #835331",
"< c #EE5500",
"1 c #F65B09",
"2 c #EF7B17",
"3 c #EF7B18",
"4 c #F07C17",
"5 c #F07B18",
"6 c #E6801A",
"7 c #F7B521",
"8 c #627180",
"9 c #6D6D92",
"0 c #666699",
"q c #5555AA",
"w c #408080",
"e c #6D8080",
"r c #55AAAA",
"t c #808080",
"y c gray74",
"u c #EFBD9C",
"i c #EFDECE",
"p c white",
/* pixels */
"                                                                ",
"                                                                ",
"                                                                ",
"                                                                ",
"                                                                ",
"                                                                ",
"                                                                ",
"                                                                ",
"                                                                ",
"                                                                ",
"                                                                ",
"                                                                ",
"                              ,,                                ",
"                             ,,,,                               ",
"                            %,,,,%                              ",
"                            ,,33,,                              ",
"                           4,1331,4                             ",
"                          9513773159                            ",
"                          3131331313                            ",
"                         =1313773131=                           ",
"                        $33737ii73733$                          ",
"                       933777iiii777339                         ",
"                      17337uiippiiu7337<                        ",
"                     = 173uiuppppuiu3717*                       ",
"                    %43377i7pippip7i77333&                      ",
"                   w,373ui7pippppip7iu373,t                     ",
"                   ;,337i7iippppppii7i733,;                     ",
"                  ;33;7uipippppppppipiu7;33:                    ",
"                  2;3377piip77pp77piip7733;3t                   ",
"                 6;3737i7pipy#pp#ypip7i7373;4                   ",
"                 ;3737i7iipiy#yy#yipii7i7373;                   ",
"                 =;3337ipipiy#OO#yipipi7333;=                   ",
"                 833733iipppy####ypppii337338                   ",
"                 @;33373iipiy#--#yipii37333;t                   ",
"                  1;333i7iiu-#-#O-uii7i333;1                    ",
"                  ,1;373i7ui-#-#O-iu7i373;1,                    ",
"                  ,;1;337u73-#-#O-37u733;1;,                    ",
"                  w5;1333131##-#O#1313331;40                    ",
"                   ,3;1;1;1;O#-#OO;1;1;1;3,                     ",
"                    ,3,1,1;3O#-#OX3;1,1,3>                      ",
"                     t1,;,,,O#-#OX,,,,,1t                       ",
"                        8,,7O#-#OX7,,8                          ",
"                         83XO#-#OXX38                           ",
"                        r1#XO#-#OXX#1r                          ",
"                        #O#XO#-#OXX#O#                          ",
"                       OOO#XO-77-OO#OOO                         ",
"                      tOX##OO#-#OXX##XOt                        ",
"                      OXO#OXO#-#OXXO#OXO                        ",
"                     tOXO#XXO#-#OXXX#OXOt                       ",
"                     oXXO#XXO#-#OXXX#OXXo                       ",
"                    tOXX##XXO#-#OXXX##XXOt                      ",
"                    OXXOOOXXO#-#OXXXOOOXXO                      ",
"                    OXOXXXXXO#-#OXXXXXXOXO                      ",
"                   oXOX,3-XXOO-yOOXX33,XOXo                     ",
"                   OOX##7#XOXXXXXXOX#7##XOO                     ",
"                  eOX#O-X#OXXXXXXXXO#X-O#XOe                    ",
"                  OO#OO-O#OXXXXXXXXO#O-OO#OO                    ",
"                 qO#OOO-3##-y#OOy--##3-OOO#Oq                   ",
"                 =OOOXO-X#XXXXOOXXXX#X-OXOOO=                   ",
"                 OOOXXO-O#XXXXOOXXXX#O-#XXOOO                   ",
"                eOOXXX#-y#XXXX##XXXX#y-#XXXOOe                  ",
"                OOXXXX--O#XXXXXXXXXX#O--XXXXOO                  ",
"                OXXXXX--##X-y----y-X##--XXXXXO                  ",
"                +X.XXX--##X########X##--XXX.X+                  "
};
