/* XPM */
static char *_[] = {
/* columns rows colors chars-per-pixel */
"63 64 17 1 ",
"  c None",
". c gray9",
"X c #181818",
"o c gray22",
"O c #555555",
"+ c #5A5A5A",
"@ c #557171",
"# c #6D6D6D",
"$ c #63727D",
"% c #647A7A",
"& c #7B7B7B",
"* c #666680",
"= c #607580",
"- c #6D6D92",
"; c #408080",
": c #808080",
"> c gray74",
/* pixels */
"                                                               ",
"                                                               ",
"                                                               ",
"                                                               ",
"                                                               ",
"                                                               ",
"                                                               ",
"                                                               ",
"                                                               ",
"                                                               ",
"                                                               ",
"                                                               ",
"                                                               ",
"                                                               ",
"                                                               ",
"                                                               ",
"                                                               ",
"                                                               ",
"                                                               ",
"                                                               ",
"                                                               ",
"                                                               ",
"                                                               ",
"                                                               ",
"                                                               ",
"                                                               ",
"                                                               ",
"                                                               ",
"                                                               ",
"                            &&  &&                             ",
"                            ++  ++                             ",
"                            ++%=++                             ",
"                            ++oo++                             ",
"                            ++++++                             ",
"                            ++&&++                             ",
"                            o+&+oo                             ",
"                            o+&+oX                             ",
"                            o+&+oX                             ",
"                           :o+&+oX:                            ",
"                           #o+&+oX#                            ",
"                           $o+&+oX$                            ",
"                           $o+&+oX$                            ",
"                          #+o+&+oX+#                           ",
"                         ;&Xo+&+oXX&;                          ",
"                        :++Xo+&+oXX++:                         ",
"                        +o+Xo+&+oXX+o+                         ",
"                       ooo+Xo&>>&oo+ooo                        ",
"                      :oX++oo+&+oXX++Xo;                       ",
"                      oXo+oXo+&+oXXo+oXo                       ",
"                     @oXo+XXo+&+oXXX+oXo@                      ",
"                     oXXo+XXo+&+oXXX+oXXo                      ",
"                    -oXX++XXo+&+oXXX++XXo-                     ",
"                    oXXoooXXo+&+oXXXoooXXo                     ",
"                   OoXoXXXXXo+&+oXXXXXXoXoO                    ",
"                   oXoX&&&XXoo&>ooXX&&&XoXo                    ",
"                   ooX++&+XoXXXXXXoX+>++Xoo                    ",
"                  %oX+o&o+oXXXXXXXXo+o&o+Xo%                   ",
"                  oo+oo&++oXXXXXXXXo++&oo+oo                   ",
"                 Oo+ooo&&++&>+oo>&&++&&ooo+oO                  ",
"                 $oooXo&o+XXXXooXXXX+o&oXooo$                  ",
"                 oooXXo&++XXXXooXXXX++&+XXooo                  ",
"                *ooXXX+&&+XXXX++XXXX+&&+XXXoo*                 ",
"                ooXXXX&&o+XXXXXXXXXX+o&&XXXXoo                 ",
"                oX.XXX&&++X >&&&&> X++&&XXX.Xo                 "
};
