/* XPM */
static char *out[] = {
/* columns rows colors chars-per-pixel */
"111 151 10 1 ",
"  c None",
". c #04193F",
"X c #021A43",
"o c #03396B",
"O c #C3242F",
"+ c #E7333B",
"@ c #0696DB",
"# c #0FEFFB",
"$ c #DDDDDD",
"% c white",
/* pixels */
"                                                                                                               ",
"                                                                                                               ",
"                                                                                                               ",
"                                                                                                               ",
"                                                                                                               ",
"                                                                                                               ",
"                                                                                                               ",
"                                                                                                               ",
"                                                                                                               ",
"                                                                                                               ",
"                                                                                                               ",
"                                                                                                               ",
"                                                                                                               ",
"                                                                                                               ",
"                                                                                                               ",
"                                                                                                               ",
"                                                                                                               ",
"                                                                                                               ",
"                                                                                                               ",
"                                                                                                               ",
"                                           .........................                                           ",
"                                           .........................                                           ",
"                                           .........................                                           ",
"                                           .........................                                           ",
"                                          $.........................$                                          ",
"                                  X........###############@@@@@@@@@@.........                                  ",
"                                 ..........###############@@@@@@@@@@..........                                 ",
"                                 ..........###############@@@@@@@@@@..........                                 ",
"                                 ..........###############@@@@@@@@@@..........                                 ",
"                                $..........###############@@@@@@@@@@..........$                                ",
"                             ....##############################@@@@@oooooooooo....                             ",
"                            .....##############################@@@@@oooooooooo.....                            ",
"                            .....##############################@@@@@oooooooooo.....                            ",
"                            .....##############################@@@@@oooooooooo.....                            ",
"                           $.....##############################@@@@@oooooooooo.....$                           ",
"                        ....###################################..........oooooooooo....                        ",
"                       .....###################################..........oooooooooo.....                       ",
"                       .....###################################..........oooooooooo.....                       ",
"                       .....###################################..........oooooooooo.....                       ",
"                      $.....###################################..........oooooooooo.....$                      ",
"                   ....########################################..........ooooooooooooooo....                   ",
"                  X....########################################..........ooooooooooooooo.....                  ",
"                  .....########################################..........ooooooooooooooo.....                  ",
"                  .....########################################..........ooooooooooooooo.....                  ",
"                  .....########################################..........ooooooooooooooo.....                  ",
"                  .....###############...............##########@@@@@@@@@@oooooooooo..........                  ",
"                  .....###############...............##########@@@@@@@@@@oooooooooo..........                  ",
"                  .....###############...............##########@@@@@@@@@@oooooooooo..........                  ",
"                  .....###############...............##########@@@@@@@@@@oooooooooo..........                  ",
"                 $.....###############...............##########@@@@@@@@@@oooooooooo..........$                 ",
"             .....###############..........%%%%%%%%%%.....#####@@@@@@@@@@@@@@@..........%%%%%.....             ",
"             .....###############..........%%%%%%%%%%.....#####@@@@@@@@@@@@@@@..........%%%%%.....             ",
"             .....###############..........%%%%%%%%%%.....#####@@@@@@@@@@@@@@@..........%%%%%.....             ",
"             .....###############..........%%%%%%%%%%.....#####@@@@@@@@@@@@@@@..........%%%%%.....             ",
"             .....###############..........%%%%%%%%%%.....#####@@@@@@@@@@@@@@@..........%%%%%.....             ",
"             .....###############..........%%%%%%%%%%.....#####@@@@@@@@@@@@@@@..........%%%%%.....             ",
"             .....###############..........%%%%%%%%%%.....#####@@@@@@@@@@@@@@@..........%%%%%.....             ",
"             .....###############..........%%%%%%%%%%.....#####@@@@@@@@@@@@@@@..........%%%%%.....             ",
"             .....###############..........%%%%%%%%%%.....#####@@@@@@@@@@@@@@@..........%%%%%.....             ",
"             .....###############..........%%%%%%%%%%.....#####@@@@@@@@@@@@@@@..........%%%%%.....             ",
"             .....###############.........................#####@@@@@@@@@@@@@@@....................             ",
"             .....###############.........................#####@@@@@@@@@@@@@@@....................             ",
"             .....###############.........................#####@@@@@@@@@@@@@@@....................             ",
"             .....###############.........................#####@@@@@@@@@@@@@@@....................             ",
"             .....###############.........................#####@@@@@@@@@@@@@@@....................             ",
"             .....####################...............#####@@@@@@@@@@@@@@@@@@@@ooooo...............             ",
"             .....####################...............#####@@@@@@@@@@@@@@@@@@@@ooooo...............             ",
"             .....####################...............#####@@@@@@@@@@@@@@@@@@@@ooooo...............             ",
"             .....####################...............#####@@@@@@@@@@@@@@@@@@@@ooooo...............             ",
"             .....####################...............#####@@@@@@@@@@@@@@@@@@@@ooooo...............             ",
"             .....########################################@@@@@@@@@@@@@@@@@@@@ooooooooooooooo.....             ",
"             .....########################################@@@@@@@@@@@@@@@@@@@@ooooooooooooooo.....             ",
"             .....########################################@@@@@@@@@@@@@@@@@@@@ooooooooooooooo.....             ",
"             .....########################################@@@@@@@@@@@@@@@@@@@@ooooooooooooooo.....             ",
"             .....########################################@@@@@@@@@@@@@@@@@@@@ooooooooooooooo.....             ",
"                 $.....##############################@@@@@@@@@@@@@@@@@@@@ooooooooooooooo.....$                 ",
"                  .....##############################@@@@@@@@@@@@@@@@@@@@ooooooooooooooo.....                  ",
"                  .....##############################@@@@@@@@@@@@@@@@@@@@ooooooooooooooo.....                  ",
"                  .....##############################@@@@@@@@@@@@@@@@@@@@ooooooooooooooo.....                  ",
"                  .....##############################@@@@@@@@@@@@@@@@@@@@ooooooooooooooo.....                  ",
"                  .....####################@@@@@@@@@@@@@@@@@@@@..........ooooooooooooooo.....                  ",
"                  .....####################@@@@@@@@@@@@@@@@@@@@..........ooooooooooooooo.....                  ",
"                  .....####################@@@@@@@@@@@@@@@@@@@@..........ooooooooooooooo.....                  ",
"                  X....####################@@@@@@@@@@@@@@@@@@@@..........ooooooooooooooo.....                  ",
"                   ....####################@@@@@@@@@@@@@@@@@@@@..........ooooooooooooooo....                   ",
"                      $.....@@@@@@@@@@@@@@@@@@@@@@@@@@@@@@@@@@@@@@@@@@@@@oooooooooo.....                       ",
"                       .....@@@@@@@@@@@@@@@@@@@@@@@@@@@@@@@@@@@@@@@@@@@@@oooooooooo.....                       ",
"                       .....@@@@@@@@@@@@@@@@@@@@@@@@@@@@@@@@@@@@@@@@@@@@@oooooooooo.....                       ",
"                       .....@@@@@@@@@@@@@@@@@@@@@@@@@@@@@@@@@@@@@@@@@@@@@oooooooooo.....                       ",
"                       .....@@@@@@@@@@@@@@@@@@@@@@@@@@@@@@@@@@@@@@@@@@@@@oooooooooo.....                       ",
"                       .....OOOOOOOOOO@@@@@@@@@@@@@@@@@@@@@@@@@@@@@@ooooooooooooooo.....                       ",
"                       .....OOOOOOOOOO@@@@@@@@@@@@@@@@@@@@@@@@@@@@@@ooooooooooooooo.....                       ",
"                       .....OOOOOOOOOO@@@@@@@@@@@@@@@@@@@@@@@@@@@@@@ooooooooooooooo.....                       ",
"                       .....OOOOOOOOOO@@@@@@@@@@@@@@@@@@@@@@@@@@@@@@ooooooooooooooo.....                       ",
"                       .....OOOOOOOOOO@@@@@@@@@@@@@@@@@@@@@@@@@@@@@@ooooooooooooooo.....                       ",
"                       .....ooooo+++++OOOOOOOOOOOOOOOoooooooooooooooooooooooooOOOOO.....                       ",
"                       .....ooooo+++++OOOOOOOOOOOOOOOoooooooooooooooooooooooooOOOOO.....                       ",
"                       .....ooooo+++++OOOOOOOOOOOOOOOoooooooooooooooooooooooooOOOOO.....                       ",
"                       .....ooooo+++++OOOOOOOOOOOOOOOoooooooooooooooooooooooooOOOOO.....                       ",
"                      $.....ooooo+++++OOOOOOOOOOOOOOOoooooooooooooooooooooooooOOOOO.....                       ",
"                   ....@@@@@@@@@@ooooo+++++++++++++++OOOOOOOOOOOOOOOOOOOOOOOOO+++++.....                       ",
"                  X....@@@@@@@@@@ooooo+++++++++++++++OOOOOOOOOOOOOOOOOOOOOOOOO+++++.....                       ",
"                  .....@@@@@@@@@@ooooo+++++++++++++++OOOOOOOOOOOOOOOOOOOOOOOOO+++++.....                       ",
"                  .....@@@@@@@@@@ooooo+++++++++++++++OOOOOOOOOOOOOOOOOOOOOOOOO+++++.....                       ",
"                  .....@@@@@@@@@@ooooo+++++++++++++++OOOOOOOOOOOOOOOOOOOOOOOOO+++++.....                       ",
"                  .....@@@@@@@@@@@@@@@ooooo++++++++++++++++++++++++++++++++++++++++.....                       ",
"                  .....@@@@@@@@@@@@@@@ooooo++++++++++++++++++++++++++++++++++++++++.....                       ",
"                  .....@@@@@@@@@@@@@@@ooooo++++++++++++++++++++++++++++++++++++++++.....                       ",
"                  .....@@@@@@@@@@@@@@@ooooo++++++++++++++++++++++++++++++++++++++++.....                       ",
"                 $.....@@@@@@@@@@@@@@@ooooo++++++++++++++++++++++++++++++++++++++++.....                       ",
"              ....@@@@@@@@@@@@@@@@@@@@ooooo.....++++++++++++++++++++++++++++++.....ooooo....                   ",
"             .....@@@@@@@@@@@@@@@@@@@@ooooo.....++++++++++++++++++++++++++++++.....ooooo.....                  ",
"             .....@@@@@@@@@@@@@@@@@@@@ooooo.....++++++++++++++++++++++++++++++.....ooooo.....                  ",
"             .....@@@@@@@@@@@@@@@@@@@@ooooo.....++++++++++++++++++++++++++++++.....ooooo.....                  ",
"             .....@@@@@@@@@@@@@@@@@@@@ooooo.....++++++++++++++++++++++++++++++.....ooooo.....                  ",
"             .....@@@@@@@@@@@@@@@@@@@@oooooooooo..........++++++++++++++++++++.....ooooo.....                  ",
"             .....@@@@@@@@@@@@@@@@@@@@oooooooooo..........++++++++++++++++++++.....ooooo.....                  ",
"             .....@@@@@@@@@@@@@@@@@@@@oooooooooo..........++++++++++++++++++++.....ooooo.....                  ",
"             .....@@@@@@@@@@@@@@@@@@@@oooooooooo..........++++++++++++++++++++.....ooooo.....                  ",
"             .....@@@@@@@@@@@@@@@@@@@@oooooooooo..........++++++++++++++++++++.....ooooo.....                  ",
"             .....@@@@@@@@@@@@@@@ooooo@@@@@@@@@@@@@@@ooooo..........+++++.....oooooooooo.....                  ",
"             .....@@@@@@@@@@@@@@@ooooo@@@@@@@@@@@@@@@ooooo..........+++++.....oooooooooo.....                  ",
"             .....@@@@@@@@@@@@@@@ooooo@@@@@@@@@@@@@@@ooooo..........+++++.....oooooooooo.....                  ",
"             .....@@@@@@@@@@@@@@@ooooo@@@@@@@@@@@@@@@ooooo..........+++++.....oooooooooo.....                  ",
"              ....@@@@@@@@@@@@@@@ooooo@@@@@@@@@@@@@@@ooooo..........+++++.....oooooooooo....                   ",
"                 $.....oooooooooo@@@@@@@@@@@@@@@@@@@@@@@@@oooooooooo.....ooooo..........$                      ",
"                  .....oooooooooo@@@@@@@@@@@@@@@@@@@@@@@@@oooooooooo.....ooooo..........                       ",
"                  .....oooooooooo@@@@@@@@@@@@@@@@@@@@@@@@@oooooooooo.....ooooo..........                       ",
"                  .....oooooooooo@@@@@@@@@@@@@@@@@@@@@@@@@oooooooooo.....ooooo..........                       ",
"                   ....oooooooooo@@@@@@@@@@@@@@@@@@@@@@@@@oooooooooo.....ooooo.........                        ",
"                       .....@@@@@@@@@@@@@@@@@@@@@@@@@ooooooooooooooooooooooooo.....$                           ",
"                       .....@@@@@@@@@@@@@@@@@@@@@@@@@ooooooooooooooooooooooooo.....                            ",
"                       .....@@@@@@@@@@@@@@@@@@@@@@@@@ooooooooooooooooooooooooo.....                            ",
"                       .....@@@@@@@@@@@@@@@@@@@@@@@@@ooooooooooooooooooooooooo.....                            ",
"                       .....@@@@@@@@@@@@@@@@@@@@@@@@@ooooooooooooooooooooooooo.....                            ",
"                       .....@@@@@@@@@@@@@@@@@@@@..........oooooooooooooooooooo.....                            ",
"                       .....@@@@@@@@@@@@@@@@@@@@..........oooooooooooooooooooo.....                            ",
"                       .....@@@@@@@@@@@@@@@@@@@@..........oooooooooooooooooooo.....                            ",
"                       .....@@@@@@@@@@@@@@@@@@@@..........oooooooooooooooooooo.....                            ",
"                       .....@@@@@@@@@@@@@@@@@@@@..........oooooooooooooooooooo....                             ",
"                       .....@@@@@@@@@@@@@@@@@@@@..........ooooooooooooooo.....$                                ",
"                       .....@@@@@@@@@@@@@@@@@@@@..........ooooooooooooooo.....                                 ",
"                       .....@@@@@@@@@@@@@@@@@@@@..........ooooooooooooooo.....                                 ",
"                       .....@@@@@@@@@@@@@@@@@@@@..........ooooooooooooooo.....                                 ",
"                       .....@@@@@@@@@@@@@@@@@@@@..........ooooooooooooooo.....                                 ",
"                       .....@@@@@@@@@@@@@@@.....$   $.....ooooooooooooooo.....                                 ",
"                       .....@@@@@@@@@@@@@@@.....     .....ooooooooooooooo.....                                 ",
"                       .....@@@@@@@@@@@@@@@.....     .....ooooooooooooooo.....                                 ",
"                       .....@@@@@@@@@@@@@@@.....     .....ooooooooooooooo.....                                 ",
"                       .....@@@@@@@@@@@@@@@.....     .....ooooooooooooooo.....                                 ",
"                                                                                                               "
};
