/* XPM */
static char *_[] = {
/* columns rows colors chars-per-pixel */
"65 66 48 1 ",
"  c None",
". c black",
"X c #383000",
"o c #503818",
"O c #307800",
"+ c #484000",
"@ c #485800",
"# c #406000",
"$ c #584020",
"% c #5F4C32",
"& c #704828",
"* c #005858",
"= c #007070",
"- c #226363",
"; c #505050",
": c #63747D",
"> c #68767E",
", c #727272",
"< c #984800",
"1 c #885830",
"2 c #986038",
"3 c #BE712E",
"4 c #B3743D",
"5 c #C76001",
"6 c #C86000",
"7 c #E06800",
"8 c #A86840",
"9 c #AC7546",
"0 c #AA7A55",
"q c #C87848",
"w c #009800",
"e c #F88820",
"r c #008080",
"t c #009898",
"y c #00B0B0",
"u c #24A2A2",
"i c #588E8E",
"p c #678989",
"a c #698989",
"s c #06C5C5",
"d c #09C3C3",
"f c #00C8C8",
"g c #00E0E0",
"h c #00F8F8",
"j c #C0C0C0",
"k c #D0D0D0",
"l c #D8D8D8",
"z c gray91",
/* pixels */
"                                                                 ",
"                                                                 ",
"                                                                 ",
"                                                                 ",
"                                                                 ",
"                                                                 ",
"                                                                 ",
"                                                                 ",
"                                                                 ",
"                                                                 ",
"                                                                 ",
"                                                                 ",
"                                                                 ",
"                                                                 ",
"                                                                 ",
"                                                                 ",
"                                                                 ",
"                                                                 ",
"                                                                 ",
"                                                                 ",
"                                                                 ",
"                                                                 ",
"                                                                 ",
"                                                                 ",
"                                                                 ",
"                                                                 ",
"                                                                 ",
"                                                                 ",
"                                                                 ",
"                                                                 ",
"                                                                 ",
"                                                                 ",
"                                                                 ",
"                                                                 ",
"                                                                 ",
"                                                                 ",
"                                                                 ",
"                                                                 ",
"                                                                 ",
"                                                                 ",
"                                                                 ",
"                                                                 ",
"                                                                 ",
"                                                                 ",
"                                                                 ",
"                                                                 ",
"                                                                 ",
"                                                                 ",
"                                                                 ",
"                                                                 ",
"                                                                 ",
"                                                                 ",
"                                                                 ",
"                                                                 ",
"                                                                 ",
"                                                                 ",
"                          339                                    ",
"                        47eeq66650                               ",
"                       >7eeeq8222666kkkl,                        ",
"                    auykzzk78822222<                             ",
"                  pdhhkzkzjj111111+OOOXX..                       ",
"                 pfhyrkkjj  &&&&&&&#Ow@w..t-                     ",
"                 ifghjzzzjk  ;+@OOOwXXXX.tt=*%                   ",
"                  isfffyytttttrrrrrr====r==*oo$                  ",
"                    :*********************ooo$$                  ",
"                                                                 "
};
