/* XPM */
static char *_[] = {
/* columns rows colors chars-per-pixel */
"65 66 30 1 ",
"  c None",
". c #202020",
"X c #483818",
"o c #503818",
"O c #584020",
"+ c #5B4426",
"@ c #604D34",
"# c #000048",
"$ c #000060",
"% c #000070",
"& c #000078",
"* c #484848",
"= c #505050",
"- c #6B5E4E",
"; c #756E65",
": c #66757D",
"> c gray44",
", c #C80000",
"< c #E00000",
"1 c #E80000",
"2 c #989898",
"3 c #A7A7A7",
"4 c #ACACAC",
"5 c gray69",
"6 c gray73",
"7 c #C5C5C5",
"8 c LightGray",
"9 c #D8D8D8",
"0 c #E4E4E4",
"q c gray91",
/* pixels */
"                                                                 ",
"                                                                 ",
"                                                                 ",
"                                                                 ",
"                                                                 ",
"                                                                 ",
"                                                                 ",
"                                                                 ",
"                                                                 ",
"                                                                 ",
"                                                                 ",
"                                                                 ",
"                                                                 ",
"                                                                 ",
"                                                                 ",
"                                                                 ",
"                                                                 ",
"                                                                 ",
"                                                                 ",
"                                                                 ",
"                                                                 ",
"                                                                 ",
"                                                                 ",
"                                                                 ",
"                                                                 ",
"                                                                 ",
"                                                                 ",
"                                                                 ",
"                                                                 ",
"                                                                 ",
"                                                                 ",
"                                                                 ",
"                                                                 ",
"                                                                 ",
"                                                                 ",
"                                                                 ",
"                                                                 ",
"                                                                 ",
"                                                                 ",
"                                                                 ",
"                                                                 ",
"                                                                 ",
"                                                                 ",
"                                                                 ",
"                                                                 ",
"                                                                 ",
"                                                                 ",
"                                                                 ",
"                                                                 ",
"                                                                 ",
"                                                                 ",
"                                                                 ",
"                                                                 ",
"                                                                 ",
"                                                                 ",
"                    2578900qqqq009874                            ",
"                  4qqqqqqq1,,,1qqqqqqq5                          ",
"                 6qqqqq<,,,,,,,,,<qqqqq5                         ",
"                4qqqqq<,,,,,,,,,,,<qqqqq5                        ",
"                qqqqqqqqq<,,,,,<qqqqqqqqq5                       ",
"               399999999999999999999999995:                      ",
"               35555555555=..*>5555555555 ++@;                   ",
"               222222222222 >>>2222222222>oo+++-                 ",
"               &%%%%%%%%%%%%%%%%%%%%%%%%%%XXo++++                ",
"               $##########################XXXo++++               ",
"                                                                 "
};
