/* XPM */
static char *_[] = {
/* columns rows colors chars-per-pixel */
"65 65 62 1 ",
"  c None",
". c #503818",
"X c #553F22",
"o c #574226",
"O c #584020",
"+ c #5A492F",
"@ c #684820",
"# c #704828",
"$ c #62533F",
"% c #004040",
"& c #1E4F4F",
"* c #005858",
"= c #105D5D",
"- c #2F5757",
"; c #395C5C",
": c #1D6161",
"> c #007070",
", c #256363",
"< c #765E4C",
"1 c #6A5F50",
"2 c #71695F",
"3 c #984800",
"4 c #B05000",
"5 c #805028",
"6 c #885830",
"7 c #905830",
"8 c #9F613B",
"9 c #A06038",
"0 c #C86000",
"q c #E06800",
"w c #F87800",
"e c #F17908",
"r c #E17A19",
"t c #8C6543",
"y c #896B50",
"u c #806C5C",
"i c #A76840",
"p c #A86840",
"a c #B87A53",
"s c #847469",
"d c #8A776B",
"f c #977E6F",
"g c #9E7C68",
"h c #C87848",
"j c #EA882B",
"k c #F88820",
"l c #BA8452",
"z c #BF855D",
"x c #BE8C5F",
"c c #9E806E",
"v c #A1836E",
"b c #B08466",
"n c #B58B64",
"m c #B0876F",
"M c #A38573",
"N c #C58E5C",
"B c #F89840",
"V c #E58E5C",
"C c #F8A858",
"Z c #D28C64",
"A c #1E8080",
"S c #00B0B0",
/* pixels */
"                                                                 ",
"                                                                 ",
"                                                                 ",
"                                                                 ",
"                                                                 ",
"                                                                 ",
"                                                                 ",
"                                                                 ",
"                                                                 ",
"                                                                 ",
"                                                                 ",
"                                                                 ",
"                                                                 ",
"                                                                 ",
"                                                                 ",
"                                                                 ",
"                                                                 ",
"                                                                 ",
"                                                                 ",
"                                                                 ",
"                                                                 ",
"                                                                 ",
"                                                                 ",
"                                                                 ",
"                                                                 ",
"                                                                 ",
"                                                                 ",
"                                                                 ",
"                                                                 ",
"                                                                 ",
"                                                                 ",
"                                                                 ",
"                                                                 ",
"                                                                 ",
"                                                                 ",
"                                                                 ",
"                                                                 ",
"                                                                 ",
"                                                                 ",
"                                                                 ",
"                                                                 ",
"                                                                 ",
"                                                                 ",
"                                                                 ",
"                                                                 ",
"                                                                 ",
"                                                                 ",
"                                                                 ",
"                                                                 ",
"                                                                 ",
"                                                                 ",
"                                                                 ",
"                                                                 ",
"                                     gbNNxnvfs                   ",
"                                  dhBCCCBkwwq0s                  ",
"                                  kBkwwq004444y                  ",
"                                 lq00444444444t                  ",
"                     cVau        r044444446644<                  ",
"                    zCCCBhs      e044447475#6#,                  ",
"                   bCCCkqp5      w0474544466#O&                  ",
"                   SCCkpp5* dc   8944445@OO#O%-                  ",
"                   mZji>5=,;M    A65435*@%%..o                   ",
"                                  :#3OX+$12                      ",
"                                                                 ",
"                                                                 "
};
