/* XPM */
static char *tile004[] = {
/* columns rows colors chars-per-pixel */
"65 66 94 2 ",
"   c black",
".  c black",
"X  c #627180",
"o  c #818100",
"O  c #8F8F00",
"+  c #909000",
"@  c #989800",
"#  c #B8B800",
"$  c #C0C000",
"%  c #D0D000",
"&  c #F9F951",
"*  c #646F7A",
"=  c #D0D000",
"-  c #A64F00",
";  c #DFDF00",
":  c #404000",
">  c #D00000",
",  c #404000",
"<  c #717171",
"1  c None",
"2  c #303000",
"3  c #666680",
"4  c #F8F84F",
"5  c #404000",
"6  c #F7F750",
"7  c #414100",
"8  c #6A8080",
"9  c #627676",
"0  c #63737D",
"q  c #62747C",
"w  c #62747C",
"e  c #61727B",
"r  c #575700",
"t  c #313100",
"y  c #63737D",
"u  c #63747E",
"i  c #607379",
"p  c #F9F951",
"a  c #63747D",
"s  c #63747D",
"d  c #62747E",
"f  c #593F21",
"g  c #594021",
"h  c #594020",
"j  c #584020",
"k  c #584020",
"l  c #564221",
"z  c #686800",
"x  c #584020",
"c  c #6C6C00",
"v  c #818100",
"b  c #A9A900",
"n  c #A8A800",
"m  c #A8A800",
"M  c #909000",
"N  c #707000",
"B  c #707000",
"V  c #686800",
"C  c #503718",
"Z  c #503818",
"A  c #503917",
"S  c #503818",
"D  c #503717",
"F  c #4F3718",
"G  c #574021",
"H  c #504020",
"J  c #585800",
"K  c #686800",
"L  c #707000",
"P  c #909000",
"I  c #989800",
"U  c #B8B800",
"Y  c #C0C000",
"T  c #D0D000",
"R  c #F8F8F8",
"E  c #F8F800",
"W  c #E0E000",
"Q  c #E00000",
"!  c #D00000",
"~  c #700000",
"^  c #480000",
"/  c #300000",
"(  c #E8E800",
")  c #484800",
"_  c #A8A800",
"`  c #808000",
"'  c #404000",
"]  c #303000",
"[  c #F8F850",
"{  c #382810",
"}  c #483818",
"|  c #503818",
" . c #505050",
".. c white",
/* pixels */
"                                                                                                                                  ",
"                                                                                                                                  ",
"                                                                                                                                  ",
"                                                                                                                                  ",
"                                                                                                                                  ",
"                                                                                                                                  ",
"                                                                                                                                  ",
"                                                                                                                                  ",
"                                                                                                                                  ",
"                                                                                                                                  ",
"                                                                                                                                  ",
"                                                                                                                                  ",
"                                                                                                                                  ",
"                                                                                                                                  ",
"                                                                                                                                  ",
"                                                                                                                                  ",
"                                                                                                                                  ",
"                                                                                                                                  ",
"                                                                                                                                  ",
"                                                                                                                                  ",
"                                                                                                                                  ",
"                                                                                                                                  ",
"                                                                                                                                  ",
"                                                                                                                                  ",
"                                                                                                                                  ",
"                                                                                                                                  ",
"                                                                                                                                  ",
"                                                                                                                                  ",
"                                                                                                                                  ",
"                                                                                                                                  ",
"                                                                                                                                  ",
"                                                                                                                                  ",
"                                                                                                                                  ",
"                                                                                                                                  ",
"                                                                                                                                  ",
"                                                                                                                                  ",
"                                                                                                                                  ",
"                                                                                                                                  ",
"                                                                                                                                  ",
"                                                                                                                                  ",
"                                                                                                                                  ",
"                                                                                                                                  ",
"                                                                                                                                  ",
"                                                                                                                                  ",
"                                                                                                                                  ",
"                                                                                                                                  ",
"                                                                                                                                  ",
"                                                                                                                                  ",
"                                                                                                                                  ",
"                                              . X o O + @ # $ % & *                                                               ",
"                                              = J K L P I I U Y T R -                                                             ",
"                                              ; R R E W W T I I K J :                                                             ",
"                                              > R Q E ! Y ~ I ^ K / ,                                                             ",
"                                              < 1 P ( P U L I ) K 2 3                                                             ",
"                                                4 E ( Y _ I P K J 5                                                               ",
"                                                . 6 E Y I P K J 7 .                                                               ",
"                                                  8 ` L J ' ' ] 9                                                                 ",
"                                                    0 ` ` J ] q                                                                   ",
"                                                    w _ ` J ] e                                                                   ",
"                                                    r R [ ` J t                                                                   ",
"                                                    y J J J ] u                                                                   ",
"                                                  i p R [ U ` ' a s d f g h j k h l                                               ",
"                                                z ( R ( W [ U P J ' { { { } } | | x                                               ",
"                                                c v b n m M N B V  .C Z A S D F G H                                               ",
"                                                                                                                                  ",
"                                                                                                                                  "
};
