/* XPM */
static char *tile005[] = {
/* columns rows colors chars-per-pixel */
"65 66 112 2 ",
"   c black",
".  c #5D7474",
"X  c #00B100",
"o  c #00AF00",
"O  c #556A80",
"+  c #818100",
"@  c #808000",
"#  c #B8B800",
"$  c #63747D",
"%  c #63747D",
"&  c #CFCF00",
"*  c #CFCF00",
"=  c #627676",
"-  c black",
";  c #808000",
":  c #8F8F00",
">  c #676700",
",  c #808000",
"<  c #676700",
"1  c #818100",
"2  c #666600",
"3  c #63737D",
"4  c #686800",
"5  c #637180",
"6  c #686800",
"7  c #55AAAA",
"8  c #909000",
"9  c #808080",
"0  c #607080",
"q  c #8F8F00",
"w  c #676700",
"e  c #60757C",
"r  c #61747D",
"t  c #66707A",
"y  c #939300",
"u  c #808000",
"i  c #808000",
"p  c #686800",
"a  c None",
"s  c #61737C",
"d  c #71718E",
"f  c #7B7B00",
"g  c #696900",
"h  c #63737C",
"j  c #686800",
"k  c #808000",
"l  c #593F21",
"z  c #63747D",
"x  c #503818",
"c  c #503818",
"v  c #4F3818",
"b  c #503718",
"n  c #513917",
"m  c #5B401B",
"M  c cyan",
"N  c #408080",
"B  c #558080",
"V  c #668080",
"C  c #697887",
"Z  c #667780",
"A  c #64737D",
"S  c #63737B",
"D  c #808000",
"F  c #63747D",
"G  c #62737D",
"H  c #61757D",
"J  c #657280",
"K  c #646F7A",
"L  c #667777",
"P  c #627689",
"I  c #6A6A80",
"U  c #608080",
"Y  c #606080",
"T  c #6D6D6D",
"R  c #666699",
"E  c gray40",
"W  c #808080",
"Q  c #555555",
"!  c white",
"~  c #00F800",
"^  c #485800",
"/  c #383000",
"(  c #680000",
")  c #A00000",
"_  c #D0D000",
"`  c #808000",
"'  c #E0E000",
"]  c #200800",
"[  c black",
"{  c #B8B8F8",
"}  c #5860F8",
"|  c #0000E0",
" . c #484800",
".. c #909000",
"X. c #A86840",
"o. c #F8A858",
"O. c #B8B800",
"+. c #584020",
"@. c #000088",
"#. c #F8B080",
"$. c #400000",
"%. c #700000",
"&. c #686800",
"*. c #100000",
"=. c #500000",
"-. c #007070",
";. c #404000",
":. c #B00000",
">. c #63747D",
",. c #483818",
"<. c #503818",
"1. c white",
/* pixels */
"                                                                                                                                  ",
"                                                                                                                                  ",
"                                                                                                                                  ",
"                                                                                                                                  ",
"                                                                                                                                  ",
"                                                                                                                                  ",
"                                                                                                                                  ",
"                                                                                                                                  ",
"                                                                                                                                  ",
"                                                                                                                                  ",
"                                                                                                                                  ",
"                                                                                                                                  ",
"                                                                                                                                  ",
"                                                                                                                                  ",
"                                                                                                                                  ",
"                                                                                                                                  ",
"                                                                                                                                  ",
"                                                                                                                                  ",
"                                                                                                                                  ",
"                                                                                                                                  ",
"                                                                                                                                  ",
"                                                                                                                                  ",
"                                                                                                                                  ",
"                                                                                                                                  ",
"                                                                                                                                  ",
"                                                                                                                                  ",
"                                                                                                                                  ",
"                                                                                                                                  ",
"                                                                                                                                  ",
"                                                                                                                                  ",
"                                                                                                                                  ",
"                                                                                                                                  ",
"                                                                                                                                  ",
"                                                                                                                                  ",
"                                                                                                                                  ",
"                                                                                                                                  ",
"                                                                                                                                  ",
"                                                                                                                                  ",
"                                                                                                                                  ",
"                                                                                                                                  ",
"                                                                                                                                  ",
"                                                                                                                                  ",
"                                                                                                                                  ",
"                                                                                                                                  ",
"                                                                                                                                  ",
"                                                                                                                                  ",
"                                                                                                                                  ",
"                                                                                                                                  ",
"                                                                                                                                  ",
"                                                                                                                                  ",
"                                                                                                                                  ",
"                                                        . X o .                                                                   ",
"                                            O + @ # # $ ~ ^ ^ / % & * = -                                                         ",
"                                          ; ( ) _ ` ` ' ] / ] [ { } |  .: > -                                                     ",
"                                          , ( ` .._ X.o.O.] [ +.@.| @.+.#.+.< -                                                   ",
"                                            1  ...$.O.O.O.O.O.O.O.O.O.O.O.O.O.2                                                   ",
"                                              3 ..%.` &.*.*.*.*.*.*.*.*.*.*.&.4                                                   ",
"                                              5 ..%.` *.*.=.=.=.=.=.=.=.=.=.=.6                                                   ",
"                                              7 ..%.` *.=...=.-...&.-.=...=.=.&.                                                  ",
"                                                8 %.` *.=.&.&.&.;.;.&.&.&.*.=.&.9                                                 ",
"                                        0 q w e ..:.` *.=.&.*.-.&.&.-.*.&.*.=.&.r t y u                                           ",
"                                    i p &.>.>.&.>.` ` &.=.=.*.=.*.*.*.*.=.*.&.&.,.,.<.a s -                                       ",
"                                      9 d f g h < j k &.&.&.&.&.&.&.&.&.&.&.&.&.,. .;.<.+.l                                       ",
"                                                    - z <.<.<.<.<.<.<.<.<.<.<.<.x c v b n m                                       ",
"                                  - M 9 N B V C Z A S D &...&.>.>.>.>.F G H J K C L P I V d U Y T B R E W 7 Q Q 9 9 ! M - -       ",
"                                                                                                                                  "
};
