/* XPM */
static char *tile006[] = {
/* columns rows colors chars-per-pixel */
"65 66 103 2 ",
"   c black",
".  c #999900",
"X  c #E9E900",
"o  c #6D6D92",
"O  c #989800",
"+  c #E7E700",
"@  c #657280",
"#  c #67757C",
"$  c #808000",
"%  c #959500",
"&  c #9B9B00",
"*  c #969600",
"=  c #989800",
"-  c #63747D",
";  c #808000",
":  c None",
">  c #3F0000",
",  c #979700",
"<  c #6F6F00",
"1  c #999900",
"2  c #676700",
"3  c #969600",
"4  c #595900",
"5  c #929200",
"6  c #575700",
"7  c #808000",
"8  c #6D6D6D",
"9  c #808000",
"0  c white",
"q  c #585800",
"w  c #62757C",
"e  c #55AAAA",
"r  c #585800",
"t  c #989800",
"y  c #555500",
"u  c #0000E0",
"i  c #5860F8",
"p  c #8E8E00",
"a  c #808080",
"s  c #62747D",
"d  c #686800",
"f  c #63747D",
"g  c #5A7878",
"h  c cyan",
"j  c #64747C",
"k  c #583F20",
"l  c #584120",
"z  c #583E1F",
"x  c #66757C",
"c  c #666699",
"v  c #5B3E22",
"b  c #574020",
"n  c #584020",
"m  c #564022",
"M  c black",
"N  c blue",
"B  c #555555",
"V  c #408080",
"C  c #808080",
"Z  c #558080",
"A  c #557171",
"S  c #668080",
"D  c #627689",
"F  c #697878",
"G  c #687480",
"H  c #61727B",
"J  c #64707C",
"K  c #63737D",
"L  c #63747C",
"P  c #62747D",
"I  c #64737E",
"U  c #66707A",
"Y  c #556A80",
"T  c #608080",
"R  c #989800",
"E  c #E8E800",
"W  c #909000",
"Q  c #480000",
"!  c #680000",
"~  c #400000",
"^  c #300000",
"/  c #880000",
"(  c #D0D000",
")  c #800000",
"_  c #980000",
"`  c #B00000",
"'  c #500000",
"]  c #280000",
"[  c #808000",
"{  c #585800",
"}  c #180000",
"|  c #707000",
" . c #100000",
".. c #484800",
"X. c #404000",
"o. c #686800",
"O. c #0000E0",
"+. c #4040F8",
"@. c #584020",
"#. c #503818",
"$. c #483818",
"%. c #63747D",
"&. c white",
/* pixels */
"                                                                                                                                  ",
"                                                                                                                                  ",
"                                                                                                                                  ",
"                                                                                                                                  ",
"                                                                                                                                  ",
"                                                                                                                                  ",
"                                                                                                                                  ",
"                                                                                                                                  ",
"                                                                                                                                  ",
"                                                                                                                                  ",
"                                                                                                                                  ",
"                                                                                                                                  ",
"                                                                                                                                  ",
"                                                                                                                                  ",
"                                                                                                                                  ",
"                                                                                                                                  ",
"                                                                                                                                  ",
"                                                                                                                                  ",
"                                                                                                                                  ",
"                                                                                                                                  ",
"                                                                                                                                  ",
"                                                                                                                                  ",
"                                                                                                                                  ",
"                                                                                                                                  ",
"                                                                                                                                  ",
"                                                                                                                                  ",
"                                                                                                                                  ",
"                                                                                                                                  ",
"                                                                                                                                  ",
"                                                                                                                                  ",
"                                                                                                                                  ",
"                                                                                                                                  ",
"                                                                                                                                  ",
"                                                                                                                                  ",
"                                                                                                                                  ",
"                                                                                                                                  ",
"                                                                                                                                  ",
"                                                                                                                                  ",
"                                                                                                                                  ",
"                                                                                                                                  ",
"                                                                                                                                  ",
"                                                                                                                                  ",
"                                                                                                                                  ",
"                                                                                                                                  ",
"                                                                                                                                  ",
"                                                                                                                                  ",
"                                                                                                                                  ",
"                                                            . X                                                                   ",
"                                                          o R E o                                                                 ",
"                                                          O R R +                                                                 ",
"                                                          @ W W #                                                                 ",
"                                                $ % & * = - R E - = * & % $                                                       ",
"                                              ; : Q ! ! ~ R R E R ~ ~ ~ ~ > ,                                                     ",
"                                            < ^ Q ! / / ! ~ ( ( ! ! ) _ ` ! ~ 1                                                   ",
"                                            2 Q ! / / ` / ~ R R ! ! Q ' _ ! ! 3                                                   ",
"                                            4 ~ ! ! Q ! ! Q W W ! Q ] Q ! Q ~ 5                                                   ",
"                                            6 ~ ~ ^ ! Q ! Q [ [ Q ] ~ ) ) ! ~ 7                                                   ",
"                                            8 { ] ^ Q ^ Q ] [ [ ] } ~ Q ! ^ 9 0                                                   ",
"                                              q { ] ] ^ ^ ] | |  .} ^ ] ] [ w                                                     ",
"                                              e r ..X.] ] ] { { ] } ] [ [ t 0                                                     ",
"                                                y u o.o.o.o.o.| | | [ [ i p                                                       ",
"                                                  a s d O.o.o.| | +.[ f g h                                                       ",
"                                                    a j @.@.@.@.@.@.@.@.@.@.k l z x c                                             ",
"                                                  v b @.@.#.#.#.$.$.$.$.$.$.#.#.#.@.n m 0                                         ",
"        M M N h a a a a B e V C c Z 8 A S D F G H J K L %.@.@.@.@.@.@.@.@.@.@.@.%.P I # U g Y T Z C e B a a a a 0 h M M M         ",
"                                                                                                                                  "
};
