/* XPM */
static char *tile007[] = {
/* columns rows colors chars-per-pixel */
"65 66 117 2 ",
"   c black",
".  c white",
"X  c #0089E0",
"o  c #0087E0",
"O  c #0088E0",
"+  c #0088E0",
"@  c #0088E0",
"#  c #0088DF",
"$  c #0078C7",
"%  c #55AAAA",
"&  c #0086E4",
"*  c #0098F8",
"=  c #0079C8",
"-  c #0079C8",
";  c cyan",
":  c #0098F7",
">  c #0077C6",
",  c #0098F9",
"<  c #0077C7",
"1  c #0076C7",
"2  c #0078C8",
"3  c #0078C8",
"4  c #0078C8",
"5  c #0078C7",
"6  c #0078C9",
"7  c None",
"8  c #0068B0",
"9  c #0088E0",
"0  c #0068B0",
"q  c #0068B1",
"w  c #0069B0",
"e  c #0067B0",
"r  c #0069B0",
"t  c #0068AF",
"y  c #666699",
"u  c #627180",
"i  c #574120",
"p  c #583F21",
"a  c #594021",
"s  c #584020",
"d  c #584020",
"f  c #584020",
"g  c #564022",
"h  c #584020",
"j  c black",
"k  c blue",
"l  c #808080",
"z  c #555555",
"x  c #808080",
"c  c #558080",
"v  c #608080",
"b  c #5D7474",
"n  c #6D8080",
"m  c #5E7979",
"M  c #667A7A",
"N  c #637180",
"B  c #64737D",
"V  c #64757E",
"C  c #63747C",
"Z  c #63747D",
"A  c #61757D",
"S  c #64747C",
"D  c #617979",
"F  c #5B6D80",
"G  c #71718E",
"H  c gray40",
"J  c #408080",
"K  c #0098F8",
"L  c #0088E0",
"P  c #58B8F8",
"I  c #D8D8F8",
"U  c #0078C8",
"Y  c #F8B890",
"T  c #F8A858",
"R  c #F89840",
"E  c #F88820",
"W  c #E06800",
"Q  c #C86000",
"!  c #A85000",
"~  c #B05000",
"^  c #885830",
"/  c #704828",
"(  c #503818",
")  c #984800",
"_  c #40B0F8",
"`  c #F09058",
"'  c #F8A070",
"]  c #D88850",
"[  c #A06038",
"{  c #986038",
"}  c #D08050",
"|  c #C87848",
" . c #F8C0A0",
".. c #E88858",
"X. c #F89860",
"o. c #20A8F8",
"O. c #B07040",
"+. c #684820",
"@. c #282828",
"#. c #505050",
"$. c gray22",
"%. c gray47",
"&. c #0000C8",
"*. c #F8D0B8",
"=. c #F8E8D8",
"-. c #F8D8C0",
";. c #A86840",
":. c #F8B080",
">. c #0068B0",
",. c #F8B898",
"<. c #905830",
"1. c #805028",
"2. c #B87848",
"3. c #584020",
"4. c #483818",
"5. c #63747D",
"6. c white",
/* pixels */
"                                                                                                                                  ",
"                                                                                                                                  ",
"                                                                                                                                  ",
"                                                                                                                                  ",
"                                                                                                                                  ",
"                                                                                                                                  ",
"                                                                                                                                  ",
"                                                                                                                                  ",
"                                                                                                                                  ",
"                                                                                                                                  ",
"                                                                                                                                  ",
"                                                                                                                                  ",
"                                                                                                                                  ",
"                                                                                                                                  ",
"                                                                                                                                  ",
"                                                                                                                                  ",
"                                                                                                                                  ",
"                                                                                                                                  ",
"                                                                                                                                  ",
"                                                                                                                                  ",
"                                                                                                                                  ",
"                                                                                                                                  ",
"                                                                                                                                  ",
"                                                                                                                                  ",
"                                                                                                                                  ",
"                                                                                                                                  ",
"                                                                                                                                  ",
"                                                                                                                                  ",
"                                                                                                                                  ",
"                                                                                                                                  ",
"                                                                                                                                  ",
"                                                                                                                                  ",
"                                                                                                                                  ",
"                                                                                                                                  ",
"                                                                                                                                  ",
"                                                    . X o O + @ # $ %                                                             ",
"                                                  & * K K K K L L L = -                                                           ",
"                                              ; : K P I I P P K K L L U >                                                         ",
"                                            ; , K P I Y T R E W W Q L L U <                                                       ",
"                                            : K P I Y T E W ! ~ W W Q L L U >                                                     ",
"                                          & K K P Y E W ^ / ! ( ) Q / ! L L U -                                                   ",
"                                        . * K _ P E Q ` Y ' ] [ { } { / L L U = %                                                 ",
"                                        1 K K _ _ | } ' Y  . ...X.' | / L L L U $                                                 ",
"                                        2 K K o._ O...+.@.` Y X.#.$.| / L L L U 3                                                 ",
"                                        4 K K o.o.X.Y %.&.%.` %.&.%.] ] L L L U 5                                                 ",
"                                        6 K K K o.] *.*.=.Y -. .*.=.' | L L L U 7                                                 ",
"                                        5 L K K K ;.Y  .*.X...X.*. .X.;.L L L U 8                                                 ",
"                                        3 L K K K K Y :. .Y '  . .X...K L L U >.3                                                 ",
"                                        $ L L K K K Y '  .......Y ..} L L L U U $                                                 ",
"                                        % 9 L L K K X.,. .*. .Y ' ..O.L L U U 0 %                                                 ",
"                                          - L L L L ' X.' ' } ' ..{ <.L U U >.-                                                   ",
"                                            > L L L ..' | { { { / 1.;.U U >.>                                                     ",
"                                              < L L ] ..] ` ' ` } ;.[ U U q                                                       ",
"                                                > U L ..} 2.2.2.;.[ U >.w                                                         ",
"                                                  - = U U U U U U U 0 e                                                           ",
"                                                    % $ 3 5 7 8 r t %                                                             ",
"                                                                                                                                  ",
"                                                                                                                                  ",
"                                                                                                                                  ",
"                                                                                                                                  ",
"                                                                                                                                  ",
"                                                                                                                                  ",
"                                                            y u i p a s d f d s a p i u y                                         ",
"                                                        . g h 3.( ( ( 4.4.4.4.4.( ( ( 3.h g .                                     ",
"          j j j j k ; . . l l l l z z % x y c v b n m M N B V C 5.3.3.3.3.3.3.3.3.3.5.Z A S D F G c H J z l l l l ; k j j j       ",
"                                                                                                                                  "
};
