/* XPM */
static char *_[] = {
/* columns rows colors chars-per-pixel */
"65 65 94 2 ",
"   c None",
".  c black",
"X  c gray12",
"o  c #282008",
"O  c #382810",
"+  c #202020",
"@  c gray13",
"#  c #282828",
"$  c gray16",
"%  c gray19",
"&  c gray22",
"*  c #400000",
"=  c #480000",
"-  c #500000",
";  c #600000",
":  c #700000",
">  c #413017",
",  c #403018",
"<  c #403118",
"1  c #483718",
"2  c #483818",
"3  c #503817",
"4  c #503719",
"5  c #503818",
"6  c #584020",
"7  c #684820",
"8  c #704828",
"9  c #000048",
"0  c #004040",
"q  c #004141",
"w  c #005757",
"e  c #005858",
"r  c #007070",
"t  c gray25",
"y  c #484848",
"u  c #494949",
"i  c #505050",
"p  c #606060",
"a  c #6F6F6F",
"s  c #62737D",
"d  c #63737D",
"f  c #63747C",
"g  c #62747D",
"h  c #63747D",
"j  c #62747E",
"k  c #63757E",
"l  c gray44",
"z  c gray47",
"x  c #800000",
"c  c #880000",
"v  c #980000",
"b  c #990000",
"n  c #A00000",
"m  c #B00000",
"M  c #B80000",
"N  c #D00000",
"B  c #F80000",
"V  c #805028",
"C  c #885830",
"Z  c #986038",
"A  c #A06038",
"S  c #B07040",
"D  c #B87848",
"F  c #C87848",
"G  c #D08050",
"H  c #D88850",
"J  c #E88858",
"K  c #F09058",
"L  c #F89860",
"P  c #F8A070",
"I  c #000098",
"U  c #008080",
"Y  c #009898",
"T  c #00AFAF",
"R  c #00B0B0",
"E  c #00C8C8",
"W  c #00E0E0",
"Q  c #20F8F8",
"!  c #78F8F8",
"~  c #888888",
"^  c #989898",
"/  c gray66",
"(  c gray69",
")  c #F8B080",
"_  c #F8B890",
"`  c #F8C0A0",
"'  c #F8C8B0",
"]  c #F8D0B8",
"[  c #B8F8F8",
"{  c #C0C0C0",
"}  c #D0D0D0",
"|  c #D8D8D8",
" . c #D8F8F8",
".. c gray91",
/* pixels */
"                                                                                                                                  ",
"                                                                                                                                  ",
"                                                              # # # & # .                                                         ",
"                                                        + # # # # # y # . . . .                                                   ",
"                                                    X y # # # # # & y & . . . . .                                                 ",
"                                                  + y { y # # # # & p & . . . . . . h                                             ",
"                                    T U U U U h + + y y ^ # ( # ..y p y . i . & . & . U U ! U U                                   ",
"                                   .0 + y # + e + + + # # # # & y y z z . . . . . . . 0 0 + y # + w                               ",
"                                R 0 + y l i # + e + + . U U C C 6 y z ( y . 6 C & & . . . y l i # +                               ",
"                              U U 0 + y i & # + e & & . Q E P D D Z C C p ~ p P & & i . . y i & # + 0                             ",
"                            c c N e 0 + # # + 0 { y y .  .Y V J _ P G p ..P ..p p z / . 0 + # # + 0 c                             ",
"                          b N c c 0 0 0 0 0 0 p l & + .  .U I 9 x A 8 ~ P ' P ~ p z / . 0 0 0 0 0 N n                             ",
"                          m ; h h h U U 0 0 h p i & + .  .E L J J ) L p ..P ..p & & i . + 0 # # h n n                             ",
"                        c c - - h h W W 0 e h i i & + . ! E ] ` ` ) ` G p ~ p F & & + . + e # 0 h n - -                           ",
"        y a /           - - * * * * W W 0 e h y i & + . Q E ) ) G A C C G H A A & & . . + e # 0 h ; * -             # # #         ",
"        + + #  .p y # # h * * * * * U W 0 U r y y # + . Q E P S K P K P K F J A & & . . e e # 0 0 * * * h   y # # # # # +         ",
"          + + + & & & & # + + * * E [ E E E [ r + + + . Q E P S { } | } ^ F J A & & . . r Y r r r Y * * p y # # + + + +           ",
"          + + + + + + + + & + + + U e e e e e e e . . . U E P F { } | } ^ F J A & & . + 0 0 0 0 0 0 e ^ # + + + . . . .           ",
"        X + y # + + + . . . . . + % 0 0 0 0 0 0 0 + + . & U G ) L ) _ ) L J Z & & . . + # # # # # # # + + + + . + . + . .         ",
"      { p p # # + + + + + + . + % % & & e & e & % + + + + + & & y Z C Z y & & . . . + + + + # + # + + + + # + + + + . + . +       ",
"      +  .i # + + # + + + + . + # # & & & & & & & # + . + + + + + + . . . . . . . . + + + + # # # # # . + # + + + + + . + +       ",
"      + + i & # & + + + + + . + # % & & & & & & & # # # + . . . . . . . . . . . + # # # # # # # # # # . + # + + + + + + + + h     ",
"        . + & & & i i i & + y i i i i i y y y t t & & % e 0 % % % + l ..l y t t t % % % % % % % % % % i i i i i i y & + # + +     ",
"        . . + + p p & p p i & + ! R e + + & + + + + + + + + + + + . + i # + + + + + + + + + + + & p p i & + ! R e + + & & . h     ",
"      . . . . z ^ & z ^ & + + R 0 . 0 e + + + + + + + + + + + + + . + i # + + + + + + + + + + & z z & + + R 0 . 0 e + + + + .     ",
"      . + + p p & p p & + + + r . . . e + + + + + + + + + + + + + . + i & + + + + + + + + + + p p & + + + r . . . e + + + + +     ",
"      . + i i & y i & ! R e + e 0 . 0 0 + U e e + + + + + + + + . . + y i # + + + + + + + + & i & ! R e + e 0 . 0 0 + U e e +     ",
"      + . i y & i i R 0 . 0 e + e e 0 + U 0 . 0 e + + + + + + + . . + & i # + + + + + + + + y i R 0 . 0 e + e e 0 + U 0 . 0 e     ",
"      + i i & y i & r . . . e + + + + + e . . . e + + + + + + + . . + # i # + + + + + + + & i & r . . . e + + + + + e . . . e     ",
"      + i i & i i + e 0 . 0 0 + U e e + e 0 . 0 0 + + + + + + + . = = # y # + + + + + + + y i & e 0 . 0 0 + U e e + e 0 . 0 0     ",
"      + i i + i i + + e e 0 + U 0 . 0 e + e e 0 + + . . . . . . . = ; # # . . . . . . . . y i & + e e 0 + U 0 . 0 e + e e 0 +     ",
"      . y y + y y + + + + + + e . . . e + + + + + + . . . . . . . : ; ; . . . . . . . . . y i & + + + + + e . . . e + + + + + X   ",
"      + i i + i i + + W r e + e 0 . 0 0 + r e e + + = = = = = = ; c c c c ; = = = * * * * y i + + W r e + e 0 . 0 0 + r e e + +   ",
"      + y y + y y + R 0 . 0 e + e e 0 + r 0 . 0 e + M M M B M b b c c c x x x x = * * = = y i + R 0 . 0 e + e e 0 + r 0 . 0 e     ",
"      # y y + y y + r . . . e + + + + + e . . . e + b b B M b B b c c c c x c x ; * ; = = y i + r . . . e + + + + + e . . . e     ",
"      # . & & + & + e 0 . 0 0 + r e e + e 0 . 0 0 + & l i & # + + + + + + + + + + + i / / y + + e 0 . 0 0 + r e e + e 0 . 0 0     ",
"      . . . . + & & + e e 0 + r 0 . 0 e + e e 0 + i y y # + + + + + + + + + + + & p z z z y + + + e e 0 + r 0 . 0 e + e e 0       ",
"        . . . . + + + + + + + e . . . e + + + + # & # # y . . . . . . . . . . & i y & y p # + + + + + + + e . . . e + + + X       ",
"          . . . . . . & + + + e 0 . 0 0 + + + + + + . . . # + + + + + + + + # y & # # & p # . + + + + + + e 0 . 0 0 + + +         ",
"            . . . C D + + + + + e e 0 + + . . . . . . . . . . + + + + + + + y # # # # & . . + + + + + + + + e e 0 + + .           ",
"              . . C J J D + . . . . . . , % + + + . . . . . . . + + + + + + # # # + . + + + # # + + + . . . . . . . .             ",
"                  C J J S C 7 2 2 , + + % % y # + . . . . . . . . . . . . # + + + . + + i # & # + + + + J J 7 7 2 2 >             ",
"                    U U U U 0 0 0 # + + # % y + . . . . . . . . . . . . . + + + . + + # z # y & # + + + U U 0 0 0 0               ",
"                    h + + . + # + + + + # % & + . . . . . . . . . . . . . . . . + + + # p i i # # + + + + + . . . h               ",
"                      # & . + # + + + + # # & + . . . . . . . . . . . . . . + . + + + # y & p & & # + + + + . + .                 ",
"                      # & & + + + + + + # # % + . . . . . . . . h         . + . + + + # & # z & y # + + + + + + .                 ",
"                      + + & & + + + + + # # % + . . . . . . . h           h + + # + # # p i i # + y p p p y & & &                 ",
"                      . . # & y y & & # # + + + # # # # + . .               + + + + # # } } z p p y y y & & + + .                 ",
"                      . . . . # y i i p p p p z i # # + + +                   + + # p z z & + + + + + + + + + + .                 ",
"                      # & . . + + + + + + + & & + . . . .                     + p p & . . . . . . . . . . . . . .                 ",
"                      + + & # . . . . . . . . . . . . . .                     p & . . . . . . . . . . . . . . . .                 ",
"                      . . + & & & # . . . . . . # # # +                         . . & p z } z p i i i y y y & & +                 ",
"                        . . . & y y i i i p y & # + + +                         . & p y y & & & & & & + + + + + +                 ",
"                        + . . . . . . . . . . . . . .                             & . . . . . . . . . . . . . . .                 ",
"                          + . + + + + # # + . . . . .                               . + + i # # # # # . . . . . .                 ",
"                          + + . + + + + # + . . . . h                                 + + y + # # # y . . . . . .                 ",
"                          . . . . . . . . . . . . . .                                 . + & y # # & i . . . . .                   ",
"                          + + # # # # # + + + + . . .                                 . + + & + # & i . . . . .                   ",
"                        . . . . . . . . . . . . . . .                                   . + + & # & z . . . . .                   ",
"                        & # # # # # # + + + # # + . . h                                 . . + + # i z i & & + .                   ",
"                      # # + + + + + + + + + + + # . o o O O , ,                       . . + & y y y & & & & & & #                 ",
"                      + + . . . . . . . + + . . + . o o o o o o o o O , 2 2 , , O O . . # & & & # # # # # # # # # #               ",
"                          . . . . . . . . . . . . o o o o o o o o o o o o o o o o o . . & # # # # + + + + + + + + + + 2 3         ",
"                                          4 1 2 , , , , , O O O O O o o o o o o o o o . + + + + + . . . . . . . . + + O 2 5 7   h ",
"                                                    h h h 8 8 5 5 5 5 2 2 2 2 , , , O O . . . . . . . . . . . . . . . O 2 5 7 7 h "
};
