/* XPM */
static char *_[] = {
/* columns rows colors chars-per-pixel */
"65 65 93 2 ",
"   c None",
".  c black",
"X  c gray12",
"o  c #282008",
"O  c #392710",
"+  c #382810",
"@  c #3F3018",
"#  c #202020",
"$  c gray13",
"%  c #282828",
"&  c gray16",
"*  c gray19",
"=  c gray22",
"-  c #400000",
";  c #480000",
":  c #500000",
">  c #600000",
",  c #700000",
"<  c #402F18",
"1  c #412F18",
"2  c #403017",
"3  c #403117",
"4  c #403018",
"5  c #403118",
"6  c #413019",
"7  c #483818",
"8  c #503917",
"9  c #503818",
"0  c #513918",
"q  c #584020",
"w  c #684721",
"e  c #684820",
"r  c #704828",
"t  c #000048",
"y  c #004040",
"u  c #005858",
"i  c #007070",
"p  c gray25",
"a  c #484848",
"s  c #505050",
"d  c #606060",
"f  c #63747D",
"g  c gray44",
"h  c gray47",
"j  c #800000",
"k  c #870000",
"l  c #880000",
"z  c #980000",
"x  c #A00000",
"c  c #B10000",
"v  c #B80000",
"b  c #D00000",
"n  c #F80000",
"m  c #805028",
"M  c #885830",
"N  c #905830",
"B  c #986038",
"V  c #A06038",
"C  c #A86840",
"Z  c #B07040",
"A  c #B87848",
"S  c #C87848",
"D  c #D08050",
"F  c #D88850",
"G  c #E88858",
"H  c #F09058",
"J  c #F89860",
"K  c #F8A070",
"L  c #000098",
"P  c #008080",
"I  c #00B0B0",
"U  c #00C8C8",
"Y  c #00E0E0",
"T  c #20F8F8",
"R  c #78F8F8",
"E  c #79F8F8",
"W  c #888888",
"Q  c #989898",
"!  c #A7A7A7",
"~  c gray66",
"^  c gray69",
"/  c #F8B080",
"(  c #F8B890",
")  c #F8C0A0",
"_  c #F8C8B0",
"`  c #F8D0B8",
"'  c #B8F8F8",
"]  c #C0C0C0",
"[  c #D0D0D0",
"{  c #D8D8D8",
"}  c #D8F8F8",
"|  c gray91",
" . c #F8F8F8",
/* pixels */
"                                                                                                                                  ",
"                                                          % % % % = % . . .                                                       ",
"                                                        % % % % % a % . . . .                                                     ",
"                                                      % % % % % = a % . . . . . .                                                 ",
"                                                    # % % % % % = d % . . . . . . .                                               ",
"                                      P P P     X # % W % ^ % [ a d = . d . d . a . . f P P R P P                                 ",
"                                  y # a % # u f # # % % % % = a a h a . . . . . . . . P P y # a % # u                             ",
"                                y # a ~ d % # y = # . M P M q a h ^ a . q M M M = . . P y # a ~ d % #                             ",
"                              P y # a d a % # y a = . Z T K A A B M M d W d K V = . g P y # a d a % # y                           ",
"                            l b u y # % % # y d ] a . B R m G ( K D d | K | d Q [ [  .. u y # % % # y b l                         ",
"                            b l f y y y y y f d g p . Z } L t k V r W K _ K W Q ^ Q | . f y y y y y f l b                         ",
"                          c > f f f P f y f f d * * . Z R J G G / J d | K | d N = . g . f f P f y f f f x :                       ",
"                          k : : f f Y f i f f s * * . V R ` ) ) / ) D d W d S N = . # . f f Y f i f f > : :                       ",
"        g !                 - - - f Y f P f f a * * . M T / / D V M M D F Z N C = . . . f f Y f P f > > - :             % %       ",
"        # % d d a % %       - - - P Y i P i f a * * . m T K Z H K H K H Z K D e = . . . # P Y i P i - - - f a a % % % % % #       ",
"          # # = = = = % # # f - U ' U U U ' i # # # . N T K Z ] [ { [ ] Z K D C = . . . U ' U U U ' i - - d a % % # # # #         ",
"          # # # # # # # = # # # P u u u u u u u . . . M T K S ] [ { [ ] S K D M = . . * u u u u u u y u Q % # # # . . . .         ",
"        # # a # # # . . . . . # * y y y y y y y # # # = P D / J / ( / J / B = = . . . * y y y y y y y % # # # # . # . # . .       ",
"      X = d = # # # # # # . # * * * y * y * * * # # # # # = = a B M B a = = . . . . # * * * y * y * * # # # % # # # # . # . X     ",
"      ! d = # # % # # # # . # % % % % % % % % % % # . # # # # # # . . . . . . . . # % % % % % % % % % % . # = # # # # # . # #     ",
"      # g a % = # # # # # . # % * * * * * % % % % % % # . . . . . . . . . . . # * * * % % % % % % % % % . # d # # # # # # # #     ",
"      . # = = = s s s s s a = * d d s a * * * * * * * * y * * * # ~ d s a p p p * * * * * * * * * * * s s s s s a = # % # # .     ",
"      . . . d s = # R I u # # = = # # # # # # # # # # # # # # # . % % # # # # # # # # # # # # # # d s = # R I u # # = = . . .     ",
"      % . h = # # I y . y u # # # # # # # # # # # # # # # # # . . % % # # # # # # # # # # # # # h = # # I y . y u # # # # . %     ",
"      % d = # # # i . . . u # # # # # # # # # # # # # # # # # . . % % # # # # # # # # # # # # d = # # # i . . . u # # # # # %     ",
"      s = R I u # u y . y y # P u u # # # # # # # # # # # # # . . % % % # # # # # # # # # # s = R I u # u y . y y # P u u # #     ",
"      s I y . y u # u u y # P y . y u # # # # # # # # # # # # . . % % % # # # # # # # # # # s I y . y u # u u y # P y . y u #     ",
"      = i . . . u # # # # # u . . . u # . # # # # # # # # # . . . % % % # # # # # # # # # s = i . . . u # # # # # u . . . u #     ",
"      = u y . y y # P u u # u y . y y # . # # # # # # # # # . . ; ; % % # # # # # # # # # s = u y . y y # P u u # u y . y y #     ",
"      = # u u y # P y . y u # u u y # # . . . . . . . . . . . . ; > % % . . . . . . . . . s = # u u y # P y . y u # u u y # #     ",
"      = # # # # # u . . . u # # # # # # . . . . . . . . . . . ; , > > . . . . . . . . . . s = # # # # # u . . . u # # # # # #     ",
"      # # Y i u # u y . y y # i u u # # . ; ; ; ; ; ; ; ; ; ; > l l l l > ; ; ; ; - - - - s # # Y i u # u y . y y # i u u # #     ",
"      # I y . y u # u u y # i y . y u # . ; ; > > z v v n v z z l l l k k k k > ; - - ; ; s # I y . y u # u u y # i y . y u #     ",
"      # i . . . u # # # # # u . . . u # . . ; ; > , z n v z n z l l l l k l k > > - > ; ; s # i . . . u # # # # # u . . . u #     ",
"      # u y . y y # i u u # u y . y y . = a ~ h # # = g s = % # # # # # # # # # # # a ~ { a # u y . y y # i u u # u y . y y .     ",
"        # u u y # i y . y u # u u y # . = = s = s a % % % # # # # # # # # # # # = d h h d % # # u u y # i y . y u # u u y #       ",
"        # # # # # u . . . u # # # # . = = = s = = % a . . . . . . . . . . . = a s a = % % a % # # # # # u . . . u # # # # .       ",
"          # # # # u y . y y # # # . . . . . . . . # # # # # # # # # # # # = a = % % % % % a . . # # # # u y . y y # # # .         ",
"            # # # # u u y # # . . % % * * p a # # . . # # # . # # # # # = = % % % % # . . . # # # # # # # u u y # # . .           ",
"              r 7 . . . . . 4 # % % % * * p a % # # # . . # # . # # # # # % % # # . . # # s % % # # # r 7 . . . . . 4             ",
"              G G e e e 7 7 4 # % % * * p a s % # # # # # . # . . . . . # # # . . # # # = s = % # # # G G e e e 7 7               ",
"                P y y y y y % # % * * p a s p % # # # # # # . # . . . . . # . . # # # % = s a = % # # # P y y y y                 ",
"                    f # # . # # % * * p a g % % # # # # # # # # . . . . . . . . # # # % = s s = % % # # . # . .                   ",
"                      % = . # # * * p a s g = % # # # # # # . . . . . . . . # . # # # % = a d = = % # # . # . .                   ",
"                      % = . # * * p a s g a % # # # # # # # . .         . . # . # # # % = % h = a % # # . # # .                   ",
"                    # # % % . # p a s s [ p % # # # # # # # .             . . . # % # % % s a a a d d d a = = =                   ",
"                    # . = = . . . . . . . . . . . . . # # # .             . . . # % # d h d s s a a a = = # # .                   ",
"                      # % = a . . . . . . . . . . . % % = #                 . . % a h d = # # # # # # # # # # .                   ",
"                      % . % a a = . . . . . . . % % s = # #                 . # a = # . . . . . . . . . . . . .                   ",
"                      # # . # a s s d g Q Q [ Q d a % . . .                   % # . . . . . . . . . . . . . . .                   ",
"                        = # . # # # # # # # = = # . . # . .                     . = d d Q h d s a = = = % % % #                   ",
"                        % = # . . . . . . . . . . . % # # .                     = d a a = = % % % % # # # # # #                   ",
"                          % = = % # . . . . . # % % # # . .                   . = . . . . . . . . . . . . . . .                   ",
"                          . % a a s s s s d a = % # . . . .                   . . # # = # % = s % . . . . . .                     ",
"                            # # . . . . . . . . . . . . . .                     . # # = # % = = # . . . . . .                     ",
"                              % % % % # # # # # # . # . .                       . # % = # % = % . . . . . .                       ",
"                              % # # . . . . . . . . . . .                       . # # % # % = # . . . . . .                       ",
"                                # # . . . . . . . . . . .                         . # # # # % . . . . . .                         ",
"                                  % % % # # # # . # . . .                       . . . # # % s s s = = # .                         ",
"                                  . . . . . . . . . . .                       . . . # = a a a = = = = = = %                       ",
"                                    . . . . . . . . . f + 4 4 7 7 7 7 7 7 4 + . . % = = = % % % % % % % % % %                     ",
"                                w 0 7 4 4 4 + + + + o o o o o o o o o o o o o . . = % % % % # # # # # # # # # # f                 ",
"                            8 7 4 4 + + + + o o o o o o o o o o o o o o o o o o . # # # # # . . . . . . . . # # + 7 0             ",
"                                              4 < 2 4 4 4 @ @ 2 < 4 4 < < < < O + . . . . . . . . . . . . . .                     ",
"                                                                                                                                  "
};
