/* XPM */
static char *_[] = {
/* columns rows colors chars-per-pixel */
"65 65 82 1 ",
"  c None",
". c black",
"X c #282008",
"o c #382810",
"O c #202020",
"+ c #282828",
"@ c gray16",
"# c gray19",
"$ c gray22",
"% c #400000",
"& c #480000",
"* c #500000",
"= c #600000",
"- c #700000",
"; c #483817",
": c #403018",
"> c #483818",
", c #483918",
"< c #503818",
"1 c #584020",
"2 c #684820",
"3 c #000048",
"4 c #004040",
"5 c #005757",
"6 c #005858",
"7 c #007070",
"8 c gray25",
"9 c #484848",
"0 c #505050",
"q c #606060",
"w c #63737E",
"e c #62747D",
"r c #63747D",
"t c #63757D",
"y c gray44",
"u c #717171",
"i c gray47",
"p c #800000",
"a c #880000",
"s c #980000",
"d c #A00000",
"f c #B80000",
"g c #D00000",
"h c #E00000",
"j c #F80000",
"k c #885830",
"l c #986038",
"z c #A06038",
"x c #B07040",
"c c #B87848",
"v c #F05050",
"b c #C87848",
"n c #D08050",
"m c #D88850",
"M c #E88858",
"N c #F09058",
"B c #F89860",
"V c #F8A070",
"C c #008080",
"Z c #008181",
"A c #009898",
"S c #00B0B0",
"D c #00C8C8",
"F c #00E0E0",
"G c #20F8F8",
"H c #77F8F8",
"J c #78F8F8",
"K c #888888",
"L c #989898",
"P c gray66",
"I c gray69",
"U c #F8B080",
"Y c #F8B890",
"T c #F8C0A0",
"R c #F8C8B0",
"E c #B8F8F8",
"W c #C0C0C0",
"Q c #D0D0D0",
"! c #D8D8D8",
"~ c #D8F8F8",
"^ c gray91",
"/ c #F8F8F8",
/* pixels */
"                                                                 ",
"                                                                 ",
"                              ++$+.                              ",
"                           +++++9+....                           ",
"                         O+++++99+.....                          ",
"                        OO+++++9q+.......                        ",
"                   CCCC6+K+^+^9q$.q.q.9..tt  CCC                 ",
"                 H4O9+OO++++$9Iq9.........C4O9+OC                ",
"                 4O9Pq++..CC9i^9.1kkkk$O.C4O9Pq+OC               ",
"                C4O9q9++..GScclkqKqVm$Ou.C4O9q9+OC4              ",
"                aC4O++O+..JSMYVq^V^qLQQ/$.C4O++OC4gg             ",
"                g=CCCCC+..~73pzKVRVKLQQ/$..CCCCC4aaa             ",
"                =%tC644+..JSMMUq^V^qz$Ou...tC744ttt=d            ",
"                *%tF674+..JJTTUTnqKqbz$OO..tF7A6tt==*            ",
"      u0        %%%F6C4+..GGUnzkknmzzm$O...tF7A6t===%      ++    ",
"      +qQ9+     %%CF6C4+..GGnNVNVNxVn2$O..OCF7A6%%%%t9q99+++O    ",
"      OO$$$$+O   DEDDDE+..GGnLQ!QWxVnx$O..DEDDDE7%%%qi++OOOO     ",
"      OOOOOOO$OOOC77777+..GGnLQ!QWbVnk$O..677777466L9OOO....     ",
"     OO$++O.....+#66666OO$CCUBUYUBUl$$+O..6666664++OOOO.O.O..    ",
"    O$$u++OOOO.+$$$6$6$+OOO$$9lkl9$$++O..O#$6464$$OOO9OOOO.O.O   ",
"    u$Lu++O+OO+$$$$$$$$$+.O+++++++++O...O+$$$$$$$$O.OqOOOOO.OO   ",
"   tOuQ+$OO+O+$$$$$$$$$$$$+...........O#$$$$$$$$$$O.OiOOOOOOOOt  ",
"   .O$$$00009$$O..qqq000099999.O^Kuuuqq000009998800009$$$$O+OO.  ",
"   ...0$OJS6++$$+O.O+++++++++O..K9$$$##+++++++++$OJS6+$$+$$$...  ",
"   +.$++S4.46+++OO..O++++++++...9$$#++++++++++$$$S4.46+$$+OOO.+  ",
"   +$+++7...6++++OO..++++++++...9#+++++++++++$$$$7...6+$$$+OOO+  ",
"   $JS6+64.44OJS6+OO.O++++++O...$$++++++++++$JS6+64.44OJS6++OOO  ",
"   S4.46+664+S4.46OO..++++++O...+9++++++++++S4.46+664OS4.46O...  ",
"   7...6+++++7...6O...++++++....+9+++++++++$7...6O++++7...6O...  ",
"   64.44OJS6+64.44O...+++++O...&&9+++++++++$64.44OJS6+64.44O...  ",
"   +664+S4.46+664O+............&=$+........$$664OS4.46+664O+.... ",
"  $+++++7...6++++++...........&-=..........$$$+++7...6O+++++.... ",
"  +OJS6+64.44OJS6++...&&&&&&&&&=aaaa=&&&&%%$OJS6+64.44OJS6++.... ",
"   S4.46+664+S4.46+...&==sfvjfssaaahppp=&%%$S4.46+664OS4.46O.... ",
"   7...6+++++7...6O...L9=-svfsjsaaaapap==%=$7...6O$+++7...6O.... ",
"   54.44OJS6+64.44...+qOO$0u0$+OOOOOOOOOO+9q64.44OJS6+64.44....  ",
"    664+S4.46+664O...+9OOO+++OOOOOOOOOO$00$++664OS4.46+664O....  ",
"    ++++7...6+++O...++9OOOO...........$9+OOOO$+++7...6O$++....   ",
"     +++64.44++O........OOOO.+OOOOOOO$+OOOOOO.$$$64.44O$+....    ",
"      +++664+O...OOOOOOO..OO..OOOOOO+OOOO....OO$$+664O$.....t    ",
"       >.....::++++#$$q+O......OOOOOOO...OOOO+OOO$.....:::::     ",
"        MMM22>:+++##$qiOO.O.............OOOOO+OOOOtMMMM2>>:      ",
"         CC444O+++##i8$OO.O...........O.OOOOO$OOOOttCCC444       ",
"          OOO+O+++##$i$OO.O...........O.OOOOO$+OOOO.OO.          ",
"          OOO+O++##$$PqOO.O...........O..OOOO$+OOOO.OO.          ",
"          OOO+++##$$iPOO.O....     ...O..OOOO+$OOOOO.O.          ",
"          OOO+++##$iP$OO.O...      t...O.OOOO+$+OOOO.O.          ",
"         $$$9qqqqiiQQ00+O...        ..O..OOOO+9+OOOO.O.          ",
"         OOOOOOOOOO$000$+..t        ..O+..OOO+9+OOOO..+          ",
"         ............OO+++O         OO.O++$+......+$++O          ",
"         ................OO         OOO...O$90q099$#OO.          ",
"         +$$99000qqQ$++O...         .O++...OOOOOOOO...O          ",
"         OOOO+$$$$$$++++O.          ..O++++..........+O          ",
"         ..............O+.          t...O+##$8998$#++O           ",
"          .O.+OO++$+O.....          t..O..OOOOOOOOOOO            ",
"          ..O.+$OO+$+O...           ..OO............             ",
"          .OO.$OO+9+.....           ..OO............             ",
"           .O.9OOO0O....            ..OOOOOOOO.O...              ",
"           ...9OOq+.....             .OO...........              ",
"           ..$$0i0+O...              .O+++OOOOO..OO              ",
"          +$$999$$$$$O..             .++OOO........              ",
"         $$++++++OOO++O..oooooo:::>>>OOOO...........t            ",
"         ++OOOOOOOOOOO+..XXXXXXXXXXXoo..............o:>          ",
"        +OO.......OO..O.XXXXXXXXXXXXXXXXXoooooooooooo:>>;        ",
"        ...............oo:::::::::>>>>>>>>><<<<<<<tt             "
};
