/* XPM */
static char *_[] = {
/* columns rows colors chars-per-pixel */
"65 65 88 1 ",
"  c None",
". c black",
"X c gray12",
"o c #282008",
"O c #382810",
"+ c #3F3018",
"@ c #202020",
"# c gray13",
"$ c #282828",
"% c gray16",
"& c gray19",
"* c gray22",
"= c #400000",
"- c #480000",
"; c #500000",
": c #510000",
"> c #600000",
", c #700000",
"< c #403117",
"1 c #403018",
"2 c #483818",
"3 c #503818",
"4 c #584020",
"5 c #684820",
"6 c #704828",
"7 c #000048",
"8 c #004040",
"9 c #004141",
"0 c #005858",
"q c #007070",
"w c gray25",
"e c #484848",
"r c #505050",
"t c #606060",
"y c #64737D",
"u c #63747D",
"i c #64757E",
"p c gray44",
"a c gray47",
"s c #800000",
"d c #870000",
"f c #880000",
"g c #980000",
"h c #A00000",
"j c #B10000",
"k c #B80000",
"l c #D00000",
"z c #F80000",
"x c #805028",
"c c #885830",
"v c #905830",
"b c #986038",
"n c #A06038",
"m c #A86840",
"M c #B07040",
"N c #B87848",
"B c #C87848",
"V c #D08050",
"C c #D88850",
"Z c #E88858",
"A c #F09058",
"S c #F89860",
"D c #F8A070",
"F c #000098",
"G c #008080",
"H c #00B0B0",
"J c #00C8C8",
"K c #00E0E0",
"L c #20F8F8",
"P c #78F7F7",
"I c #78F8F8",
"U c #888888",
"Y c #989898",
"T c #A7A7A7",
"R c gray66",
"E c gray69",
"W c #F8B080",
"Q c #F8B890",
"! c #F8C0A0",
"~ c #F8C8B0",
"^ c #F8D0B8",
"/ c #B8F8F8",
"( c #C0C0C0",
") c #D0D0D0",
"_ c #D8D8D8",
"` c #D8F8F8",
"' c gray91",
"] c #F8F8F8",
/* pixels */
"                                                                 ",
"                             $$$$*$...                           ",
"                            $$$$$e$....                          ",
"                           $$$$$*e$.....                         ",
"                          @$$$$$*t$......                        ",
"                   GGG  X@$U$E$)et*.t.t.e..   PGG                ",
"                 8@e$@0u@@$$$$*eeae........uG8@e$@               ",
"                8@eRt$@8*@.cGc4eaEe.4ccc*..G8@eRt$@              ",
"               G8@ete$@8e*.MLDNNbcctUtDn*.pG8@ete$@8             ",
"              fl08@$$@8t(e.bIxZQDVt'D'tY))].08@$$@8lf            ",
"              lfu88888utpw.M`F7dn6UD~DUYEY'.u88888ufl            ",
"             j>uuuGu8uut&&.MISZZWSt'D'tv*.p.uuGu8uuuh;           ",
"             d;;uuKuquur&&.nI^!!W!VtUtBv*.@.uuKuquu>;;           ",
"    pT        ===uKuGuue&&.cLWWVnccVCMvm*...uuKuGu>>=;      $$   ",
"    @$tte$$   ===GKqGque&&.xLDMADADAMDV5*...@GKqGq===uee$$$$$@   ",
"     @@****$@@u=J/JJJ/q@@@.vLDM()_)(MDVm*...J/JJJ/q==te$$@@@@    ",
"     @@@@@@@*@@@G0000000...cLDB()_)(BDVc*..&00000080Y$@@@....    ",
"    @@e@@@.....@&8888888@@@*GVWSWQWSWb**...&8888888$@@@@.@.@..   ",
"   X*t*@@@@@@.@&&&8&8&&&@@@@@**ebcbe**....@&&&8&8&&@@@$@@@@.@.@  ",
"   Tt*@@$@@@@.@$$$$$$$$$$@.@@@@@@........@$$$$$$$$$$.@*@@@@@.@@  ",
"   @pe$*@@@@@.@$&&&&&$$$$$$@...........@&&&$$$$$$$$$.@t@@@@@@@@  ",
"   .@***rrrrre*&ttre&&&&&&&&8&&&@Rtrewww&&&&&&&&&&&rrrrre*@$@@.  ",
"   ...tr*@IH0@@**@@@@@@@@@@@@@@@.$$@@@@@@@@@@@@@@tr*@IH0@@**...  ",
"   $.a*@@H8.80@@@@@@@@@@@@@@@@@..$$@@@@@@@@@@@@@a*@@H8.80@@@@.$  ",
"   $t*@@@q...0@@@@@@@@@@@@@@@@@..$$@@@@@@@@@@@@t*@@@q...0@@@@@$  ",
"   r*IH0@08.88@G00@@@@@@@@@@@@@..$$$@@@@@@@@@@r*IH0@08.88@G00@@  ",
"   rH8.80@008@G8.80@@@@@@@@@@@@..$$$@@@@@@@@@@rH8.80@008@G8.80@  ",
"   *q...0@@@@@0...0@.@@@@@@@@@...$$$@@@@@@@@@r*q...0@@@@@0...0@  ",
"   *08.88@G00@08.88@.@@@@@@@@@..--$$@@@@@@@@@r*08.88@G00@08.88@  ",
"   *@008@G8.80@008@@............->$$.........r*@008@G8.80@.08@@  ",
"   *@@@@@0...0@@@@@@...........-,>>..........r*@@@@@0...0@@.@@@  ",
"   @@Kq0@08.88@q00@@.---------->ffff>----====r@@Kq0@08.88@q00@@  ",
"   @H8.80@008@q8.80@.-->>gkkzkggfffdddd>-==--r@H8.80@008@q8.80@  ",
"   @q...0@@@@@0...0@$eYe>,gzkgzgffffdfd>>=>--r@q...0@@@@@0...0@  ",
"   @08.88@q00@08.88.**t@@*rpr*$@@@@@@@@@@@@.pY@08.88@q00@08.88.  ",
"    @008@q8.80@008@.$e*@@@$$$@@@@@@@@@@@@*ep**@@008@q8.80@008@   ",
"    @@@@@0...0@@@@.$$*$@@@@.............*e$$***$@@@@0...0@@@@.   ",
"     @@@@08.88@@@.......@@@@.@@@@@@@@@@*$@$$$@..@@@@08.88@@@.    ",
"      @@@@008@@..@@@@@@@..@@@.@@@@@@@.@@@@@...$**@@@@008@@..     ",
"       62.....1@$&**a$@@@..@@.@@@@@@@.@@@..@@$&*e@@62.....1      ",
"       ZZ555221$$&*wr@@@@.@..............@@$$&*we@@ZZ55522<      ",
"        G88888$$&&*re@@@@.@............@.@$$$&*er$@@G88888       ",
"           $@$$$&**wr@@@@.@............@.@$$$*wet$@@@@...        ",
"           $@$$$**wre@@@.@...............@@$&*wra*@@@@.@.        ",
"           $@$$&*wer@@@@.@.....     u....@@$&*era*@@@@.@.        ",
"           $@$$&*we*@@@@.@....       u...@@$&*era*@@@@.@.        ",
"           **errttaaRRr$@.@...        ..@.@$*wrtae@@@@.@.        ",
"           @@@@@@@@@*rr***$..         ..@$.@*ertEt*@@@..$        ",
"           .............@$$$@         @@.@$............$@        ",
"           ................@          @@@.$e*$......$e$@.X       ",
"           $**eerrttR*$@....          .@$$..etppRptr*&@.@        ",
"           @@@@$*****$$$$$@.          ..@$$..@@@@@@@@..$@        ",
"           ..............@$           ....@$$..........@         ",
"            .@.@@$$et@.....            ..@.$&&*weew*&$$          ",
"            .@.@@@$*e@....             .....@@@@@@@@@@           ",
"             .@.@@$*$.....             ..............u           ",
"             ..@.@@@*@....             ..............            ",
"             u...@@@$.....              .............            ",
"             ...**rar$@...              ............             ",
"             $**eee*****@..             ...........              ",
"            **$$$$$$@@@$$@.              .........               ",
"            $$@@@@@@@@@@@$.ooOOOO111222211O......                ",
"           $@@.......@@..@.oooooooooooooooooooooooooooooOO+      ",
"           ...............oooooooooooooooooOOOOOOOOOOOOOOO113    ",
"           55533322221111111111111111111111112222223333366u      "
};
