/* XPM */
static char *_[] = {
/* columns rows colors chars-per-pixel */
"65 65 76 1 ",
"  c None",
". c black",
"X c #282008",
"o c #00003F",
"O c #202020",
"+ c gray13",
"@ c #282828",
"# c gray22",
"$ c #403018",
"% c #483818",
"& c #503818",
"* c #585800",
"= c #584020",
"- c #684820",
"; c #704828",
": c #000040",
"> c #000041",
", c #000048",
"< c #000049",
"1 c #000057",
"2 c #000058",
"3 c #000059",
"4 c #000060",
"5 c #000070",
"6 c #000078",
"7 c #000079",
"8 c #484848",
"9 c #505050",
"0 c #606060",
"q c #62737D",
"w c #63737D",
"e c #63747D",
"r c #63757D",
"t c #63747E",
"y c gray44",
"u c gray47",
"i c #805028",
"p c #875830",
"a c #885830",
"s c #905830",
"d c #986038",
"f c #A06038",
"g c #A86840",
"h c #B07040",
"j c #B87848",
"k c #C87848",
"l c #808000",
"z c #A8A800",
"x c #D08050",
"c c #D88850",
"v c #D88950",
"b c #E88858",
"n c #F09058",
"m c #F89860",
"M c #F8A070",
"N c #000088",
"B c #000098",
"V c #0000A0",
"C c #0000B0",
"Z c #0000B8",
"A c #0000C8",
"S c #0000D0",
"D c #0000E0",
"F c #0000E1",
"G c #0000E8",
"H c #0000F8",
"J c #2020F8",
"K c #4040F8",
"L c #888888",
"P c gray66",
"I c gray69",
"U c #F8B080",
"Y c #F8B890",
"T c #F8B898",
"R c #F8C8B0",
"E c #F8D0B8",
/* pixels */
"                                                                 ",
"                                                                 ",
"                                                                 ",
"                                                                 ",
"                                                                 ",
"                                                                 ",
"                                                                 ",
"                                                                 ",
"                                                                 ",
"                                                                 ",
"                                                                 ",
"                              FF6:                               ",
"                            FF6::..                              ",
"                           NN:::....                             ",
"                          NNN::.....                             ",
"                          NsiMg%%a;*.                            ",
"                          5YmxaTYcfl*                            ",
"                         IeUTMxnmddz;                            ",
"                          InTEmjxddxa                            ",
"                           kTxxYxdi=p                            ",
"                           hkcRxdi==e                            ",
"                           exkaa=$$..                            ",
"                          @@hnd$$$...                            ",
"                          @@ika$$...,,,                          ",
"                         OPOXi=$.994ZSSN,                        ",
"                        OO...XX.4..ZGSBB5,                       ",
"                       AOOB.4..4B4ZGFZVN55,                      ",
"                      AAOOBGAB5BCAGAACBNNB::                     ",
"                     GC4OO5AA5BCJ555ZZBNSKN:                     ",
"                    GJ5BOO..B5BB6BBB5N2SJHSC:                    ",
"                   FJC554O...54BB655552H0:KA5:                   ",
"                   GFN:56....OO4444@8900.#BJ5:                   ",
"                  CCCN.:,4:##@090yuuuy09.#C5::,                  ",
"                  5CC6,.#9uuuuu0009988###58C5::                  ",
"                  CFG0yuuu00988888#OO----.5#:O                   ",
"                   40yuL9888###OOOOO.acj--.@:.                   ",
"                   :yu999##O##8O...OO-jcd-.:.                    ",
"                   o6h...#.@989#......-dd-..                     ",
"                    fmmbs=.@989#...........                      ",
"                    cmcf&..:998@.........e                       ",
"                     mmf&...@@:...::::::..                       ",
"                      f-&........::::::::.                       ",
"                        AVN44:...:::V::::.                       ",
"                         55,::...:::5VC2:.                       ",
"                         ZV6,:::.::2C5ZV::                       ",
"                         ZV6,,::.:245CNZ2:                       ",
"                        VZVV6,::.:24NNSNV2                       ",
"                        ZZVV6,::.:224NSSN52                      ",
"                        ZZVV6,,:.:225NCSN52                      ",
"                        ZZVV64,:.:225NVVN52                      ",
"                        ZZVV64,:.:2:6N44N52                      ",
"                        ZZVN64,:.:25N4444N5                      ",
"                        ZZVV4,::e 225444455                      ",
"                        VV65,,::  1.,44222:                      ",
"                        V66,,:::  .,22,22::                      ",
"                        444,::::   ::::::::                      ",
"                        .:::....   .:::..O.                      ",
"                         :::....   .:::..O                       ",
"                         .......   ..::..O                       ",
"                          ......   e.....e                       ",
"                          :::...   .::...O                       ",
"                         :::::..    ::::..                       ",
"                         :::::..    :::::.                       ",
"                         :::::..   ::::::..                      ",
"                       e:::::...e  e.::::.O                      "
};
