/* XPM */
static char *_[] = {
/* columns rows colors chars-per-pixel */
"65 65 166 2 ",
"   c black",
".  c cyan",
"X  c #00009E",
"o  c #000040",
"O  c #000040",
"+  c None",
"@  c #000040",
"#  c black",
"$  c black",
"%  c #00008C",
"&  c #000088",
"*  c black",
"=  c #66757C",
"-  c black",
";  c black",
":  c #000088",
">  c #62757D",
",  c #617979",
"<  c #000098",
"1  c #647480",
"2  c #808080",
"3  c #808080",
"4  c #65747E",
"5  c #000088",
"6  c #000098",
"7  c #000098",
"8  c #408080",
"9  c #000098",
"0  c #000088",
"q  c #000098",
"w  c #000099",
"e  c #667380",
"r  c #000096",
"t  c #000098",
"y  c #000098",
"u  c #5F757C",
"i  c #000071",
"p  c #000098",
"a  c #D88750",
"s  c #D5884D",
"d  c #5B6D80",
"f  c #000071",
"g  c #D88850",
"h  c #5555AA",
"j  c #000071",
"k  c #000098",
"l  c #D8894F",
"z  c #000098",
"x  c #617380",
"c  c #627680",
"v  c #607379",
"b  c black",
"n  c black",
"m  c #00003F",
"M  c #D88851",
"N  c #C87A48",
"B  c #627689",
"V  c #667777",
"C  c #62747D",
"Z  c #986038",
"A  c #976038",
"S  c #F8995F",
"D  c #687480",
"F  c #63747D",
"G  c #0000B7",
"H  c #D5884D",
"J  c white",
"K  c #F89760",
"L  c black",
"P  c #5E7979",
"I  c gray40",
"U  c #0000B8",
"Y  c #D88850",
"T  c #64737C",
"R  c black",
"E  c #63747D",
"W  c #00003F",
"Q  c #00003F",
"!  c #D98950",
"~  c #513819",
"^  c #000058",
"/  c #202020",
"(  c #9F6038",
")  c #684920",
"_  c #4E3718",
"`  c #607580",
"'  c gray12",
"]  c #000088",
"[  c #63747D",
"{  c #71718E",
"}  c black",
"|  c gray12",
" . c #666699",
".. c #000040",
"X. c #63747E",
"o. c gray13",
"O. c #00009F",
"+. c #000048",
"@. c #202020",
"#. c #0000A1",
"$. c #000058",
"%. c #202020",
"&. c #000040",
"*. c #627680",
"=. c #65777D",
"-. c #202020",
";. c #606080",
":. c #000037",
">. c black",
",. c black",
"<. c black",
"1. c #1E1E1E",
"2. c #000042",
"3. c #000040",
"4. c black",
"5. c gray13",
"6. c gray12",
"7. c gray13",
"8. c #000041",
"9. c #00004A",
"0. c black",
"q. c #64747C",
"w. c #558080",
"e. c #63747D",
"r. c black",
"t. c #000058",
"y. c #64747E",
"u. c #000057",
"i. c black",
"p. c black",
"a. c black",
"s. c #717171",
"d. c black",
"f. c black",
"g. c black",
"h. c black",
"j. c black",
"k. c #000088",
"l. c #000040",
"z. c black",
"x. c #805028",
"c. c #B07040",
"v. c #F8B080",
"b. c #B87848",
"n. c #4040F8",
"m. c #D08050",
"M. c #F8D0B8",
"N. c #F09058",
"B. c #E88858",
"V. c #000098",
"C. c #000070",
"Z. c #000078",
"A. c #000058",
"S. c #000048",
"D. c #D88850",
"F. c #000060",
"G. c #986038",
"H. c #0000A0",
"J. c #0000B8",
"K. c #584020",
"L. c #F89860",
"P. c #A06038",
"I. c #684820",
"U. c #503818",
"Y. c #202020",
"T. c white",
/* pixels */
"                                                                                                                                  ",
"                                                                                                                                  ",
"                                                                                                                                  ",
"                                                                                                                                  ",
"                                                                                                                                  ",
"                                                                                                                                  ",
"                                                                                                                                  ",
"                                                                                                                                  ",
"                                                                                                                                  ",
"                                                                                                                                  ",
"                                                                                                                                  ",
"                                                                                                                                  ",
"                                                                                                                                  ",
"                                                                                                                                  ",
"                                                                                                                                  ",
"                                                                                                                                  ",
"                                                                                                                                  ",
"                                                                                                                                  ",
"                                                                                                                                  ",
"                                                                                                                                  ",
"                                                                                                                                  ",
"                                                                                                                                  ",
"                                                                                                                                  ",
"                                                                                                                                  ",
"                                                                                                                                  ",
"                                                                                                                                  ",
"                                                                                                                                  ",
"                                                                                                                                  ",
"                                                                                                                                  ",
"                                                                                                                                  ",
"                                                                                                                                  ",
"                                                                                                                                  ",
"                                                          . X o O + @ # $                                                         ",
"                                                        % & k.l.l.z.z.z.z.*                                                       ",
"                                                      = k.x.c.v.b.c.x.z.z.- ;                                                     ",
"                                                      : n.m.M.M.M.N.N.N.z.z.> .                                                   ",
"                                                    , k.z.z.B.B.m.c.z.z.k.V.V.< 1 2                                               ",
"                                                3 4 5 k.l.l.l.l.l.l.V.k.k.k.k.V.V.V.6 7 2                                         ",
"                                            8 9 0 k.k.k.k.k.l.l.l.l.l.k.k.k.k.k.k.k.k.k.q w e                                     ",
"                                        2 r t V.C.C.C.C.C.C.C.V.l.l.l.l.V.V.k.C.C.C.C.C.C.Z.V.y u                                 ",
"                                    ; i p V.V.C.C.C.k.C.C.z.z.z.z.z.z.z.z.z.C.A.A.S.S.S.S.C.C.C.D.a s                             ",
"                                  d f V.C.k.C.S.C.S.C.z.l.l.l.l.l.l.C.C.l.l.z.z.A.A.l.l.S.A.F.C.C.G.G.g h                         ",
"                                j k V.V.k.C.S.l.l.l.z.l.l.l.l.l.l.l.k.k.k.k.l.l.z.C.l.l.l.S.A.A.A.G.G.c.l                         ",
"                              z V.V.k.Z.C.z.l.z.z.z.l.l.l.A.A.A.A.A.A.H.H.H.H.H.V.l.x c v b n m l.G.G.G.M                         ",
"                            N B.V.C.C.C.l.z.z.z.z.z.z.A.A.H.H.H.k.l.k.J.J.J.J.J.J.J.B         ; V C Z c.A                         ",
"                          S B.K.K.C.l.l.l.n D . F z.A.H.J.J.J.H.F.l.H.J.J.J.J.J.J.J.G ;             8 H J                         ",
"                          K L.P.K.K.l.L P     I A.k.J.J.J.J.J.H.F.A.k.H.J.J.J.J.J.J.J.U .                                         ",
"                          Y L.L.I.U.T J       R k.J.J.J.J.H.V.k.F.A.C.k.H.H.S.H.H.H.J.J.E W Q 3                                   ",
"                          ! L.L.I.~           ^ J.J.J.J.J.H.V.k.F.l.z.Z.Z.A.A.Z.H.A.l.z.l.l.Y./ 3                                 ",
"                          ; ( ) _           ` J.J.J.J.J.J.k.k.k.l.l.z.S.Z.A.A.C.A.A.z.l.l.Y.Y.Y.'                                 ",
"                                            ] J.H.J.J.H.J.J.A.A.l.[ I { } z.S.z.l.l.z.l.l.Y.Y.Y.|                                 ",
"                                           .H.H.J.J.H.V.A.A.Z.A...;       X.A.z.l.z.l.l.Y.Y.Y.Y.o.                                ",
"                                          O.H.J.J.H.k.Z.F.l.S.+.J           1 z.z.z.l.l.Y.Y.Y.@. .                                ",
"                                          #.S.S.S.S.k.Z.F.S.$.{               x z.z.l.z.Y.Y.Y.%.                                  ",
"                                        J &.l.l.l.z.z.S.z.z.*.                  =.z.z.Y.Y.Y.-.;.                                  ",
"                                        :.l.l.l.l.z.z.z.l.>.                      ,.<.Y.Y.Y.1.                                    ",
"                                        2.l.l.l.l.z.z.z.3.2                         4.5.6.7.                                      ",
"                                        8.z.z.z.z.z.z.Y.9.                                                                        ",
"                                        0.z.z.z.z.Y.z.q.                                                                          ",
"                                      w.e.z.l.l.z.z.r.                                                                            ",
"                                    ; t.A.A.A.A.l.z.y.                                                                            ",
"                                    u.l.l.l.l.l.z.z.i.                                                                            ",
"                                    p.z.z.z.z.z.z.z.a.                                                                            ",
"                                      s.d.f.r.<.g.h.j.                                                                            ",
"                                                                                                                                  "
};
