/* XPM */
static char *_[] = {
/* columns rows colors chars-per-pixel */
"65 65 151 2 ",
"   c black",
".  c #6D6D6D",
"X  c #D88B53",
"o  c black",
"O  c #555555",
"+  c #A76740",
"@  c #E88958",
"#  c #E78659",
"$  c blue",
"%  c #627689",
"&  c #D88951",
"*  c #D98950",
"=  c #808080",
"-  c #F89861",
";  c #574020",
":  c #000087",
">  c #000088",
",  c #000040",
"<  c #000088",
"1  c #000088",
"2  c #000087",
"3  c #637180",
"4  c #000098",
"5  c #D88850",
"6  c #976139",
"7  c #65737E",
"8  c #68717B",
"9  c #000088",
"0  c #61727B",
"q  c #5E717B",
"w  c #63757E",
"e  c #000098",
"r  c #966139",
"t  c #986236",
"y  c #63747D",
"u  c #000097",
"i  c #000099",
"p  c #000098",
"a  c #63757D",
"s  c #000088",
"d  c #704828",
"f  c #714928",
"g  c #D88951",
"h  c black",
"j  c #6D6D92",
"k  c #000040",
"l  c #63747D",
"z  c #000041",
"x  c #000088",
"c  c #608080",
"v  c #00003F",
"b  c #000040",
"n  c #000040",
"m  c black",
"M  c #5A7878",
"N  c cyan",
"B  c #000041",
"V  c None",
"C  c gray12",
"Z  c #62727C",
"A  c #000040",
"S  c #61727C",
"D  c #000040",
"F  c gray12",
"G  c #000088",
"H  c #1E1E1E",
"J  c #000089",
"K  c gray12",
"L  c #647480",
"P  c #1E1E1E",
"I  c #000040",
"U  c #000041",
"Y  c #000040",
"T  c #000040",
"R  c #64747D",
"E  c black",
"W  c black",
"Q  c black",
"!  c black",
"~  c #607379",
"^  c #647680",
"/  c #667780",
"(  c #62727E",
")  c black",
"_  c gray13",
"`  c #000059",
"'  c black",
"]  c #64737C",
"[  c #64767C",
"{  c #666680",
"}  c #64727B",
"|  c black",
" . c #202020",
".. c #5B6D80",
"X. c gray12",
"o. c black",
"O. c #63747C",
"+. c #687480",
"@. c #717171",
"#. c black",
"$. c #202020",
"%. c #232323",
"&. c #202020",
"*. c black",
"=. c #666699",
"-. c black",
";. c black",
":. c gray13",
">. c gray17",
",. c black",
"<. c black",
"1. c #627676",
"2. c #667380",
"3. c #63747D",
"4. c white",
"5. c #202020",
"6. c black",
"7. c black",
"8. c black",
"9. c #1B1B1B",
"0. c #202020",
"q. c #202020",
"w. c #202020",
"e. c #986038",
"r. c #D88850",
"t. c #E88858",
"y. c #F89860",
"u. c #A86840",
"i. c #000098",
"p. c #584020",
"a. c #805028",
"s. c #B07040",
"d. c #F8B080",
"f. c #B87848",
"g. c #000058",
"h. c #704828",
"j. c #503818",
"k. c #000040",
"l. c #000070",
"z. c #000078",
"x. c #483818",
"c. c #A06038",
"v. c #0000B8",
"b. c #000048",
"n. c #000088",
"m. c black",
"M. c #0000A0",
"N. c #0000B0",
"B. c #202020",
"V. c #000060",
"C. c white",
/* pixels */
"                                                                                                                                  ",
"                                                                                                                                  ",
"                                                                                                                                  ",
"                                                                                                                                  ",
"                                                                                                                                  ",
"                                                                                                                                  ",
"                                                                                                                                  ",
"                                                                                                                                  ",
"                                                                                                                                  ",
"                                                                                                                                  ",
"                                                                                                                                  ",
"                                                                                                                                  ",
"                                                                                                                                  ",
"                                                                                                                                  ",
"                                                                                                                                  ",
"                                                                                                                                  ",
"                                                                                                                                  ",
"                                                                                                                                  ",
"                                                                                                                                  ",
"                                                                                                                                  ",
"                                                                                                                                  ",
"                                                                                                                                  ",
"                                                                                                                                  ",
"                                                                                                                                  ",
"                                                                                                                                  ",
"                                                                                                                                  ",
"                                                                                                                                  ",
"                                                                                                                                  ",
"                                                                                                                                  ",
"                                                                                                                                  ",
"                                                                                                                                  ",
"                                                                                                                                  ",
"                                                                                                                                  ",
"                                                                                                                                  ",
"                                                                                                                                  ",
"                                                                                                                                  ",
"                                                                                                                                  ",
"                                                                                                                                  ",
"                                                                                                                                  ",
"                                                                                                                                  ",
"                                                                                                                                  ",
"                                                                                                                                  ",
"                                                                                          . X X o                                 ",
"                            O + @ # $                                                 % & e.e.r.*                                 ",
"                          = - t.y.u.;                 O : > , < 1 2               3 4 r.i.e.e.e.5                                 ",
"                          6 y.y.y.p.p.7 $           8 9 a.s.d.f.s.a.0 = = . q w e i.i.i.g.h.h.e.r                                 ",
"                          t r.y.u.j.j.i.y u i p a s k.k.k.k.k.i.i.i.l.l.l.l.l.z.z.i.l.k.k.x.d f                                   ",
"                          o g c.j.j.j.k.l.i.i.i.i.k.k.k.v.v.k.k.k.b.k.l.v.v.v.v.n.n.n.k.m.h j                                     ",
"                            O k m.k.k.k.l.l.b.l.k.i.i.i.i.v.v.k.k.k.l.v.v.v.v.v.v.v.M.n.l                                         ",
"                              = z m.k.k.k.k.b.b.i.n.v.v.v.n.i.v.l.l.i.v.v.i.i.v.v.v.v.v.x         c v b =                         ",
"                                  n m m.m.m.k.n.v.v.v.v.v.v.l.i.z.l.i.v.l.l.z.z.v.N.z.k.k.M   N B V k.B.C                         ",
"                                        Z k.v.v.v.v.v.v.v.v.M.V.z.i.l.l.k.k.k.z.z.z.k.k.k.A S D k.k.B.B.F                         ",
"                                      N G v.M.M.i.i.v.v.v.i.i.V.k.g.k.k.k.k.k.g.z.k.k.k.k.k.g.k.k.B.B.B.H                         ",
"                                      J M.M.M.M.M.g.l.i.i.g.b.k.k.k.k.k.k.m.k.k.k.m.k.m.m.k.k.k.B.B.B.K =                         ",
"                                    L b.b.b.b.n.l.l.k.k.k.k.k.k.k.m.m.m.m.m.m.k.k.m.k.m.m.k.k.k.B.B.B.P                           ",
"                        = I U Y T R m.k.k.k.k.m.k.l.k.k.k.k.m.m.m.E W Q ! ~ ^ / ( ) m.m.m.m.k.B.B.B._ o                           ",
"                        ` B.B.B.k.k.m.k.k.k.m.m.k.k.k.m.m.' ] [ { o               o } | m.m.m.B.B. ...                            ",
"                        X.B.B.B.B.k.k.m.k.k.m.m.k.k.o.O.+.o                           @.#.m.m.B.$.%.                              ",
"                        &.B.B.B.B.k.k.k.m.m.m.m.m.*.=.                                    -.;.:.>.                                ",
"                          ,.B.B.B.B.k.k.m.m.m.<.1.                                                                                ",
"                          2.B.B.B.B.B.m.m.m.3.4.                                                                                  ",
"                            5.B.B.B.B.m.m.6.o                                                                                     ",
"                              7.B.B.B.m.8.=                                                                                       ",
"                                9.0.q.w.=                                                                                         ",
"                                                                                                                                  "
};
