/* XPM */
static char *_[] = {
/* columns rows colors chars-per-pixel */
"65 65 111 2 ",
"   c black",
".  c #FFAA55",
"X  c #B66D49",
"o  c #808080",
"O  c #666699",
"+  c #63747A",
"@  c #804F28",
"#  c #B07040",
"$  c None",
"%  c #805029",
"&  c #5A7878",
"*  c #666680",
"=  c #63737B",
"-  c #000058",
";  c #000059",
":  c #65777D",
">  c blue",
",  c #667380",
"<  c #000098",
"1  c #000097",
"2  c #000098",
"3  c #400000",
"4  c #62767C",
"5  c #408080",
"6  c #5555AA",
"7  c #6B7986",
"8  c #000099",
"9  c #000098",
"0  c #000098",
"q  c #667780",
"w  c #558080",
"e  c white",
"r  c #A66640",
"t  c #E88758",
"y  c #E88858",
"u  c #000099",
"i  c #62757C",
"p  c #64747D",
"a  c #62747D",
"s  c #000041",
"d  c #202020",
"f  c #202020",
"g  c #202020",
"h  c #F79860",
"j  c gray12",
"k  c #986137",
"l  c #A15E36",
"z  c gray13",
"x  c #4F3817",
"c  c gray12",
"v  c #202020",
"b  c #202020",
"n  c #63737B",
"m  c black",
"M  c #64757E",
"N  c #63747E",
"B  c #62757D",
"V  c #64737D",
"C  c #63747D",
"Z  c black",
"A  c black",
"S  c #222222",
"D  c gray12",
"F  c #63747E",
"G  c #637180",
"H  c #61727B",
"J  c black",
"K  c black",
"L  c gray13",
"P  c black",
"I  c gray12",
"U  c black",
"Y  c #5D7480",
"T  c #64737D",
"R  c black",
"E  c #202020",
"W  c cyan",
"Q  c #555555",
"!  c #202020",
"~  c black",
"^  c #5E7979",
"/  c #6D6D92",
"(  c black",
")  c gray13",
"_  c #202020",
"`  c #55AAAA",
"'  c #6A8080",
"]  c #202020",
"[  c black",
"{  c #66777D",
"}  c #F8B080",
"|  c #B87848",
" . c #000058",
".. c black",
"X. c #000098",
"o. c #000038",
"O. c #584020",
"+. c #000070",
"@. c #000040",
"#. c #000088",
"$. c #0000B8",
"%. c #400000",
"&. c #E88858",
"*. c #202020",
"=. c #000048",
"-. c #000078",
";. c #D88850",
":. c #986038",
">. c #F89860",
",. c #A06038",
"<. c white",
/* pixels */
"                                                                                                                                  ",
"                                                                                                                                  ",
"                                                                                                                                  ",
"                                                                                                                                  ",
"                                                                                                                                  ",
"                                                                                                                                  ",
"                                                                                                                                  ",
"                                                                                                                                  ",
"                                                                                                                                  ",
"                                                                                                                                  ",
"                                                                                                                                  ",
"                                                                                                                                  ",
"                                                                                                                                  ",
"                                                                                                                                  ",
"                                                                                                                                  ",
"                                                                                                                                  ",
"                                                                                                                                  ",
"                                                                                                                                  ",
"                                                                                                                                  ",
"                                                                                                                                  ",
"                                                                                                                                  ",
"                                                                                                                                  ",
"                                                                                                                                  ",
"                                                                                                                                  ",
"                                                                                                                                  ",
"                                                                                                                                  ",
"                                                                                                                                  ",
"                                                                                                                                  ",
"                                                                                                                                  ",
"                                                                                                                                  ",
"                                                                                                                                  ",
"                                                                                                                                  ",
"                                                                                                                                  ",
"                                                                                                                                  ",
"                                                                                                                                  ",
"                                                                                                                                  ",
"                                                                                                                                  ",
"                                                                                                                                  ",
"                                                                                                                                  ",
"                                                                                                                                  ",
"                                                                                                                                  ",
"                                                                                                                                  ",
"                                                                                                                                  ",
"                                                                                                                                  ",
"                                                                                                                                  ",
"                                                                                                                                  ",
"                                                                                                                                  ",
"                                                                                                                                  ",
"                                                                                                                                  ",
"                                                              . X o                                                               ",
"                                                      O + @ # } | $ % &                                                           ",
"                                                * = -  . . ....... . . .; : o                                                     ",
"                                        > , < 1 X.X.X.X.X.X.X.o.o.X.X.X.X.X.2 3 4 5                                               ",
"                                6 7 = 8 9 X...................o.................X.X.0 < q w                                       ",
"                        e r t y O.X.+.+.X.@.......#.#.$.$.$.%.....+.$.X.$.$.$.$.$.X. . .X.X.u i p a s d f g                       ",
"                      o h &.*.*.*.+.=.=.+. .#...#.$.$.$.$.$. .....-.X.X.$.$.#.$.$.$.$.$.=.=.X.;.:.@.*.*.*.j                       ",
"                      k >.*.*.*.*.*. . . .#.#.X.X.#.#.$.$.$. . ...-.X.+.$.#.#.$.X. .X.X...@.@.@.@.*.*.*.*.j                       ",
"                      l ,.*.*.*.*.*... ...@. . .X.X.X.+.$.$.=.=...@. .@.#.@.@. . . . .@.@...@.@.@.*.*.*.*.z                       ",
"                        x *.*.*.*.*.*.@.@. . .@.@. .+. .X.X. .=...@.@.@.@.@.@.@.@.@.@.@...@.@...@.*.*.*.*.c                       ",
"                        w v *.*.*.*.*...@.....@.@.@.@.@.@.@.@.@.............@.@.@.@.@.....@.@.....*.*.*.b o                       ",
"                          n *.*.*.*.*...@.......@.@.@.@.@.....m M N B V C Z A ..................*.*.*.*.S                         ",
"                            D *.*.*.*.*.@.......@.@.@.Z F G o                 O H J K ..........*.*.*.L                           ",
"                            P I *.*.*.*...........U Y                                 w T R ....*.*.E W                           ",
"                              Q ! *.*.*.*.....~ ^                                           / ( ) _ `                             ",
"                                ' ] *.*.*.[ { o o o o o o o e e e e W W W W > > P P P P P P P P P Q P                             "
};
