/* XPM */
static char *_[] = {
/* columns rows colors chars-per-pixel */
"65 65 89 1 ",
"  c None",
". c black",
"X c gray12",
"o c #282008",
"O c #382810",
"+ c #3F3017",
"@ c #202020",
"# c gray13",
"$ c #282828",
"% c gray16",
"& c gray19",
"* c #373737",
"= c gray22",
"- c #400000",
"; c #480000",
": c #500000",
"> c #600000",
", c #700000",
"< c #403018",
"1 c #483718",
"2 c #483818",
"3 c #503719",
"4 c #503818",
"5 c #584020",
"6 c #684820",
"7 c #704828",
"8 c #000048",
"9 c #004040",
"0 c #005858",
"q c #007070",
"w c gray25",
"e c #484848",
"r c #505050",
"t c #606060",
"y c #62747C",
"u c #62747D",
"i c #63747D",
"p c #63747E",
"a c #64747D",
"s c gray44",
"d c gray47",
"f c #800000",
"g c #870000",
"h c #880000",
"j c #980000",
"k c #A00000",
"l c #B80000",
"z c #D00000",
"x c #F80000",
"c c #805028",
"v c #885830",
"b c #905830",
"n c #986038",
"m c #A06038",
"M c #A86840",
"N c #B07040",
"B c #B87848",
"V c #C87848",
"C c #D08050",
"Z c #D88850",
"A c #E88858",
"S c #F09058",
"D c #F89860",
"F c #F8A070",
"G c #000098",
"H c #008080",
"J c #008181",
"K c #00B0B0",
"L c #00C8C8",
"P c #00E0E0",
"I c #20F8F8",
"U c #78F8F8",
"Y c #888888",
"T c #989898",
"R c #A7A7A7",
"E c gray66",
"W c gray69",
"Q c #F8B080",
"! c #F8B890",
"~ c #F8C0A0",
"^ c #F8C8B0",
"/ c #F8D0B8",
"( c #B8F8F8",
") c #C0C0C0",
"_ c #D0D0D0",
"` c #D8D8D8",
"' c #D8F8F8",
"] c gray91",
"[ c #F8F8F8",
/* pixels */
"                                                                 ",
"                                                                 ",
"                              $$$&$..                            ",
"                            $$$$$e$....                          ",
"                           $$$$$=e$.....                         ",
"                          @$$$$$=t$......                        ",
"                  HHH   X@$Y$W$_et=.t.t.e..   UHH                ",
"                 9@e$@0i@@$$$$=eede........iH9@e$@               ",
"                9@eEt$@9=@.vHv5edWe.5vvv=..H9@eEt$@              ",
"               H9@ete$@9e=.NIFBBnvvtYtFm=.sH9@ete$@9             ",
"              gz09@$$@9t)e.nUcA!FCt]F]tT__[.09@$$@9zh            ",
"              zhi99999itsw.N'G8gm7YF^FYTWT].i99999ihz            ",
"              >iiiHi9iit&&.NUDAAQDt]F]tb=.s.iiHi9iiik:           ",
"             h::iiPiqiir&&.mU/~~Q~CtYtVb=.@.iiPiqii>::           ",
"    sR        ---iPiHiie&&.vIQQCmvvCZmmM=...iiPiHi>>-:      $$   ",
"    @$tte$$   ---HPqHqie&&.cIFNSFSFSNFC6=...@HPqHq---iee$$$$$@   ",
"     @@====$@@i-L(LLL(q@@@.bIFN)_`_)NFCM=...L(LLL(q--te$$@@@@    ",
"     @@@@@@@=@@@H0000000...vIFV)_`_)VFCv=..&00000090T$@@@....    ",
"    @@e@@@.....@&9999999@@@=HCQDQ!QDQn==...&9999999$@@@@.@.@..   ",
"   X=t=@@@@@@.@&&&9&9&&&@@@@@==envne==....@&&&9&9&&@@@$@@@@.@.X  ",
"   Rt=@@$@@@@.@$$$$$$$$$$@.@@@@@@........@$$$$$$$$$$.@=@@@@@.@@  ",
"   @se$=@@@@@.@$&&&&&$$$$$$@...........@&&&$$$$$$$$$.@t@@@@@@@@  ",
"   .@===rrrrre=&ttre&&&&&&&&9&&&@Etrewww&&&&&&&&&&&rrrrre=@$@@.  ",
"   ...tr=@UK0@@==@@@@@@@@@@@@@@@.$$@@@@@@@@@@@@@@tr=@UK0@@==...  ",
"   $.d=@@K9.90@@@@@@@@@@@@@@@@@..$$@@@@@@@@@@@@@d=@@K9.90@@@@.$  ",
"   $t=@@@q...0@@@@@@@@@@@@@@@@@..$$@@@@@@@@@@@@t=@@@q...0@@@@@$  ",
"   r=UK0@09.99@H00@@@@@@@@@@@@@..$$$@@@@@@@@@@r=UK0@09.99@H00@@  ",
"   rK9.90@009@H9.90@@@@@@@@@@@@..$$$@@@@@@@@@@rK9.90@009@H9.90@  ",
"   =q...0@@@@@0...0@.@@@@@@@@@...$$$@@@@@@@@@r=q...0@@@@@0...0@  ",
"   =09.99@H00@09.99@.@@@@@@@@@..;;$$@@@@@@@@@r=09.99@H00@09.99@  ",
"   =@009@H9.90@009@@............;>$$.........r=@009@H9.90@009@@  ",
"   =@@@@@0...0@@@@@@...........;,>>..........r=@@@@@0...0@@@@@@  ",
"   @@Pq0@09.99@q00@@.;;;;;;;;;;>hhhh>;;;;----r@@Pq0@09.99@q00@@  ",
"   @K9.90@009@q9.90@.;;>>jllxljjhhhgggg>;--;;r@K9.90@009@q9.90@  ",
"   @q...0@@@@@0...0@..;;>,jxljxjhhhh,hg:>->;;r@q...0@@@@@0...0@  ",
"   @09.99@q00@09.99.=eee$=rsr=$@@@@@@@@@@@@.ee@09.99@q00@09.99.  ",
"    @009@q9.90@009@.$$$=edT$$@@@@@@@@@@@@Ede$$@@009@q9.90@009@   ",
"    @@@@@0...0@@@@.$$$$$=t..............dEt$$$$@@@@@0...0@@@@.   ",
"     @@@@09.99@@@.....$=e....@@@@@@@@@@re=te=$..@@@@09.99@@@.    ",
"      @@@@009@@..@@@@@.......@@@@@@@@@@e$$=...@@@@@@@009@@..     ",
"       72.....<@$$$&==@@@.....@@@@@@@@e$$$.@@@$$@@@72.....<      ",
"       AA66622<@@@$$=e@...............$$$@.@r$=$@@@AA66622       ",
"       @H99999@@@@$&=@...............$@@@.@$d$e=$@@@H99999       ",
"       @@.@$@@@@@$$&@................@@@.@@$trr=$$@@@@...        ",
"       $=.@$@@@@@$=$@...................@@@$e=t==$@@@@.@.        ",
"       $==@@@@@@@$&@.........      i..@.@@@$=$d=e$@@@@@@.@       ",
"       @@==@@@@@$$$@.......i         ..@@@$@$$trr$@ettte==       ",
"       ..$=ee==$$@@@$$$$@..           .@@@@@$$__dtteee==@@.      ",
"       ....$errttttdr$$@@@             @@@@$tdd=@@@@@@@@@@.      ",
"       $=..@@@@@@@==@....               @@tt=..............      ",
"       @@=$..............               Xt=................      ",
"       ..@===$......$$$@                 ...=tt_ttrrreee==@      ",
"        ...=eerrrte=$@@@                  .=tee======@@@@@@      ",
"        @..............i                   =...............      ",
"         @.@@@@$$@.....                     .@@r$=rd$......      ",
"         @@.@@@@$@....i                     .@@e@$=r......       ",
"         ..............                      .@=e$==......       ",
"         @@$$$$$@@@@...                      .@@=@$=......       ",
"        ...............                       .@@=$$......       ",
"        =$$$$$$@@@$$@..i                      ..@@$rdr==@.       ",
"       $$@@@@@@@@@@@$.ooOO<+                 ..@=eee======$      ",
"       @@.......@@..@.ooooooooO222222222<<OO..$===$$$$$$$$$$     ",
"         ............$oooooooooooooooooooooo..=$$$$@@@@@@@@@     ",
"                 312<<<<<OOOOOooooooooooooooo.@@@@@........@X    ",
"                      iii77444422222222222<<OO...............   i"
};
