/* XPM */
static char *_[] = {
/* columns rows colors chars-per-pixel */
"65 65 96 2 ",
"   c None",
".  c black",
"X  c gray12",
"o  c #282008",
"O  c #382810",
"+  c #3F3017",
"@  c #202020",
"#  c #272727",
"$  c #282828",
"%  c gray16",
"&  c gray19",
"*  c gray22",
"=  c #400000",
"-  c #480000",
";  c #500000",
":  c #600000",
">  c #700000",
",  c #403018",
"<  c #483718",
"1  c #483818",
"2  c #503719",
"3  c #503818",
"4  c #584020",
"5  c #684820",
"6  c #704828",
"7  c #004040",
"8  c #005858",
"9  c #007070",
"0  c gray25",
"q  c #484848",
"w  c #505050",
"e  c #606060",
"r  c #63737C",
"t  c #63737D",
"y  c #62747C",
"u  c #62747D",
"i  c #63747D",
"p  c #63747E",
"a  c gray44",
"s  c gray47",
"d  c #800000",
"f  c #880000",
"g  c #980000",
"h  c #A00000",
"j  c #AF0000",
"k  c #B00000",
"l  c #B80000",
"z  c #C80000",
"x  c #D00000",
"c  c #E00000",
"v  c #E80000",
"b  c #E90000",
"n  c #F80000",
"m  c #805028",
"M  c #885830",
"N  c #905830",
"B  c #986038",
"V  c #A06038",
"C  c #A86840",
"Z  c #B07040",
"A  c #F05050",
"S  c #C87848",
"D  c #A8A800",
"F  c #C0C000",
"G  c #E0E000",
"H  c #F8F800",
"J  c #D08050",
"K  c #E88858",
"L  c #F09058",
"P  c #F89860",
"I  c #F8A070",
"U  c #F8F850",
"Y  c #008080",
"T  c #008181",
"R  c #00C8C8",
"E  c #00E0E0",
"W  c #78F8F8",
"Q  c #888888",
"!  c #989898",
"~  c #A7A7A7",
"^  c gray66",
"/  c gray69",
"(  c #F8B080",
")  c #F8B890",
"_  c #F8B898",
"`  c #F8C0A0",
"'  c #F8C8B0",
"]  c #F8D0B8",
"[  c #B8F8F8",
"{  c #C0C0C0",
"}  c #D0D0D0",
"|  c #D8D8D8",
" . c #F8E0D0",
".. c #F8E8D8",
"X. c gray91",
"o. c #F8F8F8",
/* pixels */
"                                                                                                                                  ",
"                                                                                                                                  ",
"                                                              @ $ * $ .                                                           ",
"                                      k                 $ $ $ $ $ q $ . . . .                                                     ",
"                                      k             @ $ ; ; ; $ * q $ . . . . .                                                   ",
"                              b     k A j     : : @ @ d g g g d * e $ . . . . . .                                                 ",
"                                A k k U A k : b : @ z I z _ z _ q e * . e . e . q . .       W Y Y                                 ",
"                                k A _ Q Q A b : @ @ $ ; ; ; ; q q s q . . . . . . . . t Y 7 @ q $ @                               ",
"                              : : A Q | e Q A : : @ . M A M 4 q s / q . 4 M M M * . . Y 7 @ q ^ e $ @                             ",
"                          k b n A U Q e a Q U A A k k I ' I A ) I J M e Q e I V * . a Y 7 @ q e q $ @ 7                           ",
"                          t f : : k A Q Q A n : : q . B I b ; b V 6 e X.I X.e ! } } o.. 8 7 @ $ $ @ 7 x f                         ",
"                            x f t k A U A n A k a 0 . Z A P K K ( P Q I ' I Q ! / ! X.. t 7 7 7 7 7 t f x                         ",
"                            : t k t n _ n t k k : & . Z A ] ` ` ( ` e X.I X.e N * . a . t t Y t 7 t t t h ;                       ",
"                            ; k t t n A n t t : k & . V A ( ( J V M M e Q e S N * . @ . t t E t 9 t t : ; ;                       ",
"        a ~                 = = = t  .A n t t q : & . M A I V L I L I L Z V V C * . . . t t E t Y t : : = ;             $ $       ",
"        @ $ e e q d z     t = = = Y  .k Y 9 t q & & . m A I V ! } | } ! Z I J 5 * . . . @ Y E 9 Y 9 = = = t d q $ $ $ $ $ @       ",
"          @ @ * * * * d g z t = R  .I  .I  .9 @ @ @ . N A I V a : ; : a Z I V C * . . . R [ R R R [ 9 = = e d $ $ @ @ @ @         ",
"          @ @ @ @ @ @ @ * @ @ @ Y A A A A A 8 8 . . . M A I Z : g > g : Z I V M * . . & 8 8 8 8 8 8 7 8 ! ; d ; @ . . . .         ",
"        @ @ q @ @ @ . . . . . @ & f f f f f 7 7 @ @ @ * b J Z { } | } { Z B * * . . . & 7 7 7 7 7 7 7 $ @ ; z ; . @ . @ . .       ",
"      @ * e * @ @ @ @ @ @ . @ & : > f > f > : & @ @ @ @ @ * * q B M B q * * . . . . @ & & & 7 & 7 & & @ @ d n d @ @ @ . @ . X     ",
"      ~ e * @ @ $ @ @ @ @ . @ $ $ : > > > : $ $ $ @ . @ @ @ @ @ @ . . . . . . . . @ $ $ $ $ $ $ $ $ $ $ . g A g @ @ @ @ . @ @     ",
"      @ a q $ * @ @ @ @ @ . @ $ & & & & & $ : $ $ $ $ @ . . . . . . . . . . . @ & & & $ $ $ $ $ $ $ $ $ . k A z @ @ @ @ @ @ @     ",
"      . @ * * * w w w w w q * & e e w q & > > & & & & & 7 & & & @ ^ e w q 0 0 0 & & & & & & & d & & & w f c A c f * @ $ @ @ g     ",
"      . . . e w * @ n n n @ @ * * @ @ : g @ @ @ @ @ @ @ @ @ @ @ . $ $ @ @ @ @ @ @ @ @ @ @ @ @ c d e w * k c A c k @ * * d g .     ",
"      f f s * @ @ A : . : A @ @ @ @ g k : @ @ @ @ @ @ @ @ @ @ . . $ $ @ @ @ @ @ @ @ @ @ @ @ @ @ c l @ @ c A I A c @ d l A g $     ",
"      f k x f @ @ I . . . I @ @ : g x g @ @ @ @ @ @ @ @ @ @ @ . . $ $ @ @ @ @ @ @ @ @ @ @ @ @ e l c l k c A D A c l n A l g $     ",
"      w f z A A f f : . : > : z x A g : @ @ @ @ @ @ @ @ @ @ @ . . $ $ $ @ @ @ @ @ @ @ @ @ @ w c I c A n A A G A A A A A l @ @     ",
"      w _ f A I A k z z z z z A I A f @ @ @ @ @ @ @ @ @ @ @ @ . . $ $ $ @ @ @ @ @ @ @ @ @ @ w I l c n A I I G I I A A l g A @     ",
"      * A f x A F I A x x A I G A g A @ . @ @ @ @ @ @ @ @ @ . . . $ $ $ @ @ @ @ @ @ @ @ @ w * I . c c I D G ] G D I A c z I @     ",
"      * A 7 k A I H F D D F G I z f A @ . @ @ @ @ @ @ @ @ @ . . - - $ $ @ @ @ @ @ @ @ @ @ l l c c A A I G ] ..] G I A A c d @     ",
"      * @ I f g I F G G G G F I g I @ @ . . . . . . . . . . . . - : $ $ . . - : d d k z z A A A I D G G ] ......] G D I A A h     ",
"      * @ f f A I G G ....G G G I A A g f > > > ; = = . . . . - > : : . . . . . . . . . . : f c c A A I G ] ..] G I A A c z @     ",
"      g g A A I D F G ....G F I f f f @ . - - - - - - - - - - : f f f f : - - - - = = = = w @ ; c c n I D G ] G D I A c z @ @     ",
"      @ I f f b I D G G G G D I f I A @ . - - : : g l l n l g g f f f d d d d : - = = - - w @ I ; c A A I I G I I A A A : I @     ",
"      @ A . f A I G I I A I G I f f A @ . . - - : > g n l g n g f f f f d f d : : = : - - w @ I d A A A n A G A n A A A k I @     ",
"      @ z : x A G I n n n n I F A f A . * q q q $ * w a w * $ @ @ @ @ @ @ @ @ @ @ @ @ . q q @ A c A A ; c A D A c I : k c : .     ",
"      @ @ g A I A g f . b f g A I A f . $ $ $ * q s ! $ $ @ @ @ @ @ @ @ @ @ @ @ @ ^ s q $ $ @ - f c ; @ I A I A z @ I A : k       ",
"      t g g A A f I . . . I @ f A A g f $ $ $ $ * e . . . . . . . . . . . . . . s ^ e $ $ $ $ f - @ @ @ I A I A I @ @ @ @ .       ",
"        z z f g @ A : . : A @ @ @ f f g f . $ * q . . . . @ @ @ @ @ @ @ @ @ @ w q * s q * $ . . @ @ @ @ A n I n A @ @ @ .         ",
"        z z @ @ @ @ z z d @ @ . . @ @ f d = . . . . . . . @ @ @ @ @ @ @ @ @ @ q $ $ * . . . @ @ @ @ @ @ @ n A n @ @ . .           ",
"              6 1 . . . . . , @ @ @ @ $ : d @ @ @ . . . . . @ @ @ @ @ @ @ @ q $ $ $ . @ @ @ $ $ @ @ @ 6 1 k A k . . ,             ",
"              K K 5 5 5 1 1 , @ @ @ $ $ * q @ . . . . . . . . . . . . . . . $ $ $ @ . @ w $ * $ @ @ @ K K f n f 1 1               ",
"              @ Y 7 7 7 7 7 @ @ @ @ $ & * @ . . . . . . . . . . . . . . . $ @ @ @ . @ $ s $ q * $ @ @ @ Y g x g 7 7               ",
"              @ @ . @ $ @ @ @ @ @ $ $ & @ . . . . . . . . . . . . . . . . @ @ @ . @ @ $ e w w * $ $ @ @ @ @ l . .                 ",
"              $ * . @ $ @ @ @ @ @ $ * $ @ . . . . . . . . . . . . . . . . . . . @ @ @ $ q * e * * $ @ @ @ @ g @ .                 ",
"              $ * * @ @ @ @ @ @ @ $ & @ . . . . . . . . .             t . . @ . @ @ @ $ * $ s * q $ @ @ @ @ ; @ . @               ",
"              @ @ * * @ @ @ @ @ $ $ $ @ . . . . . . . t                   . . @ @ @ $ @ $ $ e w w $ @ d g n g d * *               ",
"              . . $ * q q * * $ $ @ @ @ $ $ $ $ @ . .                       . @ @ @ @ @ $ $ } ' s e A I A _ A x g : .             ",
"              . . . . $ q w w e e e e s w $ $ @ @ @                           @ @ @ @ $ e s s * @ @ @ @ @ @ @ @ @ @ .             ",
"              $ * . . @ @ @ @ @ @ @ * * @ . . . .                               @ @ e e * . . . . . . . . . . . . . .             ",
"              @ @ * $ . . . . . . . . . . . . . .                               X e * . . . . . . . . . . . . . . . .             ",
"              . . @ * * * $ . . . . . . $ $ $ @                                   . . . * e e } e e w w w q q q * * @             ",
"                . . . * q q w w w e q * $ @ @ @                                     . * e q q * * * * * * @ @ @ @ @ @             ",
"                @ . . . . . . . . . . . . . . t                                       * . . . . . . . . . . . . . . .             ",
"                  @ . @ @ @ @ $ $ @ . . . . .                                           . @ @ w $ * w s $ . . . . . .             ",
"                  @ @ . @ @ @ @ $ @ . . . . t                                           . @ @ q @ $ * w . . . . . .               ",
"                  . . . . . . . . . . . . . .                                             . @ * q $ * * . . . . . .               ",
"                  @ @ $ $ $ $ $ @ @ @ @ . . .                                             . @ @ * @ $ * . . . . . .               ",
"                . . . . . . . . . . . . . . .                                               . @ @ * $ $ . . . . . .               ",
"                * $ $ $ $ $ $ @ @ @ $ $ @ . . t                                             . . @ @ $ w s w * * @ .               ",
"              $ $ @ @ @ @ @ @ @ @ @ @ @ $ . o o O O , +                                   . . @ * q q q * * * * * * $             ",
"              @ @ . . . . . . . @ @ . . @ . o o o o o o o o O , 1 1 1 1 1 1 1 1 , , O O . . $ * * * $ $ $ $ $ $ $ $ $ $           ",
"                  . . . . . . . . . . . . o o o o o o o o o o o o o o o o o o o o o o o . . * $ $ $ $ @ @ @ @ @ @ @ @ @           ",
"                                  2 < 1 , , , , , O O O O O o o o o o o o o o o o o o o o . @ @ @ @ @ . . . . . . . . @ X         ",
"                                            t t t 6 6 3 3 3 3 1 1 1 1 1 1 1 1 1 1 1 , , O O . . . . . . . . . . . . . . .       t "
};
