/* XPM */
static char *_[] = {
/* columns rows colors chars-per-pixel */
"65 65 91 1 ",
"  c None",
". c black",
"X c gray12",
"o c #282008",
"O c #382810",
"+ c #3F3017",
"@ c #202020",
"# c gray13",
"$ c #282828",
"% c gray16",
"& c gray19",
"* c gray22",
"= c #400000",
"- c #470000",
"; c #480000",
": c #500000",
"> c #600000",
", c #700000",
"< c #403018",
"1 c #483718",
"2 c #483818",
"3 c #503719",
"4 c #503818",
"5 c #584020",
"6 c #684820",
"7 c #704828",
"8 c #004040",
"9 c #005858",
"0 c #007070",
"q c gray25",
"w c #484848",
"e c #505050",
"r c #606060",
"t c #62747C",
"y c #62747D",
"u c #63747D",
"i c #63747E",
"p c gray44",
"a c gray47",
"s c #800000",
"d c #880000",
"f c #980000",
"g c #A00000",
"h c #B00000",
"j c #B80000",
"k c #C80000",
"l c #D00000",
"z c #E00000",
"x c #E80000",
"c c #F70000",
"v c #F80000",
"b c #F90000",
"n c #805028",
"m c #885830",
"M c #905830",
"N c #986038",
"B c #A06038",
"V c #A86840",
"C c #B07040",
"Z c #F05050",
"A c #E0E000",
"S c #F8F800",
"D c #D08050",
"F c #E88858",
"G c #F09058",
"H c #F89860",
"J c #F8A070",
"K c #F8F850",
"L c #008080",
"P c #00C8C8",
"I c #00E0E0",
"U c #20F8F8",
"Y c #78F8F8",
"T c #888888",
"R c #989898",
"E c #A7A7A7",
"W c gray66",
"Q c gray69",
"! c #F8B080",
"~ c #F8B898",
"^ c #F8C0A0",
"/ c #F8C8B0",
"( c #F8D0B8",
") c #B8F8F8",
"_ c #C0C0C0",
"` c #D0D0D0",
"' c #D8D8D8",
"] c #F8E8D8",
"[ c #D8F8F8",
"{ c gray91",
"} c #F8F8F8",
/* pixels */
"                                                                 ",
"                                                                 ",
"                              $$$*$..                            ",
"                            $$$$$w$.==.         Z                ",
"                           $$$$$*w$=;;;:        Zc               ",
"                          @$$$$$*r$=,ffd:   vd vJv               ",
"                  LLL   X@$T$Q$`wr*=JzJzZg=  vvZKZdv             ",
"                 8@w$@9u@@$$$$*wwaw=;;;;;;;udvJTTJvv             ",
"                8@wWr$@8*@.mLm5waQw.5mlm*.ddvZT{rTJvv            ",
"               L8@wrw$@8w*.CUx>xB7mrTrJBvvZZJKTrpTKJZvv          ",
"              dl98@$$@8r_w.NYHFF!Hr{J{rRJJ/.vvJTTZZldd           ",
"              ldu88888urpq.C[(^^!^TJ/JTRJJ/.uvvJKZvdl:           ",
"              >uuuLu8uur&&.CY!!DBmr{J{rM*.p.dvvZ~vvug:           ",
"             d::uuIu0uue&&.BYJBGJGmrTrZM*.@dvv/vJjjv::           ",
"    pE        ===uIuLuuw&&.mUJBR`'`RCBZV*..ddu/vZu>>=:      $$   ",
"    @$rrw$$   ===LI0L0uw&&.nUJBp>>>pCJZ6*...@L/0Z0===uggs$$$$@   ",
"     @@****$@@u=P)PPP)0@@@.MUJC>fdf>CJlV*...P/ZZZ/0==gs$$@@@@    ",
"     @@@@@@,*@@@L9999999...mUJC>kkv>CJlm*..&9ZZZvZ89v$@@@....    ",
"    @@w@@@.f...@&8888888@@@*LDC_`'`_CN**...&8sssvs8$@@@@.@.@..   ",
"   @*r*@@@@h@.@&&&8&8&&&@@@@@**wNmNw**....@&&&s>j&&@@@$@@@@.@.X  ",
"   Er*@@$@@h@.@$$$$$$$$$$@.@@@@@@........@$$>,,,d,,,.@*@@@@@.@@  ",
"   @pw$*@@,v,.@$&&&&&$$$$$$@...........@&&&$$$>,,,;$.@r@@@@@@@>  ",
"   .@***eehvhw*&rrew&&&&&&&&8&&&@Wrewqqq&&&&&::&&&&eeeeew*@$@dd  ",
"   ,,.re*@vZv@@**@@@@@@@@@@@@@@@.$$@@@@@@@@@@:,,@re*@vvv@@**lld  ",
"   ,kk,@@JkZkJ@@@,k@@@@@@@@@@@@..$$@@@@@@@@@@@,vl,@@Z8.8Z@@lxf$  ",
"   $kZkk,,vZvJ@,kv,@@@@@@@@@@@@..$$@@@@@@@@@@@@lZZl,J...JdlZl,$  ",
"   e,kZZ,jZJZj,kZk@@@@@@@@@@@@@..$$$@@@@@@@@@@e,ZJZlzllllZ~Zf@@  ",
"   e,kZJZZJ/JZkZvkZ@@@@@@@@@@@@..$$$@@@@@@@@@@eJlZ~JZZZZJAZl,Z@  ",
"   *JsjZJJ~K~ZJZv,J@.@@@@@@@@@...$$$@@@@@@@@@e*JllJA~ZJ~SJZd,J@  ",
"   *,jvZJ~SAA~ZZkJ8@.@@@@@@@@@..;;$$@@@@@@@@@e*>,lZ~SAAS~Jd,J8@  ",
"   ,hvZJ~SS}SS~JZvjjd,..........;>$$.........;>>dZ~~A]]AJ~~kd@@  ",
"   vZZ~~KS}}}SK~~JZZvvj,::.....;,>>.......;>>ddlZJSSS]]SSSS~Zxl  ",
"   ,hlZJ~SS}SS~JZvjjd,;;;;;;;;;>dddd>;;;;===;>>ddZJ~SAAS~~~gd@@  ",
"   @,slZZJSKSJZZfsZ@.;;>>fjjvjffdddssss>;==;;e@dflJA~JJ~AJlddZ@  ",
"   @JslZJZ~K~ZJZz.J@..;;>,fvjfvfddddsds>>=>;;e@JfZJJlxZkJJZf.J@  ",
"   @Z,ZZZvJKJZZZZkZ.*www$*epe*$@@@@@@@@@@@@.ww@:lZZddxlxlZZvdJ.  ",
"   @@,ZZdfv/ZfzZZz,.$$$*waR$$@@@@@@@@@@@@Waw$$@fZlJ@djljdfvvgd   ",
"   u,Zh,,,jJj,,kzzd$$$$$*r..............aWr$$$:lf@@@ZdldZ@dggd   ",
"   ,v,,@@JjZjJ@@,dd:..$*w....@@@@@@@@@@ew*rw*:f::@@@v,.,v@@@.    ",
"    ,,@@@@dvj@@..@::@@.......@@@@@@@@@@w$$*..:::@@@@@vvv@@..     ",
"       72.djd.<@$$$&**@@@.....@@@@@@@@w$$$.@:@$$@@@72.....<      ",
"       FF6,jd2<@@@$$*w@...............$$$@.@e$*$@@@FF66622       ",
"       @L88f,8@@@@$&*@...............$@@@.@$a$w*$@@@L88888       ",
"       @@.@,@@@@@$$&@................@@@.@@$ree*$$@@@@...        ",
"       $*.@,@@@@@$*$@...................@@@$w*r**$@@@@.@.        ",
"       $**@@@@@@@$&@.........      u..@.@@@$*$a*w$@@@@@@.@       ",
"       @@**@@@@@$$$@.......u         ..@@@$@$$ree$@:,f,:**       ",
"       ..$*ww**$$@@@$$$$@..           .@@@@@$$`/arvvZZvhd:.      ",
"       ....$weerrrrae$$@@@             @@@@$raa*@@@@@@@@@@.      ",
"       $*..@@@@@@@**@....               @@rr*..............      ",
"       @@*$..............               Xr*................      ",
"       ..@***$......$$$@                 ...*rr`rreeewww**@      ",
"        ...*wweeerw*$@@@                  .*rww******@@@@@@      ",
"        @..............u                   *...............      ",
"         @.@@@@$$@.....                     .@@e$*ea$......      ",
"         @@.@@@@$@....u                     .@@w@$*e......       ",
"         ..............                      .@*w$**......       ",
"         @@$$$$$@@@@...                      .@@*@$*......       ",
"        ...............                       .@@*$$......       ",
"        *$$$$$$@@@$$@..u                      ..@@$eae**@.       ",
"       $$@@@@@@@@@@@$.ooOO<+                 ..@*www******$      ",
"       @@.......@@..@.ooooooooO222222222<<OO..$***$$$$$$$$$$     ",
"         ............$oooooooooooooooooooooo..*$$$$@@@@@@@@@     ",
"                 312<<<<<OOOOOooooooooooooooo.@@@@@........@X    ",
"                      uuu77444422222222222<<OO...............   u"
};
