/* XPM */
static char *_[] = {
/* columns rows colors chars-per-pixel */
"65 65 88 1 ",
"  c None",
". c black",
"X c gray12",
"o c #282008",
"O c #382810",
"+ c #202020",
"@ c gray13",
"# c #282828",
"$ c gray16",
"% c gray19",
"& c #373737",
"* c gray22",
"= c #400000",
"- c #480000",
"; c #500000",
": c #600000",
"> c #700000",
", c #403018",
"< c #483818",
"1 c #584020",
"2 c #684820",
"3 c #704828",
"4 c #000048",
"5 c #004040",
"6 c #005858",
"7 c #007070",
"8 c gray25",
"9 c #484848",
"0 c #505050",
"q c #606060",
"w c #62757C",
"e c #62747D",
"r c #63747D",
"t c gray44",
"y c gray47",
"u c #800000",
"i c #880000",
"p c #980000",
"a c #A00000",
"s c #B00000",
"d c #B80000",
"f c #C80000",
"g c #D00000",
"h c #E00000",
"j c #E80000",
"k c #F80000",
"l c #805028",
"z c #885830",
"x c #905830",
"c c #986038",
"v c #A06038",
"b c #A86840",
"n c #B07040",
"m c #F05050",
"M c #C87848",
"N c #A8A800",
"B c #E0E000",
"V c #D08050",
"C c #E88858",
"Z c #F09058",
"A c #F89860",
"S c #F8A070",
"D c #000098",
"F c #008080",
"G c #008181",
"H c #00B0B0",
"J c #00C8C8",
"K c #00E0E0",
"L c #20F8F8",
"P c #78F8F8",
"I c #888888",
"U c #989898",
"Y c #A7A7A7",
"T c gray66",
"R c gray69",
"E c #F8B080",
"W c #F8B890",
"Q c #F8C0A0",
"! c #F8C8B0",
"~ c #F8D0B8",
"^ c #B8F8F8",
"/ c #C0C0C0",
"( c #D0D0D0",
") c #D8D8D8",
"_ c #F8E8D8",
"` c #D8F8F8",
"' c gray91",
"] c #F8F8F8",
/* pixels */
"                                                                 ",
"                                                                 ",
"                              ###*#..                            ",
"                            #####9#....                          ",
"                           #####*9#.....                         ",
"                          +#####*q#......                        ",
"                  FFF   X+#I#R#(9q*.q.q.9..   PFF                ",
"                 5+9#+6r++####*99y9........rF5+9#+               ",
"                5+9Tq#+5*+.zFz19yR9.1zzz*..F5+9Tq#+              ",
"               F5+9q9#+59*.nLlCWSVzqIqSv*.tF5+9q9#+5             ",
"              ig65+##+5q/9.cPD4uv3q'S'qU((].65+##+5gi            ",
"              gir55555rqt8.n`ACCEAIS!SIURU'.r55555rig            ",
"              :rrrFr5rrq%%.nP~QQEQq'S'qx*.t.rrFr5rrra;           ",
"             i;;rrKr7rr0%%.vPEEVvzzqIqMx*.+.rrKr7rr:;;           ",
"    tY        ===rKrFrr9%%.zLSvZSZSZnvvb*...rrKrFr::=;      ##   ",
"    +#qq9##   ===FK7F7r9%%.lLSvU()(UnSV2*...+FK7F7===r99#####+   ",
"     ++****#++r=J^JJJ^7+++.xLSvt:::tnSvb*...J^JJJ^7==q9##++++    ",
"     +++++++*+++F6666666...zLSn:ppp:nSvz*..%66666656U#+++....    ",
"    ++9+++.....+%5555555+++*FVn/()(/nc**...%5555555#++u+.+.+..   ",
"   +*q*++++++.+%%%5%5%%%+++++**9czc9**....+%%%5%5%%+++p++++.+.X  ",
"   Yq*++#++++.+##########+.++++++........+##########.+p+++++.++  ",
"   +t9#*+++++.+#%%%%%#:####+...........+%%%#########.uku+++++++  ",
"   .+***000009*%qq09%>>%%%%%5%%%+Tq09888%%%%%%%u%%%00hmh9*+#++p  ",
"   ...q0*+K76++**++:p+++++++++++.##++++++++++++huq0*uhmhu+**up.  ",
"   iiy*++H5.56++++ps:++++++++++..##+++++++++++++hd++hmSmh+udhp#  ",
"   isgi++7...6++:pgp+++++++++++..##++++++++++++qdhduhmNmhdhhdp#  ",
"   0ifmmii5.55:fgmp:+++++++++++..###++++++++++0hKhmkkmBmhkmdd++  ",
"   0HimSmsfffffmSmi++++++++++++..###++++++++++0HdhkmmSBSkmhdp6+  ",
"   *7igmBSmggmSBmp6+.+++++++++...###+++++++++0*7.hhmNB~BNkhhf6+  ",
"   *65smSBNNNNBSfi5+.+++++++++..--##+++++++++ddhhhmSB~_~BSkhhu+  ",
"   *+6ipSNBBBBNSp5++............-:##..-:uusffkmmSNBB~___~BNSmma  ",
"   *+iimSBB__BBBSmmpi>>>;==....->::..........:ihhkmSB~_~BSmkhf+  ",
"   ppmmSNNB__BNSiii+.----------:iiii:----====0+;hhkmNB~BNmkhf++  ",
"   +HiijSNBBBBNSi56+.--::pddkdppiiiuuuu:-==--0+H;hhmmSBSmkmh:6+  ",
"   +7.imSBSSmSBSii6+..--:>pkdpkpiiiiuiu::=:--0+7udmhkmBmkhhhs6+  ",
"   +6:gmBSkkkkSBmi5.*999#*0t0*#++++++++++++.99+6hhd;hhNhh6:sh:.  ",
"   ++pmSmpi.5ipmSmi.###*9yU##++++++++++++Ty9##+-ih;+7hShf+66:s   ",
"   rppmmi6...6+immpi####*q..............yTq####i-+++6fmf6++++.   ",
"    ffip+65.55+++iipi.#*9....++++++++++09*y9*#..++++6imi5+++.    ",
"    ff++++665++..++iu=.......++++++++++9##*...+++++++6fi++..     ",
"       3<.....,+###%:u+++.....++++++++9###.+++##+++3<.p...,      ",
"       CC222<<,###%%*9T#+.............###+.+0#*#+++CC2p2<<       ",
"        F55555+###%%*99+.............#+++.+#y#9*#+++F5i555       ",
"           ++#+###%%*9#+.............+++.++#q00*##++++;..        ",
"           ++#+##%%*9*+.................+++#9*q**#++++.+.        ",
"          ++#+###%%*9#+.........   r..+.+++#*#y*9#++++++.+       ",
"         **9qqqq99***+.........      ..+++#+##q00#+9qqq9**       ",
"        *****999qyy((0#......         .+++++##((yqq999**++.      ",
"        +++++++++++*00*#....           ++++#qyy*++++++++++.      ",
"        .............+###+.             ++qq*..............      ",
"        ................+++             Xq*................      ",
"        #**999000qq(*#+...               ...*qq(qq000999**+      ",
"        ++++##******###+.                 .*q99******++++++      ",
"        ..............+#                   *...............      ",
"        .+.+++##9q+....                     .++0#*0y#......      ",
"         +.++++#*9+....                     .++9+#*0......       ",
"         .+.+++#*#....                       .+*9#**......       ",
"         .+.++++*+....                       .++*+#*......       ",
"         ....+++#....                         .++*##......       ",
"         ..**0y0#+...                         ..++#0y0**+.       ",
"        #**999*****+..                       ..+*999******#      ",
"       %*######+++##+..OOOO,,<<<<<<<<<<<,,OO..#***##########     ",
"       ##+++++++++++#..ooooooooooooooooooooo..*####+++++++++     ",
"      #++.......++..+.ooooooooooooooooooooooo.+++++........+X    ",
"      ...............OO,,<<<<<<<<<<<<<<<<<,,OO...............   r"
};
