/* XPM */
static char *out[] = {
/* columns rows colors chars-per-pixel */
"498 498 160 2 ",
"   c None",
".  c black",
"X  c #030A0F",
"o  c #0C0C0D",
"O  c #0C161B",
"+  c #141213",
"@  c #041524",
"#  c #0C1B23",
"$  c #0C162C",
"%  c #041C2B",
"&  c #0C1D2C",
"*  c #141A24",
"=  c #041F34",
"-  c #0C1B34",
";  c #0C222B",
":  c #0C2533",
">  c #04273C",
",  c #0C263A",
"<  c #0C2A3C",
"1  c #142433",
"2  c #1C2632",
"3  c #14253C",
"4  c #142A3D",
"5  c #1D2F3C",
"6  c #0D2644",
"7  c #042B43",
"8  c #0C2B44",
"9  c #042F4B",
"0  c #142C43",
"q  c #1C2D41",
"w  c #142E4C",
"e  c #0C3244",
"r  c #0C344C",
"t  c #153244",
"y  c #14354D",
"u  c #1C364C",
"i  c #043556",
"p  c #0C3654",
"a  c #043A5C",
"s  c #0C3B59",
"d  c #143654",
"f  c #143B54",
"g  c #1D3C53",
"h  c #143A5C",
"j  c #1C3D5C",
"k  c #023965",
"l  c #0C3E64",
"z  c #143E63",
"x  c #14425C",
"c  c #0C4365",
"v  c #0C466A",
"b  c #0C4A6C",
"n  c #144265",
"m  c #1C4565",
"M  c #14466C",
"N  c #1C466C",
"B  c #144A6C",
"V  c #1C4A6B",
"C  c #0C4672",
"Z  c #0C4A74",
"A  c #0C4D7C",
"S  c #144674",
"D  c #144A74",
"F  c #1C4B74",
"G  c #1C4E7C",
"H  c #0C527C",
"J  c #1C5274",
"K  c #14557C",
"L  c #1C567C",
"P  c #24557C",
"I  c #0C5383",
"U  c #0C578B",
"Y  c #145683",
"T  c #1C5684",
"R  c #145A84",
"E  c #1C5A84",
"W  c #14568C",
"Q  c #1C568C",
"!  c #145B8C",
"~  c #1C5D8C",
"^  c #145C95",
"/  c #1C5D94",
"(  c #125E99",
")  c #245E8B",
"_  c #146294",
"`  c #1C6394",
"'  c #14639B",
"]  c #1C669B",
"[  c #146A9C",
"{  c #1C6A9C",
"}  c #246494",
"|  c #246A9C",
" . c #1466A3",
".. c #1C66A5",
"X. c #146AA4",
"o. c #1C6BA4",
"O. c #146DAC",
"+. c #1C6EAB",
"@. c #1472AD",
"#. c #1C72AC",
"$. c #1473B4",
"%. c #1C74B4",
"&. c #1476BC",
"*. c #1C76BC",
"=. c #1C7ABD",
"-. c #246DA4",
";. c #2C6FA4",
":. c #2472A4",
">. c #2473AC",
",. c #2C74AB",
"<. c #246EB4",
"1. c #2474B4",
"2. c #2C76B4",
"3. c #247AB4",
"4. c #2C7AB4",
"5. c #247DBC",
"6. c #2C7DBB",
"7. c #147BC2",
"8. c #1C7EC3",
"9. c #1C7ECA",
"0. c #247EC4",
"q. c #2C7EC4",
"w. c #1C83CC",
"e. c #2482C5",
"r. c #2C82C4",
"t. c #2486CB",
"y. c #2C86CB",
"u. c #248ACC",
"i. c #348CCC",
"p. c #2386D4",
"a. c #248CD4",
"s. c #2C8ED4",
"d. c #248EDC",
"f. c #2C8EDB",
"g. c #348ED2",
"h. c #348EDC",
"j. c #2C92D4",
"k. c #2492DC",
"l. c #2C92DC",
"z. c #2C9ADB",
"x. c #3492D4",
"c. c #3494DB",
"v. c #3C96DB",
"b. c #359ADC",
"n. c #2494E2",
"m. c #249AE6",
"M. c #2C9AE4",
"N. c #2496EC",
"B. c #2C96EC",
"V. c #2C9DEC",
"C. c #3496E3",
"Z. c #349AE4",
"A. c #3C9DE4",
"S. c #349EED",
"D. c #349EF3",
"F. c #34A2EC",
"G. c #2CA1F3",
"H. c #34A2F3",
"J. c #3CA6F5",
"K. c #34A6FC",
/* pixels */
"                                                                                                                                                                                                                                                                                                                                                                                                                                                                                                                                                                                                                                                                                                                                                                                                                                                                                                                                                                                                                                    ",
"                                                                                                                                                                                                                                                                                                                                                                                                                                                                                                                                                                                                                                                                                                                                                                                                                                                                                                                                                                                                                                    ",
"                                                                                                                                                                                                                                                                                                                                                                                                                                                                                                                                                                                                                                                                                                                                                                                                                                                                                                                                                                                                                                    ",
"                                                                                                                                                                                                                                                                                                                                                                                                                                                                                                                                                                                                                                                                                                                                                                                                                                                                                                                                                                                                                                    ",
"                                                                                                                                                                                                                                                                                                                                                                                                                                                                                                                                                                                                                                                                                                                                                                                                                                                                                                                                                                                                                                    ",
"                                                                                                                                                                                                                                                                                                                                                                                                                                                                                                                                                                                                                                                                                                                                                                                                                                                                                                                                                                                                                                    ",
"                                                                                                                                                                                                                                                                                                                                                                                                                                                                                                                                                                                                                                                                                                                                                                                                                                                                                                                                                                                                                                    ",
"                                                                                                                                                                                                                                                                                                                                                                                                                                                                                                                                                                                                                                                                                                                                                                                                                                                                                                                                                                                                                                    ",
"                                                                                                                                                                                                                                                                                                                                                                                                                                                                                                                                                                                                                                                                                                                                                                                                                                                                                                                                                                                                                                    ",
"                                                                                                                                                                                                                                                                                                                                                                                                                                                                                                                                                                                                                                                                                                                                                                                                                                                                                                                                                                                                                                    ",
"                                                                                                                                                                                                                                                                                                                                                                                                                                                                                                                                                                                                                                                                                                                                                                                                                                                                                                                                                                                                                                    ",
"                                                                                                                                                                                                                                                                                                                                                                                                                                                                                                                                                                                                                                                                                                                                                                                                                                                                                                                                                                                                                                    ",
"                                                                                                                                                                                                                                                                                                                                                                                                                                                                                                                                                                                                                                                                                                                                                                                                                                                                                                                                                                                                                                    ",
"                                                                                                                                                                                                                                                                                                                                                                                                                                                                                                                                                                                                                                                                                                                                                                                                                                                                                                                                                                                                                                    ",
"                                                                                                                                                                                                                                                                                                                                                                                                                                                                                                                                                                                                                                                                                                                                                                                                                                                                                                                                                                                                                                    ",
"                                                                                                                                                                                                                                                                                                                                                                                                                                                                                                                                                    m n n n n                                                                                                                                                                                                                                                                                                                                                                                                                                                                       ",
"                                                                                                                                                                                                                                                                                                                                                                                                                                                                                                                                                n s.x.s.j.s.j.r.                                                                                                                                                                                                                                                                                                                                                                                                                                                                    ",
"                                                                                                                                                                                                                                                                                                                                                                                                                                                                                                                                                n l.b.l.l.j.c.s.                                                                                                                                                                                                                                                                                                                                                                                                                                                                    ",
"                                                                                                                                                                                                                                                                                                                                                                                                                                                                                                                                                n j.C.l.l.l.l.a.                                                                                                                                                                                                                                                                                                                                                                                                                                                                    ",
"                                                                                                                                                                                                                                                                                                                                                                                                                                                                                                                                                n f.c.l.k.l.l.a.                                                                                                                                                                                                                                                                                                                                                                                                                                                                    ",
"                                                                                                                                                                                                                                                                                                                                                                                                                                                                                                                                                n l.c.l.l.j.l.a.                                                                                                                                                                                                                                                                                                                                                                                                                                                                    ",
"                                                                                                                                                                                                                                                                                                                                                                                                                                                                                                                                                n c.C.l.c.l.c.a.                                                                                                                                                                                                                                                                                                                                                                                                                                                                    ",
"                                                                                                                                                                                                                                                                                                                                                                                                                                                                                                                                                  y.s.a.a.a.a.p.                                                                                                                                                                                                                                                                                                                                                                                                                                                                    ",
"                                                                                                                                                                                                                                                                                                                                                                                                                                                                                                                                                                                                                                                                                                                                                                                                                                                                                                                                                                                                                                    ",
"                                                                                                                                                                                                                                                                                                                                                                                                                                                                                                                                                                                                                                                                                                                                                                                                                                                                                                                                                                                                                                    ",
"                                                                                                                                                                                                                                                                                                                                                                                                                                                                                                                                                                                                                                                                                                                                                                                                                                                                                                                                                                                                                                    ",
"                                                                                                                                                                                                                                                                                                                                                                                                                                                                                                                                                                                                                                                                                                                                                                                                                                                                                                                                                                                                                                    ",
"                                                                                                                                                                                                                                                                                                                                                                                                                                                                                                                                                                                                                                                                                                                                                                                                                                                                                                                                                                                                                                    ",
"                                                                                                                                                                                                                                                                                                                                                                                                                                                                                                                                                                                                                                                                                                                                                                                                                                                                                                                                                                                                                                    ",
"                                                                                                                                                                                                                                                                                                                                                                                                                                                                                                                                                                                                                                                                                                                                                                                                                                                                                                                                                                                                                                    ",
"                                                                                                                                                                                                                                                                                                                                                                                                                                                                                                                                                                                                                                                                                                                                                                                                                                                                                                                                                                                                                                    ",
"                                                                                                                                                                                                                                                                                                                                                                                                                                                                                                                                                                c %.O.+.O.O.+.O.O.+.O.O.+.O.#.U                                                                                                                                                                                                                                                                                                                                                                                                                                     ",
"                                                                                                                                                                                                                                                                                                                                                                                                                                                                                                                                                                ! A.Z.Z.Z.S.Z.Z.S.Z.Z.S.Z.Z.A.1.                                                                                                                                                                                                                                                                                                                                                                                                                                    ",
"                                                                                                                                                                                                                                                                                                                                                                                                                                                                                                                                                                Y C.l.l.l.l.l.l.l.l.l.l.l.l.c.%.                                                                                                                                                                                                                                                                                                                                                                                                                                    ",
"                                                                                                                                                                                                                                                                                                                                                                                                                                                                                                                                                                Y c.l.l.j.l.l.l.j.l.j.l.l.j.c.%.                                                                                                                                                                                                                                                                                                                                                                                                                                    ",
"                                                                                                                                                                                                                                                                                                                                                                                                                                                                                                                                                                Y M.f.j.f.s.l.f.s.l.f.s.l.f.c.#.                                                                                                                                                                                                                                                                                                                                                                                                                                    ",
"                                                                                                                                                                                                                                                                                                                                                                                                                                                                                                                                                                Y c.l.l.f.l.s.l.l.l.l.l.j.l.c.%.                                                                                                                                                                                                                                                                                                                                                                                                                                    ",
"                                                                                                                                                                                                                                                                                                                                                                                                                                                                                                                                                                ~ A.l.c.C.b.M.c.l.k.l.k.l.k.c.#.                                                                                                                                                                                                                                                                                                                                                                                                                                    ",
"                                                                                                                                                                                                                                                                                                                                                                                                                                                                                                                                                                c %.#.$.$.$.$.&.p.k.k.j.k.k.c.#.                                                                                                                                                                                                                                                                                                                                                                                                                                    ",
"                                                                                                                                                                                                                                                                                                                                                                                                                                                                                                                                                                                #.b.x.j.j.j.b.$.                                                                                                                                                                                                                                                                                                                                                                                                                                    ",
"                                                                                                                                                                                                                                                                                                                                                                                                                                                                                                                                                                                X.c.j.s.s.s.c.$.                                                                                                                                                                                                                                                                                                                                                                                                                                    ",
"                                                                                                                                                                                                                                                                                                                                                                                                                                                                                                                                                                                O.c.l.s.s.s.c.$.                                                                                                                                                                                                                                                                                                                                                                                                                                    ",
"                                                                                                                                                                                                                                                                                                                                                                                                                                                                                                                                                                                +.Z.c.l.l.l.C.$.                                                                                                                                                                                                                                                                                                                                                                                                                                    ",
"                                                                                                                                                                                                                                                                                                                                                                                                                                                                                                                                                                                O.C.l.j.l.l.c.$.                                                                                                                                                                                                                                                                                                                                                                                                                                    ",
"                                                                                                                                                                                                                                                                                                                                                                                                                                                                                                                                                                                +.Z.l.l.l.s.c.%.                                                                                                                                                                                                                                                                                                                                                                                                                                    ",
"                                                                                                                                                                                                                                                                                                                                                                                                                                                                                                                                                                                O.Z.c.j.f.l.c.O.                                                                                                                                                                                                                                                                                                                                                                                                                                    ",
"                                                                                                                                                                                                                                                                                                                                                                                                                                                                                                                                                                                +.C.l.l.j.f.c.e.g y y y y y                                                                                                                                                                                                                                                                                                                                                                                                                         ",
"                                                                                                                                                                                                                                                                                                                                                                                                                                                                                  s | -.+.o.| +.+.| +.+.| +.+.| +.+.| +.+.| +.+.| +.+.o.+.+.o.+.o.#.o.+.-.+.                    O.Z.l.l.s.l.l.a.a.a.a.a.t.a.s.                                                                                                                                                                                                                                                                                                                                                                                                                      ",
"                                                                                                                                                                                                                                                                                                                                                                                                                                                                                  f ,.,.>.1.1.1.1.1.1.1.1.1.1.1.1.1.1.1.1.1.1.1.1.1.1.1.2.1.>.1.1.>.1.1.1.1.3.#.                o.Z.c.l.l.s.l.l.c.c.l.l.C.Z.Z.!                                                                                                                                                                                                                                                                                                                                                                                                                     ",
"                                                                                                                                                                                                                                                                                                                                                                                                                                                                                  z >.,.>.>.1.>.1.>.1.>.1.1.>.1.>.1.>.1.>.1.>.1.1.>.1.>.>.>.>.>.>.>.>.>.%.>.>.+.                O.Z.l.j.f.j.l.j.l.f.l.f.j.l.l.!                                                                                                                                                                                                                                                                                                                                                                                                                     ",
"                                                                                                                                                                                                                                                                                                                                                                                                                                                                                  l >.1.1.>.>.#.>.>.#.>.>.#.>.#.>.>.#.>.>.#.1.>.#.>.>.%.>.#.>.#.>.>.#.>.#.>.3.+.                +.Z.s.j.l.f.j.f.l.k.l.l.k.l.c.!                                                                                                                                                                                                                                                                                                                                                                                                                     ",
"                                                                                                                                                                                                                                                                                                                                                                                                                                                                                  h 2.1.>.#.>.1.#.>.1.#.1.>.1.>.>.%.>.1.>.>.#.>.>.%.>.>.>.1.#.>.1.>.>.#.>.>.3.+.                +.b.s.f.l.j.l.j.l.l.k.l.l.k.c.!                                                                                                                                                                                                                                                                                                                                                                                                                     ",
"                                                                                                                                                                                                                                                                                                                                                                                                                                                                                  l 2.1.1.>.>.#.1.>.>.>.>.#.>.%.>.>.>.#.1.>.>.%.>.>.>.%.>.>.>.>.#.>.1.#.%.>.>.+.                #.Z.l.c.l.j.c.j.l.l.k.k.j.k.c.Y                                                                                                                                                                                                                                                                                                                                                                                                                     ",
"                                                                                                                                                                                                                                                                                                                                                                                                                                                                                  z 1.2.1.>.%.>.>.>.%.>.%.>.>.>.#.1.>.>.#.>.%.>.>.>.#.>.>.1.#.1.>.#.>.>.#.>.3.+.                O.b.s.a.l.l.f.k.f.k.j.k.k.k.c.! o                                                                                                                                                                                                                                                                                                                                                                                                                   ",
"                                                                                                                                                                                                                                                                                                                                                                                                                                                    r f s s s h s f s s s h s h h ! 1.1.#.>.%.>.%.>.>.%.>.>.1.%.>.#.>.>.>.>.>.>.#.1.>.>.>.>.>.>.%.>.1.#.>.>.>.+.t               r n n n m n c T u.l.l.j.j.j.l.1.F D D D D D Z                                                                                                                                                                                                                                                                                                                                                                                                       ",
"                                                                                                                                                                                                                                                                                                                                                                                                                                                    ` ,.>.>.1.1.-.,.>.>.>.1.>.:.>.>.#.%.%.:.%.>.>.#.>.>.>.#.>.>.>.>.%.>.%.>.%.>.>.>.%.>.#.#.>.#.>.>.>.#.#.1.3.+.0                               9.c.j.j.s.j.j.l.l.l.l.l.l.l.s.m                                                                                                                                                                                                                                                                                                                                                                                                     ",
"                                                                                                                                                                                                                                                                                                                                                                                                                                                    { 4.,.>.>.>.>.>.;.1.1.>.>.%.:.>.>.>.>.%.:.#.>.>.1.#.1.>.>.%.>.#.>.>.>.>.1.#.1.>.>.#.>.>.1.>.%.>.#.>.>.>.3.o.0                               w.c.j.s.s.s.l.l.l.l.l.l.l.l.f.S                                                                                                                                                                                                                                                                                                                                                                                                     ",
"                                                                                                                                                                                                                                                                                                                                                                                                                                                    { 3.>.>.#.>.>.>.>.>.%.>.>.#.>.#.>.#.>.#.>.#.>.#.>.>.#.>.>.#.>.1.>.#.>.%.>.>.#.>.%.>.>.#.>.#.>.>.1.>.%.>.>.+.0                               e.c.j.f.l.s.f.j.l.j.l.l.j.l.s.M                                                                                                                                                                                                                                                                                                                                                                                                     ",
"                                                                                                                                                                                                                                                                                                                                                                                                                                                    { 3.>.>.>.>.#.#.%.>.>.1.#.>.>.>.>.>.>.>.>.1.>.1.>.1.>.>.#.1.>.>.#.1.>.>.#.>.>.>.>.#.>.#.>.1.>.>.#.>.#.>.3.+.0                               w.c.l.l.l.l.l.j.l.f.l.l.c.l.i.N                                                                                                                                                                                                                                                                                                                                                                                                     ",
"                                                                                                                                                                                                                                                                                                                                                                                                                                                    ..1.#.#.>.%.<.1.%.>.%.>.>.>.#.>.%.>.#.>.%.>.%.>.#.>.#.1.>.>.#.>.>.>.#.>.1.>.#.1.>.#.>.1.>.#.>.1.#.>.%.>.1.+.4                               w.C.l.j.f.j.f.f.j.l.j.l.l.l.l.M                                                                                                                                                                                                                                                                                                                                                                                                     ",
"                                                                                                                                                                                                                                                                                                                                                                                                                                                    ..1.1.%.>.>.<.1.1.%.>.#.>.#.>.>.:.#.>.>.>.>.>.>.>.1.>.#.>.1.>.#.1.>.>.#.>.>.>.#.>.1.>.#.>.>.#.>.1.#.>.>.3.+.<                               w.c.l.l.l.l.j.l.l.s.l.k.f.f.j.n                                                                                                                                                                                                                                                                                                                                                                                                     ",
"                                                                                                                                                                                                                                                                                                                                                                                                                                                    X.1.1.>.#.>.#.1.1.1.#.1.>.>.>.#.>.>.>.%.>.%.>.#.>.#.>.1.#.>.>.>.#.>.1.>.#.1.#.1.>.%.>.>.%.>.1.>.>.#.#.>.>.+.0                               w.Z.l.s.f.j.f.f.j.l.f.k.l.l.k.M                                                                                                                                                                                                                                                                                                                                                                                                     ",
"                                                                                                                                                                                                                                                                                                                                                                                                                    9 D Z b D Z Z b D Z B A Z Z C Y o.1.>.>.>.#.>.#.1.>.#.>.#.>.>.>.>.#.>.>.>.>.1.>.%.>.>.>.#.1.#.>.1.#.>.1.>.#.>.>.>.#.>.#.>.>.#.>.1.>.>.1.>.>.~ Z C D A b D                   w.c.l.l.j.f.l.l.l.l.j.k.l.l.s.M                                                                                                                                                                                                                                                                                                                                                                                                     ",
"                                                                                                                                                                                                                                                                                                                                                                                                                    n 4.4.4.3.1.4.>.4.,.4.4.3.1.1.,.>.>.1.#.>.1.>.#.>.>.1.>.>.#.>.#.1.>.#.1.#.>.%.>.>.#.1.>.>.>.>.#.>.>.#.>.>.>.#.>.#.1.>.>.#.1.>.#.>.#.>.#.>.1.3.4.2.3.3.4.4.-.                w.C.l.l.f.j.f.j.f.j.l.j.k.f.s.M                                                                                                                                                                                                                                                                                                                                                                                                     ",
"                                                                                                                                                                                                                                                                                                                                                                                                                    M 4.;.>.>.#.>.1.>.>.;.%.>.1.>.1.>.>.>.>.#.>.>.1.>.%.>.%.>.1.>.>.#.>.>.>.>.#.>.>.#.>.>.%.>.#.1.>.#.1.>.1.#.1.>.1.>.>.#.1.>.>.>.1.>.>.1.>.>.1.1.>.>.>.1.>.1.o.                w.c.l.j.l.f.l.l.l.k.f.k.j.l.s.n                                                                                                                                                                                                                                                                                                                                                                                                     ",
"                                                                                                                                                                                                                                                                                                                                                                                                                    b 2.>.>.>.#.>.#.>.#.>.>.#.>.#.>.#.%.>.#.1.#.1.#.>.>.>.>.>.%.>.%.>.>.%.>.#.1.>.%.>.>.>.#.>.>.>.1.>.>.#.>.>.>.#.>.#.>.1.%.>.#.1.#.>.#.>.%.>.#.>.1.#.>.>.1.3.o.                w.b.l.f.j.f.j.s.l.j.l.j.l.l.s.n                                                                                                                                                                                                                                                                                                                                                                                                     ",
"                                                                                                                                                                                                                                                                                                                                                                                                                    v 3.%.1.>.>.>.>.%.#.%.>.>.#.>.>.%.>.>.>.>.1.#.>.%.>.#.>.#.>.>.>.>.1.#.>.>.%.>.>.>.#.1.>.1.%.>.#.>.>.1.%.>.%.>.>.1.>.#.>.>.>.#.>.>.1.>.>.>.>.>.>.>.#.1.>.1.o.                w.C.l.l.s.l.s.j.f.l.f.l.l.l.x.n                                                                                                                                                                                                                                                                                                                                                                                                     ",
"                                                                                                                                                                                                                                                                                                                                                                                                                    v 2.1.>.>.#.1.1.%.1.1.#.>.>.1.1.%.%.>.%.#.%.>.%.>.%.>.#.>.#.1.#.>.>.>.%.>.#.>.>.>.>.#.>.>.>.>.1.#.>.#.>.>.>.#.>.#.>.>.>.>.1.>.>.#.>.#.>.%.>.%.>.>.>.#.1.2.'                 e.C.j.l.l.l.s.f.j.l.j.l.f.l.j.n                                                                                                                                                                                                                                                                                                                                                                                                     ",
"                                                                                                                                                                                                                                                                                                                                                                                                                    M 1.1.1.>.1.>.>.%.1.%.>.-.1.#.>.%.1.>.%.%.>.%.>.%.>.%.>.%.>.#.>.>.%.>.%.>.#.>.#.1.#.1.>.%.>.#.>.>.>.1.>.#.1.>.>.1.#.1.#.>.#.>.#.1.>.>.#.>.>.>.#.>.#.>.1.>.X.                w.c.l.l.s.l.l.l.j.f.f.l.l.l.l.c                                                                                                                                                                                                                                                                                                                                                                                                     ",
"                                                                                                                                                                                                                                                                                                                                                                                                                    F 2.1.>.>.1.>.+.1.%.1.>.>.>.1.1.%.>.>.1.%.>.%.>.%.>.%.>.#.>.>.>.1.>.#.>.%.>.>.>.>.>.>.#.1.>.1.#.1.#.>.#.1.>.#.>.#.>.>.>.%.>.1.>.>.#.1.>.#.1.>.#.>.>.>.1.1.o.2               9.c.a.s.a.s.a.s.l.l.j.l.f.l.s.F                                                                                                                                                                                                                                                                                                                                                                                                     ",
"                                                                                                                                                                                                                                                                                                                                                                                                    9 _ _ _ ~ _ _ _ o.-.1.1.2.1.1.+.1.%.1.1.>.<.1.>.%.1.1.%.1.#.>.#.>.#.>.%.>.#.>.#.>.>.%.>.#.>.#.>.%.>.#.1.>.#.>.>.#.>.>.1.#.>.>.>.1.>.%.>.>.>.%.>.#.>.>.1.>.#.>.>.%.>.#.>.>.>. .' _ ' ( ' ' ..>.1.>.1.1.1.1.e.f.k.l.f.l.l.l.w.7.=.7.7.8.8.+.                                                                                                                                                                                                                                                                                                                                                                                      ",
"                                                                                                                                                                                                                                                                                                                                                                                                    f >.>.>.,.1.3.>.1.1.1.1.>.1.1.1.%.1.1.>.1.>.1.1.1.1.1.1.>.%.>.#.>.%.>.#.:.#.>.1.%.>.>.#.>.#.>.>.>.#.>.>.>.%.>.>.1.>.#.>.>.1.#.>.#.>.>.>.%.>.#.>.1.>.#.>.>.>.%.>.>.>.1.>.1.>.3.2.1.1.3.4.3.4.#.>.>.#.>.>.+.0.a.l.l.l.l.f.l.M.C.l.c.c.Z.A.i.5                                                                                                                                                                                                                                                                                                                                                                                     ",
"                                                                                                                                                                                                                                                                                                                                                                                                    r :.>.>.1.>.>.>.#.%.>.%.#.>.>.>.>.#.>.#.>.#.>.#.>.#.>.#.>.>.>.#.>.>.>.>.>.%.>.>.#.>.#.>.>.>.>.%.>.1.>.#.>.>.%.>.#.>.1.#.>.>.>.>.%.>.%.>.>.1.>.>.#.1.>.%.>.>.>.>.%.>.#.>.#.1.>.1.>.>.>.1.>.1.>.#.>.1.>.#.+.0.l.M.k.f.l.l.f.l.l.j.l.j.l.M.t.t                                                                                                                                                                                                                                                                                                                                                                                     ",
"                                                                                                                                                                                                                                                                                                                                                                                                    y -.>.>.1.>.1.>.>.#.>.#.>.>.#.>.%.>.%.>.%.>.1.>.>.1.>.>.1.#.1.>.>.%.>.%.>.>.>.%.>.>.1.#.>.%.>.>.>.#.1.>.%.>.>.>.>.%.>.>.%.>.%.>.>.1.>.%.>.#.>.>.>.>.>.>.%.>.#.1.>.>.>.#.1.>.>.>.>.1.>.>.1.>.>.1.>.#.1.>.%.0.l.l.k.l.l.f.l.l.f.k.s.k.l.c.u.t                                                                                                                                                                                                                                                                                                                                                                                     ",
"                                                                                                                                                                                                                                                                                                                                                                                                    r :.1.>.1.>.>.#.>.%.>.%.>.#.1.>.>.>.#.1.>.#.>.#.1.#.>.#.>.>.>.%.>.>.>.>.%.>.>.>.>.#.>.1.>.>.#.>.%.>.>.#.>.>.#.>.1.>.#.>.>.>.#.>.%.>.>.>.#.1.#.>.%.>.#.>.>.>.%.>.#.>.1.>.#.>.#.1.%.>.#.>.#.>.#.>.>.>.>.1.%.0.l.k.j.k.j.k.j.l.j.l.k.l.l.l.t.0                                                                                                                                                                                                                                                                                                                                                                                     ",
"                                                                                                                                                                                                                                                                                                                                                                                                    p -.%.1.%.>.#.1.#.>.#.>.>.>.>.#.1.#.>.>.#.1.>.>.>.>.1.>.1.#.>.>.%.>.%.>.>.>.%.>.1.>.>.#.>.%.>.>.>.#.>.1.>.>.1.#.>.>.1.>.#.>.>.>.>.#.>.#.>.>.>.>.>.1.#.>.#.>.>.>.1.#.>.>.1.>.>.#.>.>.#.1.>.#.1.>.%.>.#.>.:.5.k.j.j.l.l.l.k.j.k.l.j.j.l.l.e.q                                                                                                                                                                                                                                                                                                                                                                                     ",
"                                                                                                                                                                                                                                                                                                                                                                                                    p #.1.1.%.>.%.>.#.>.%.>.%.>.%.>.>.>.%.>.>.>.%.>.1.#.>.#.>.>.#.>.>.>.>.#.1.>.>.>.>.#.1.>.>.>.>.#.1.>.>.#.>.#.>.>.%.>.#.>.1.%.>.%.>.1.>.1.#.1.#.1.#.>.>.1.>.1.%.>.#.>.#.1.#.>.%.>.>.>.1.#.>.>.>.#.>.>.1.#.>.5.s.k.j.k.j.l.j.l.l.k.s.l.l.l.e.0                                                                                                                                                                                                                                                                                                                                                                                     ",
"                                                                                                                                                                                                                                                                                                                                                                                                  & m #.1.>.%.>.#.>.%.>.#.>.>.>.>.>.%.>.>.>.%.>.>.>.#.>.>.1.%.>.>.%.>.%.>.>.#.>.1.#.>.>.>.%.>.#.1.>.#.>.%.>.1.>.#.>.>.>.%.>.>.>.#.>.#.>.#.>.>.>.>.%.>.>.%.#.>.#.>.>.>.>.1.>.#.>.>.>.%.>.#.>.1.#.1.>.1.%.>.>.#.5.s.j.j.f.k.s.k.l.s.l.l.k.s.c.u.t                                                                                                                                                                                                                                                                                                                                                                                     ",
"                                                                                                                                                                                                                                                                                                                                                                                      ` o.o.......` -.%.>.%.1.%.>.#.1.%.>.%.>.%.>.>.#.>.#.1.>.1.#.>.1.#.>.>.>.#.>.>.1.>.#.1.>.>.>.>.1.>.#.>.>.>.#.>.>.%.>.>.#.>.1.#.>.%.>.>.#.>.1.>.1.%.>.>.#.1.#.>.>.1.>.>.#.1.#.>.%.>.#.>.>.%.>.>.>.>.1.#.>.>.#.>.>.#.>.#.1.6.k.j.f.j.l.l.j.l.l.s.j.l.s.l.w.0                                                                                                                                                                                                                                                                                                                                                                                     ",
"                                                                                                                                                                                                                                                                                                                                                                                      >.6.3.4.>.>.,.3.%.#.>.>.#.1.#.>.#.>.>.>.>.%.>.1.>.>.>.#.>.>.%.>.>.%.>.>.1.#.%.#.>.%.>.#.%.1.#.>.1.>.%.#.1.#.%.>.#.>.#.1.#.>.#.>.#.1.#.>.#.#.%.>.#.>.%.>.#.>.%.>.%.>.>.>.>.>.1.>.>.%.>.>.>.#.1.%.>.>.>.>.#.1.>.#.>.>.1.-.0.f.l.l.f.j.f.l.s.l.l.l.s.l.c.t.t                                                                                                                                                                                                                                                                                                                                                                                     ",
"                                                                                                                                                                                                                                                                                                                                                                                      o.4.>.#.:.>.:.>.%.#.%.>.#.>.#.>.#.>.%.>.#.>.#.>.%.>.%.>.1.>.>.#.>.>.#.>.#.1.>.%.>.%.>.#.>.#.>.>.#.>.%.>.%.>.#.>.%.>.%.>.%.>.%.>.%.>.#.1.>.>.%.>.%.>.#.1.%.>.#.>.>.#.>.%.>.#.>.#.>.>.#.1.#.>.>.>.#.1.#.>.>.#.>.1.>.#.1.+.q.l.l.l.f.l.f.l.l.l.s.l.l.f.l.u.q                                                                                                                                                                                                                                                                                                                                                                                     ",
"                                                                                                                                                                                                                                                                                                                                                                                      o.1.#.:.%.:.#.>.>.>.%.>.>.%.>.1.>.>.>.#.>.1.>.>.>.>.>.>.%.>.>.>.#.1.>.#.1.#.1.%.>.#.>.%.>.1.#.1.>.#.>.#.>.#.>.#.1.%.>.#.>.%.>.#.>.%.>.%.#.>.#.>.%.>.1.#.>.>.>.>.>.%.>.>.>.1.>.%.>.1.>.#.>.>.%.>.>.>.>.%.>.1.>.%.>.>.>.%.4.g.f.f.j.f.j.l.s.l.k.l.s.l.c.t.t                                                                                                                                                                                                                                                                                                                                                                                     ",
"                                                                                                                                                                                                                                                                                                                                                                                      o.1.#.>.#.>.1.+.1.%.>.#.>.>.>.#.>.%.>.>.1.#.>.>.%.>.%.>.>.#.>.1.>.#.>.1.>.>.#.1.>.#.>.>.#.>.>.>.%.>.1.>.#.1.>.>.#.>.>.>.#.>.>.1.#.>.>.>.>.#.>.>.#.>.#.1.>.-.>.>.>.>.>.%.>.#.>.>.%.>.>.1.>.>.>.>.#.>.%.>.>.>.#.>.>.%.>.>.3.s.f.j.f.j.l.f.l.j.f.l.l.j.l.p.t                                                                                                                                                                                                                                                                                                                                                                                     ",
"                                                                                                                                                                                                                                                                                                                                                                                      o.1.1.#.>.>.1.>.>.#.>.%.#.>.1.>.>.>.>.#.>.>.%.>.>.1.>.>.%.>.>.#.>.1.>.%.>.>.>.#.1.>.1.1.>.1.1.>.>.1.>.>.1.>.1.>.1.>.1.>.1.>.1.>.1.>.1.%.>.1.>.1.>.1.>.>.>.>.>.>.%.>.%.>.>.#.1.>.>.#.>.#.1.#.1.#.>.>.>.>.%.>.1.>.#.>.1.>.6.a.l.j.l.l.s.l.k.l.s.l.j.f.l.t.0                                                                                                                                                                                                                                                                                                                                                                                     ",
"                                                                                                                                                                                                                                                                                                                                                                                      X.1.>.>.1.>.1.#.>.1.#.>.>.#.>.#.1.#.>.1.#.>.>.>.#.>.#.>.>.>.#.1.>.%.>.>.>.#.>.>.>.>.>.>.>.>.1.1.1.>.1.1.>.1.>.1.>.1.>.1.1.>.1.1.>.1.>.1.1.>.1.1.>.1.>.>.>.1.1.>.>.#.>.>.#.1.>.#.>.1.>.>.>.>.#.>.1.#.1.#.>.>.#.>.1.>.#.>.3.f.j.s.f.l.f.j.s.l.l.l.l.f.c.t.0                                                                                                                                                                                                                                                                                                                                                                                     ",
"                                                                                                                                                                                                                                                                                                                                                                                      +.3.1.>.#.>.>.>.1.#.>.>.1.>.>.>.>.1.#.>.>.>.%.>.>.1.>.1.#.1.>.>.>.>.#.>.1.>.-.o.] ] ] ] | ] | | | ] ] ] ] ] ] ] ] ] ] ] ] ] ] ] ] ] ] | ] ] ] ] ] ] ] ] ] +.:.>.>.1.#.>.1.#.>.>.#.>.#.1.#.>.>.>.>.>.#.>.>.>.1.>.#.>.>.-.0.s.l.j.s.l.s.l.f.l.s.l.s.l.l.a.) s h f z n m r                                                                                                                                                                                                                                                                                                                                                                       ",
"                                                                                                                                                                                                                                                                                                                                                                                      o.1.>.#.>.#.1.%.>.>.>.#.>.#.1.#.>.#.>.1.#.>.>.#.1.#.>.>.>.#.>.%.>.>.>.#.>.>...^ ~ T E T T T T Y T T T T T T T T T T T T T T T T T T T T T T T T T T E E Y ` ;.>.#.>.>.#.>.>.#.1.>.%.>.>.>.%.>.%.>.1.>.1.#.#.>.>.>.1.#.1.q.s.f.j.f.l.l.j.l.k.l.l.l.j.l.k.a.s.s.s.s.s.r.w.                                                                                                                                                                                                                                                                                                                                                                      ",
"                                                                                                                                                                                                                                                                                                                                                                                      +.3.>.>.1.>.>.>.#.1.>.1.>.#.>.>.1.%.>.#.>.>.>.>.>.>.#.>.>.>.>.%.>.%.%.>.%.>.{ U K L Y L Y L Y L L K L K T Y T Y T T Y T Y T Y T Y Y T Y Y Y T Y T Y L J T ` >.>.%.>.%.>.%.%.>.#.>.>.#.>.#.>.>.>.%.>.#.>.>.>.%.>.#.>.1.-.0.l.l.f.l.s.f.l.f.f.s.l.s.f.l.l.l.l.l.c.j.c.Z.9.                                                                                                                                                                                                                                                                                                                                                                      ",
"                                                                                                                                                                                                                                                                                                                                                                                      +.,.1.#.>.#.>.1.>.#.>.#.>.>.1.%.>.>.>.>.1.>.>.#.>.>.>.>.#.>.>.%.>.%.>.%.>.>.| ! T Y T T T T T T T T T T Y T Y T T T T T T Y T T T T Y T T T T Y T T T J E ` >.>.#.>.%.>.#.>.%.>.1.>.>.1.>.1.#.>.>.>.>.1.%.>.>.%.>.#.1.<.6.f.f.l.l.l.j.l.j.l.l.l.l.l.s.l.f.l.l.l.f.l.b.9.                                                                                                                                                                                                                                                                                                                                                                      ",
"                                                                                                                                                                                                                                                                                                                                                                                      +.1.>.>.#.1.>.#.>.>.1.>.#.1.#.>.>.#.1.%.>.#.>.>.1.>.>.#.>.>.>.#.%.>.#.>.1.>.] Y T T Y T Y T Y J R Y T Y J T T E Y J R Y E J R T Y E T E Y J Y T E J R Y R ` 1.%.>.%.>.%.>.%.#.>.%.>.#.>.#.>.>.%.>.#.>.#.>.1.>.>.>.1.#.%.4.g.f.s.l.l.f.a.f.j.l.j.f.j.l.l.a.f.l.f.s.l.c.9.                                                                                                                                                                                                                                                                                                                                                                      ",
"                                                                                                                                                                                                                                                                                                                                                                                      +.1.>.1.>.>.#.>.1.#.>.>.>.>.>.>.>.#.>.>.>.>.>.#.>.#.>.>.>.#.>.#.>.1.#.1.%.>...E Y E Y E Y J R E Y T Y E Y T Y T E T E T Y T T R J Y J R T E T T R T T T T ` 1.>.>.#.>.>.#.>.%.>.>.#.1.>.>.%.>.>.>.>.%.>.>.#.>.%.>.>.>.%.0.s.l.l.s.k.j.a.j.f.j.l.j.l.f.l.f.l.l.f.s.l.C.9.                                                                                                                                                                                                                                                                                                                                                                      ",
"                                                                                                                                                                                                                                                                                                                                                                                      +.2.>.#.>.#.>.>.>.>.#.1.#.>.%.>.#.>.#.>.%.>.>.>.>.>.#.-.-.>.-.1.%.>.1.>.%.1.] Q T Y T Y E R T Y T R J R T E J R T Y T E J R T T E T E T T Y E Y T E T Y T ` 1.>.1.>.1.>.1.>.1.#.>.1.#.>.%.>.>.%.>.#.>.>.1.>.#.>.>.%.>.%.5.s.j.k.j.j.j.l.j.l.k.j.l.f.j.f.j.f.l.l.l.l.c.9.                                                                                                                                                                                                                                                                                                                                                                      ",
"                                                                                                                                                                                                                                                                                                                                                                                      +.1.>.>.1.>.>.>.%.%.>.%.>.%.%.>.%.>.%.>.%.>.#.>.>.>.>.1.>.1.1.#.>.>.#.>.>.>.| T R T E T J Y T E J R T T Y T Y T J E T R T T R T Y T Y E Y T J E T Y T Y R ` 1.>.>.>.>.>.>.#.>.1.>.#.>.>.>.#.1.>.>.1.#.>.%.>.>.%.>.>.#.#.6.i.f.s.f.s.s.s.f.j.j.l.s.k.f.s.f.l.l.f.l.l.Z.9.                                                                                                                                                                                                                                                                                                                                                                      ",
"                                                                                                                                                                                                                                                                                                                                                                      s n n n n c s L #.>.>.#.>.#.>.5.e.e.e.e.e.r.e.t.e.e.e.e.t.e.r.e.r.e.e.r.e.t.3.{ ` ` } ` ` } ~ T T T Y E E T Y T E T Y E T E J E R T T Y T Y J E T J E T J E Y E Y J E Y T ! ] ` / ` ) / } | >.>.#.>.1.#.1.>.>.%.>.>.>.>.>.1.#.>.>.%.>.#.3.6.0.e.5.5.0.5.u.f.l.k.l.j.l.l.f.l.l.l.s.c.c.9.                                                                                                                                                                                                                                                                                                                                                                      ",
"                                                                                                                                                                                                                                                                                                                                                                      } 4.>.>.>.#.>.>.>.>.1.>.1.>.%.e.l.c.j.l.c.j.l.l.l.l.l.l.l.l.j.l.j.f.j.f.c.l.e.~ Y T Y T T T Y T R T J R T T E Y T T T T Y E Y T T R J E J E R T R T Y E Y E T T T E Y T Y Y ! Y T L Q L L ` 1.>.1.>.>.#.>.#.>.%.>.#.1.#.>.>.>.1.>.>.1.#.%.%.#.#.#.#.#.>.e.j.l.f.l.s.f.j.f.l.l.l.f.l.Z.9.                                                                                                                                                                                                                                                                                                                                                                      ",
"                                                                                                                                                                                                                                                                                                                                                                      ..1.1.>.1.>.#.>.1.>.1.>.>.1.#.e.s.s.f.l.s.f.l.s.l.f.l.j.f.s.l.s.f.j.i.l.j.c.e.~ Y T T J R T T T T R T T Y J E Y T R J E T T T R T T Y E Y T T T J E T T T Y T R T T Y J R Y E Y T Y T Y T ] -.1.#.>.>.1.>.>.1.>.>.>.>.#.1.#.>.#.>.#.>.%.>.#.1.#.>.>.>.1.e.f.l.l.s.l.j.f.j.l.l.l.f.l.c.9.                                                                                                                                                                                                                                                                                                                                                                      ",
"                                                                                                                                                                                                                                                                                                                                                                      ] 2.1.>.%.>.1.>.1.>.1.>.1.>.#.r.j.l.s.k.a.l.k.l.l.s.l.f.l.j.s.j.l.f.j.s.f.l.e.~ Y Y R T Y T Y T R J E Y T T Y T J E Y E Y J E T Y J E T T Y T Y E Y T R T T T J R T T Y T Y E Y E T T T T | >.#.>.%.>.#.#.>.%.>.#.1.#.>.>.1.>.1.>.>.#.>.1.#.#.1.>.#.>.>.e.l.l.l.s.f.j.f.l.f.l.l.s.l.Z.9.                                                                                                                                                                                                                                                                                                                                                                      ",
"                                                                                                                                                                                                                                                                                                                                                                       .,.1.1.>.1.#.1.>.>.1.>.1.>.%.e.s.l.k.n.k.a.n.f.l.l.s.l.j.f.s.c.s.s.s.s.s.l.e.~ Y T R E R T T J E Y T T E Y E T R T T T T R T J E R T Y T E J R T T T T R J R E T Y J R E T Y E Y T Y T T ` -.>.>.>.#.1.>.>.#.>.>.>.>.1.>.#.>.#.>.%.>.#.>.#.>.%.>.#.:.1.e.f.l.l.j.f.j.s.l.l.l.l.c.l.c.9.                                                                                                                                                                                                                                                                                                                                                                      ",
"                                                                                                                                                                                                                                                                                                                                                                      ] 2.1.>.%.>.#.<.>.+.1.1.>.1.#.r.s.k.f.j.f.l.s.l.f.f.f.s.f.l.s.f.s.f.s.j.s.f.e.~ Y Y J R J R T R T T E Y J E T T J E Y T Y T T R T T T T J R E T T Y E J E T T T T E R R Y J R T Y T J T T } >.>.%.>.>.>.#.1.>.#.1.#.>.#.>.1.#.1.>.>.>.%.1.#.#.>.>.#.>.1.e.f.l.l.s.l.s.l.f.l.l.f.l.l.Z.9.                                                                                                                                                                                                                                                                                                                                                                      ",
"                                                                                                                                                                                                                                                                                                                                                                      ' ,.%.>.>.+.>.-.1.1.>.1.#.1.#.5.j.l.l.s.l.f.j.s.l.s.l.s.f.s.f.j.f.j.s.f.s.x.e.! Y Y Y Y Y J Y K Y K Y T Y Y Y E R T T T J R T T T Y E Y E T T Y E J R T Y E Y T Y J R T R E Y T R T E Y E } :.>.>.1.>.>.1.>.>.>.>.>.#.>.>.#.>.>.#.1.>.#.>.#.%.#.>.>.#.>.e.f.l.l.s.f.s.l.s.l.l.l.s.l.c.9.                                                                                                                                                                                                                                                                                                                                                                      ",
"                                                                                                                                                                                                                                                                                                                                                                      ] 4.%.1.1.>.2.>.1.1.1.1.1.1.%.r.l.l.k.s.s.s.f.s.f.s.s.l.s.j.f.s.l.l.j.f.j.x.r._ E E P ~ E ~ E E E E E ~ E ~ E J R Y T R T T T Y T T J T Y T Y T E Y T T T T E Y E E T J T T Y T J E T J E } ;.:.-.#.>.+.>.#.1.>.#.1.>.#.1.>.%.>.>.#.>.%.1.#.>.%.>.#.>.1.r.l.l.l.f.j.l.f.l.f.l.l.h.l.Z.9.                                                                                                                                                                                                                                                                                                                                                                      ",
"                                                                                                                                                                                                                                                                                                                                                      I +.+. .X.X.$.O.t.a.u.u.u.t.s.t.u.a.u.s.u.s.s.s.s.l.j.l.l.l.j.l.j.l.f.j.f.l.s.l.s.k.j.j.s.j.s.e.e.e.e.e.e.e.e.e.e.e.e.e.=.e.{ Y T Y T T T Y T T Y T R T E T J E Y T T R J R T J T Y T R T J E Y E Y T Y T ~ ) ~ ~ ~ ) ~ ~ -.>.#.>.#.>.>.>.>.>.>.1.>.1.%.>.#.>.%.>.>.#.1.e.f.l.l.f.l.s.l.f.l.l.l.l.l.c.9.                                                                                                                                                                                                                                                                                                                                                                      ",
"                                                                                                                                                                                                                                                                                                                                                      o.F.A.S.C.C.Z.M.l.l.l.l.l.l.l.l.l.l.f.l.l.l.j.l.l.l.s.j.f.l.f.f.l.f.l.l.f.l.l.l.l.j.l.l.j.j.j.l.l.l.l.c.c.l.M.C.M.M.l.C.l.j.>.Y R T T Y T T Y T T Y T T Y T R T T Y J E T Y T E Y T T T R T Y T T T Y T Y J T Y T T Y K T +.>.1.#.>.>.%.>.%.>.#.>.#.>.>.%.#.>.%.>.>.>.1.e.f.l.l.f.l.f.j.f.l.l.l.s.l.Z.9.                                                                                                                                                                                                                                                                                                                                                                      ",
"                                                                                                                                                                                                                                                                                                                                                      X.S.f.f.n.l.f.f.f.l.l.l.k.j.l.l.j.l.j.l.j.l.l.l.l.s.l.f.l.f.l.l.s.l.f.j.f.l.f.f.l.a.l.k.j.k.l.k.l.l.l.l.l.l.l.a.l.l.k.l.l.l.>.Y E Y T T Y T T Y T T Y T J E T Y T T E Y T T Y T T E Y T J E T T Y J E T E T Y T T Y T T E +.>.>.>.#.>.#.>.>.>.>.%.>.>.#.>.#.1.#.>.#.>.1.e.l.l.l.f.j.f.c.f.l.l.l.h.l.c.9.                                                                                                                                                                                                                                                                                                                                                                      ",
"                                                                                                                                                                                                                                                                                                                                                       .C.f.n.l.l.l.l.f.l.k.s.l.f.l.k.f.l.l.a.l.f.l.j.l.l.f.j.a.l.f.k.f.l.a.l.f.l.s.l.k.l.s.s.l.f.k.l.l.l.l.l.l.l.k.l.k.l.l.f.c.f.1.T Y Y Y T T Y T T T T J E R T Y E J R T T R T J E Y T J R T Y T R T E Y T Y E T R T Y T Y E o.>.1.#.>.>.1.>.%.>.>.>.>.%.>.1.#.#.1.>.#.>.1.e.f.l.l.f.l.s.l.s.l.l.l.s.l.Z.9.                                                                                                                                                                                                                                                                                                                                                                      ",
"                                                                                                                                                                                                                                                                                                                                                       .S.l.l.k.l.k.l.j.f.l.f.j.f.l.l.j.l.l.l.l.j.l.l.f.j.l.l.l.l.l.l.l.l.l.l.l.l.l.f.l.k.j.f.j.l.k.l.k.j.l.l.l.l.l.f.l.a.l.f.l.l.>.R Y ~ Y E Y T T Y T Y E T T T J R T T J E T E Y T T R T T E T T J R T T E T Y T Y T R Y T E +.>.>.%.>.#.>.#.>.1.#.>.#.>.%.>.#.>.#.>.>.#.1.e.f.l.l.f.l.s.l.f.l.l.l.l.l.c.9.                                                                                                                                                                                                                                                                                                                                                                      ",
"                                                                                                                                                                                                                                                                                                                                                      ' c.l.f.j.l.f.l.f.j.f.j.f.j.f.s.f.s.s.s.s.a.f.j.a.j.f.s.s.f.s.f.s.f.f.s.f.a.l.s.l.s.l.f.l.s.f.j.f.l.l.j.f.s.l.s.l.f.j.j.c.j.>.Y Y T T J Y T T T T Y T Y E Y T T E Y E Y T T E Y J E T Y T Y E E T T Y J R T T E T T T Y E o.1.%.1.1.%.>.1.>.%.>.1.>.>.%.>.#.%.1.#.>.#.1.y.l.l.f.l.f.l.s.l.l.f.f.s.f.b.9.                                                                                                                                                                                                                                                                                                                                                                      ",
"                                                                                                                                                                                                                                                                                                                                                      X.b.l.s.j.k.l.k.j.l.k.l.l.k.l.k.j.k.j.k.l.j.f.k.j.f.k.j.k.l.k.l.k.j.k.l.l.l.l.a.l.k.l.k.j.k.l.k.l.l.l.l.k.s.s.f.s.s.f.j.l.s.+.Y K K K K Y K Y T L T T T Y T E Y T T T T R J Y T T Y T E J E Y T Y T E Y T J R T Y T Y T E +.>.1.>.>.1.>.>.>.>.#.>.#.>.>.>.>.>.#.>.>.>.1.e.f.l.l.f.l.f.l.f.l.l.l.f.l.c.w.                                                                                                                                                                                                                                                                                                                                                                      ",
"                                                                                                                                                                                                                                                                                                                                                       .c.f.j.f.j.a.l.k.l.l.k.l.l.k.l.l.l.l.l.l.l.l.l.l.l.l.l.l.M.l.l.M.l.M.l.l.M.l.M.l.l.k.l.k.l.k.l.l.l.l.l.l.l.l.l.l.l.l.l.l.l.3.` } } } ` } } E L W T Y E T Y T T R J R T E T E T Y E T Y T T T T Y J E T R E T J E T Y J E { -.+.+.+.+.+.+.>.1.>.#.>.#.1.#.>.>.1.>.#.>.1.e.l.l.l.f.j.f.j.f.l.l.f.s.l.l.w.                                                                                                                                                                                                                                                                                                                                                                      ",
"                                                                                                                                                                                                                                                                                                                                                      ' z.f.j.k.s.f.l.M.V.V.D.V.D.D.V.D.V.D.V.D.V.D.V.D.V.S.V.S.V.S.V.S.V.S.V.V.S.V.S.V.V.D.V.D.D.V.D.V.G.D.V.V.D.V.D.V.V.D.V.V.V.M.M.l.B.M.l.M.n.o.U T Y T T J E Y J E T Y T Y T Y T T J E T Y E Y E T E Y T T T Y E Y T T E T E ~ E E E E E ~ >.#.>.#.>.1.>.>.-.1.#.>.>.#.1.e.f.l.l.f.l.f.l.l.f.l.f.s.l.l.f.0.0.9.0.w.=.u.U                                                                                                                                                                                                                                                                                                                                                       ",
"                                                                                                                                                                                                                                                                                                                                                      X.b.l.l.l.j.a.l.V.H.V.M.D.V.V.D.G.D.H.V.H.D.V.H.D.G.D.H.V.D.G.D.D.V.D.D.H.V.D.V.H.V.V.H.V.D.G.D.V.H.V.H.G.D.V.D.V.D.V.D.M.D.D.D.H.H.D.H.F.V.-.K Y E Y E Y T E Y T T E J E T E Y E Y E T T T Y J R T E T R J E T T Y J R T K T T T T T L E +.>.>.>.#.>.#.>.#.>.1.#.>.#.1.y.f.l.l.f.l.s.l.l.f.j.f.l.l.f.f.c.c.C.v.b.b.b.+.                                                                                                                                                                                                                                                                                                                                                      ",
"                                                                                                                                                                                                                                                                                                                                                       .c.l.s.k.s.f.l.D.G.V.D.V.D.V.D.M.H.V.H.V.H.V.V.H.V.G.D.V.D.V.V.H.V.H.V.V.D.V.D.G.V.D.V.V.D.V.V.V.G.V.G.V.H.H.G.H.H.G.V.V.G.D.H.D.D.V.H.H.M.-.K R T T Y T T Y T T Y T R T Y J E T T Y T Y E J E T Y T J E E Y T Y E T T Y T T Y J Y T Y E >.#.1.#.>.#.>.1.#.>.>.#.>.>.1.e.f.l.l.f.l.s.h.l.l.f.f.s.l.l.f.f.f.c.f.x.s.b.[                                                                                                                                                                                                                                                                                                                                                       ",
"                                                                                                                                                                                                                                                                                                                                                      X.Z.l.k.l.s.l.l.V.D.G.D.V.V.V.G.G.V.M.H.V.G.H.D.Z.Z.Z.Z.D.G.D.D.V.D.V.D.V.D.V.D.V.H.V.D.V.V.D.V.D.V.D.V.D.V.V.D.V.D.V.D.V.D.V.V.H.V.D.Z.H.M.-.K Y T R J E Y T E J R T T J E Y T Y E J E J E Y E T E T Y Y T T T J E Y T T Y J T T T T Y E >.>.1.>.>.>.#.>.%.1.>.>.#.>.1.e.f.l.l.f.j.l.s.l.j.k.j.l.j.k.j.f.j.f.j.f.s.c.'                                                                                                                                                                                                                                                                                                                                                       ",
"                                                                                                                                                                                                                                                                                                                                                       .Z.l.l.f.l.j.l.V.G.Z.V.D.V.V.V.H.G.G.Z.V.V.V.G.Z.D.Z.D.D.V.G.V.H.V.G.D.G.V.H.V.D.V.D.V.D.V.D.G.D.G.D.G.D.V.D.V.D.V.D.G.D.G.D.V.D.D.H.V.H.m.-.D T T T Y T E T Y T T Y T R T E T T R T R T E Y T Y T Y T T E Y E Y T E T T T R T E Y J T ~ +.>.>.#.#.>.1.#.1.#.>.>.#.>.>.e.f.l.l.s.f.j.f.j.f.l.j.f.j.l.k.l.f.l.f.j.f.c.'                                                                                                                                                                                                                                                                                                                                                       ",
"                                                                                                                                                                                                                                                                                                                                                      ' b.l.s.l.s.k.l.V.D.H.V.D.V.D.G.M.G.M.D.V.H.G.D.D.Z.D.Z.G.V.D.V.V.V.G.V.D.V.G.V.G.D.V.D.H.M.D.M.D.D.V.D.D.V.D.V.D.G.Z.D.D.Z.V.D.M.V.V.M.H.m.-.Y Y T T T T Y E T Y J E T T Y T Y J E Y T T Y T T T Y J E Y T T J E Y T R J E T T Y E T Y E >.#.1.>.>.#.>.>.%.>.>.#.>.#.1.r.l.l.l.s.l.s.l.l.k.j.l.k.j.k.j.j.f.j.f.l.j.Z. .                                                                                                                                                                                                                                                                                                                                                      ",
"                                                                                                                                                                                                                                                                                                                                                       .A.h.a.l.l.l.l.D.G.D.V.V.G.V.G.D.M.G.Z.G.V.H.V.Z.D.V.D.D.V.H.D.H.D.D.D.G.D.D.D.V.H.G.V.G.D.G.H.V.G.H.V.G.D.G.H.V.H.V.G.V.G.D.G.H.V.D.M.D.V.-.Y T T Y T R J E T E E Y T Y E T E T Y T E T E Y T E T E T T R T R T E T T R T Y E J E Y T ~ +.>.1.#.>.>.#.1.#.1.>.>.>.:.1.e.f.l.l.s.l.s.j.f.j.l.s.j.j.l.k.l.f.l.s.l.s.C.'                                                                                                                                                                                                                                                                                                                                                       ",
"                                                                                                                                                                                                                                                                                                                        t t 0 t t t y y g y u y y y j 0.Z.C.M.M.l.M.M.D.V.D.V.V.D.G.D.M.V.M.M.Z.M.V.V.M.M.M.M.M.M.M.M.M.V.M.V.M.V.M.V.M.V.M.M.M.V.M.M.M.M.M.M.M.M.M.M.M.M.V.M.M.V.M.M.V.M.V.M.V.l.o.K T Y T T E T Y T Y T T E J E Y T Y E T Y J E T Y J R T R J E T T J R T J T T J E Y T T Y ) #.>.>.>.#.1.>.#.1.#.>.#.>.#.>.e.l.l.l.s.l.f.s.l.l.k.j.l.k.j.l.j.f.l.f.j.f.c. .                                                                                                                                                                                                                                                                                                                                                      ",
"                                                                                                                                                                                                                                                                                                                      y t.s.u.y.t.u.d.k.M.n.M.l.n.M.M.M.H.G.V.D.S.V.D.V.D.V.D.V.D.D.V.l.j.l.l.n.l.k.l.n.M.k.n.k.l.l.k.l.k.l.l.l.l.k.l.l.l.l.l.l.l.l.l.l.l.l.l.l.l.l.l.l.l.l.l.l.l.l.l.j.l.l.l.M.f.| K T T T Y T E Y E J R T Y E T Y E T J E T R T Y T E T Y T E Y T R T T T R T R T T Y T E Y E >.>.1.#.>.#.>.>.%.>.>.>.#.>.1.e.f.l.l.s.j.l.s.l.j.l.j.s.j.k.l.l.s.l.s.l.j.c. .                                                                                                                                                                                                                                                                                                                                                      ",
"                                                                                                                                                                                                                                                                                                                      f l.A.b.b.C.b.M.H.J.H.K.K.J.K.H.D.G.G.D.G.V.H.V.V.D.V.V.D.G.V.V.f.f.l.l.l.l.l.l.l.k.k.l.l.l.l.l.l.l.l.l.l.l.l.l.l.l.j.l.s.l.s.l.l.l.j.l.l.j.f.l.s.l.j.f.s.l.j.l.l.f.f.l.l.a.| K Y T E T Y J E T E Y T T Y T T J R T Y T T T J R T Y T J R T T J E Y E T Y T E T T Y J Y ~ +.>.>.>.#.>.#.>.#.>.%.>.>.#.>.r.f.l.l.s.l.s.l.j.k.l.k.j.l.k.j.l.f.l.f.f.s.c.'                                                                                                                                                                                                                                                                                                                                                       ",
"                                                                                                                                                                                                                                                                                                                      f s.C.l.f.j.f.l.V.D.V.D.V.D.V.V.V.D.V.G.V.G.V.D.G.V.K.V.G.V.H.V.l.f.c.h.l.c.l.f.l.k.l.k.l.l.l.j.l.l.l.l.l.l.l.l.l.l.l.l.l.l.l.l.j.l.l.l.l.l.s.l.l.l.s.l.l.j.f.f.j.l.a.l.l.a.-.K T J R T T R T Y T T Y E T J R E T T Y T Y E R T T J E Y T E Y T Y T T J E Y J Y T E T T E >.#.1.#.>.%.>.1.%.>.>.#.:.>.1.e.l.l.l.s.l.s.f.l.j.f.j.f.j.k.l.j.f.j.l.s.l.c. .                                                                                                                                                                                                                                                                                                                                                      ",
"                                                                                                                                                                                                                                                                                                                      f s.C.j.l.l.f.a.B.D.D.D.D.S.D.S.D.V.V.D.V.D.G.V.D.V.V.D.V.D.G.V.l.c.s.l.s.f.k.j.k.j.l.j.l.j.l.l.l.l.f.l.l.f.l.l.f.l.s.l.l.j.l.l.f.l.s.l.s.l.f.k.s.f.k.s.f.l.s.l.a.l.l.l.c.s.-.J R E Y T T T E T Y E J R T R T T Y E T E J E T T Y E Y E T T T T T Y E Y T E T E Y T Y T E #.>.>.>.>.>.#.>.%.>.>.>.#.>.>.e.f.l.l.s.l.j.s.l.l.k.j.j.k.j.k.l.s.l.f.l.s.Z.'                                                                                                                                                                                                                                                                                                                                                       ",
"                                                                                                                                                                                                                                                                                                                      f a.C.f.f.f.f.l.V.H.V.V.V.V.D.V.D.V.G.G.H.V.H.V.H.G.H.G.H.V.H.V.f.j.f.s.l.l.s.k.j.a.l.a.l.f.s.f.s.l.s.l.f.l.f.l.f.j.f.j.f.f.s.l.s.l.f.j.f.a.s.s.l.a.s.l.a.s.a.f.j.f.k.l.k.a.) Y Y J E T R J R T J E T T T T T R T J R T Y T Y J E Y T T Y T R J R T T T Y T Y T J E T K E +.>.1.>.%.>.>.1.#.>.#.>.>.#.1.e.l.l.j.f.j.f.s.l.j.l.s.l.j.l.j.f.l.l.s.l.s.C. .                                                                                                                                                                                                                                                                                                                                                      ",
"                                                                                                                                                                                                                                                                                                                      h a.c.f.f.l.f.a.V.H.G.H.G.H.G.G.H.V.K.V.V.G.V.V.V.V.V.V.G.G.H.V.l.c.c.l.c.l.l.l.l.l.l.l.l.l.l.l.l.l.l.l.l.l.l.l.l.l.l.l.l.l.l.l.l.j.l.l.l.l.l.f.j.f.l.s.l.l.l.f.l.l.l.n.z.a.{ Y T E Y T T T T Y T Y T R J R J T T R T T R J E E Y T T T J E Y E T J R J E Y T E Y Y T Y ) #.>.1.>.>.>.1.>.%.>.>.>.#.:.1.r.f.l.l.s.f.j.f.j.k.l.k.s.k.j.k.l.s.l.f.f.x.c.'                                                                                                                                                                                                                                                                                                                                                       ",
"                                                                                                                                                                                                                                                                                                                      f a.C.l.l.f.l.f.V.G.D.V.V.V.D.V.D.D.V.D.D.D.D.D.D.H.D.D.D.V.D.M.l.n.l.f.f.f.l.k.f.l.l.l.l.l.j.l.l.l.l.l.l.l.l.l.l.l.l.j.l.l.j.l.l.l.l.l.l.j.l.l.l.j.l.l.l.s.l.j.f.k.n.l.l.a.-.D J T T Y J R T E T E J E T R E Y T T J E T E Y T T Y T Y E T T T Y E T R T T E Y T E T Y E >.>.1.>.#.1.%.>.%.>.#.>.>.#.>.e.l.l.l.j.f.j.f.l.j.l.j.j.l.k.j.f.l.l.j.l.s.C. .                                                                                                                                                                                                                                                                                                                                                      ",
"                                                                                                                                                                                                                                                                                                                      f a.l.l.s.l.s.s.s.s.s.s.s.u.a.s.l.B.M.M.M.M.M.M.a.s.u.s.u.s.s.t.1.>.1.1.1.1.1.1.1.%.%.1.>.>.1.>.>.>.1.>.1.1.1.1.>.>.>.>.>.>.>.>.>.>.>.>.>.>.#.>.#.>.#.>.#.>.+.o.-.o.+.{ +.{ R D K D J K J K J K D K K K F K F K J K K K K F K J K J K J K K D J K J K J K J R J E Y T J E ` ` ` ] ` ` ` | >.>.>.>.:.#.>.e.l.j.f.j.f.s.f.l.M.M.l.n.M.M.m.s.s.f.f.f.l.c.'                                                                                                                                                                                                                                                                                                                                                       ",
"                                                                                                                                                                                                                                                                                                                      f f.l.f.l.l.l.i.r.#.#.>.#.>.%.%.s.l.l.l.l.l.k.a.1.%.1.#.1.%.1.] T T Y T T Y T Y T Y W Q T T T T T T Y T Y Y W Q Y Y Y Y Y Y Y Y Y Y Y Y Y L Y L Y L Y L Y T D M S B D B M M B n n B n M B M v n B n M n M M B n M n M M M B M M M M M M M n B M B S B M B T T E Y T R Y T T T T E T T Y ~ -.>.-.:.>.#.#.e.j.x.l.k.f.f.f.M.V.V.V.V.D.V.G.l.f.f.f.f.s.C. .                                                                                                                                                                                                                                                                                                                                                      ",
"                                                                                                                                                                                                                                                                                                                      f a.c.j.j.j.j.k.5.-.1.#.<.%.#.1.a.l.j.f.l.f.l.a.1.#.#.%.>.#.%.o.T Y T T L T K L Y L Y L Y T L Y T K T Y L Y L L L L L L L L L L L L L L L Y T Y T Y T K K K D M M M M M M v M M M M M M M M M M M M M M M n M M M M M M M M M M M M M M M M M S B M B M B Y J R T Y T T Y T Y Y J Y T Y ~ -.>.>.-.#.-.#.r.s.j.s.f.f.f.x.V.D.V.G.V.D.D.V.j.s.j.l.l.l.c. .                                                                                                                                                                                                                                                                                                                                                      ",
"                                                                                                                                                                                                                                                                                                                      f a.c.j.j.l.s.l.e.>.1.1.>.1.%.1.u.l.l.s.l.j.l.a.3.#.1.>.%.>.>.o.T T T Y E T E Y T Y T Q T T T T T E T T T T W T Q T T T T T T T T T T T T T K T K T K T T T D M M M M M M M n M n M n M n M n M n B n B M M M B n B M B M M M M M M M M M B M D M D B B M T T T Y T Y T E Y E J E Y T T ~ >.>.-.>.>.+.>.e.l.j.l.j.l.l.s.V.G.G.V.G.V.V.D.l.j.f.j.s.l.Z. .                                                                                                                                                                                                                                                                                                                                                      ",
"                                                                                                                                                                                                                                                                                                                      f s.l.f.f.s.l.j.5.%.>.>.>.1.#.1.s.l.s.f.s.l.l.a.1.>.>.>.1.>.>.{ T Y T Y R Y R Y R T R Y T Y T Y R Y R R Y R T Y T Y T Y T Y T Y T Y T Y T T Y T T T E Y T Y F M B M B M M M M B n B M B B n B B M n B n B B n B n M n M M M M B M M B M M M M B S B S B B Y T R T Y Y T Y J E Y T T Y T ` -.-.>.>.>.-.>.e.M.l.l.f.l.f.l.V.D.V.G.V.H.G.V.l.k.j.l.f.l.c. .                                                                                                                                                                                                                                                                                                                                                      ",
"                                                                                                                                                                                                                                                                                                                      f a.c.f.f.f.j.a.0.>.>.1.%.1.%.%.s.l.l.j.f.s.l.s.3.#.>.#.>.1.1.{ T T Y T T Y T T T Y T T Y T Y T T Y T Y T T Y T Y T T T T T T T T T T T Y T T Y Y Y T Y T T D n M N M B M M M M B M M M M M M M B M M M M M M M B M B M B M M M M M M M M B M M M M M M M J T J Y T J Y E R T J J E Y J ` -.>.>.-.1.>.-.e.l.l.l.l.l.l.l.V.V.V.H.V.G.D.V.n.k.s.l.f.l.c. .                                                                                                                                                                                                                                                                                                                                                      ",
"                                                                                                                                                                                                                                                                                                                      f a.M.j.l.s.l.l.0.1.>.1.1.%.1.3.a.l.l.f.j.l.l.s.%.#.1.>.>.1.>.o.E K T R J E R T R T E Y T T T R J E R T E T Y T T T Y T Y T Y T Y T Y T T T Y T Y T Y E Y T F M M M M S N B M N M M M B M B M M M M M B M M B M M M M S M M D M B S M B S N S B M B M M M L T J T J E J R J E T J T T R ~ :.:.>.>.>.-.>.e.M.M.l.l.l.l.c.M.D.G.V.V.V.G.V.l.k.l.k.j.f.C. .                                                                                                                                                                                                                                                                                                                                                      ",
"                                                                                                                                                                                                                                                                                                                      n s.C.s.l.a.l.i.e.%.%.1.1.>.%.1.s.j.f.j.a.s.j.s.=.%.1.1.1.1.1.o.E Y T R E R J R Y J R T Y E R Y E Y E Y J R T T Y T T T T T T T T T T T R T Y Y E Y Y Y T J D n B M M B S M M M B M N M M M N M B N M M M N M M V M B N D M N S M N S M M M M M N M M n M J E Y J R J R J E T T R J E Y ~ :.-.+.-.-.+.>.0.a.k.f.n.a.f.s.Z.V.D.H.D.D.D.M.l.l.l.n.j.c.b.o.                                                                                                                                                                                                                                                                                                                                                      ",
"                                                                                                                                                                                                                                                                                                          / ( ! ! ! ! #.a.l.s.l.f.j.l.r.%.1.>.>.>.1.1.5.e.0.0.6.5.6.3.1.#.>.>.>.>.1.] E Y Y J R E R J R E T J R J R J R T R J R T T J E T R T Y T Y T Y T Y T T Y J K D D K J K D D M M B N S M M M M M M M M M M B M M M B M M B M M M M S M M S M M S B M S M D N B M n M N M M n n n n n v B K T J R T T Y E ` ` ~ ) / ` ` } -.| | { | | -.s.H.D.V.G.M.H.V.M.M.M.z.M.V.D.e./ Y ! ~ ! ~ ( i                                                                                                                                                                                                                                                                                                                                       ",
"                                                                                                                                                                                                                                                                                                        y.A.b.C.C.Z.c.C.l.l.l.s.l.s.j.e.#.>.1.-.%.>.#.#.%.1.%.>.#.>.#.>.1.>.#.1.#.>.{ E Y E R J R J R T Y E T R T R J R J R E T Y E Y T Y T T Y T T E T T T T Y E K B B M b M v D M M N M M M M N S B N M M B M N M M M M N B M M M B M M M D M B S M M S N B S M M M M M M M M z s p s s h s c K E T Y E Y T Y Y Y Y L T Y T Y K J Y Y J K E t.H.D.V.V.D.M.G.Z.D.V.M.H.H.D.V.c.c.b.c.v.v.c.L                                                                                                                                                                                                                                                                                                                                       ",
"                                                                                                                                                                                                                                                                                                        e.c.c.j.s.l.l.j.l.l.l.l.l.l.s.5.-.-.-.1.-.#.>.1.1.>.>.>.>.>.>.%.>.#.>.>.>.1.] E J Y J E T E J E J E Y J E J R T Y J Y J E T T Y T T E J E Y J R J R T E J K B v B M D M D B M M B M S D M M M M B M N M M M M B M M M M N M M N M M N S M N D M B S M M M S M B N M N n s s p p p s s n K Y R J Y T Y E J J T T T Y ! Y Y T T T Y K E t.H.H.D.G.Z.G.H.D.Z.D.D.D.V.G.M.x.s.f.l.l.l.c.K                                                                                                                                                                                                                                                                                                                                       ",
"                                                                                                                                                                                                                                                                                                        e.c.f.l.f.j.f.f.j.f.s.f.s.l.s.e.>.1.%.>.>.>.>.>.1.#.>.>.>.#.1.#.#.1.>.+.1.1.] E Y T E Y J R E R E T E Y E E J E E E E R T Y J E T Y T Y T E Y E T T Y T T K B S B M B M M M B M M M M M M M M M N M M M M M M N M M M M M M M M M M M M M M M M M M M N M M N M M M M n z s h h s h s n K E R E T T Y J R R T Y T Y T Y Y T J E T L E t.F.D.V.V.V.H.G.Z.D.V.Z.V.G.D.M.l.s.j.l.c.l.j.D                                                                                                                                                                                                                                                                                                                                       ",
"                                                                                                                                                                                                                                                                                                        e.c.l.f.l.l.l.f.j.f.j.l.s.l.s.e.:.#.<.1.-.>.>.>.%.>.>.>.>.>.%.#.1.1.1.1.>.1.] E T Y T T R T J E Y T Y T J R E Y T Y J T T R E T Y T E T Y T T T Y E J R T D Z M B S B M B M M M N S M N M M N M M M M M M N M M M M N M M M M M M M M M M N M M N M S M M M B M B n n n s s h s h s s n K E Y T Y T E R T Y Y Y E Y E Y T Y T J Y Y E t.H.V.G.D.M.D.G.Z.S.V.Z.H.M.G.M.c.s.s.l.j.l.c.D                                                                                                                                                                                                                                                                                                                                       ",
"                                                                                                                                                                                                                                                                                                        w.c.l.f.l.f.l.f.l.l.l.s.l.l.s.0.%.>.>.%.1.>.>.>.1.#.%.%.1.%.1.#.>.>.>.>.1.1.o.T Y T T Y J R T T T Y T E T T T T J E Y T Y T T T E J R J T Y T T T E Y T T K B M D B D D S B S D M B S B S B B M D M B D B B M D M M B M M V M M V M B N M M M M D M M S B D M M M M M M z s h h f h l c K Y T Y T T J T Y L T T Y T T E Y T E Y T J ~ t.H.H.G.G.V.D.Z.V.D.D.G.V.D.H.V.l.j.l.j.l.c.l.D                                                                                                                                                                                                                                                                                                                                       ",
"                                                                                                                                                                                                                                                                                                      ; w.c.l.l.f.l.l.l.j.l.l.l.l.j.f.e.>.>.+.%.#.>.1.%.>.>.%.1.1.%.%.>.#.>.>.1.#.1.{ E Y T E Y T T Y T R J E Y T R T R E Y T E T E Y J R T E T Y E T R J R T T T K B B S v D M B S M B S M M M M S v S M M S M M C M M D M M B M M B M M M M M M M M B M M S B B M B V B M N n z s f s h s s n Y E T T T T Y T J T Y E T E Y T T Y T T Y Y E t.H.G.V.G.D.V.Z.D.V.D.V.D.D.G.V.l.j.a.l.l.c.l.K                                                                                                                                                                                                                                                                                                                                       ",
"                                                                                                                                                                                                                                                                                                    X t u.l.l.f.a.l.l.f.a.s.f.s.a.s.s.0.#.>.%.1.>.#.>.>.#.>.%.1.>.1.%.:.:.#.>.>.>.#...Y T Y T T Y T J R T T T T J R T J T T Y T Y J E E T Y T T T Y J E T Y T E Y J M D B S B M S B S M M D M D M B S B M S M M M M D M M M M M M M M M M n M M N n S M B M M S M v M M N M n N s h f h f h s z U Y J Y T L T T Y T T T Y T T T Y J E T T Y ) t.H.D.H.V.H.Z.D.D.D.V.D.G.D.D.V.l.l.l.j.f.c.l.D                                                                                                                                                                                                                                                                                                                                       ",
"                                                                                                                                                                                                                                                                                        ( =.@.%.%.%.+.3.a.l.l.l.f.l.l.y.3.1.3.3.3.1.3.1.%.>.>.#.1.#.1.>.>.>.1.1.%.1.#.~ ~ ~ ~ E ~ ) E E T T Y T T Y T T E Y J R E T T R T R T J E Y T Y T T R T J E E Y T E T Y J K M M M M M B M M M M M M M M M M M M B M B M D M M M M M B M N B n V M B N M M M M B M M M M n z l z s l h s s s h s f f s n Y E E T Y T T Y J T T Y T T R J E Y T R J Y E 5.M.l.M.l.l.l.M.V.D.D.V.D.V.H.V.j.j.f.j.l.j.l.K                                                                                                                                                                                                                                                                                                                                       ",
"                                                                                                                                                                                                                                                                                        3.A.Z.c.b.v.c.c.l.l.l.l.f.l.l.e.#.#.#.#.#.#.%.>.#.>.%.>.>.>.>.1.#.>.%.+.>.%.+.E Y Y L T T Y K Y T Y T T E J E Y T E E T Y T Y T T J E Y T T T T Y T J E R T T T T Y T T E K M M B M M M M M M M B M B M B S M M M M M M M M M M M M N B M M M M M M M M M M M M b S M M z s s s s s s s s d s f s h p l Y E Y T T L T T T Y J E T Y T T Y T T T Y T E 5.l.l.a.n.l.k.l.V.V.D.G.Z.D.V.V.c.k.j.l.j.c.l.K                                                                                                                                                                                                                                                                                                                                       ",
"                                                                                                                                                                                                                                                                                        *.C.l.c.j.l.l.l.l.l.l.j.f.j.l.e.1.>.>.>.>.>.>.>.1.#.-.1.#.1.>.>.#.>.1.>.%.>.-.E L T T T E T T T T T Y T Y E T T R J R T T Y J E R T T T T T Y T E T R T T Y T R T E Y J E K n M M M B M M B M M M M S M M M B M B M F M M N B M N B M M M M B M M M M M N n M B M S M M z s f h f s h h s h s f s h s z Y E T T Y T T Y J T T Y T J E T T Y J E Y J E 5.c.l.l.l.f.l.l.V.D.D.V.G.D.H.V.l.j.a.l.l.c.l.K                                                                                                                                                                                                                                                                                                                                       ",
"                                                                                                                                                                                                                                                                                        &.C.l.f.l.f.l.j.l.l.l.f.j.l.l.e.1.>.#.1.>.1.1.>.>.1.#.>.>.>.%.>.1.#.>.#.>.1.+.T Y Y T Y T E T E Y E T T T Y E J E T T Y E T E T T Y T T K T T T Y T T Y T T J R T J E E Y J M M B M M M S M N B S M V M M N M M N M M M B M M S M M M M B N M M M V M M M n M D M B M n c s f s s h s f s f s h s f s c L T T Y T L T T T Y T T R E Y T Y T E Y T Y E 0.l.l.l.l.l.l.M.V.V.G.D.D.V.D.V.l.l.l.j.l.c.l.K                                                                                                                                                                                                                                                                                                                                       ",
"                                                                                                                                                                                                                                                                                        &.C.l.l.f.l.j.k.l.l.l.j.f.l.l.y.>.#.>.>.#.>.>.1.#.>.>.%.>.#.1.>.>.#.>.>.%.>.+.~ E Y E E T T Y T T T Y T Y T E Y E Y T T Y T Y T Y T T Y T T L T Y T Y E Y E Y T R Y Y T T K M M M M N M B M M M M M M M B M B M M M B M M M M M M M V M M M B M M M M M n M M M M v M n z h s f s f s f s z s f s z s n J T T Y T Y T Y T J Y T T J E T J R T T Y T E 5.l.l.l.l.l.f.l.V.V.G.D.V.D.H.V.l.j.a.l.j.c.l.K                                                                                                                                                                                                                                                                                                                                       ",
"                                                                                                                                                                                                                                                                                        *.Z.l.l.f.l.s.j.l.l.l.f.j.f.l.e.1.>.#.1.>.>.1.>.>.#.>.>.1.>.>.%.>.>.#.1.1.1.+.E T Y E T E Y T E Y E J E T Y T T T E Y J E J E J E T Y T T Y T T T E T J Y T R Y R T R Y T J M M N B M M M N B M N M B M M M M M M M M N M M V M M M M M M M N M M B M M M n M B M M M n z s f s f s f s f s f s f s s n D E J Y J T J T T Y T T Y E Y E Y T T R J Y E 3.l.l.l.l.l.k.l.V.D.V.D.V.D.V.V.c.j.l.j.l.c.l.K                                                                                                                                                                                                                                                                                                                                       ",
"                                                                                                                                                                                                                                                                                        $.S.l.l.f.l.j.j.l.l.l.l.f.j.l.e.>.>.#.>.%.>.1.>.1.>.#.>.#.>.1.>.#.>.1.>.1.>.-.~ R E T E T E J E T Y T Y T J R E Y J E Y T R T R T Y T T T T W T Y T Y E T T E T E T E E T D M M M M M B M M S M B M M M N M M N M M M B M M M M B M M V M B M B V B V M V M V B V B N B z s f s h s f s h s f s f s s n T T T R E T T T Y T J E T T T Y T Y J E T Y E 0.l.l.l.l.l.l.l.V.V.G.D.Z.D.H.V.l.j.a.l.j.c.l.K                                                                                                                                                                                                                                                                                                                                       ",
"                                                                                                                                                                                                                                                                                        *.C.l.f.j.f.s.j.k.l.l.s.l.l.l.e.1.>.>.#.1.>.1.>.#.>.1.>.1.#.>.1.>.#.1.>.%.1.o.~ Y T Y T Y E Y T R T E Y T E T J R T E T T T T Y T T J R L L Q T T E T Y T Y K K K K K K D F D M M B N S M B M M M M V M B M B M B S M M S M M M S V M M M n n n n M n n M n M n M n n n z s f s f s h s f s f s z f f z D J D D D D K J T Y T Y T Y T T J E Y T Y L E 5.l.l.l.l.l.f.l.V.D.G.V.H.V.H.V.l.l.l.s.l.c.l.K                                                                                                                                                                                                                                                                                                                                       ",
"                                                                                                                                                                                                                                                                                        $.Z.l.f.l.j.s.j.l.j.l.l.l.s.l.e.1.#.>.1.>.%.>.1.>.#.>.%.>.>.1.#.>.>.#.1.>.1.+.E Y E Y E T T T T J E T J R J R T T Y T Y T Y E T J R T T Y Q Y T Y T Y T T J D B D D D D D D M M M M M M M N B M M M M S M M M M M V M B N M B N M M M M n s s s s s s a l s s s s l l s s s h s f s f s f s z s f s s f f z s s s f k Z L T T T T R J R T Y E T T Y E 5.l.l.l.l.l.l.l.V.V.H.V.D.D.V.V.c.k.j.l.j.l.l.K                                                                                                                                                                                                                                                                                                                                       ",
"                                                                                                                                                                                                                                                                                        *.C.l.l.s.l.s.j.l.f.j.l.l.l.l.y.>.>.#.>.#.>.>.>.>.>.#.>.>.#.>.1.>.#.>.>.>.>.+.E Y T T Y T R J R T Y T R T T Y T Y E T T R J E Y E T Y T T T T T T T T Y T Y b D B B M M S S M M F M B M B S M M F M B M B N M B M M M M M M M M B M B M M s s s s s s s s s s s s s p s s s f s h s h s h s f s f s s r f s s r f s s n Y T Y J E T E T Y T T Y T Y E 3.l.l.l.n.s.k.l.V.V.V.D.V.D.D.V.j.j.a.l.j.c.l.K                                                                                                                                                                                                                                                                                                                                       ",
"                                                                                                                                                                                                                                                                                        $.Z.l.s.c.l.f.l.f.j.l.l.l.f.j.e.1.#.>.>.>.>.1.#.1.>.1.#.>.1.>.%.>.1.>.#.>.1.+.E T Y E J T E Y E T T Y T E T E Y T T J R T T Y T T T Y T T Y T Y T Y T T Y K D M S B D B M M N S M M S M N M D M M M M M M M M S M M M M B M B M M M M M n h s h s s h s s s s h s s h s f s h s f s f s f s f s h f f s f s f s f s f n T J T R T Y T Y T J E T Y J ~ 0.l.l.l.l.s.l.l.M.G.V.D.D.V.V.V.l.l.j.f.j.l.c.D                                                                                                                                                                                                                                                                                                                                       ",
"                                                                                                                                                                                                                                                                                        *.C.l.i.f.f.l.l.l.f.l.j.l.l.l.e.1.>.#.>.%.>.>.>.#.>.#.>.>.#.>.>.>.%.>.>.>.>.+.~ T T J R T Y J E Y E J E Y J R T J R E T T T J E Y T E Y E T T T T L T Y T L D M M M M N S B M M B M M M B M M M M M V M M M B M N M M N M M N M M N M B n z s f s f s s h s s s s s s s s s f s f s f s h s f s h s s f s h s h s f s n T T T T T Y T J R T Y T T Y E 3.M.f.l.k.j.s.l.V.V.G.D.V.D.D.V.l.j.a.j.f.l.l.K                                                                                                                                                                                                                                                                                                                                       ",
"                                                                                                                                                                                                                                                                                        %.Z.l.l.j.f.f.l.f.l.f.l.l.j.l.y.>.#.>.>.>.%.>.1.>.>.1.>.%.>.>.1.#.>.>.>.%.>.+.E Y T R T Y J E T Y T Y T E Y T T R T T Y E Y E T T Y J E T Y T Y T T Y T T K M M B M M M M M M M M M M M M M M M M M M M B M M M B M M M D M B M M B M S n z s f s s h s s f s z s s s s f s s f s h s f s f s h s f s f s f s f s f s n L T Y J R J E T Y T Y E Y J E 0.l.l.l.l.f.k.l.M.G.V.D.V.D.V.V.l.j.l.s.l.j.c.K                                                                                                                                                                                                                                                                                                                                       ",
"                                                                                                                                                                                                                                                                                        &.Z.l.x.c.l.l.M.l.l.l.l.c.l.c.t.>.>.%.>.#.>.#.>.%.>.#.>.>.>.#.>.>.1.>.>.>.>.+.E T R J E E E Y E T T Y T T T T Y T T Y T T T Y T E T E Y T E J E Y T L Y T K B M M M B M B N M M N M M V M B M N B M B M M N M M M B M M M M M M M M M B n h s f s z s f s s s s s f r s r s f s f s f s h s f s f s f s f s f s h s s n L T J E T E Y T T Y T J E Y E 3.M.s.l.k.j.j.l.V.V.G.D.D.V.D.V.l.l.k.s.l.l.l.D                                                                                                                                                                                                                                                                                                                                       ",
"                                                                                                                                                                                                                                                                                        &.Z.l.l.l.f.f.M.l.M.l.c.l.c.c.y.>.#.>.1.>.>.1.#.>.>.#.1.>.%.>.1.>.>.>.1.>.1.+.~ Y T T Y J R J T R J E Y J R T J R T J E T Y J E Y J R T J R T Y T T Q Y T L M M M M M N M M M M M M M S M M M M M M S N M M D M M N M B M V F B V F B N n z s f f s s f s f s f s s f s f s f s f s z s f s f s f s f s h s f s f h l n G J T T Y Y T R R J T Y T K E 0.l.l.l.l.f.l.l.M.V.G.D.V.D.V.V.l.j.j.f.j.i.M.D                                                                                                                                                                                                                                                                                                                                       ",
"                                                                                                                                                                                                                                                                          f f f f f y x 9.M.f.l.f.l.l.t.! Y Y I Y I Y _ >.1.#.>.#.>.>.>.1.>.>.>.%.>.>.o.] ] { ] ] { ] T T E J E E T E Y T E T E T E T E T E Y T E T E Y E T T E T T E Y T T Y T T K B M M B S M M M D M B M M B M B M B S M M M B M M N M B S M M n c n n n n c z h f h s f s f s f s f f s f s f s f s f s f s f s f s f s h s f s f s f s s l B V B B D B D K Y T T Y T K E 3.l.l.l.a.l.a.l.M.G.V.D.V.D.D.V.l.l.k.s.l.l.l.D                                                                                                                                                                                                                                                                                                                                       ",
"                                                                                                                                                                                                                                                                          i.s.s.s.u.s.s.k.j.j.l.l.c.c.+.O             r +.1.>.>.>.%.>.#.>.%.>.>.%.1.#.~ T T E T E T T T Y T R T Y T T E Y T Y T Y T Y T Y T E Y J R T T T R T Y E Y T T T T T Y T K V M M N M B M M N M M M M M N M M N M M V M M M M M M M M M M s s s s s s l l s f h f s f s f s z s z s f s h s f s z s f s f s f s h s f s f s f s h s h s f s f f f s s B J Y T T L K E 0.l.l.l.l.f.j.l.V.V.G.D.D.V.D.V.l.j.j.f.j.l.c.Y                                                                                                                                                                                                                                                                                                                                       ",
"                                                                                                                                                                                                                                                                          S.C.M.Z.z.b.l.j.l.l.l.f.l.C.O.              8 -.1.>.%.>.>.1.>.>.>.%.>.1.#.>.~ T T T T T Y T Y T T T Y E Y J R T T J E E J R T E Y T T E T Y J E Y J E T Y T Y T Y T Y T L M M M B M M M B M B M B M M B M M B M M M M M N B M B M N B M s p s s s s s s h s f h s h s f s f s f s h s f s h s f s f s h s h s f s f s f s f s f s f f s f p f p f s D L T L Y T K E 3.l.f.l.k.l.j.l.M.V.G.D.V.D.V.V.l.l.k.s.l.j.l.K                                                                                                                                                                                                                                                                                                                                       ",
"                                                                                                                                                                                                                                                                        ! C.l.l.k.l.k.l.l.l.l.l.l.l.C.+.              0 +.1.>.>.>.#.>.%.>.%.>.>.%.1.>.~ Y T Y T T E T T E Y E J E T E T E Y E Y E T E Y J E T Y T Y E T Y E T Y T J T T T T T Y T K B M M S M N M M M M M M N M M M S M M B M B S M M S N M M M M z s s f s s s l f h s f s f s f s f s f s f s f s f s f s z s f s f s f s f s h s z s h s f s d s f p f s s M T T T T T K ~ 3.M.f.l.l.s.a.l.V.G.V.D.V.D.D.V.l.j.j.s.l.c.l.D                                                                                                                                                                                                                                                                                                                                       ",
"                                                                                                                                                                                                                                                                        ! c.l.l.l.s.l.f.s.f.l.l.k.f.Z.X.              r >.1.>.%.>.1.>.>.>.>.>.1.>.%.>.~ T T T E T R J E Y J R T Y T Y T J E T Y T Y T T R T T E Y T T R T T T E T R T Y T Y T T T K V M M M B M B M M M B M B M D N M B N M M M M M M B M M B M M f s f s f f s h s s f s z s f s h s f s f s f s f s f s f s f s f s f s h s f s f s f s f s s s s s s s s f B T J T J T K E 5.l.l.l.k.f.l.l.M.G.V.D.V.D.V.V.l.l.k.s.l.j.l.K                                                                                                                                                                                                                                                                                                                                       ",
"                                                                                                                                                                                                                                                                        ( c.c.j.j.k.j.l.l.f.f.l.n.f.Z.X.              t +.1.>.>.#.>.>.%.>.#.1.#.1.#.>.` T J E T E E T Y E T T Y T E T E Y T Y T E J E Y T J R J E T Y J E Y J R T T T Y T L Q Y T K M M M M M M S M V M M M M N M M M M M B S M V M M M M M S N B h s f s f s f s f h s f s f s f s f s z s h s f s f s h s f s h s f s f s z s f s f s f s h s h h s h s f s B Y E Y R R Y ~ 5.l.l.l.l.s.l.l.V.V.G.D.D.V.D.V.l.j.l.s.l.l.c.K                                                                                                                                                                                                                                                                                                                                       ",
"                                                                                                                                                                                                                                                                        ! M.c.j.j.l.k.l.f.l.f.l.k.l.M.X.              t +.1.>.>.1.>.#.>.1.>.>.>.%.1.>.~ T Y T Y T Y E T Y T Y E T Y J E T R T J R T R T E E Y T T Y T E T T E T T R J T T T Y T T K V M M M M N M M S M M S M M B M B M M N M M M B M N M M M M M s f s f s h s f s f s f s f s h s f s f s f s f s h s f s f s f s h s h s f s h s z s z s f s f s f f s h s B R Y T Y W Y ~ =.c.l.l.k.f.k.j.M.V.G.D.V.D.D.V.l.f.k.j.j.f.l.D                                                                                                                                                                                                                                                                                                                                       ",
"                                                                                                                                                                                                                                                                        ! M.c.f.j.f.j.s.l.k.l.k.s.l.S.X.              e -.1.>.#.>.>.>.>.>.%.>.%.>.>.+.~ Y E Y E J R T R T R J E T E R T Y J E E Y T T Y J E T T T J E T Y T Y T Y T R T T T L T T L M M B M M B M M B M M V M M M M S N M S M N M M M n N n N n S f s f s f s f z s f s f s h s f s f s f s f s h s f s f s h s h s f s f s f s f s f s f s f s f s s h s s z B T T T T Y Y E 5.l.l.l.l.j.l.l.V.H.V.D.V.D.V.V.l.j.j.f.j.c.l.K                                                                                                                                                                                                                                                                                                                                       ",
"                                                                                                                                                                                                                                                                        U b.c.f.j.l.l.f.l.l.j.j.l.l.Z.X.              t #.1.>.1.#.1.>.1.#.>.1.>.>.1.-.~ Y E T T E Y T J R T E Y T J E T E T Y T T T Y E T Y E Y T E Y L T T J E T Y K D D F D F D D B M N M M M M M M N M M M B M N B M M M M M M n n z n z l n z h s f s f s f s f s z s f s f s f s h s f s h s f s f s f s f s f s h s f s h s f s f s f s h s f s f f s f B Y T T T Y Y ~ 3.l.l.l.l.l.j.l.V.V.G.D.V.D.D.V.l.l.a.j.f.j.l.K                                                                                                                                                                                                                                                                                                                                       ",
"                                                                                                                                                                                                                                                                        ! M.c.s.l.f.j.j.k.l.a.l.k.l.C.X.              8 >.1.>.>.>.#.>.>.>.%.>.%.>.1.+.~ Y R J R T E Y E T T Y E T R T Y T R T T R J E T Y T T J T Y T T J R T R J Y D b S M S D S S N M M M M N B M B M B M M M M M M B M N S N M l s s s l s s s s f s z s f s z s f s f s f s f s z s f s h s f s f s h s f s z s f s z s f s z s h s z s f s f s h s z s s B T T Y T Y T E 0.l.l.l.n.j.l.l.M.D.G.V.D.V.D.V.l.l.j.f.j.l.c.D                                                                                                                                                                                                                                                                                                                                       ",
"                                                                                                                                                                                                                                                                        ! c.c.f.j.l.f.f.l.l.l.k.j.l.Z.X.              t +.1.>.%.>.>.1.>.>.<.>.1.>.1.+.~ T R E T Y T J R T E J Y T Y T E J Y T J E T Y E J E R T T T T T T T Y T E K D D M D M M B M B M B M M M M M S M M M D M M M M N S M M M n c s s s s s s s h s f s f s h s f s f s h s f s h s f s z s f s f s f s f s f s f s f s f s f s f s f s f s h s f s f s f h B Y T T T Y Y ~ =.c.l.l.l.l.j.l.V.V.G.D.D.D.V.V.l.f.k.j.l.s.l.D                                                                                                                                                                                                                                                                                                                                       ",
"                                                                                                                                                                                                                                                                        U Z.l.j.f.s.l.j.k.l.k.s.l.l.Z.X.              8 >.1.>.>.1.#.>.1.#.>.%.>.#.1.-.~ R T Y E J E R T Y T E T Y E J R T E T R T Y T E E Y T T Y T J R T T T Y T T D M S M D N S M M M M V S B M N B M V M M N M B S M M M N M M z l s s s s s s f s f s f s f f s h s f s f s f s f s f s f s f s h s f s f s f s f s f s h s f s f s f s z s f s z s f s s D T T Y T Y Y E 0.l.l.l.l.l.l.l.V.D.G.V.D.V.D.V.l.j.j.s.l.c.l.Y                                                                                                                                                                                                                                                                                                                                       ",
"                                                                                                                                                                                                                                                                        ! l.c.l.s.l.j.f.l.j.l.k.j.l.Z.X.              t +.1.>.%.>.>.>.>.1.+.1.1.>.1.+.~ Y E J R E T T T E Y T Y T T R T T Y T T R J E Y T T Y E J R E T Y T T R J Y B M M M M S M D N B M M M M M M M M M M M M M M N M M S M M n l s s s s s s s h s f s f s h s z s f s f s h s f s h s f s f s f s f s z s f s h s f s f s f s f s f s h s f s f s f s h s B T T T T Y Y E 5.l.l.l.k.l.j.l.M.V.H.V.D.V.D.V.l.l.a.l.s.l.l.D                                                                                                                                                                                                                                                                                                                                       ",
"                                                                                                                                                                                                                                                                        U Z.c.s.l.f.l.s.k.l.j.f.l.l.C.o.              8 >.>.>.>.>.%.>.#.>.1.>.#.>.1.-./ Y R E T Y T Y J R J E T J R T T Y T E J E T T T Y J E T R T T Y T T Y T R J D M S B S M M M M M M B M M M M S B M M B M N B M M M N M M M z l s s s s h s s f s f s f s f s f s z s f s f s f s f s f s f s f s f s f s h s f s h s f s f s h s z s f s h s f s f s h B T T Y T T Y ~ 5.l.l.l.l.l.l.l.V.V.G.D.V.D.V.V.l.l.j.f.j.l.c.K                                                                                                                                                                                                                                                                                                                                       ",
"                                                                                                                                                                                                                                                                        ! l.c.l.j.f.j.l.l.l.k.s.f.l.C. .              8 +.1.>.%.>.>.>.1.-.%.1.+.1.>.+.~ T R J E Y T E T T Y T Y E T Y J E T R T Y T Y T T R T Y T T T E Y T T Y J T B M S N M D M D M B S M N M D N M M N M M M M M M B M M M N n l s s s s s s s f s f s h s z f s h s f s f s h s z s f s h s f s f s f s f s f s f s f s h s h s f s f s f s f s f s h s z B Y T T T Y Y E 5.l.l.l.l.l.j.l.V.D.G.D.D.V.D.V.l.f.k.j.l.s.l.K                                                                                                                                                                                                                                                                                                                                       ",
"                                                                                                                                                                                                                                                                        ! C.c.s.l.s.l.s.l.a.l.s.j.l.C.+.              y :.1.>.>.>.%.>.>.%.-.1.>.>.1.+.~ Y E Y T E J Y E Y E T T Y J E E Y T J R T E J R T J Y T T R J E J T T Y E K V S B M S M N M M N M M M M M B M M B S B N M B M N M M M M M l l s s s h s s f s z s f s f s z s f s f s h s f s f s h s f s h s f s h s f s z s f s h s f s f s f s f s f s z s f s f s B T T Y T Y Y ~ 3.M.f.l.l.l.j.l.M.V.G.V.D.D.V.V.l.j.l.s.s.c.l.K                                                                                                                                                                                                                                                                                                                                       ",
"                                                                                                                                                                                                                                                                        U b.l.l.s.l.l.j.l.l.l.k.l.l.l.0.Y A H K H A A ~ >.1.>.#.>.>.>.1.>.%.1.%.>.1.-.~ Y E Y T Y E Y T T J R T E Y T Y E T E T T R T T Y E T Y J E Y T Y T T Y T Y V M M S M M D M M M M B M M M M M M M M M M M M M M M N M M m z s z h s f s h s f s f s f s z s f s z s f s f s f s z s f s f s f s z s f s f s f s f s f s f s f s f s h s f s f s f s h B Y T T T Y Y E 0.l.l.l.k.l.l.l.V.D.G.D.V.D.D.V.l.l.a.j.l.l.l.K                                                                                                                                                                                                                                                                                                                                       ",
"                                                                                                                                                                                                                                                                        ! M.c.s.l.s.f.j.a.l.k.j.l.l.l.s.4.>.>.,.3.,.>.1.>.>.1.>.#.1.#.-.1.-.%.>.>.1.+.~ Y E Y T E T T J R E T Y J E Y T T Y T Y J T R T E T Y T E T T E Y T T Y J Y B M M M D M M S B M M N B M M N M M V M B M M S N M M M M N M z p s f s h s f s f s f s h s f f s f s f s h s f s f s f s f s h s f s f s f s h s f s f s f s f s f s f s f s f s f s f s B T T T T Y T E 5.l.l.l.l.j.l.l.M.V.G.D.D.V.V.V.l.l.j.f.j.f.c.D                                                                                                                                                                                                                                                                                                                                       ",
"                                                                                                                                                                                                                                                                        U c.c.f.s.l.l.j.l.l.l.l.j.l.l.a.>.>.>.>.>.>.>.>.#.1.>.#.>.>.1.>.%.>.1.#.>.1.+.~ Y E J R J R T E Y T Y E Y T T E Y E J E Y E T J R J E Y T Y T Y T T T R E J D M S M N S B N M M M M M M S M B M M M M F M M M B M B M M m z s f d f d f d s f s h s f s z s f s z s f s f s h s f s f s f s f s f s h s f s f s f s h s f s h s f s f s f s z s f s h B T T Y T Y Y ~ =.c.l.l.l.l.j.l.V.D.G.V.S.V.D.V.l.f.k.s.l.j.l.K                                                                                                                                                                                                                                                                                                                                       ",
"                                                                                                                                                                                                                                                                        ( c.l.l.f.j.f.j.f.l.j.k.l.l.l.a.>.>.#.>.>.#.:.#.>.>.1.#.>.%.>.>.-.%.1.>.1.>.-./ Y E R T T Y T T E T J R T E Y T J E Y E T Y R T R Y T R T E J E T Y L Y T K V S M D M M S M M M V M B N B M M M M N M M M M M M M B M N n s p s s s s s f s f s f s f s f s h s f s f s z s f s f s h s f s s h s s s f s f f h s f f s f s f s f h s f h f s s s s s M Y J T T Y Y E 5.l.l.l.k.f.k.l.M.V.V.D.V.D.K.V.l.j.j.f.j.c.c.D                                                                                                                                                                                                                                                                                                                                       ",
"                                                                                                                                                                                                                                                                        ! C.l.l.s.f.s.j.l.l.l.l.l.l.k.a.,.>.>.>.>.#.>.#.>.%.>.%.>.#.>.1.%.>.1.#.>.1.+.~ R T T R T J R T Y E Y T T Y E T R T T Y T Y T Y T R T J E Y E Y T T T R J Y D M M M S B M S M M M M S M M M M M D M B M M M V M M n M M M z s f h f f s f s f s f s f s z s f s f s h s f s f s f s f s z s s s s s s s f s f s f f s f s f s f s f h s f s f p f p f B Y T T E Y Y E =.l.l.l.l.s.j.l.V.V.H.V.D.V.D.V.j.j.s.l.s.f.c.D                                                                                                                                                                                                                                                                                                                                       ",
"                                                                                                                                                                                                                                                                        ! C.c.l.j.j.k.k.f.f.l.f.l.l.l.s.1.>.#.>.>.>.>.#.>.1.%.>.%.>.>.>.>.+.1.>.%.>.-./ Y R J E T R T J E Y T J E J E T T Y T E Y E T T J E Y E T T Y T T Y T T R J F M S V M S M N B M M M M M M B M M M M M M M M M M B B S M m z s s s s f s z s f s z s f s f s f s f s f s f s f s f s f s f s s s s s s s s s s s s s h s h f h f s s s s l s s p s s s n T J R T T Y E 3.l.l.l.k.f.k.l.M.G.V.D.V.H.G.V.n.j.l.s.l.s.c.D                                                                                                                                                                                                                                                                                                                                       ",
"                                                                                                                                                                                                                                                                        ( c.l.l.s.s.j.j.c.C.c.C.c.C.c.s.2.>.>.>.>.#.>.#.%.>.>.#.>.#.1.>.1.>.%.>.>.1.+.~ E R T Y T T Y E Y T E R T R T Y J R T J E T Y T R T T Y E Y T J R T T Y T Y B M M S M M S M M M B M V M M N B M N M M M V M M M M M M M M z s f f s z s f s h s f s h s z s f s h s f s f s f s f s h s f s s s s s s s z s f h f s f s f s s h h s h h h h s d s r f B Y T T Y E Y E =.c.l.l.l.s.j.l.V.V.G.D.V.D.V.V.n.k.s.k.j.c.l.D                                                                                                                                                                                                                                                                                                                                       ",
"                                                                                                                                                                                                                                                                        ! C.l.l.s.s.j.a.9.&.&.&.8.7.8.*.1.#.>.>.>.>.#.>.>.%.>.%.>.#.>.>.#.1.>.1.#.1.-.~ Y T R J R T E Y T T T Y T T R T E T R T Y T E Y T T R J E T E T T T T Y J T B M M D N M M M V S M M M B M M S B M B M M S M B S B B M M m l s s h s f s f s f s z s f s f s f s f s f s f s h s h s f s f s f s f s s s y p s r p d s s s s r s s p s p f f s p f s s M T J E T Y Y E =.l.l.l.k.f.k.l.M.V.G.D.V.D.G.V.n.l.l.n.j.l.c.T                                                                                                                                                                                                                                                                                                                                       ",
"                                                                                                                                                                                                                                                                        ( c.l.l.j.f.c.w.              0 +.>.>.>.>.#.>.%.>.>.%.>.#.1.>.1.>.+.1.>.>.1.+.~ R J E T T T Y J E Y E J R J T Y T J E T E J E T J R T E Y T Y E Y T J R T K V S M M S B S M M B M V M S B M M M M M F M M M M M M M B S M z s f s f s h s f s f s f s f s f s h s f s f s h s f s f s f s f y f f y y y 8 8 8 8 8 8 < < < 8 8 8 < 8 8 0 d y y s s r f B Y T Y T Y Y E 3.l.f.l.k.s.j.l.V.V.V.D.V.V.H.V.j.s.j.l.s.l.s.=. .'  .' ' [ '                                                                                                                                                                                                                                                                                                                         ",
"                                                                                                                                                                                                                                                                        ! C.c.l.s.l.c.w.                ] 1.>.>.%.>.>.#.>.%.>.1.#.>.#.>.>.1.#.1.#.1.-./ Y R E Y E Y E T T Y E Y E T R T E R T Y T R T Y E T Y T T E J R T T Y T Y T B M M S M M F M M M M S M M N M B S V M M M M M V M B M M M m z s s f s z s f s z s f s h s z s f s f s f s h s f s f s f s f s f r y r r y 8 < < 8 < < 8 8 < 8 < < 8 < 8 e f d f p f p s M T J E T Y Y E =.c.l.l.l.f.j.l.M.G.V.D.D.V.H.V.j.f.j.f.j.l.s.y.1.1.>.>.1.4.>.                                                                                                                                                                                                                                                                                                                        ",
"                                                                                                                                                                                                                                                                        ( c.l.l.s.l.c.7.                { 1.1.>.>.#.>.>.>.1.>.>.>.>.>.1.+.1.>.1.>.1.+.~ E Y T T Y T J R T J E T T T J E Y T J E Y T J R T T E Y J R T T Y T T R T K V M M B N M M S B M M M M B M M M M M M M M M M M M M B M S M z s s f s f s f s f s h s f s f s f s h s f s f s h s h s h s h s f f f s d s 8 8 8 < 8 8 8 < 8 8 < 8 < 8 < 8 d s s r s s f B Y T Y T E Y E =.l.l.l.k.s.k.l.V.V.G.D.V.V.H.V.j.f.j.l.s.l.s.e.1.#.1.#.>.1.+.                                                                                                                                                                                                                                                                                                                        ",
"                                                                                                                                                                                                                                                                        ! C.l.l.f.l.C.w.                o.1.>.#.>.>.#.>.#.1.>.%.>.%.>.>.>.%.-.%.>.1.-.~ Y E Y J E E Y E T R Y T Y E R T T Y E Y T T E T Y T Y T E T Y E J E T Y T L B M S S M D M M M V M B N M M M N B M M B M M B M B M M M M m s s f s f s f s z s f s f s f s z s f s f s f s f s f s f s f s f f s f p d s < 8 8 < 8 < 4 8 8 8 4 8 < < 8 e d r f s f p s n Y J E Y T Y E 3.l.l.l.k.f.j.l.M.V.G.D.V.D.G.V.j.s.l.s.l.j.f.e.>.-.%.>.#.1.+.e                                                                                                                                                                                                                                                                                                                       ",
"                                                                                                                                                                                                                                                                        ( c.l.l.s.l.l.w.                o.4.1.>.#.>.#.>.>.1.>.>.>.>.>.%.-.1.%.>.>.1.+.~ R T R T Y T T Y J T T J R T T Y J E T T E Y J E T E J R T T T Y T Y T Y T K B M B M S M S V M M S M M B M B M M M N M B N M M N M B M M M z s s h s f s f s f s h s f s f s f s f s f s h s f s f s f s f s f f s f p f 8 < 8 8 8 8 8 8 < < 8 8 < 0 < 8 s s s r s p f B T T T J R Y E =.c.l.l.l.s.l.l.V.V.V.D.V.D.G.M.l.s.l.s.l.s.f.e.1.1.>.#.>.1.+.w                                                                                                                                                                                                                                                                                                                       ",
"                                                                                                                                                                                                                                                                        ! C.l.f.s.l.c.w.                ..1.>.>.%.>.>.%.>.>.1.#.1.#.>.>.1.#.1.1.#.1.-.~ Y E Y T E Y J E R T Y E T J R T E Y T Y T E Y T Y T R T T Y J E T T T Y T Y V S M N S B M M M B M B M M M M M M B M M S M M B M M B M S N s p f s f s f s f s f s f s z s f s h s f s h s f s f s z s f s f s d s d s y 8 8 0 < < 8 < 8 8 8 < 8 < < 8 8 y p f s s r s B Y J R E Y Y E =.l.s.l.k.f.k.j.M.G.V.D.V.D.D.V.l.l.l.f.s.l.l.e.>.#.1.#.>.1.+.8                                                                                                                                                                                                                                                                                                                       ",
"                                                                                                                                                                                                                                                                        U Z.l.l.l.l.l.w.                ..1.1.>.>.#.>.>.#.1.>.>.%.>.>.1.>.+.1.>.>.1.+.~ Y E J E J E T T Y T T Y T Y T T Y T E J R T T E J E T J E T R T Y T T Y T J D M M D M M N S M M M N B M V M D N M M M M B M M M M B M M m z s s f s f s h s f s h s f s f s f s f s f s f s f s f s f s h s d p f r f p 8 < 8 8 8 < 8 < 0 < 8 4 8 < < 8 f s s r f s s n Y T T T T Y E 3.l.l.l.k.s.j.l.V.V.G.D.V.G.H.V.j.f.j.f.l.s.f.e.1.>.>.#.>.1.+.8                                                                                                                                                                                                                                                                                                                       ",
"                                                                                                                                                                                                                                                                        ! Z.l.l.l.l.c.w.                o.1.>.#.>.>.#.>.1.>.1.#.>.>.1.#.>.%.>.%.>.1.+.~ Y R E Y E Y T Y T E Y E T E T Y T J R E T Y J R T Y T R T Y T T E Y T R T K V M M S M S M B M M M M M M S M M M M M V S M N M S M B M S M z s s f s z s f s f s f s f s f s z s f s z s f s h s f s z s f r r y p y p y 8 8 < 8 4 8 < 8 < 8 8 < < < 8 8 r r p y p r p B T J T Y T Y E 5.C.M.l.M.l.M.l.V.D.V.D.D.V.D.V.l.f.l.j.f.l.j.y.>.%.>.%.>.1.+.w                                                                                                                                                                                                                                                                                                                       ",
"                                                                                                                                                                                                                                                                        ! c.l.l.a.l.Z.9.                { 1.>.1.>.%.>.>.#.>.#.>.>.%.>.>.#.>.%.>.1.>.>.~ Y T Y T T Y T T J E T Y J R T J E E T Y T T E T T T E Y T T E Y J E T Y T K D M B M N D M S M M B M M B M B M B N M M M B M M B M M M M m s s f s f s f s f s h s f s h s f s f s f s f s f h s f s s f e < 8 8 < 8 < 8 8 < 8 8 < 8 8 < 8 8 < 8 8 8 8 8 8 8 < 8 < 8 r c T T L T J K E e.H.D.V.V.D.V.G.V.D.D.D.D.V.V.V.j.s.l.f.j.k.f.e.>.#.>.>.#.1.#.8                                                                                                                                                                                                                                                                                                                       ",
"                                                                                                                                                                                                                                                                        U b.l.l.j.l.M.w.                 .1.>.>.#.>.>.1.>.%.>.>.>.>.>.#.1.#.1.#.1.1.+.~ Y Y E Y T E T R E Y T E T T Y E Y T Y T E Y T Y E Y J E Y J E T R T T Y T J D M S M S M M N M M N B M M N M M M M B M M M M M M B B M S M z s s h s f s h s f s f s z s f s f s z s f s h s s f r f s s e 8 < 8 8 8 < 8 < 8 4 8 8 < 8 8 4 8 8 < 8 4 < 8 < 8 < 4 8 8 8 n L L L T T K E e.K.D.V.V.D.G.G.D.V.D.D.D.M.H.V.l.f.l.l.l.j.l.e.1.>.%.>.>.1.#.0                                                                                                                                                                                                                                                                                                                       ",
"                                                                                                                                                                                                                                                                        ! C.l.l.k.l.b.9.                o.1.>.#.>.1.#.>.#.1.>.%.>.#.1.>.>.%.>.%.>.1.>.~ Y J E T Y J E T Y T J Y E Y T T Y T E J E T Y T J R E T T E Y T T T J R T Y V M M F M M D M M M M M M M M B M B M M B N M M B N M M B M m s s f s f s z s f s z s f s f s z s f s f s z s s p s f s s s e 8 < 8 < 8 < 8 0 < 8 < 8 4 8 < 8 < 8 < 8 8 8 < 8 0 8 < 8 < 8 n T L T J T K P t.H.D.V.V.D.G.G.D.D.D.D.D.M.H.V.f.j.l.s.k.j.f.e.%.>.>.#.>.1.#.8                                                                                                                                                                                                                                                                                                                       ",
"                                                                                                                                                                                                                                                                        ! b.l.j.l.k.c.9.                ..1.>.>.#.>.>.1.>.#.>.>.>.>.#.>.#.1.#.1.>.1.-.~ Y R Y J E R T Y T T R T T J R T E T Y E Y T E Y E T Y T R T T Y J R T Y T K V M M M B S M M S B M B M M S N M M N M M M M M M M M B M M N z s s f s f s f s h s f s f s f s f s h s f s f p s f r s s s e < 8 < 8 4 8 < 8 8 < 8 8 < 8 < 8 8 < 0 < < 8 8 < 8 < 8 9 < 8 n T T J T T K E e.K.S.V.D.V.G.G.V.Z.D.D.D.V.H.V.j.f.l.s.l.l.s.t.>.#.1.>.#.1.+.0                                                                                                                                                                                                                                                                                                                       ",
"                                                                                                                                                                                                                                                                        ! Z.l.j.k.l.c.w.                 .4.1.#.>.1.#.>.>.>.#.>.%.>.1.>.>.%.>.%.>.1.#.~ Y T E Y T T T E Y J E T R T T Y J E Y T T Y J E Y T T J T T E Y E T T Y T K D M S M S M N S M N M M N M B M M B S B M B S V M M M M M S n z s f s h s f s h s f s f s z s f s z s f s f s f p s s s s s e 8 < 8 8 8 8 8 < 8 8 < 8 8 8 8 < 8 8 < 8 8 8 < 8 < 8 8 < 8 8 n T T T T E K ~ t.H.D.V.V.D.G.G.D.D.V.D.Z.V.H.V.f.j.l.f.k.j.f.e.1.>.#.>.>.1.+.8                                                                                                                                                                                                                                                                                                                       ",
"                                                                                                                                                                                                                                                                        ! Z.x.l.l.l.Z.w.                ..1.>.>.+.>.1.%.>.#.1.>.>.#.>.%.>.#.%.>.1.1.-.~ Y Y T T R J R J E T R T J R T E E Y T J R E T T E Y E R T Y J E T Y T Y T L B M M B N B M M B M B M D M M M M M M M N M M M M B M B M M N s s s f s f s z s f s f s f s f s f s f s h s h s p s r s s s e 8 8 < < 8 < 8 8 < 8 4 8 < 8 8 4 < 8 < 8 < 4 8 8 < 8 8 8 8 8 n E T T Y R Y ~ e.K.D.V.D.V.G.G.D.V.D.D.D.M.D.V.j.f.l.j.l.l.j.e.%.>.>.#.>.1.+.8                                                                                                                                                                                                                                                                                                                       ",
"                                                                                                                                                                                                                                                                        ^ Z.l.j.j.l.Z.w.                o.1.1.#.>.#.>.>.1.>.>.#.1.>.%.>.:.>.>.>.>.>.-.~ K T Y J E E T E Y T T E E T Y T T E T E T Y T Y T J E Y T T R T Y T T Y T Y V M S M S M S M M M M M M M V M M V M M M B M M M M M B M M M z p f s h s f s f s f s f s f s h s f s h s h s s f s d a s s e 8 < 8 4 8 < 8 4 8 8 < 8 8 < < 8 8 8 < 8 8 8 < < 8 < 8 8 < < z T E E T T K E t.H.D.V.V.D.G.G.D.Z.D.D.D.G.V.V.h.s.j.f.f.f.l.y.%.#.>.>.#.1.+.w                                                                                                                                                                                                                                                                                                                       ",
"                                                                                                                                                                                                                                                          M n n n v c n D F D D B D F c                 X.2.>.-.%.>.1.#.>.#.1.>.>.%.>.o.` ] ] ] ] ` ] ~ K T E Y T Y T T E Y T Y T J E Y J R T Y T E J E Y E Y T R J T T J E T Y T K V M M D M M B S B N B M V M M S M M M M M S M M B N M B S M m z s s f s f s f s f s h s h s f s f s f s f s p r p r r r r r 8 8 < 8 8 8 8 < 8 < < 8 < 8 8 4 8 < 8 4 8 8 < 8 8 8 8 8 < 8 < y n n n n c l B 0.K.D.V.V.D.G.G.V.D.D.D.D.D.V.M.e.e.e.e.e.r.e.5.1.>.%.>.>.1.+.8                                                                                                                                                                                                                                                                                                                       ",
"                                                                                                                                                                                                                                                        B s.j.s.j.j.j.y.u                               ..1.1.#.>.>.>.>.>.>.%.>.>.>.-.` T Y W Y Y R Y T T Y Y T T Y T Y T T J E Y E T E Y E J E Y T Y E T Y T T E T R T R T T Y T K D M M M N S M N M M S M M S M M M B M B M M M N S B M B M M M z s s f s h s h s h s f s f s f s f s h s s d r 8 4 8 4 8 < 8 8 8 < 8 < 8 4 8 < 8 8 8 < 8 < 8 8 < 8 < 8 < 4 8 < < 4 8 8 8 8 9 < < < 8 8 < y =.H.D.V.V.D.G.G.D.D.D.Z.D.G.D.l.1.%.1.#.1.%.%.>.>.>.>.#.>.1.+.8                                                                                                                                                                                                                                                                                                                       ",
"                                                                                                                                                                                                                                                        V l.C.C.c.l.C.s.r                               o.1.>.>.+.>.#.1.#.>.>.%.>.%.>.` Y W Y T T T T T Y T T Y T E J E Y E R T T Y T T T R T Y T E T Y T T E Y J Y T T J R T Y T T B M M S B M D M B M B M B M M M M M M N M M M M M M M B M S m s s f s h s f s f s f s f s h s h s f s s s f r 8 8 8 8 8 8 < 8 < 8 8 < 8 < 8 8 < 8 < 4 8 8 < 8 < 8 8 8 < 8 8 8 8 8 < 8 8 < < 9 8 < 8 8 > 8 *.J.V.D.V.V.G.G.D.M.D.D.D.V.H.n.1.-.>.>.>.1.%.1.>.#.>.#.>.1.+.w                                                                                                                                                                                                                                                                                                                       ",
"                                                                                                                                                                                                                                                        M f.c.l.l.f.l.u.y                               X.2.>.#.>.1.#.>.>.1.>.>.>.>.>.] Y Y T T T Y T T T Y J E Y T R T T T Y T J E Y E J E T T Y J E T Y J E T T E T R T T T Y T K V M B S M S M M M M M N M B N B M N B M D M B M B M M B M M M z s s z s f s f s f s h s f s f s f s f s s p r 8 w 8 8 8 < 8 8 4 < 8 4 8 8 < 8 8 0 8 8 8 < 8 < 4 8 < 4 8 8 8 < < 8 8 8 8 4 8 8 < 8 8 8 > y *.H.D.V.D.D.V.G.D.D.D.D.D.V.H.n.1.<.>.>.>.1.=.>.>.1.>.>.#.1.+.8                                                                                                                                                                                                                                                                                                                       ",
"                                                                                                                                                                                                                                                        M l.M.k.k.k.l.u.t                               ..1.1.>.+.>.>.1.#.>.#.1.%.>.>.` Y T T J R R Y T Y J R T T J T E Y J E Y E Y T E Y T R J E Y T Y E T Y E Y T J E Y T T Y T K V M S M M M N D M V M M S M M M B M M M M M M M M M M B M M m l s f s f s f s f s f s f s f s f s f s f s f r 8 8 8 4 8 8 4 8 < 8 8 8 < 8 8 0 < < 8 < 8 8 < 8 8 8 8 8 < < 4 8 8 < 8 8 < < < 7 8 8 8 8 , 8 *.J.D.V.V.V.D.G.V.Z.V.D.D.V.H.l.*.%.>.>.,.>.>.%.>.>.#.1.>.1.+.8                                                                                                                                                                                                                                                                                                                       ",
"                                                                                                                                                                                                                                                        B l.c.s.j.j.c.p.t                               o.>.>.#.>.1.%.>.>.1.>.#.>.>.>.` T T T T E Y T R T R T Y E R T Y T E T Y T E T Y T T T R T T E T Y T T T Y E Y E T T T R J Y D M M N S M S M M M M B M B M M M M M B M M V M M B M M S S N z s s f s f s z s f s z s f s z s f s h s s r y 8 8 0 8 8 8 8 8 8 < 8 < 8 < < < 8 8 < 8 < 8 8 8 < 8 < 8 8 8 8 < 8 8 8 < 8 8 8 < 8 < 8 < 6 y *.K.H.V.V.D.G.G.H.V.D.V.Z.V.H.l.1.#.1.>.>.>.1.>.%.>.%.#.>.>.#.w                                                                                                                                                                                                                                                                                                                       ",
"                                                                                                                                                                                                                                                        M l.c.f.l.l.c.p.t                                .1.>.1.>.#.>.>.#.>.#.1.>.%.>.` T K T J R T T Y T J Y T T T T J R T Y T T Y T E Y J E T T Y T J E Y E J E T T J Y T J R T J D M S B M D M B M S M M M N M M S N M M N M M M M N M B S M M z s s f s h s f s z s f s z s f s f s f s f s r 8 8 8 8 8 8 8 < 8 8 < 8 < 8 8 8 < 8 < 8 0 < < 8 0 < 8 < 4 8 < 8 < 8 < 8 < < 8 8 < 8 < 8 < t *.H.H.G.V.V.D.V.G.D.V.D.D.D.H.k.1.#.>.>.#.>.>.1.>.#.>.#.>.1.#.8                                                                                                                                                                                                                                                                                                                       ",
"                                                                                                                                                                                                                                                        V l.c.l.j.f.c.p.t                               ..>.>.>.%.>.>.>.>.1.>.>.>.1.>.` T T T T R J R E Y E T Y T Y E R T T J E Y J E Y T E Y T T Y E R T T T R T J T J J J Y J J Y b B M M S N M S B M M M M M D M B M B M B M M M M M B B B N n s s f s h s f s f s f s f s f s f s f s s s f r 8 4 8 0 8 8 4 8 8 < 8 4 8 8 < 4 8 8 8 < 8 8 < 8 < 8 < 8 8 < 8 8 8 < 8 8 8 8 < 8 4 8 8 < , y %.K.D.G.V.K.V.D.G.V.D.H.V.D.H.k.1.>.1.>.>.#.>.>.#.>.#.>.>.1.#.0                                                                                                                                                                                                                                                                                                                       ",
"                                                                                                                                                                                                                                                        B l.l.l.l.l.l.p.y                               ..1.1.#.>.>.#.1.#.>.#.1.%.>.>.` Y T J T R T T Y Y T Y T E J E T T R T T T E Y T T T T R J E T T T R J E T E K D F D D K D D b M S M B S B M M M V S B M M M M M M M S B M n l l c c n c z s r s f s f s f s f s f s f s f s z s f s f r r 8 8 8 8 8 8 8 8 8 0 < 8 < 8 8 8 < 8 8 < 8 < 8 < 8 8 8 < 8 < 8 4 8 8 4 8 < 8 4 8 8 < 8 < , y *.H.H.V.V.D.V.D.G.D.V.D.M.H.Z.l.1.#.>.#.>.>.1.>.>.#.#.#.>.3.#.8                                                                                                                                                                                                                                                                                                                       ",
"                                                                                                                                                                                                                                                        M l.c.f.j.f.C.p.t                                .1.>.>.#.>.>.>.#.1.>.>.>.>.%.` T Y T J R T T E Y T J E Y T Y T J E Y T Y T T J R E J R T Y T Y J E T R T J D n M b M b B B B v S M S M S M N M M M M M M B N B S M M M M c l a s s l s s s s f s f s f s h s z s f s f s h s f f s s f r 8 4 8 8 4 8 8 < 8 < 8 8 < 8 < 8 < < 8 0 < 8 4 8 8 0 < 8 8 4 8 8 < 8 < 8 < 8 < 8 < 8 8 < 8 t *.H.D.G.V.D.G.D.G.V.D.D.V.D.G.l.1.#.1.>.>.#.>.1.#.1.>.#.>.1.>.8                                                                                                                                                                                                                                                                                                                       ",
"                                                                                                                                                                                                                                                        B l.c.l.l.j.c.p.t                               ..1.>.-.%.>.#.1.>.#.>.#.1.>.>.` T L T E E Y T Y T Y T Y T T E Y E Y T J E Y E E T T R T T T J E E Y T T Y T B b B M M B M D D M D M M M V S M B M M B N M M S M M M V M N z s h s s s s s f s f s f s f s f s f s h s h s f s f s s r s y 8 8 8 0 8 8 8 4 8 8 < 8 8 4 8 < 8 4 8 < 8 < 8 < 8 < 8 < 8 8 < 8 < 8 < 8 8 8 8 < 8 < 8 < , y *.H.H.V.G.D.V.D.G.V.D.V.D.M.H.k.1.#.>.>.%.>.>.1.>.#.#.>.>.1.#.0                                                                                                                                                                                                                                                                                                                       ",
"                                                                                                                                                                                                                                                        B l.C.f.l.l.M.u.t                               ..1.1.#.>.>.#.>.>.1.>.>.#.>.1.` Y T J Y E Y T R T Y T E Y T J R T T E Y T T Y T Y J E T J R E Y T E Y T J Y D M M S M S M B M S M M N S M M M M M S M M S M M M B M M M M z s s h s s z s s s f s f s f s f s f s f s f s f s f s f s f e 8 8 < 8 8 8 8 8 8 < 8 4 8 < 8 8 8 8 < 8 8 8 8 < 8 8 < 8 8 < 8 8 < 8 8 < < 4 8 8 < 4 8 8 , y *.H.H.V.V.D.G.G.D.H.V.H.V.G.H.k.1.#.1.#.>.#.1.#.>.%.>.%.>.3.#.                                                                                                                                                                                                                                                                                                                        ",
"                                                                                                                                                                                                                                                        M l.l.l.k.f.l.t.t                                .>.1.>.+.1.>.>.#.>.#.>.1.%.>.` T T Y T J R T T Y J R T J R T T Y T T Y T E J R T R T Y E T T T T T Y T Y T B Z M B M B S M D M B S M D M S B M M B M B M M B M N M M M M z l h s s s s s f s s f s f s f s h s f s h s f s s f s s s f r 8 < 8 8 < 8 < 8 < 8 8 < 8 < 8 < 8 < 8 < 8 < 8 < 4 8 < < < 8 < < 8 < 4 8 8 8 < 8 8 8 < 8 > y %.K.H.V.G.V.D.G.D.V.D.V.G.V.G.l.3.#.>.%.%.#.1.%.>.>.#.>.>.>.:.                                                                                                                                                                                                                                                                                                                        ",
"                                                                                                                                                                                                                                                        B l.c.j.l.j.l.a.q                               ..3.>.>.#.>.#.1.>.1.>.#.>.>.>.` Y T J E R T Y E Y T T Y T T E T T E Y J R T Y T T T T T Y T R T R J E T T T D M B M S M M S M S N M S M B M M M M N M M N M M M M S M M M z s s h s s s f s s f s f s f s f s f s h s p s p s s p f s s r 8 < 8 < 8 8 8 < 8 < 8 < 8 8 < 4 8 < 8 8 < 4 8 8 < 8 8 8 4 8 4 8 4 < 8 8 , 3 4 3 3 4 8 8 > t *.H.H.V.D.V.G.G.V.D.G.V.H.V.H.n.>.>.>.>.>.>.>.1.#.>.>.>.>.1.>.                                                                                                                                                                                                                                                                                                                        ",
"                                                                                                                                                                                                                                                        F l.Z.l.l.C.Z.s.u                               ..1.>.-.%.>.>.#.>.#.1.>.%.>.1.` T T T J E Y T E Y T Y E T Y T Y T J E E T T T E J R J E T T J E T E Y T J T D v B M B S M B M B S M B S M S M V M D M B M D M B M B N M M n s h s s f s s s s f s f s f s f s z s f f s r s y s r s s f r 8 8 4 8 8 4 8 8 4 8 < 4 8 < 8 8 8 8 4 8 8 8 < 8 < 8 4 8 < < < 4 < < 3 8 8 8 3 3 4 4 8 8 > t %.K.H.V.V.K.V.G.D.G.H.H.G.V.H.l.3.#.>.>.>.>.1.1.%.#.>.>.>.3.>.                                                                                                                                                                                                                                                                                                                        ",
"                                                                                                                                                                                                                                                        n w.w.8.w.w.t.&.                                 .2.1.#.>.>.1.>.>.>.#.1.>.>.#.` T K T Y E Y T Y J R T J E T R J R E Y T Y E Y T Y T T Y E Y E Y T T T R T Y D M b M S M M S M S M S M S N B M M M M M M M N M M N M B M N l s h s s s s f s s f s f s f s f s f s h s f r f r f f s p p r 8 < 8 8 4 8 8 8 8 < 8 8 8 8 4 8 < < 8 < 8 < 8 4 8 8 < 8 8 4 , , , 3 , , , , , 3 3 : , , = 0 %.K.H.V.V.V.V.G.D.D.V.H.V.V.H.k.#.+.>.:.-.-.%.#.%.>.>.#.>.2.#.                                                                                                                                                                                                                                                                                                                        ",
"                                                                                                                                                                                                                                                                                                        ..3.>.>.#.>.#.>.%.>.>.>.#.>.1.` T J T T J R T E R T Y T R J E T T T Y T T J T E T Y E Y T T T Y J R T J E T B B M M M B M D N M B M M B S M M M M B N S B M M B S M M M M z s z s f s f s f s f s f s f s f s f s f s f e 8 9 > 8 8 8 8 8 8 0 < 8 8 < 8 4 8 8 8 < 8 < 8 < 8 8 < 8 8 4 8 8 < 8 < 8 < 4 , & & % & = = = % % & & = - @ , %.H.H.G.D.G.D.V.M.l.B.M.c.l.C.e.` ~ ~ ~ ~ ~ / { -.>.#.>.>.>.>. .                                                                                                                                                                                                                                                                                                                      ",
"                                                                                                                                                                                                                                                                                                         .>.1.#.>.#.1.>.>.>.%.>.1.>.>.` T Y T J R T T Y T Y T T T Y T Y Y E T Y T R T Y T T T T J R T E T E Y E T J D v M D M S M M M S M S M M M B S B N S B M M M M M B M M M M z s h s f s s f s s f s f s f s h s h s f s f r 8 8 8 9 < 8 8 < < < 8 < 8 < 8 < 8 8 4 8 8 8 < 8 < 8 < 4 8 8 < 8 8 < 8 8 < < : % % % % % % % % % % % - % @ ; %.H.D.G.V.D.G.D.l.f.l.l.l.s.l.e.E Y Y T T Y R ` >.>.>.>.#.>.1.1.1.1.1.1.3.4.                                                                                                                                                                                                                                                                                                          ",
"                                                                                                                                                                                                                                                                                                        ..1.>.>.>.1.>.#.>.%.>.>.%.>.>.` T T Y T T J R T T J E Y E T T E T T Y T T T E T R J R T Y E T Y J R T T Y T D B B M M S M D M M D M D N S M M M M M M B M B S M M M M N M z s s h s s s s s s f s f s f s f s f s z f h r 8 < 3 8 < 8 < 8 8 4 8 < 8 8 8 8 < < 8 < 8 < 4 8 8 0 8 < 8 8 8 < 8 8 8 > 8 8 > % - % % % % % & % - % % % @ : %.K.H.V.G.H.V.V.j.j.j.s.j.s.x.5.E K T Y Y T R ` %.>.#.>.>.%.>.>.1.>.>.#.>.1.                                                                                                                                                                                                                                                                                                          ",
"                                                                                                                                                                                                                                                                                                        ..>.>.%.>.#.>.>.1.>.>.#.>.>.>.} Y J T J T R T T R E T T J R T Y J R T E J R T Y T E T T T T E T E T T J E T D v M S B M M N S M N M M D M M V M M M M M N M B M N S B M M z l h s s s s s f s f s f s f s f s f s f s f p 8 < 8 8 < 8 8 4 8 8 < 8 < 4 < 8 8 < 8 < 0 8 8 < < 8 8 < 8 < 8 7 8 > 8 8 8 8 = % % # % - # % % & % # % # @ ; %.H.H.G.D.G.D.V.l.s.l.f.j.s.x.e.E L Y T R T Y ` >.1.>.%.>.>.%.>.#.1.#.>.>.3.                                                                                                                                                                                                                                                                                                          ",
"                                                                                                                                                                                                                                                                                                         .1.>.>.>.1.>.#.>.#.1.>.1.#.>.` E Y T T T T T Y T J R T R T E T E T Y T E T J E T J R T R J R T Y T R E Y T B D B M S M S M B M D M S M S M S B M M M B S M M B M M M M M z s s h s f s s s s f s f s f s f s f s f s f p 8 4 < 8 8 < 8 < 4 8 8 < 8 8 8 < 8 4 8 8 < < 8 8 8 < 8 8 < 8 8 8 8 8 7 < 7 < > % % - % # % & % # % - % % @ : %.H.H.V.G.D.G.D.l.j.l.s.l.j.x.5.E Y J R Y T R ` >.#.>.>.#.>.1.#.1.>.%.#.>.3.                                                                                                                                                                                                                                                                                                          ",
"                                                                                                                                                                                                                                                                                                        ..>.>.%.>.#.>.1.>.>.#.>.>.>.>.} Y T J T Y J E T E Y T E T Y J R T T T Y T R Y T Y E T Y E T T Y J E T T J T D v B M S M D M S M S B M M B M M M M B S M M V M S M M M M M z s h s s s s f s s f s f s f s f s h s f s f p 8 < 3 8 8 < 3 8 8 < 8 < 8 < 8 8 < 8 < 8 8 8 < 8 8 < < 8 8 8 8 > 8 > 8 8 8 < : % % # % # % # % & % # % # @ ; %.H.H.V.K.V.D.V.l.s.l.s.l.l.l.e.~ Y Y E Y T E ` %.>.1.#.1.>.1.>.1.#.>.%.>.3.                                                                                                                                                                                                                                                                                                          ",
"                                                                                                                                                                                                                                                                                                        ..1.>.>.>.>.%.>.#.1.>.#.1.#.>.` T T Y J T T Y T Y T T Y T T E T Y J R J E T T T T Y E T J R T E R T Y E Y T D M B M M M S N B M M S M N S M M B M N M M M M M M M M B N M z s h s s s f s s s f s f s f s f s f s h s f p 8 4 8 8 < 8 8 8 4 8 4 8 8 < 8 < 8 < 8 8 < 8 4 8 < 4 8 < 8 < 8 8 8 8 8 > 8 8 = % # % # % & % - % # % & % @ ; %.K.H.V.V.H.V.V.l.s.j.f.j.c.l.5.~ Y Y T R Y Y ` >.>.#.>.>.#.>.%.>.1.#.>.>.3.                                                                                                                                                                                                                                                                                                          ",
"                                                                                                                                                                                                                                                                                                         .>.>.#.1.>.>.>.>.#.>.>.>.>.>.} Y T J T T R T J E Y T J R T Y T Y E T E Y T Y E J E T Y E T Y T J E Y T T J D v M S B S M M S B S V S M B S M N S M M B M B M M M M M M M z s s h s s s s f s s f s f r f s h s f s f h r 8 8 , 8 8 8 4 8 < 8 8 < 8 8 < 4 8 8 < 8 < 8 < 8 < 8 8 < 8 8 8 > > < > 8 > < : % % # % - % # % # % & % % @ 1 $.J.H.G.V.H.D.V.l.s.l.s.l.l.c.e.R Y Y E Y T E ` %.>.1.>.#.1.>.>.%.>.1.#.>.3.                                                                                                                                                                                                                                                                                                          ",
"                                                                                                                                                                                                                                                                                                        ..1.>.>.#.>.%.>.>.>.1.#.>.1.-.` T Y T T J T E Y T T R E T Y T J E T Y T T J R T Y T Y T T Y E T R T T Y T T D M B M S M B M M M M S B S M M M M B M M M M M N M B M B M M z l h s f f f s f s f s f s f s f s f s z s f p 8 4 8 8 < 8 < 8 4 8 < 8 0 < 8 8 < 8 < 4 8 8 < 8 8 < 8 8 < < < % - % % % % - % - % - % # % - % # % # & % @ ; %.H.D.D.V.V.D.V.l.l.l.f.j.l.l.5.~ Y J R T Y Y ` >.>.#.>.>.>.%.>.>.%.>.%.>.1.                                                                                                                                                                                                                                                                                                          ",
"                                                                                                                                                                                                                                                                                                        ..>.%.>.>.>.#.>.%.>.>.>.1.#.>.} Y T J T Y T Y E T R T T T E T R T Y E T R T T T E T T Y J E J Y T Y J E T Y B v D M M S M F M S B M M M S B M M M B M M M D M M M M M N M z s h s h s s h s f s f s f s h s h s f s f s y 8 < 4 8 8 < 4 8 8 8 4 8 < 8 8 < 8 8 8 8 < 8 8 < 8 8 < 8 8 < < & % % & % % # % # % # % # % # % - % # % % @ 1 %.H.H.V.G.D.D.V.l.f.j.f.l.l.c.e.~ K R E Y T E ` #.1.>.%.>.>.>.%.>.1.>.1.>.3.                                                                                                                                                                                                                                                                                                          ",
"                                                                                                                                                                                                                                                                                                         .1.>.>.%.>.1.>.>.#.1.#.>.>.>.` T T Y T T T T T Y J E Y J R T T E T J E T Y J R T Y J E E Y E T E T E Y J T D B M B M D M M S M N S M F M M N D M M M F M M M M D N M M M z s s z s f s f s f s h s f s f s f s f s h f p 8 8 , 8 8 8 8 < 4 8 8 < 8 < 8 < 8 < 8 < 8 < 4 8 < 4 8 < 4 8 , % % % % % % & % # % # % - % # % # % - % # @ ; %.H.H.D.V.V.D.V.l.f.l.f.j.l.c.5.R Y Y J R Y T ` >.>.>.>.1.#.>.1.>.%.>.#.1.1.                                                                                                                                                                                                                                                                                                          ",
"                                                                                                                                                                                                                                                                                                        ..>.>.>.>.>.#.>.1.>.#.>.>.1.#.} Y T Y T Y J Y T T E Y T E T T Y J R T Y T E E T Y E T R T T Y T Y T Y E T T D v B S M M S M V S B M S M M D M M M N M M M M B N M M B M M z s h s f s f s h s z s f s h s z s f s z s f p 8 4 8 8 < 8 4 8 8 < 8 8 < 8 8 4 8 8 < 8 < 8 8 8 8 8 8 8 8 < < - % % % - % # - % # % # % # % - % # % # % @ ; %.J.H.V.V.D.V.V.l.l.j.f.l.l.l.=.~ Y R J T J E ` %.>.%.>.>.>.%.>.>.1.>.1.>.1.                                                                                                                                                                                                                                                                                                          ",
"                                                                                                                                                                                                                                                                                                        ..1.>.#.>.1.#.>.%.>.>.>.%.>.%.` T Y T Y E T T T Y T T T Y T J R E T T E Y T Y T E T T T Y E T E J R T T Y J D M B M S M V S M S M S M D M M M M B M M B M M M M M M M M M z s z s h s z s f s f s f s f s f s z s f s f r 8 < 3 8 8 < 8 8 4 8 < 8 8 < 8 < 8 < 4 8 8 8 < 8 < 8 8 < < 8 < % & % % % % # % # % # % - % # % # % # % % @ 1 @.H.H.V.V.D.V.D.l.f.l.l.j.l.l.e.~ K J E J T T ` #.>.>.#.1.>.#.1.#.>.%.>.%.1.                                                                                                                                                                                                                                                                                                          ",
"                                                                                                                                                                                                                                                                                                         .>.1.>.#.>.>.>.>.#.1.%.>.>.%.` Y R Y R T T Y T Y T Y J T Y E T T Y T T J E T J Y T Y T J R T Y E T J E T T D v M M B S M S B M F M M M N S M M M S M M M M S M M S M N M z s s h s f s f s f s f s f s h s f s f s f s y 8 8 < 8 8 < 4 8 < 8 4 8 8 4 8 8 < 8 8 < 8 4 8 < 4 8 < 8 < 4 < % % & % % % & # % # - % # % # % - % # & % @ ; %.J.D.H.G.D.H.V.l.l.j.f.l.l.l.5.E J E T E T Y ` %.>.1.>.#.>.>.>.1.>.1.+.1.1.                                                                                                                                                                                                                                                                                                          ",
"                                                                                                                                                                                                                                                                                                        ..>.#.>.1.%.>.%.>.>.#.>.>.>.>.` T T T Y T T J R T T Y E Y T T Y T E Y T R T R T E T E Y E T T J R T R T Y T D B M S M M S M M S M M S M M M B M M B N B S M M M B M M M M z l h s f s f s h s f s h s f s f s f s f s h p 8 < 4 8 8 8 8 , 4 8 8 < 8 < 8 < 8 < 8 8 < 8 < 4 4 4 4 4 4 4 1 - % % # % - % # % # % # % - % # % # % & % @ 1 O.K.D.V.V.V.D.V.l.s.l.s.l.j.c.e.~ Y J T Y T T ` >.>.#.>.>.%.>.#.>.#.>.>.>.3.                                                                                                                                                                                                                                                                                                          ",
"                                                                                                                                                                                                                                                                                                      j o.1.>.#.>.>.#.>.#.1.>.>.#.1.>.` L W T T E Y T T Y T J E T Y E T Y J E T J E T Y T Y J E Y T Y E T Y T T J T B v B M D M B S M B S M V S B S M M N M M M M B M N M M V M M z s h s h s f s f s z s f s h s f s h s z s f r 8 8 6 8 < 8 4 8 8 8 < 8 < 8 < 8 < 8 < 8 < 8 8 ; ; ; 1 ; ; 1 ; % # % & % # % - % # % & % # % # % & % # % @ ; %.H.H.V.D.V.D.V.l.s.l.s.l.f.c.5.~ K T E T Y T ` >.1.>.#.1.>.>.1.>.#.1.#.>.1.                                                                                                                                                                                                                                                                                                          ",
"                                                                                                                                                                                                                                                                                          >.-.+.| o.+.+.-.1.>.1.>.#.1.>.>.>.#.>.1.#.1.` L Q Y T T T Y T Y E Y Y T T Y J E R T Y E Y T J E T E T T E T Y T T Y E Y T D B M S M S M N S M N S M M S M V M B M S M M M M M B S M M M z s s h s f s h s f s f s h s f s h s f s f h p 8 4 < 8 8 < 8 8 4 8 8 4 8 8 8 < 8 4 8 8 < 8 4 & & % & % & % # % - % # % - % # % - % # % # % - % # % - % @ ; +.K.D.V.V.D.V.V.l.s.j.f.j.l.c.e.E Y J R T T T ` >.>.1.>.>.#.>.#.1.>.>.>.1.1.                                                                                                                                                                                                                                                                                                          ",
"                                                                                                                                                                                                                                                                                        ' 4.1.1.,.>.>.>.1.1.%.>.>.>.>.#.>.>.1.#.>.>.>.` Q T T Y T J T R T Y T T T Y T Y T T Y T T T E Y T Y T Y J R T J E Y J E T J D v B M B M D M M D M M D M M M M M M B M M B N M S M M M M M z s h s z s z s f s z s f s f s f s f s f s f r 8 8 4 8 8 8 4 8 < , 8 8 < < 8 8 8 8 < 8 < 8 8 % % & % # % % - % # % # % # % # % # % # % & % # % & % # % @ 1 %.H.D.V.D.V.D.V.l.s.l.s.c.f.c.5.~ Y T T Y T T ` >.#.>.#.1.>.#.>.>.#.1.#.>.3.                                                                                                                                                                                                                                                                                                          ",
"                                                                                                                                                                                                                                                                                        ^ 1.1.1.>.>.>.>.<.>.>.#.>.#.1.>.1.%.>.>.%.>.1.` L Y T T R T T Y T T Y T E J E T T T J E Y T Y T E T E T E T Y E T T R T Y T D M B S M S M M S M D M M S M S B M S M M M S M M M B M V M M z s h s f s f s h s f s h s f s f s f s h s h r 8 4 < 8 < 8 < 8 4 8 8 8 < 8 < 0 < 8 < 8 8 < 8 & % # % - % # % # % # % - % # % & % # % - % # % & % # % # @ ; +.K.D.V.V.D.D.V.l.j.l.s.j.l.c.e.E Y J T T T Y } >.>.1.>.#.>.1.>.%.>.>.#.>.1.                                                                                                                                                                                                                                                                                                          ",
"                                                                                                                                                                                                                                                                                        ( 2.1.1.#.%.>.1.-.1.#.>.1.>.>.#.>.>.%.>.>.>.#.} Y Q Y T T Y T T Y T J R T Y T R T R E T T T T T Y J Y T Y T T Y T T T Y T T D v M B M M N D M M M S V M D M M B M M B N M B M M N M M M M z l h s z s f s f s f s f s f s h s z s f s f p 8 8 < 8 8 < 4 8 8 4 8 < 4 8 8 < 8 < 8 < 8 4 8 & % # % # % # % # % - % # % # % # % - % # % & % # % & % % @ : %.K.D.V.D.V.G.D.l.s.l.s.l.l.l.5.~ Y Y P J J T ` >.%.>.>.1.%.>.%.>.>.>.>.1.1.                                                                                                                                                                                                                                                                                                          ",
"                                                                                                                                                                                                                                                                                        ^ 1.1.>.1.#.>.>.<.>.>.>.#.>.1.>.>.>.>.>.%.>.1.` L Q T Y T T J T T T T T T T T J E Y T Y T R J R E E T Y T J E T Y J R T J E B B D M S M S M M D N M S M M V M M M N M B M M M B M D M M N l s h s f s f s h s f s h s h s f s f s f s h r 8 4 8 8 < 8 8 4 8 < 8 8 8 < 8 8 < 8 0 8 < 8 8 % - % # % - % # % # % # % # % - % # % # % # % & % - % # % @ ; +.K.D.V.V.D.V.V.l.s.l.s.l.l.l.e.E J T T T T T ` >.>.#.>.>.>.#.>.>.%.>.#.>.3.                                                                                                                                                                                                                                                                                                          ",
"                                                                                                                                                                                                                                                                                        ( 2.1.1.#.>.>.1.-.%.>.>.%.>.#.>.%.>.#.>.>.>.>.` L W T T T T L T T J L Y J Y T Y T T J E J E T T T Y T T R T Y T T E T R T T D v M M D M D M N S B S B S M S M M B S M M S B M N M M M M M z s h s f s f s f s f s f s f s f s h s h s f p 8 < 4 8 8 4 8 8 < 8 < 8 < 8 < 8 4 8 < 8 8 < < & % # % & % # % - % # % - % # % # % - % # % - % # % # % & @ : %.H.H.V.D.V.D.V.l.j.l.s.j.l.l.5.E L J Y T L Y ` %.>.1.%.>.>.>.1.>.>.>.#.>.1.                                                                                                                                                                                                                                                                                                          ",
"                                                                                                                                                                                                                                                                                        ' 1.1.>.1.#.>.1.<.>.1.#.>.>.>.1.>.>.>.%.>.%.>.` Q T K T T J T T T Y L L L T L P T Y E Y E Y T Y T J R J E T T R J R T J E Y B D B M M S M M D M M M M M D M M M M M M B M N S M B M M M N l s h s h s f s f s h s h s f s h s f s f s h r 8 4 8 8 8 8 < 4 8 4 8 8 8 < 8 8 8 8 8 < 8 8 8 & % # % - % # % # % - % # % # % - % # % # % # % # % & % % @ ; +.K.D.V.V.D.D.V.l.s.j.f.l.j.l.e.~ Y R T Y T T } +.>.>.>.#.1.#.>.#.1.#.1.>.1.                                                                                                                                                                                                                                                                                                          ",
"                                                                                                                                                                                                                                                                                        ( 2.1.>.#.>.#.>.-.1.#.>.>.%.>.%.>.%.>.>.>.>.1.` L Q Y T T T T { >.:.>.,.:.;.-.E Y T T T T T Y T T E T T Y E J R T T T R T T D M v S B M S M M S B S B N M B M N B M N M M M B M M M S M M z s z s f s z s f s f s f s f s f s f s f s f p 8 < , 8 < 8 8 8 8 8 < 4 8 8 < 8 < 8 < 8 4 8 < & % - % # % & % - % # % # % & % # % # % - % # % & % # & % @ 1 $.F.D.V.V.D.V.V.l.s.l.j.l.l.l.e.| ` ` ` ` ] } o.%.>.#.>.>.>.#.>.>.>.>.#.>.3.                                                                                                                                                                                                                                                                                                          ",
"                                                                                                                                                                                                                                                                                        ( 1.1.1.>.%.>.1.<.>.>.#.1.>.>.>.>.>.#.>.%.>.>.` L W T Y J K E r.l.s.i.r.i.r.r.~ R T Y T Y T Y T J R T Y T E Y T T R J T T J D b M M S N B S B N M S M S M S M M S M M S B M M M M M M M M z s h s h s f s f s h s f s h s f s h s f s h r 8 4 8 8 8 < 4 8 4 8 8 8 < 8 4 8 < 8 4 8 8 < 8 % # % # % # % # % # % # % & % # % # % # % # % - % # % & % @ ; +.K.D.V.V.D.V.D.l.j.l.s.s.j.l.t.,.-.-.1.>.,.>.>.%.1.>.%.>.#.1.>.%.>.1.>.>.1.                                                                                                                                                                                                                                                                                                          ",
"                                                                                                                                                                                                                                                                                        ( 2.1.>.%.>.>.>.-.1.>.>.>.%.>.#.>.1.>.>.>.#.>.` Y T Y T T L ) 5.c.j.j.j.l.c.u.) K T T K T K T E T T T E Y T T E T T E Y T T D M B M B S M M M S M M M D M M M M B M M M M M M M M F M M M n s h s f s f s h s f s f s f s h s f s h s f p 8 8 4 8 < 8 8 < 8 4 < 8 < 8 < 8 8 8 < 8 < 8 < & % & % # % & % # % & % - % # % - % - % # % - % # % & % # @ : %.K.D.V.D.V.H.V.l.s.l.f.l.l.c.t.>.#.1.>.>.1.>.>.#.>.%.>.>.1.>.#.>.#.>.#.1.3.                                                                                                                                                                                                                                                                                                          ",
"                                                                                                                                                                                                                                                                                        ( 1.1.>.1.%.>.1.<.#.1.#.>.>.#.>.>.#.>.%.>.>.%.` T Y T Y L K E e.j.j.j.s.l.l.t.) K T T T Y T T Y T R J R T J R T Y T T E T J D v M S M M S M S B S M S M V S M M M M M B M N D M M M B M M z s h s f s f s f s f s h s h s f s h s f s h r 8 4 < 8 8 < 8 4 8 8 8 < 8 8 < 8 < 8 < 8 8 < 8 & % # % & % # % & % # % # % # % # % # % - % # % # % - % % @ ; +.K.D.V.G.D.V.D.l.f.j.l.j.s.l.y.1.>.>.>.#.>.>.#.>.#.>.>.%.>.#.>.1.>.1.#.>.1.                                                                                                                                                                                                                                                                                                          ",
"                                                                                                                                                                                                                                                                                        ^ 2.1.>.#.>.%.>.>.>.>.>.%.>.>.1.#.>.>.>.>.>.%.] Y R T J T K ) e.l.j.j.l.k.c.t.~ T Y T Y T T Y T T E T T T R T J E Y T Y T Y D M B M S M B M N M S M M S M M M N M B N M S M M M B M M N M z s s h s f s f s h s f s f s f s f s f s f f p 8 < 6 8 8 < 4 8 < 8 < 4 8 8 4 8 8 8 8 < 8 8 < & % & % # % & % # % - % # % - % # % & # % # % # % # % # % @ ; +.K.D.D.V.D.H.V.n.k.j.k.l.l.l.t.>.-.1.>.>.1.#.>.#.>.>.#.>.1.>.>.>.#.>.>.>.1.                                                                                                                                                                                                                                                                                                          ",
"                                                                                                                                                                                                                                                                                        ( 1.1.1.>.%.>.>.<.>.%.>.>.>.#.>.>.>.#.>.#.>.>.` Y T T J Y L ~ 0.l.j.l.s.j.l.u.) K T E T Y E T E Y T Y E T J E R T T E J E T B b M B M S M S D M M N M B S B M B S M M M M M M N M M M M M z s h s f s f s h s f s h s f s f s h s f s h r 8 4 < 8 8 8 8 8 4 8 8 8 < 8 8 < 8 4 < 8 < 8 8 & % # % & % # % & % # % # % # % # % - % # % - % - % # % % @ : %.H.H.V.K.V.D.V.l.k.s.l.s.s.l.t.1.>.1.%.>.#.>.#.#.>.1.>.>.#.1.%.>.1.#.>.#.1.                                                                                                                                                                                                                                                                                                          ",
"                                                                                                                                                                                                                                                                                        ( 2.1.>.%.>.>.>.<.>.>.#.>.1.#.>.1.>.>.1.>.1.>.] T Y Y T L Y ) e.l.l.s.k.l.l.t.) Y T Y T T T Y J E Y T Y T R T T Y T R T Y T B S M S M M M M M S B S M S M M M M M M B M M B M B M M M M M z s z s f s h s f s z s f s f s h s f s z s f p 8 8 4 8 < 8 < 4 8 < 8 < 8 8 < 8 8 < 8 8 < 4 8 % - % # % - % # % # % & % # % & % # % # % - % # % # % # % @ 1 %.J.K.H.V.H.H.G.l.k.j.l.l.j.l.y.1.#.>.>.>.1.>.#.>.#.>.#.1.>.>.>.#.>.>.#.1.1.                                                                                                                                                                                                                                                                                                          ",
"                                                                                                                                                                                                                                                                                        ( 1.1.>.>.#.1.>.-.%.>.>.%.>.>.#.#.#.>.#.#.>.-.` T R T Y T K E 0.l.j.l.j.l.l.u.~ J T T Y J R T E T T J E T T Y T E Y J E T J D b M B M D M F M M M M S B N D M V M M N S M N M M B M S M N l s h s h s f s f s f s f s f s f s f s f s f r 8 4 8 8 8 < 8 6 8 4 8 < 4 8 8 < 8 8 < 4 8 8 < & % # % & % # % - % # % & % - % # % - % # % # % # % & - % @ ; O.M.m.n.N.n.n.N.l.l.a.k.k.s.l.t.>.-.1.>.#.>.#.>.#.>.%.>.>.#.>.1.>.#.1.>.>.3.                                                                                                                                                                                                                                                                                                          ",
"                                                                                                                                                                                                                                                                                        ( 2.1.1.#.>.%.>.<.>.1.>.>.1.>.| ` / ` ~ / ` ' ~ T Y Y T K L ) e.l.l.s.l.k.x.t.) Y Y T E T T Y T Y E R T Y J R T J E Y T Y T D M B M S M S M M S B S M S M M M M D M M B M B S M M M N M M n s z s f s z s f s f s h s f s f s f s f s f p 8 < , 8 8 < 4 8 < 8 < 8 8 < 8 0 < 8 8 8 8 8 8 & % - % # % # % # % - % # % # % # % # % - % # % - % # % # % & d V m N m n n F t.l.s.j.s.l.f.t.1.>.1.%.>.1.>.#.%.>.>.>.1.>.#.>.#.>.>.#.>.1.                                                                                                                                                                                                                                                                                                          ",
"                                                                                                                                                                                                                                                                                        ( 1.1.>.1.%.>.>.<.>.#.>.#.#.1.{ T Y T R T Y ! Y Y R Y T Y Y ~ 0.l.l.j.j.l.l.u.~ J T Y T Y T E J E Y T T R E T E Y T T T T J D v M S M B M S B S M N M M D M M M M M M M S M M M V M B M M z s s h s f s f s h s f s f s f s z s f s f h r 8 4 8 8 < 8 8 , 4 8 4 8 8 8 < 8 < 8 < < 8 < < & % # % # % & % & % # % # % & % & % & % # % # % # % # % % # % @ @ @ @ @ @ @ : =.c.s.j.f.j.l.y.1.#.>.>.>.#.>.>.#.>.#.>.#.>.1.>.1.#.1.>.>.1.                                                                                                                                                                                                                                                                                                          ",
"                                                                                                                                                                                                                                                                                        ( 2.1.>.#.>.>.>.>.>.%.>.%.>.%.{ E R T Y T Y Y T T T T T K L ) e.l.j.l.a.l.l.t.) K E T J E Y T Y T T J R T T Y T E Y E Y T E D B M B S M M S N M M S M S M B S M B N M B M M V M M M M M M z s z s f s f s z s f s h s f s f s f s h s f p 8 8 4 8 8 8 4 8 8 8 8 < < 8 8 8 < 4 8 < 8 8 < & % # % - % # % # % # % & % # % # % # % % # % - % # % # % % # % % % % = % @ 3 8.l.l.l.f.j.f.t.>.-.1.>.>.%.>.#.>.#.>.>.1.#.>.#.>.>.>.#.1.1.                                                                                                                                                                                                                                                                                                          ",
"                                                                                                                                                                                                                                                                                        ( 1.1.1.>.%.>.1.-.%.>.#.1.#.1.] E Y E R E Y E T T T Y T K Y ) 0.l.l.j.l.j.l.t.) K T Y E T Y T T E Y E T J T Y T J E T J E Y B Z M M M S B M B S M B M B N S M N M M M M M M M M S M M M M n s h s z s h s f s f s f s f s h s h s f s h r 8 4 8 8 < 8 8 < 4 8 < 8 8 8 4 8 8 8 8 8 4 8 < % - % # % # % & % - % - % # % - % # % # % % # % # % & % # % % - # - - # % @ 3 =.c.j.j.j.f.j.y.1.>.1.%.>.>.#.>.#.>.1.%.>.>.%.>.1.#.>.>.#.3.                                                                                                                                                                                                                                                                                                          ",
"                                                                                                                                                                                                                                                                                        ^ 2.1.>.%.>.#.>.<.>.#.>.%.>.>.{ R T R T Y E Y T T E Y J T K ~ e.l.j.f.j.k.l.u.) K T T Y T E J R T T Y E Y E T Y E Y E Y T T B M B M S M S M S M S M S M M M M B M M S B M N S B M M M N M z s s h s f s f s f s f s f s h s f s f s f h r 8 8 < 8 < 8 4 8 8 < 8 4 < 8 < 8 < 8 < 8 < 8 8 & % # % # % & % # % # % # % # % # % - % # % & % & % # % - % # % - % % - % @ 3 =.l.j.s.c.j.l.t.1.#.>.>.>.1.#.>.#.>.#.>.>.>.>.>.#.>.1.#.>.1.                                                                                                                                                                                                                                                                                                          ",
"                                                                                                                                                                                                                                                                                        ( 1.1.>.>.%.>.>.<.>.1.>.>.>.%.] E Y E Y E Y E Y T J E T K L ) 0.l.l.j.l.j.l.t.) Y T T Y T Y T T Y T T Y T T Y T Y T T T Y T D M B M D M M M M V S M N S M S M M M B M N S B M M M V M M M z s z s f s f s h s h s h s f s f s f s h s f p 8 4 < 8 8 < 8 < 4 8 8 8 8 < 8 8 < 8 < 8 8 < 8 & % # % - % # % - % # % # % - % # % % % % # % # % & % # % # % % % % % % % @ 4 =.c.j.l.j.l.c.a.>.>.>.>.#.>.>.#.#.>.>.1.#.1.#.1.>.>.%.>.>.3.                                                                                                                                                                                                                                                                                                          ",
"                                                                                                                                                                                                                                                                                        ( 2.1.1.#.>.1.>.-.1.#.#.>.1.>.{ E Y E E R T Y E T R T Y L Y ~ e.l.j.f.k.s.l.t.) K T J E T E Y T J R T E J R T J E T Y J E T B v S M M M D N S M M D M B S B M M M M M M M M M M M M S M M z s h s z s f s f s f s f s h s f s f s f s h r 8 8 4 8 8 4 8 8 6 < < 8 < 8 < 8 4 8 8 4 8 < < & % - % # % # % # % # % & % # % # & % # % % # % & % & % # % # % % # % # % @ 1 9.b.l.c.c.l.c.s.1.-.1.>.>.%.>.#.>.#.>.#.>.>.>.#.>.>.>.#.1.1.                                                                                                                                                                                                                                                                                                          ",
"                                                                                                                                                                                                                                                                                        ^ 1.1.>.1.%.>.>.<.>.>.>.%.>.>.] E Y E Y E E Y T T T J T Y L E 0.c.k.j.j.l.l.t.) K E Y E Y T T R E T Y T E T Y E Y T T R T J D B B M D M S B S B S M M S N M M M M D M M M M B M M B M M N l s z s f s h s f s f s f s f s f s z s f s h r 8 4 < 8 8 < 8 4 8 4 8 < 4 8 8 < 8 8 8 < 8 8 8 & % # % # % - % # % & % & % # % & % # % # % - % # % # % % % % - % % % % % @ 3 &.s.u.u.a.s.a.e.1.#.1.>.#.>.>.#.#.>.>.1.>.%.>.1.>.%.>.>.>.1.                                                                                                                                                                                                                                                                                                          ",
"                                                                                                                                                                                                                                            w.9.9.7.9.9.l                               ( 1.1.#.#.%.>.%.-.%.1.>.>.>.1.] T T Y T T Y T Y J E Y T L Y ) e.l.l.s.l.l.l.t.) Y T T T Y L Y T T J E Y T Y T T T Y E T T Y D v S M M S M M M M N D M B S M B M N M M V S M M M M N M M M n s h s h s f s f s h s h s f s f s f s z s f p 8 8 , 8 8 < 8 < 8 8 < 8 8 < 8 8 8 < 8 8 < 8 < & % # % - % # % - % # % # % & % # % # % & % # % & % - # & # % # # # - # % @ 1 K } ~ ) ) ~ ~ } -.>.>.>.>.#.>.>.#.1.#.>.>.#.>.%.>.>.1.#.>.3.                                                                                                                                                                                                                                                                                                          ",
"                                                                                                                                                                                                                                        u s.b.C.b.C.b.c.V                               ( 1.1.1.>.%.#.>.1.>.>.#.1.#.>.] T Y T Y T Y T T T E T T Y L E 0.l.l.l.l.l.l.a.) T T Y T T Y T T Y E Y T J E T R J E T Y J E D B M B S B N D S M S M M S B M M M M M M M B M M N M S B M M z s h s f s f s f s f s f s f s f s h s f s f r 8 4 8 8 8 8 4 8 4 8 4 8 8 8 < < 8 0 < 8 < 0 8 % # % # % # % # % # % & % & % # % - % - % # % # % # % % % - % # - % # % # @ : D T Y Y L L K ~ +.>.>.-.>.#.:.>.%.>.>.#.1.>.>.>.1.%.>.>.1.1.                                                                                                                                                                                                                                                                                                          ",
"                                                                                                                                                                                                                                        0 t.c.l.c.j.c.l.B                               ( 1.1.>.%.%.>.>.<.#.>.>.>.>.1.] T T T T E Y Y T Y T Y T L K ) e.l.j.f.j.k.l.t.) Y T T K T K T Y T T T Y E Y T T R T Y E T T D v B S M S M M M D M B N S M N M M S B M M M B M S B M M M M z s h s z s f s h s f s h s f s h s f s f s h r 8 8 4 8 < 8 < 8 8 < 8 < 8 < 4 8 < 8 8 < 8 < 8 & % - % # % - % # % - % # % & % & % # % # % & % & % & # % # % # # - # - # @ : Z E L T Y Y K ~ -.:.>.>.-.>.:.:.>.#.1.>.>.#.1.#.>.>.#.>.%.1.                                                                                                                                                                                                                                                                                                          ",
"                                                                                                                                                                                                                                        t t.l.j.l.s.l.h.M                               ( 1.1.#.>.%.#.>.-.1.#.1.#.>.>.] E Y T Y T T Y T J E T J Y L ~ 0.l.l.j.l.l.l.a.) K T T Y T Y T T T Y J E T Y T J E T J R T J D M M B M B M S M N S M S B M D M B M N M M S N M M M M M N M z s s h s f s f s f s f s f s f s h s z s f h r 8 4 < 8 8 < 4 8 4 8 < 4 8 8 8 8 < 8 < 0 8 < 8 % # % # % # % # % # % # % - % # % # % # % & % # % & % - % # % - % # % % % % ; D E Y T T Y T E -.>.-.-.-.+.-.>.1.>.>.#.>.>.>.>.#.>.1.#.>.1.                                                                                                                                                                                                                                                                                                          ",
"                                                                                                                                                                                                                                        0 u.c.l.l.s.c.s.N                               ( 1.1.1.#.%.>.1.%.>.>.#.1.>.1.] T T Y T E Y T Y T E T E T K ) e.l.l.f.l.l.l.t.) K T Y L T L Y T Y T T Y T T R T Y T R T T T D v M S M S B M D M B S M M S M M N M M D M B M B M M M B M M z l h s f s f s f s f s h s h s f s f s f s f p 8 8 < 8 8 8 8 8 < 6 8 8 < 8 < 8 < 8 8 < 8 8 < & % # % & % - % - % # % & % # % & % & % & % # % - % # % # % - % # % # & % @ ; Z E T Y T Y Y ~ #.1.>.>.1.>.>.#.#.>.%.1.%.>.%.>.>.>.#.>.>.1.                                                                                                                                                                                                                                                                                                          ",
"                                                                                                                                                                                                                                        t t.l.f.j.f.l.g.M                               ( 1.1.>.%.%.>.#.-.1.#.>.>.>.>.] E Y T J R T Y T Y T Y T K Y ) e.l.j.l.k.l.l.a.) K T T Y T Y T T T E Y T E Y J E T T T J R J D M B M D M S M S M S M F M B N D M M M M M M M M B M M N M M z s h s f s h s f s h s f s f s h s f s f s h r 8 4 8 8 < 8 4 8 4 < < 8 8 4 8 8 < 4 8 8 < 8 8 & % - % # % # % # % - % # % & % # % & % # % - % # % # % & % # % # % & % # @ ; D E T Y T Y Y ~ %.>.>.#.#.%.1.%.3.>.>.>.>.>.>.#.1.>.1.#.>.3.                                                                                                                                                                                                                                                                                                          ",
"                                                                                                                                                                                                                                        0 e.c.j.f.s.f.f.B                               ` 4.3.,.2.1.3.2.%.1.>.1.%.>.1.] T T Y E T J T K K L K K K K T 9.c.a.l.s.k.l.t.) K T T Y T Y T Y T Y T T Y T E Y T Y E Y T T D v M M M M D N B M V S M S M S M M B M B N B S M N D M B M M z s s h s f s f s f s f s h s f s f s f s f h r 8 8 4 8 8 < 8 < 8 4 8 8 8 < 8 < 8 8 < 8 8 < 8 & % # % & % # % # % # % # % # % & % # % & % # % # % & % # % - % # % # % % % & D E Y T Y Y T ~ #.1.>.1.>.1.#.>.%.>.#.>.%.>.>.1.#.>.>.>.1.1.                                                                                                                                                                                                                                                                                                          ",
"                                                                                                                                                                                                                                        t u.x.l.s.s.c.f.M                               c K K A D I Z ! +.1.#.>.>.>.>.] T Y T J R E L ~ | | | | | } | y.M.M.M.M.l.Z.a.) K T Y T T T E T Y E J E T J E T E T T E T J D M B S B S M M S M S M B M D M B M M N S M M M M M M M M M M z s h s f s z s f s h s f s f s f s f s h s f p 8 4 < 8 8 < 4 8 6 8 < 4 8 < 8 4 8 8 8 4 8 < 8 & % # % # % & % - % # % - % & % # % - % # % # % & % # % - % # % # % - % # % & A T T T T Y Y ~ >.>.1.#.1.#.>.1.%.>.1.>.>.#.1.>.>.%.>.#.>.1.                                                                                                                                                                                                                                                                                                          ",
"                                                                                                                                                                                                                                        t u.l.l.l.l.l.f.M                                               ..1.>.>.%.>.1.] E T Y E T Y R >.s.f.a.s.s.s.s.M.V.D.V.D.H.V.n.} L Y T Y T Y T Y T T R T R E Y T Y E Y J R T D v B M S M M D M S M M N S M M M M S B M M B M B M B M M M M z s h s h s f s f s f s z s f s z s f s f s f p 8 < 8 8 < 8 8 4 8 4 8 8 8 < 8 8 < 8 8 < 8 8 8 # % & % - % # % # % # % # % # % & % # % - % - % # % & % # % # % - % # % # % & D E Y J R T Y ` #.%.>.%.#.>.#.#.>.#.>.#.1.>.#.>.>.>.1.#.>.1.                                                                                                                                                                                                                                                                                                          ",
"                                                                                                                                                                                                                                        t s.C.l.l.l.l.l.S                                               ..1.1.>.>.#.>.] T Y T T Y T Y 3.c.M.l.l.l.s.c.B.D.G.D.G.V.H.n.) Y T Y T T T T J E T J E T Y T E J E T E T T B S B M M D N M S V S B S M B S N B M M M M M N S M M V S M N l s z s f s f s h s h s f s f s f s h s f s h r 8 4 < 8 8 < 6 < 8 < 8 < 8 8 < 8 8 4 < 8 < < 8 & % - % # % & % - % - % # % - % # % - % # % # % # % # % # % & % # % & % % % ; D T T Y T Y T ~ >.>.%.#.#.>.>.>.%.>.#.>.>.1.>.%.>.#.>.>.>.3.                                                                                                                                                                                                                                                                                                          ",
"                                                                                                                                                                                                                                        0 a.l.l.k.l.M.f.S                                               o.1.>.#.1.>.1.] T T Y J E Y E 1.l.l.s.i.f.f.x.V.G.V.V.V.H.G.n./ Y T Y T Y E Y E Y T R T T T J R T Y T Y T Y D v B S M M S B M M M S B M S M M M M N B S M B M B M M M M M n s h s h s f s f s f s f s h s f s f s f s f p 8 8 3 8 8 4 8 4 8 4 8 < 8 8 < 4 8 8 8 8 8 4 8 % # % # % # % # % # % # % - % # % # % # % # % # % & % & % # % - % % # % # % ; D ~ Y T T T Y ! :.1.>.%.>.#.>.>.%.>.1.>.#.>.#.>.1.>.%.>.%.1.                                                                                                                                                                                                                                                                                                          ",
"                                                                                                                                                                                                                                        t y.C.l.f.l.l.f.M                                               ..2.1.>.>.#.>.] T Y T E Y T R 3.l.j.f.l.k.l.h.V.D.H.D.V.Z.H.n.) L Y T T Y J E Y T T T Y E Y E T T E T J E T B M M B S B S M S M B M M M M M B N M M M B N M M N S B M M M z s h s f s f s h s f s z s f s f s f s h s f p 8 4 8 8 8 8 < 8 8 < 8 8 < 8 8 8 < 8 < < 8 8 < & % # % - % # % & % # % & % # % - % # % # % & % - % # % & % # % O % % % % @ ; D ~ L Y T Y Y ~ ;.:.:.1.>.>.;.-.%.1.#.>.1.>.>.#.>.>.>.#.>.1.                                                                                                                                                                                                                                                                                                          ",
"                                                                                                                                                                                                                                        y a.C.k.j.l.l.l.M                                               o.1.>.#.>.1.>.] E T Y T T Y T %.l.x.l.f.l.s.l.V.D.G.D.V.G.H.n.} Y T Y T E T Y T E J E T J E Y T Y T Y T Y T D B M M S M M M M N S M S S M S M M B M M M M M M M M M M M N l s h s f s h s f s h s f s f s h s f s f s h r 8 < < 8 < 8 8 < 8 8 < 8 4 8 < 8 < 8 8 4 8 < 8 - # # # # # % % - % # % # % # % # % # % & % # % # % - % # % & @ $ % # % # @ ; D ~ T T Y T Y ~ -.>.:.>.>.>.:.>.1.#.>.>.#.1.#.1.>.%.>.>.>.1.                                                                                                                                                                                                                                                                                                          ",
"                                                                                                                                                                                                                                        t a.c.j.j.l.l.j.B                                               o.1.>.>.1.#.1.] T T J E Y T T 3.l.s.f.s.l.k.x.V.D.G.D.V.H.H.k.) Y T T J R T T T R T R T R T T E T E T E T J D v D M B S M F M S B S M V S B M M M S B M B M B M B M M M M n s h s h s f s h s f s f s f s f s f s f s f p 4 8 < 8 8 < 8 4 8 < 4 8 8 < 8 0 8 < 8 8 < 8 < # # # # # # % = % # % # % # % # % # % # % - % # % & % - % # % - @ % % @ % @ ; D ~ Y T T T Y ~ :.1.>.>.>.1.>.>.>.>.1.>.>.>.>.>.>.>.#.1.%.1.                                                                                                                                                                                                                                                                                                          ",
"                                                                                                                                                                                                                                        t s.l.l.j.l.j.l.M                                               o.1.1.>.#.>.>.] T Y E Y T J Y 3.l.j.f.l.l.s.l.M.H.M.D.V.D.H.n.) Y T E R T T Y J E Y T T T Y T Y J R J R T T D M B M M M M S M M M M M S M M M S M M N M M M S M M S M M M z s h s f s h s f s h s f s h s f s z s h s f p 8 6 < 8 8 8 < 8 < 8 8 < 8 8 < < 8 < 8 < 8 8 8 & % % % % % % % # % # % # - % # # % # % # % # % & % # % - % # = % % @ % # % ; A T T Y T Y E ~ #.>.1.>.>.>.>.#.>.%.>.%.>.#.1.#.>.%.>.>.>.3.                                                                                                                                                                                                                                                                                                          ",
"                                                                                                                                                                                                                                        t a.c.l.k.l.l.l.M                                               o.>.1.>.>.1.>.] E T Y T T Y T 3.l.l.s.f.k.s.l.V.D.G.D.V.V.H.k.) Y T Y T J E E R T T E Y J E T E E Y E T Y T B v B S M D M S B S B S M M M S M V M M M B S M V M M V M M N z s s z s f s f s f s f s f s f s f s f s f s r 4 8 < 8 4 8 < 8 8 8 < 8 < 4 8 8 8 4 8 < 8 < 8 : ; & ; ; & = = - # & # % # # % # % - % # % - % # % - % % # % 8 d r y r r r f D Q T Y T J R ~ :.1.>.>.>.>.>.>.>.>.#.>.>.1.>.>.#.>.>.#.>.1.                  s n n n n c n                                                                                                                                                                                                                                                                           ",
"                                                                                                                                                                                                                                        t a.c.l.j.j.l.j.M                                               o.1.>.>.#.>.1.] T Y T T R T T =.j.l.s.f.l.j.l.M.H.V.D.D.G.H.n.) K T T T R T Y T T Y J E R T Y T T T Y T J T D B M B S M S M M M S N M S B M M M M M M M B M M M M M M M M n s h s f s h s f s h s h s f s h s f s f s f p 8 < 4 8 8 8 8 4 8 < 4 8 8 8 8 < 8 8 8 8 4 8 < < , 8 , 8 < 8 , # % % # - % # % # % # % - % # % # % % % # % & z J L K L J K L Y T Y T Y T Y ~ -.1.>.>.>.1.>.#.>.1.>.>.%.>.#.1.>.1.#.>.1.1.                  8.c.l.a.f.s.c.                                                                                                                                                                                                                                                                          ",
"                                                                                                                                                                                                                                        t a.c.k.j.l.l.l.M                                               ..1.>.>.1.>.>.] T T Y J E Y T >.l.f.l.f.l.s.l.V.D.M.D.V.D.H.k.) Y T E Y T T T J R T T T T Y T Y J E T T R T B Z M M S B M F M M M D M M S M M M M B M N M M M M S M M M M z s h s h s f s h s f s f s z s f s h s f s h r 4 8 8 8 < 8 < 8 < 8 8 8 8 < 8 < 8 8 4 8 < 8 8 8 8 < 8 < 8 4 , - % # % # % # - % # % # % # % # % & % % % % # c E T Y T R T E K T T T T Y T ~ #.>.>.>.>.>.>.>.#.>.%.>.>.#.>.>.#.>.1.#.>.3.                  w.Z.c.l.M.Z.Z.                                                                                                                                                                                                                                                                          ",
"                                                                                                                                                                                                                                        t a.C.j.k.j.l.f.B                                               o.>.1.>.#.>.1.] T Y T E T T T 1.l.s.f.s.l.a.c.M.H.G.D.V.V.H.n.) Y J T T J R E Y E T Y Y E J E T Y T Y T J T D M B M M S M M M S M M S B N M M M M N M S M M M N M B M N M z l s h s f s f s f s f s f s f s f s f s f s p 8 < 3 8 8 8 < 8 8 < 8 < < 8 < 8 4 < < 8 8 < 8 < 8 < 8 8 < 8 , % # % # % # % # % # % # % # % & % # % % # % & v E E T J T Y T T T Y L Y T Y ~ >.>.>.%.1.>.>.#.1.>.>.#.>.>.%.>.>.#.>.>.>.1.                  w.c.l.l.j.l.M.                                                                                                                                                                                                                                                                          ",
"                                                                                                                                                                                                                                        t a.M.f.j.l.l.f.M                                               o.1.>.>.1.#.>.] E T Y T Y J Y 3.l.l.s.l.l.s.l.V.D.V.D.V.H.H.n.) Y T Y E Y T T T Y E T T E Y T T R T E Y T T D v B S B M S B S B S M M S B S B N M B M B M M B M M M B M M z s h s f s h s h s f s z s f s f s f s f s f r < 4 < 8 < 8 8 8 < 8 < 8 8 < 0 8 < 8 8 < 8 < 8 8 0 8 8 < 8 8 , % % % % % % % % % % - % # % - % # % % % % % & c E T Y E T T Y T T T T Y T J ` -.>.>.%.%.1.>.#.>.#.1.>.1.>.>.%.>.1.#.>.%.1.                  w.c.l.k.l.l.l._                                                                                                                                                                                                                                                                         ",
"                                                                                                                                                                                                                                        t a.b.l.l.l.l.c.B                                               o.1.1.>.>.>.1.] T Y J E E Y T 3.l.j.f.f.l.a.l.M.H.Z.V.D.G.Z.n.) Y T E T T Y E T T Y J R T T Y T J E Y T T J D M B M M S M M N M B N B M M M M M S M M M M M S M B N S M M n s h s f s f s f s h s f s h s f s h s f s f y 4 6 4 < 8 < 8 < 8 8 8 < 8 < 8 < 8 < 8 8 8 < 0 < < < 8 4 8 8 > & % & % - % % & % % % # % - % # % & % @ % % & v E T T Y T Y T T Y T Y T T Y ~ >.1.#.>.1.>.>.-.#.>.>.%.>.#.>.>.1.>.#.>.>.1.                  w.b.l.s.k.l.l.^                                                                                                                                                                                                                                                                         ",
"                                                                                                                                                                                                                                        t a.Z.l.l.l.b.l.V                                               ..>.1.>.#.>.>.] T T R T T T Y 1.l.f.s.f.l.j.l.M.H.G.D.V.H.H.n.) Y T Y T Y T J R T T E T Y E T R E T T J R T D v M S M M D M D M S M S S M N D M M B M B S M N M M M M M N l s h s h s f s f s f s f s f s h s f s h s d y 8 3 3 6 < 8 < 7 < < 8 8 < 8 8 8 < 8 < < 4 8 < 8 8 8 < 8 < 8 , % % % % % % % % % - % # % # % # % # % % % % # c E Y T T T T Y T T Y L T T T ~ #.>.%.>.>.1.>.>.>.%.>.>.>.1.#.>.#.>.1.#.>.1.                  w.l.l.l.j.l.M.!                                                                                                                                                                                                                                                                         ",
"                                                                                                                                                                                                                                          t.a.a.u.a.a.f.                                                o.1.>.>.1.#.1.] E Y T T Y T T 1.l.j.f.l.l.s.l.V.D.D.V.D.V.H.k.) Y J E T J R E T T Y T E T Y J E Y T Y E T T D M B M M S M M S B M S B N D M M M M M N M M M B M M M M M M z s z s f s h s h s h s f s h s f s f s f s h y 8 6 , 6 8 > 8 < 8 7 8 < 8 < 8 < 8 8 8 8 8 < 8 8 8 < 8 8 8 8 8 % % % % & % % - % % % # % - % # % - % @ % % & c E T Y T Y L T T Y T T T T Y ~ -.>.-.>.>.>.>.#.1.>.#.1.#.>.1.#.1.>.>.>.1.3.                  w.b.l.k.l.l.l.^                                                                                                                                                                                                                                                                         ",
"                                                                                                                                                                                                                                                                                                        o.1.>.>.>.>.>.] T T Y J E Y T %.l.f.s.f.l.s.l.M.H.V.D.V.H.G.n.) Y T T Y E T T Y E J R J T E Y T T Y E T Y J D v B S M B S V M S N M S M M S B M B M M M B M M M M B M M N c s h s h s f s f s f s h s f s f s z s f s z s y r w r e t y 8 8 < 8 8 8 8 < 4 8 < 4 8 < 8 8 < 4 8 < 0 < 8 < : : : ; : ; : & % # % % # % # % # % % % % % & v E T T T T Y T T T T T Y T J E ` ` ` ` ` } ` { >.>.>.>.>.#.>.>.>.%.>.#.>.1.                  w.c.l.s.l.l.M.(                                                                                                                                                                                                                                                                         ",
"                                                                                                                                                                                                                                                                                                        o.1.>.#.1.#.1.] E T T R T Y T 1.l.j.f.l.l.a.c.V.D.M.H.V.D.H.n.) Y T E Y T T Y T E T E Y E Y T E T J E Y T E B S v B S M M S M S M M B S M M M N M M S M M M M V S M N M M z s h s f s f s f s z s f s f s z s f s h s s s p y r p f f g e 8 8 < < < 8 8 8 < 8 8 < 8 < 8 8 8 8 < 8 8 < 8 3 4 4 4 4 4 4 ; % % % - % # % - % # % @ % % # c E T Y T T Y T Y T Y T T T T T Y E Y T Y T W ` :.#.1.#.1.>.1.#.>.>.#.>.>.1.                  9.l.l.k.j.l.l.!                                                                                                                                                                                                                                                                         ",
"                                                                                                                                                                                                                                                                                                        ..>.1.>.>.>.>.{ E Y R T Y T T 3.j.l.s.f.l.f.l.M.H.G.D.V.V.H.k.) Y T J E T R J E Y T T Y T T T Y E R T T J T D B M M S M S B S M M S N B S V M B M M M M V M S M M M M M M z s z s h s h s z s f s f s z s f s f s f s f s h s f f f f f y 8 < 8 8 8 < < 8 8 8 < 8 8 < 4 8 < 8 8 < 8 8 < < < < < < < 8 > & - # % % & % # % # % % @ @ ; c E T T Y T T E T E T Y T R T T Y T T Y T Y Y ` %.>.>.>.#.>.#.1.#.>.1.#.>.1.                  w.c.l.s.l.l.C.^                                                                                                                                                                                                                                                                         ",
"                                                                                                                                                                                                                                                                                                        o.1.>.#.1.>.1.{ E Y T R E Y T %.l.j.s.f.j.l.l.V.D.V.D.D.G.H.n.) K T Y T Y T E T T Y J E T R J E T T T R T T B b B M M M M N M D M B S M M S M M M B N M S M B M M M B M N n s s h s f s f s f s f s h s f s f s h s f s f s h s h s f f r 8 8 8 < 8 0 8 < 4 8 8 8 4 8 8 < 8 4 8 8 < 8 8 8 8 8 8 < 8 8 = % % # % % # % - % # % % @ % # v E T E T R T Y T Y T E T T Y T Y T T Y T K T ` 1.>.%.>.1.>.>.>.1.#.>.>.1.1.                  w.c.l.l.l.l.l.^                                                                                                                                                                                                                                                                         ",
"                                                                                                                                                                                                                                                                                                        o.>.>.>.>.#.>.] E Y E Y J R T 3.j.j.l.s.l.a.l.B.H.H.V.D.V.H.k.) Y T T E T J R T R T E Y T T E Y T Y J E T T B D M S B S M D M M S M M S M B M B S M M M B M M M M M M M M z s h s f s f s f s f s f s f s f s z s f s f s f s f s s s f r 8 8 4 8 < 8 < 8 8 < 8 < 8 < 8 < 8 8 < < 0 < 8 < 8 < 8 < 8 8 = & % # % % & % # % & % % % @ ; c E Y T J E Y T E T Y T Y E J E R Y Y T T Y T ` #.>.>.%.>.#.1.#.>.>.>.#.>.3.                  9.l.l.s.l.l.C.^                                                                                                                                                                                                                                                                         ",
"                                                                                                                                                                                                                                                                                                        o.1.>.%.>.1.>.] R T Y E R T E 3.l.j.s.f.l.f.l.V.D.G.D.V.H.H.n.) Y J R T Y E T T J R T T R J E T E T E Y T J D v B M S B M M S M N S M N S M M M M M B M M M M V M M M M M z s h s h s f s h s f s f s f s z s f s f s h s f s f f s s f r 8 8 < 8 8 < 8 8 < 8 < 4 8 8 < 8 8 < 8 8 8 < 8 < 8 4 8 8 < 8 > % # % % % & % & % # % @ % @ ; c E T R E Y T J R T E J R T R T T E T Y T Y T ` >.1.>.>.>.1.>.>.>.%.>.#.>.1.                  w.c.l.l.l.j.c.^                                                                                                                                                                                                                                                                         ",
"                                                                                                                                                                                                                                                                                                        o.>.>.>.>.1.#.] E Y Y Y J Y Y >.j.j.f.s.l.l.l.V.D.G.D.V.D.H.k.) Y E T Y E T Y T E T Y T E Y E Y T Y T T Y T D M B M M S M S M D M B S B S B M V M S M M V S M M S M M N M z s s h s f s h s f s z s f s f s f s f s f s z s f s h s r f r 8 4 8 < 8 8 0 < 8 4 8 8 8 < 8 8 < 4 8 < 8 8 8 4 8 8 < 8 < 8 , % & & % % # % # % - % % # @ % v E J E T T Y E T Y T E T T J R T Y E T Y J Y ` >.#.>.%.>.#.>.%.>.>.>.1.>.3.                  w.c.l.s.l.l.M.!                                                                                                                                                                                                                                                                         ",
"                                                                                                                                                                                                                                                                                                        ..1.#.>.#.1.>.{ E E E ~ ~ E E %.l.s.l.f.l.a.c.V.D.G.D.V.V.H.n.) K T T J Y T J R T Y T Y J E T T R J E Y T T D v D M M D M B N M S M M S N M M M B M V S M B M B M B M M M z l h s f s h s f s f s f s h s f s f s h s f s f s f s s s f e 8 8 8 8 4 < 8 < 8 8 < 8 < 8 8 < 8 8 8 8 < 4 8 < 8 < 8 8 8 < > % # % % & % - % # % # @ % % # v E E Y T Y T T E J R T Y E R T T T Y E T Y T ` >.1.>.>.>.>.>.>.>.%.#.>.#.1.                  9.M.l.f.l.l.c.^                                                                                                                                                                                                                                                                         ",
"                                                                                                                                                                                                                                                                                                        o.>.>.1.>.>.>.#.+.+.{ +.{ +.-.e.l.j.f.j.l.f.l.V.D.G.D.D.G.H.k.) Y T R E T R E T T J E T E Y E T T R T T J E B M B M S M M S M D M M F M B S B M M M M M M M M M M N B M M z s s h s f s f s h s f s h s f s h s f s f s f s h s f s r s r 8 < 8 < 8 8 8 < 8 < 8 8 < 8 < 4 8 < 8 < 8 8 8 < 8 8 < < 8 < < < 8 , < , < , < , < < < < = < n E T Y T J R T R T T E Y T J E Y T J Y T K T ` >.%.>.%.>.%.>.#.1.>.>.#.1.1.                  w.c.l.j.l.l.C.^                                                                                                                                                                                                                                                                         ",
"                                                                                                                                                                                                                                                                                                        o.1.>.%.>.#.>.>.>.%.>.>.%.>.:.e.l.f.s.f.l.k.j.V.D.H.V.D.M.H.n.) Y T J E T T Y T Y E Y T Y T Y T J E T R T T D v B S M B N S M M D M M M M M M M F M M B M B N M M M S M M z s h s f s h s f s z s f s f s h s f s f s h s f s f s s s y r 8 < 4 8 < < 8 < 8 8 < 8 4 8 8 8 < 8 8 8 < 8 < 8 < 8 4 8 < 0 8 8 < 8 8 8 < 8 < 8 < < < 8 > t v E Y E T E T J E T Y J E Y E T T E R T T Y T ` >.>.>.>.>.#.>.1.#.>.>.>.>.1.                  w.c.l.s.l.l.l.^                                                                                                                                                                                                                                                                         ",
"                                                                                                                                                                                                                                                                                                        o.>.#.>.>.1.#.1.%.>.%.>.>.%.>.e.l.l.f.j.l.f.l.V.D.G.D.V.H.H.k.) Y T E Y T Y T J E Y T T T T J R E Y T T J Y D M B M S M D M B S M M D S B S V M M M M M M M M B M B M M M z s z s h s f s f s f s h s f s f s f s h s f s f s f s s r s e 8 8 8 8 8 8 4 8 < 4 8 8 < 8 8 < 8 < 0 < 8 4 8 8 0 < 8 8 8 8 < 8 8 < < 8 < 8 < 8 < < 8 < > < b E J E Y J R E Y T E Y T T T R J E T T Y K T ` %.>.%.>.1.>.>.>.>.%.>.#.>.3.                  9.l.l.f.l.l.c.^                                                                                                                                                                                                                                                                         ",
"                                                                                                                                                                                                                                                                                                        ..>.1.>.#.>.>.>.%.>.#.>.#.>.>.e.l.f.j.f.k.s.l.V.D.G.D.V.V.H.n.) K T T Y T J E R T T Y E Y E E T T T R T E T B b M B M S M S M N D M N M S M M M M B M S B M M S M M V M M n s h s f s f s h s f s f s f s h s h s f s f s f s h f s s f r 8 8 < < 8 < 8 < 8 8 8 < 8 < 8 < 0 8 < 8 8 8 < < 8 8 < 8 < 8 0 < 8 < 8 < 8 < 8 8 8 < < 8 < 8 n E E T E Y T T T R T T E Y T E Y T Y T J Y T ` >.>.>.#.>.%.>.%.>.>.>.%.>.1.                  w.c.l.j.l.l.C.^                                                                                                                                                                                                                                                                         ",
"                                                                                                                                                                                                                                                                                                        o.>.>.%.>.1.#.>.%.>.%.>.%.#.:.e.l.f.f.j.l.f.l.V.D.H.V.D.D.H.k.) Y T E T E R T T R T T J E Y T Y T T J E Y T D M D M M B S M M S M M S B M M M M M M N M M M V M M S M M N l s h s h s f s f s f s f s h s f s f s f s f s h s s f s r s e 8 8 < 0 8 8 < 8 < 8 < 8 8 8 < 8 < 8 8 < 8 < 8 8 < 8 < 8 < 8 < 8 < 8 < 8 < 8 < 8 < < < > < 8 b E Y T Y T Y T J E Y T T E J E Y T T E Y T Y ` >.#.>.>.>.#.>.>.#.>.1.>.>.1.                  w.C.l.f.j.l.l.^                                                                                                                                                                                                                                                                         ",
"                                                                                                                                                                                                                                                                                                        o.1.>.>.%.>.>.>.%.>.%.>.>.#.>.e.l.l.s.f.l.l.l.V.D.G.D.V.V.H.n.) Y T Y J E T T Y T E T R T T T E Y E R T T J D B v S M S M B S B M D M S M D M B M M M M M S M M B M B M M z s z s f s h s f s f s h s f s z s f s h s h s f s f s s s y r 8 8 8 < 8 < 8 4 8 < 4 8 < 4 8 8 < 8 8 < 8 8 < < 8 < 0 8 < 8 8 8 4 8 < 8 8 < 8 < 8 < 8 8 < < B E T E T J E Y E Y T E Y T R T T T Y J E K T ` >.>.#.1.#.>.>.1.>.>.%.>.#.4.                  0.C.f.l.f.l.C.!                                                                                                                                                                                                                                                                         ",
"                                                                                                                                                                                                                                                                                                        o.>.%.>.%.>.#.#.>.>.#.>.#.>.>.e.l.f.f.j.k.f.j.V.D.H.V.D.G.H.n.) K E T R T Y E J E Y J E T Y J E Y T T J R T D v B M D M M N S M N S M M N M M M N D M M B M B M N M M N M n s h s h s f s f s h s f s f s f s f s f s f s f s h f s s r r 8 < 8 8 < 4 8 8 < 8 8 8 8 8 < 8 8 < 8 4 8 < 8 0 8 8 < 8 8 4 8 < 8 < 8 < 8 < 8 < 8 < < 8 > 8 v E J Y T Y T T T T J E T T T Y T E Y E Y T Y ` >.>.>.>.>.1.>.>.3.>.1.3.4.4.                  w.c.l.f.j.l.C.^                                                                                                                                                                                                                                                                         ",
"                                                                                                                                                                                                                                                                                                        ..>.#.>.#.>.%.>.1.#.>.1.>.#.>.e.l.l.s.f.l.f.l.V.D.G.D.V.Z.H.k.) Y T T J E T Y E T E Y T Y T E Y T J R T T T B M D M M B S M B S B M S B S B M S M M M M M N M S M B M M M z s h s f s f s f s f s f s h s f s h s h s f s h s s f s s f r 8 8 < 4 8 8 < 8 8 < 8 < < 8 4 8 < 4 8 < 8 8 < 8 < 8 8 < 8 8 < 8 8 < 8 < 8 < 8 < 8 < < < < 8 n E T T T T T T Y Y E Y T R J E T Y T T T K T ` >.#.1.#.>.1.#.                              5 e.C.l.l.l.l.l.^                                                                                                                                                                                                                                                                         ",
"                                                                                                                                                                                                                                                                                                        o.1.%.>.#.>.#.>.%.>.>.#.>.>.>.e.l.f.j.f.k.s.l.V.D.H.V.D.G.H.n.) Y J R T Y T T Y T T E Y T E J E Y E T E Y T D B M M S M D M S M M S M M M S M B M M B M B M M M M M M M N l s h s f s f s h s h s f s f s h s f s f s z s f s f s s r s e 8 < 8 8 8 < 8 < 8 < 8 8 4 8 8 < 8 8 8 8 < 8 8 8 < 8 < 4 8 < 8 0 < 8 < 8 < 8 < 8 < < 8 < > 8 n E Y E Y E Y E J E T Y J E Y T T J E Y J Y T ` >.>.>.>.1.3.>.                 .t.w.w.9.9.9.w.f.l.l.s.l.l.C.^                                                                                                                                                                                                                                                                         ",
"                                                                                                                                                                                                                                                                                                        o.>.#.>.%.>.%.>.>.>.#.1.>.#.>.e.l.f.s.l.l.f.l.V.D.G.D.V.D.G.k.) Y E T T T R T J R T Y T J R T T Y T Y T J E B v B M S M M M B N D M S M M B M N M M N M S M B M B M B M M n s z s h s f s f s f s f s f s f s h s h s f s f s f s s s f r 8 8 < 8 < 8 8 8 4 8 < 8 8 < 8 8 < 8 < 8 < 8 4 8 < 4 8 8 8 8 < 8 8 < 8 < 8 < 8 < 8 < < 8 < 8 v E T T T J E T R T Y T E Y T E Y E Y E T Y T ` >.#.>.#.>.3.>.                +.A.Z.C.c.c.c.c.k.l.f.j.f.l.c.^                                                                                                                                                                                                                                                                         ",
"                                                                                                                                                                                                                                                                                                        o.>.%.>.#.>.%.>.#.1.>.>.#.>.>.e.l.l.s.f.k.j.l.V.D.H.V.D.V.H.n.) L T Y T Y J E Y T J E T E T Y E T E T E Y T D M M D M M S N S M S M V S M S M B M D M M B M M M M S N M N z s h s f s f s f s f s h s f s f s f s f s f s f s f f s r s e 8 < 8 8 < 8 4 8 < 8 8 8 < 8 8 < 8 < 8 8 4 8 < 8 8 8 8 < 8 < 8 < 8 < 8 < 8 < 8 8 < 8 8 < > 0 v E E Y E R T T T T E Y T E T Y T T T T Y K T ` >.>.1.>.1.1.#.                ..C.l.j.h.j.j.j.l.j.k.f.j.l.M.!                                                                                                                                                                                                                                                                         ",
"                                                                                                                                                                                                                                                                                                        ..1.%.>.#.>.%.>.>.#.>.%.>.>.>.e.k.f.j.f.l.f.l.V.D.G.D.V.H.H.k.) Y T E J E T T T R T Y T Y T T T Y T Y J E T B b M M M M M D M M B S M M D M M M M M M M M N S B M M B M M l s h s h s f s h s h s f s f s h s h s f s f s h s s f s f r r 8 8 4 8 8 < 8 8 < 8 < < 0 < 8 < 8 4 8 8 < 8 8 < 8 < 8 < 8 4 8 8 < 8 < 8 8 < 8 < 4 8 < 8 < < M E Y T T T T R J R T J E Y T T R J R T J Y T ` >.#.>.#.>.1.>.                X.c.l.j.a.l.l.l.j.l.j.f.l.l.c.^                                                                                                                                                                                                                                                                         ",
"                                                                                                                                                                                                                                                                                                        o.>.#.>.#.>.#.>.#.>.1.>.>.#.>.e.l.f.s.l.l.s.l.V.D.H.V.D.M.H.n.) Y T Y E Y T Y T T T T R T Y J R T E T R T Y D M B S B S M S B S M M S M M M N B M B M D M M M M M M M M M n s h s f s f s f s f s f s z s f s f s f s h s f s f s f s s e 8 8 < < 8 < 8 < 8 0 < 8 8 < 8 0 8 8 < 8 < 8 8 < 0 8 8 4 8 8 < 8 8 8 < 8 < 8 8 8 8 < 4 8 < 8 B R T T Y T E T E T R T T T Y J E T T R Y Y Y ` >.>.1.>.1.1.>.                X.Z.l.l.k.j.l.f.l.f.l.s.l.l.C.^                                                                                                                                                                                                                                                                         ",
"                                                                                                                                                                                                                                                                                                        o.>.%.>.%.>.%.>.1.%.>.#.>.>.>.e.l.l.s.f.k.l.l.V.D.G.D.V.G.H.k.) Y T J E T T E Y T R J T J E E T T Y J E T J D v B M S M M M M M S V M D M D M M M S N M M M B M M M M N M z s h s f s h s z s f s h s f s f s f s h s f s f s h s s p r r 8 < 8 8 < 8 8 4 8 < 8 < 8 < 8 < < 8 < 8 < 4 8 8 < 8 < 8 < 8 8 < 0 < 8 < 8 8 < 8 8 8 < 8 > 4 b E T T R J E Y T Y T E Y J E Y T J T Y Q Y Y ] >.#.>.%.>.1.#.                X.Z.l.k.j.l.a.l.f.l.l.a.l.l.l.^                                                                                                                                                                                                                                                                         ",
"                                                                                                                                                                                                                                                                                                        o.>.#.>.%.>.#.>.>.>.>.>.%.>.>.e.l.f.j.f.l.s.l.V.D.H.V.D.D.H.n.) K E R T Y T J E T E Y E R T Y T Y E E Y T T D B M S M B S B S M M S M M M M M S M B M B M M S M M M M M M z s z s f s f s f s h s f s f s f s h s f s f s h s f f s s r r 8 4 8 < 8 < 8 < 8 8 8 < 8 8 8 < 8 8 8 4 8 8 < 8 < 8 8 8 < 8 < 8 < 8 8 8 < 8 < 8 < 8 < 8 8 8 B Y T Y E T R T J E Y J E Y T T Y R Y Y Y Y ! ` >.>.>.>.>.1.>.                  M.f.j.k.j.l.j.l.f.l.l.j.l.C.!                                                                                                                                                                                                                                                                         ",
"                                                                                                                                                                                                                                                                                                        ..1.%.>.%.>.%.>.%.>.#.>.>.#.>.e.l.f.s.l.k.f.l.V.D.G.D.V.V.H.k.) Y T T Y E Y E Y T Y T T T T T Y E T T T Y T B Z M B M S M S V S B M M D M N B M M M M M M M M N M B M M N c s h s h s h s f s f s f s h s f s f s f s f s f s s h s f s r 8 8 r y e 8 y 8 8 < 8 8 < < 8 8 < 4 8 8 8 < 8 8 8 < 8 < 8 0 8 8 8 8 < 8 7 < 8 8 8 < 8 < 8 < B R T T Y T E T R T E Y T J R E ~ ` ` } ` ` ` | >.>.#.1.>.1.>.                  C.k.l.j.l.f.l.l.l.l.f.l.l.c.^                                                                                                                                                                                                                                                                         ",
"                                                                                                                                                                                                                                                                                                        o.>.#.>.#.>.%.>.>.#.1.>.>.#.>.e.l.l.s.f.l.j.l.V.D.H.V.D.G.H.n.) Y T J E T Y T T Y T E Y J R T T J R T J E T B B M M S B M M S M S V S M S M S M B N M M M M B M S M N M M z s h s f s f s f s z s f s f s z s f s h s z s f s z s f s f h z h s s f s s i 9 < 8 4 8 8 4 8 8 8 < 8 < 8 8 4 8 8 4 8 < 8 < 8 < < 8 8 8 < 8 > 8 4 8 8 < 8 B E T E J E T J E Y T T T T Y ~ -.>.>.-.>.-.>.>.%.%.>.#.>.1.#.                  C.f.l.k.l.s.a.f.f.l.s.l.l.M.^                                                                                                                                                                                                                                                                         ",
"                                                                                                                                                                                                                                                                                                        o.1.#.>.%.>.%.>.#.1.>.#.1.>.>.e.l.f.j.f.l.f.l.V.D.G.D.V.D.H.n.) K E Y T T J E Y T J E T R T J R E T R T Y T B Z M B M S M D M M M S M M B M N M M M B M D M M M V M B M M z s h s f s f s h s f s z s z s f s z s f s f s z s f s f s f s s f s f s h s r 9 8 < 8 < 8 < 8 < 8 8 < 8 4 8 8 < 8 8 < 8 < 8 4 8 8 < < 8 > 8 < 8 8 < 8 < < B R T Y E Y E R T T R J R J T ~ +.>.>.1.>.>.>.1.%.>.1.>.1.1.>.                  M.l.l.f.l.f.f.l.l.f.l.j.l.c.^                                                                                                                                                                                                                                                                         ",
"                                                                                                                                                                                                                                                                                                        X.>.>.#.>.#.>.#.>.>.#.1.>.#.>.e.l.l.f.j.k.f.l.M.H.D.V.D.G.Z.n.) Y T T E Y E Y T E E Y T T E R T T T T T J E D B M M S B M N M S M M M S N S B M M M M M M N M M M M S M N z s s h s f s f s f s f s f s f s f s f s f s f s f s f s f s f s f s z s f s r 9 < 8 < 8 8 < 8 8 8 < 8 8 8 < 8 < 8 < 8 8 8 8 < 8 8 8 8 8 < 8 8 8 < < 8 8 8 M T Y T T T T T J E T T T Y Y ~ >.>.1.>.1.>.#.>.1.>.#.>.>.1.#.                  Z.l.k.l.f.l.l.f.l.f.k.f.l.C.^                                                                                                                                                                                                                                                                         ",
"                                                                                                                                                                                                                                                                                                        X.1.1.>.>.>.1.>.1.>.>.>.1.>.>.e.l.s.l.f.j.f.l.S.V.D.V.D.V.H.n.) K E T Y T T T R J Y T T Y T J E Y E Y E Y T B v D M M M S S B M F M D M B M M M M D M N M S B M M M M M M z s h s f s h s f s z s f s f s f s z s f s h s f s f s f s h s h s f s f s s r 9 8 8 < 8 4 8 < 4 8 < 8 4 8 8 < 8 4 8 8 8 < 8 < 8 < < 8 < 8 8 < 4 8 8 8 < < B T T T Y T J E T Y J Y T Y Y ' +.1.>.#.>.1.>.1.>.>.1.>.1.>.>.                  D.j.f.l.f.l.l.l.l.l.s.l.l.l.^                                                                                                                                                                                                                                                                         ",
"                                                                                                                                                                                                                                                                                                        X.3.>.#.>.#.>.#.>.#.1.>.1.>.#.e.l.f.f.l.f.j.l.M.H.V.D.V.H.H.k.) Y T T J R T Y T E T E J E Y E Y T T J R T T D M v B S M B M S M M S M M S M M B M M M B M M M M D M B M M z l h s h s f s f s f s f s h s f s f s f s f s f s f s h s f s f s f s f f s i 9 8 < 8 8 < 8 8 < 8 8 < 8 < 8 < 8 8 < 8 4 < 8 0 < 8 4 8 < 8 8 4 8 8 < < 7 8 M E T T J E E Y J E R J E Y Y / >.1.>.1.>.1.#.>.#.>.#.>.>.1.#.                  Z.l.f.f.l.s.l.s.l.l.f.j.l.C.^                                                                                                                                                                                                                                                                         ",
"                                                                                                                                                                                                                                                                                                        [ 1.>.>.1.>.1.>.>.1.#.1.>.>.>.e.l.f.j.l.s.l.l.V.D.G.D.V.D.G.n.) Y T R T T Y J E Y T Y T Y T T T T R T T J Y D M B S M S M M M D M M M D M S M N M M S M M M B M M M M N M z s s z s f s f s f s f s h s f s h s f s h s h s f s h s f s f s f s z s f s r 9 8 < < 8 < 8 < 8 8 < 8 8 < 8 8 < 8 < 8 < 8 < 8 8 < 4 8 8 < < > , < < > > < M R T Y T T T R R Y T R T T Y ~ >.1.#.>.%.>.>.1.>.1.>.%.>.1.>.                  Z.k.j.f.j.f.l.f.j.f.j.l.l.c.^                                                                                                                                                                                                                                                                         ",
"                                                                                                                                                                                                                                                                                                        [ 2.1.#.>.%.>.#.>.>.>.1.>.>.#.e.l.f.f.l.f.l.l.M.H.Z.V.D.M.H.n.) J T T Y E T E T Y T T E T Y E Y J E Y E T T D v B M M M D M S N S B S N M M B M S B M B M N S M V M M M M z s h s f s f s h s h s f s f s f s f s f s f s f s h s f s f s h s f s f s s p 9 8 < 8 < 8 4 8 8 4 8 < 8 8 < 4 8 < 8 8 < 8 8 < 8 8 3 8 < 8 8 7 8 6 < 8 8 < M E L T T T Y J E E R T R Y W ` %.>.1.>.1.>.1.>.%.>.>.>.#.2.#.                  b.l.j.s.l.f.j.l.l.s.l.f.l.M.^                                                                                                                                                                                                                                                                         ",
"                                                                                                                                                                                                                                                                                                        ' >.1.>.#.>.>.>.%.>.#.1.1.>.>.e.l.f.j.k.s.l.l.M.D.V.D.V.H.H.k.) Y T Y T Y T Y T T Y J R T T J E R T T Y T J D M M S B S M M M M M M M S B S M M M M N M M M B M M M B M M n n c z z n s z s s f s h s f s f s z s h s h s f s f s f s h s f s z s f h s r 9 y r y r r r 8 8 8 8 8 0 < 8 8 8 8 < 4 8 < 4 8 8 < 4 8 8 < y z n z n z c n D T T T Y T R ! ` ` } ` ` ] ] o.>.%.>.%.>.1.#.>.>.#.>.%.>.1.>.                3.C.l.j.l.f.l.l.l.l.f.j.l.l.c.^                                                                                                                                                                                                                                                                         ",
"                                                                                                                                                                                                                                                                                                        [ 1.>.>.>.#.>.1.>.>.1.>.>.>.#.e.l.f.l.l.s.j.l.V.H.D.V.D.V.H.n.) Y T E J E T J R J E T T T R E T Y T Y T T Y D M B M M M S V S B S B M S M M M B M M B S B M M S M N M S M S M M M M M n n s s s f s f s h s f s f s f s f s z s f s h s f s f s f s f s s s s f s h f s 9 9 8 < 8 < 8 8 < < 0 8 8 8 8 8 < 8 8 4 8 8 < j P T T E E Y J E T T Y J T R ( -.:.:.-.:.#.-.1.%.>.>.>.>.1.>.1.>.>.1.>.>.#.1.e.l.l.l.j.l.j.c.l.l.l.l.l.j.f.s.f.j.l.a.l.l.C.!                                                                                                                                                                                                                                                                         ",
"                                                                                                                                                                                                                                                                                                        [ 1.>.#.>.1.#.>.#.#.>.1.1.>.>.e.l.f.j.l.f.j.l.M.G.D.V.D.G.H.k.) Y T T Y T R T T R T Y T Y T Y T T J E Y J E B b M D M D M S M M N S M V S B M N M S M M M M M V M B M B N B M S M M M M n s s f s h s f s f s h s f s f s f s f s h s f s f s f s z s f s f h s h s s s p 9 < 8 8 < 0 < 8 8 < < < 8 < 8 8 < 8 4 8 8 < z T T T J T T T T Y T E T T T E +.:.>.>.>.>.>.#.>.#.>.#.1.>.#.>.1.%.>.#.>.>.>.t.c.l.l.l.l.l.j.l.f.l.f.j.l.l.j.l.l.f.l.s.l.M.^                                                                                                                                                                                                                                                                         ",
"                                                                                                                                                                                                                                                                                                        ' 3.1.>.#.>.>.>.1.>.>.1.>.>.#.e.l.f.f.k.j.f.l.M.D.V.D.V.D.H.n.) K T T E Y T T R T T T Y E J E Y T R T T E T D B M M M S M B M D M S M S M M S M M M V M M M M M M S M M M S M M M n n M M z a f s f s z s f s f s h s f s h s f s f s f s h s h s f s f s f s f s f f s 9 7 8 4 8 8 < 8 8 < 8 8 8 < 8 4 8 8 8 8 8 < < z J T T T Y T K J E T T T T Y E +.>.>.:.-.#.1.>.>.1.>.>.1.1.>.1.>.>.>.>.#.>.1.e.l.j.l.s.l.s.j.l.l.s.l.l.f.j.l.f.j.l.s.l.l.c.^                                                                                                                                                                                                                                                                         ",
"                                                                                                                                                                                                                                                                                                        [ 2.>.>.>.%.>.#.>.%.>.>.1.>.>.e.l.l.s.l.j.f.l.M.H.D.V.D.G.H.k.) Y T Y T J E Y T T Y T J E R T T Y T E Y T Y B Z M M S M N S M M M D M M D M B M M M M B M V S B M V M B M M V M S S S m M l s s h s f s f s z s f s f s h s f s h s f s f s f s f s f s f s z s f s s p r 9 8 8 < 8 8 < 4 8 < 4 8 8 8 8 < < < 4 8 8 8 n Y T Y Y E Y E T T T Y J T T E -.>.>.>.>.>.>.#.>.#.>.#.1.>.#.>.#.>.%.>.1.#.>.e.f.f.l.s.l.s.l.s.l.l.f.j.l.f.l.l.f.l.l.l.l.C.^                                                                                                                                                                                                                                                                         ",
"                                                                                                                                                                                                                                                                                                        ..>.1.#.>.>.#.1.>.>.#.1.>.%.>.e.l.f.l.l.s.j.l.V.G.Z.V.D.G.H.n.) Y T E T R T T J R T E R T T Y E J E Y T J E D B B M B S B M S B M N S M N M M M M B S M M M M M M M M S N M M M M M M S m l s f s f s f s f s f s f s f s f s f s f s h s f s f s h s f s f s f s z f s 9 8 8 < 8 < 8 8 8 8 8 8 < < 8 < 8 8 8 < 8 8 < z T R T Y E R Y T Y T T T Y T E +.:.+.>.-.>.1.>.>.1.>.>.1.>.1.>.1.>.#.>.#.>.>.e.l.j.f.a.l.s.l.j.f.j.l.f.j.l.s.l.j.l.s.l.l.l.^                                                                                                                                                                                                                                                                         ",
"                                                                                                                                                                                                                                                                                                        X.1.>.>.#.1.>.>.#.1.>.1.>.>.#.e.l.l.f.j.l.l.l.M.H.V.D.V.D.H.k.) Y T Y J E Y T R T T Y T Y E T T R T T R T T D v M M M M S M M S M S M B S B M N S M M M B M B M B S B M M M M M M B M M M z s f s f s h s f s f s h s f s f s h s h s f s f s h s f s h s f s f s s f p i 9 < 8 < 8 < 8 8 < < 8 8 4 8 8 < 8 < 4 8 > 8 n Y E R T R E T T T J T T T Y E { >.>.>.>.>.>.%.>.#.1.#.>.1.#.>.>.%.>.>.>.%.>.e.f.l.l.s.f.s.k.f.j.f.l.j.a.l.l.j.f.k.s.l.l.c.^                                                                                                                                                                                                                                                                         ",
"                                                                                                                                                                                                                                                                                                        o.1.>.1.>.#.>.#.>.>.%.>.1.>.>.e.l.f.f.l.a.j.l.M.H.V.D.V.H.G.n.) K T E T Y E T T J E E T T J R T T J E T J T D M b S B S B N D M B M M S M M S M M B M M N M M M M M N M M M B M M B M M m z s s f s h s f s f s f s h s f s h s f s f s f s z s f s f s f s h s f s h s r 9 8 4 8 8 8 < 4 8 8 4 8 8 < 8 < 4 8 8 8 < 8 z T Y E Y E R R J R T T Y T J ~ +.>.+.-.-.+.>.#.>.>.>.>.1.>.>.1.>.>.%.>.%.>.1.e.l.f.f.l.k.f.j.j.l.l.s.l.l.j.f.j.f.j.l.l.l.C.^                                                                                                                                                                                                                                                                         ",
"                                                                                                                                                                                                                                                                                                        ..3.>.#.>.>.>.1.#.>.#.1.>.#.1.e.l.l.s.l.j.l.l.M.H.G.D.V.D.H.k.) Y T Y E T Y J R E Y T R T E T Y E R T Y E T B v B M M M S M M S M S V M D N M B M M V M M M D N M M B M M M S M M M M M n s s s h s f s z s f s h s f s f s f s h s f s f s f s f s h s z s f s f s f s p p d p r d r p r p r p r r p r p p r y r y r M T T Y J E J E T T T T T T Y T ~ ~ ~ / ` ~ / | #.1.1.#.>.%.>.%.%.1.>.>.>.#.1.t.l.l.k.l.j.l.f.l.s.l.f.l.f.l.j.f.l.l.s.l.j.C.^                                                                                                                                                                                                                                                                         ",
"                                                                                                                                                                                                                                                                                                        o.1.>.>.1.%.>.>.>.#.>.%.1.#.>.e.l.f.f.l.j.f.l.M.H.V.D.V.G.H.n.) Y T J E Y T E T T T Y J E Y T J E T Y T T J D M D M S M M S B N M M S M M M M M M M M M M M M M M M M M M B M M M M m M n s s s f s f s f s h s f s f s h s f s f s f s z s f s h s f s f s f s f s f s z s f s f s f s s f s s f s p f p s f d r d p n T J E Y E E Y T Y T Y J E T Y T T T T T L Y ) +.1.>.1.>.>.>.1.1.#.>.%.>.>.>.e.l.l.j.k.f.j.l.s.l.a.l.s.l.j.f.j.l.f.l.l.f.l.(                                                                                                                                                                                                                                                                         ",
"                                                                                                                                                                                                                                                                                                        o.3.>.>.#.>.>.#.1.#.>.%.>.#.>.e.l.l.s.f.k.j.l.V.H.M.D.D.V.H.n.) Y T T T E T Y T R T E E Y T E Y T T J R T T D v B M M D N M S M S B M D M S B M M M M S M M M M B S M B M N M M M n M n M s s s f s h s f s f s f s f s f s f s f s f s f s h s f s z s f s f s z s h s f s f s f s h f h s f h s z f s h z s y d y d m T E T T T E T T T E T R T Y T T Y Y T Y T Y / >.1.1.#.>.#.>.1.%.>.1.>.#.#.>.t.l.j.l.l.j.k.l.l.l.l.j.l.f.l.l.l.j.l.j.l.l.c.!                                                                                                                                                                                                                                                                         ",
"                                                                                                                                                                                                                                                                                                        ..3.1.>.>.#.>.>.>.#.>.%.>.#.>.e.l.f.l.j.j.l.l.M.H.G.V.D.V.H.k.) Y J R T Y T T T J R T Y T T J E Y T R T T Y D M M D M M S B M S M S M S M M M V S B M B M B M M M M M M S M B M S S n S n l s f s h s f s z s f s h s f s f s h s f s h s f s f s f s f s h s h s f s f s f s h s z s s f s f s f s h s f s f d p p d M Y T Y E Y T Y E Y J E T T E J E T T Y T K T ~ -.1.1.>.>.1.#.>.%.>.>.>.>.#.>.t.j.k.l.k.l.l.s.f.j.f.l.f.j.l.s.l.a.l.f.l.l.l.!                                                                                                                                                                                                                                                                         ",
"                                                                                                                                                                                                                                                                                                        o.1.>.#.>.1.>.#.>.%.>.%.1.#.>.e.l.f.f.l.s.l.l.M.H.V.D.V.H.H.n.) Y T T Y T J R T R T J E T R T T Y T T T J T D v M M S M M S B M B S V M D N M M M M N M M N M M F M B N M M M M M n S n M l s s f s f s f s f s f s z s f s z s f s f s f s h s f s h s f s f s f s h s f s h s f s f s f s h s f s f s f s f s h s s M Y T T T T E T J E R T Y J R R T Y J E T T K ) %.1.>.%.>.>.#.#.%.>.%.>.#.>.>.t.l.l.j.l.k.j.l.l.l.l.j.l.f.j.l.l.l.l.j.l.l.l.!                                                                                                                                                                                                                                                                         ",
"                                                                                                                                                                                                                                                                                                        o.3.>.1.>.#.>.>.>.#.>.#.1.>.#.e.l.l.s.l.k.s.l.M.H.V.D.V.V.H.k.) Y T T J E Y T T J E Y T J E Y T E Y E Y E T B B M B M D M M S N M M S M M S M B M S B M S M B M M M M M M M V M S M S M N z s f s f s f s f s h s f s f s f s f s h s f s f s f s z s f s h s f s z s f s f s f s f s f s f s f s h s f s h s d p s d M W E Y J R T E Y T T T R E T Y T E T Y T K T ~ <.1.1.>.#.>.1.#.%.>.1.>.>.#.1.e.l.k.l.k.j.l.s.f.j.f.l.s.l.f.l.l.l.l.l.l.c.Z.!                                                                                                                                                                                                                                                                         ",
"                                                                                                                                                                                                                                                                                                        ..3.>.>.#.>.>.>.>.#.1.#.1.#.>.e.l.f.f.j.l.j.l.V.H.G.D.V.H.H.n.) K T E Y E T Y E Y T E T Y T T Y J E T J T T D v B S M M D N B S M S M S M B M M B M M M B M M S B M B M B M M M M B M M n z s s h s h s h s f s f s h s f s f s f s f s f s z s f s f s f s f s h s f s h s f s h s h s f s f s z s f s z s f s s p p D Y T E T E T T T E Y T J R T T Y J Y T Y L Y / +.>.>.>.>.#.>.%.%.%.#.#.%.>.#.e.l.l.j.l.f.l.l.l.l.l.s.l.f.j.l.c.Z.c.Z.C.b.Z._                                                                                                                                                                                                                                                                         ",
"                                                                                                                                                                                                                                                                                                        o.1.1.>.1.>.#.>.1.#.>.%.>.#.>.e.l.l.f.j.f.j.l.M.H.M.D.V.D.M.n.) T Y T T Y T T T T Y T Y E T Y E E Y T R T Y D M B M M S M S M M D M B M S M M N S M M N M M B M M M S N M S B M M B M N M z s s f s f s f s f s h s f s f s h s f s f s h s f s f s f s h s h s f s f s f s h s f s f s h s f s f s f s f s s a s s p D W T Y T Y T R J Y E T E T J T J E E E T E Q ` >.1.>.>.>.>.#.*.8.1.1.1.1.1.1.t.l.j.f.l.j.f.j.l.s.l.l.a.l.l.a.w.w.w.w.w.w.w.U                                                                                                                                                                                                                                                                         ",
"                                                                                                                                                                                                                                                                                                        o.3.>.#.>.>.>.#.>.#.>.%.1.#.>.e.l.f.s.l.j.f.l.M.H.V.D.V.G.H.l.) Y J R T J E Y T Y E T T T R J E T Y T T J T T Y T Y T T T Y V M M M S N B M D M B M M M D M M M M V M M B M M M M M M S n z s s f s h s f s f s f s f s h s f s z s f s h s f s f s z s f s f s f s f s f s f s f s f s f s h s f s z s f s f r s s s D Y Y E T E J R T E T Y T Y Y E -.-.+.| -.+.-.-.%.>.>.-.>.%.>.6.s.a.f.s.a.s.a.f.f.l.l.s.l.l.j.l.l.l.s.l.l.l.=.                                                                                                                                                                                                                                                                                        ",
"                                                                                                                                                                                                                                                                                                        ..3.1.>.>.#.>.>.1.#.>.%.>.>.#.e.l.l.f.f.j.l.l.M.H.G.D.V.D.H.n.) Y T T Y E T T Y T J R T J E T Y T T T Y E T Y T T T T Y T K F M S B M S M M N M M N B M M M N M S M B M M M N M B M B M N s s f s f s f s f s h s f s f s f s f s f s f s f s f s f s f s f s h s f s f s h s f s h s f s f s f s f s f s f s s r s p v T T Y T R T T T Y T J E T T E -.:.>.:.>.>.>.>.1.>.>.>.>.>.>.0.l.l.l.l.l.l.l.f.j.l.l.f.j.f.l.f.j.l.l.l.l.c.&.                                                                                                                                                                                                                                                                                        ",
"                                                                                                                                                                                                                                                                                                        o.1.>.>.#.>.>.>.>.#.1.#.1.#.>.e.l.f.s.l.j.l.l.M.H.V.D.V.H.G.k.) Y T T T T Y J E E T T R T Y T T T Y T E T Y T E Y J R T Y L D B M N S B S B M B M M S M M M M M M M M M S M B M M B M M n z s s h s f s h s h s f s h s f s h s f s f s z s f s h s h s f s h s f s f s f s f s z s f s h s f s h s f s f s f f s s s M L T E T T Y E J E E R T Y T E | >.>.-.>.1.1.1.%.>.-.>.>.%.>.6.s.f.l.f.f.f.l.l.f.s.l.s.l.l.j.a.l.l.s.l.l.l.&.                                                                                                                                                                                                                                                                                        ",
"                                                                                                                                                                                                                                                                                                        o.1.1.>.>.%.>.#.1.#.>.%.>.#.1.e.l.l.f.l.j.s.l.V.H.V.D.V.V.H.n.) K T R J R T E Y T Y T T T T Y E Y T Y J T T T Y T T T Y T T B M S M M M M N S M M M B M N D M M M B S B N M M M M B S M N s s f s f s h s f s f s z s f s h s f s f s f s f s h s f s f s z s f s f s h s f s h s f s f s f s f s z s f s z s d d f f B Y Y T Y E T Y E Y T T T E J E -.>.%.>.>.%.>.1.>.1.>.>.>.>.>.e.h.s.f.j.f.l.f.j.l.f.j.l.l.f.l.l.l.l.f.j.l.c.&.                                                                                                                                                                                                                                                                                        ",
"                                                                                                                                                                                                                                                                                                        o.1.>.#.>.>.#.>.>.>.>.1.>.#.>.e.l.f.s.l.l.j.l.M.H.M.D.V.H.H.k.) Y T E T T T Y T T J R T Y T T T J E T E Y T T T T T T Y T T D M N D S M S M M B M M M S M M M M M M N M B M S B M M M M n z s s s s z s s f s f s f s f s f s h s h s f s h s f s f s z s f s f s h s f s f s f s h s h s z s h s f s h s f s f p d s b Y E Y T Y T T T T Y E Y T Y E +.>.1.>.>.+.1.#.%.>.>.>.>.#.>.q.j.f.f.f.s.f.l.f.s.l.a.l.j.l.f.s.l.l.s.l.l.b.&.                                                                                                                                                                                                                                                                                        ",
"                                                                                                                                                                                                                                                                                                        X.3.>.>.>.>.>.>.>.1.>.#.>.>.1.e.j.l.f.j.f.j.l.V.H.V.D.V.D.H.n.) Y T Y J R T J E R T T Y T J R T R T Y T T T T Y T J T T T L V M S M M D M B M M M B M M B M M M M B M M M B M M M M N S M l l s s s s s s s f s h s f s h s f s f s f s f s f s h s f s f s f s f s h s f s h s f s f s f s f s f s f s f s f f s s p B W T T E T E Y E J E T J E Y E -.%.#.>.>.%.1.>.1.>.-.-.1.1.>.0.f.j.l.s.l.l.s.l.l.f.j.f.f.j.l.l.j.l.f.j.l.l.&.                                                                                                                                                                                                                                                                                        ",
"                                                                                                                                                                                                                                                                                                        +.4.,.>.>.,.3.>.>.1.>.>.%.>.>.e.l.f.f.j.k.f.l.M.H.V.D.V.G.H.k.) Y J E E Y T R T T Y T E T R T T T Y T J Y T J T Y T T Y T T B M B S M M N S M B N S B M N M B N M M B M S M M M N M M M M z l s s s s s s f s z s f s z s f s f s h s h s h s f s f s f s f s h s f s f s f s f s f s z s f s f s z s f s h s d p l d M W T Y T Y E T T R T R T R T E +.1.1.>.#.1.#.>.#.>.%.>.>.#.1.r.f.f.f.l.f.j.f.l.j.f.l.l.l.f.j.f.l.l.s.l.l.c.&.                                                                                                                                                                                                                                                                                        ",
"                                                                                                                                                                                                                                                                                                        C K H K H K H / #.1.>.#.>.#.1.e.k.s.l.f.j.j.l.M.H.G.D.V.D.H.n.) Y T T Y T T T J E T J Y T J E Y J E T T E Y E T T J E Y T Y D M M M D M D M M M B M M M M M S B M M N B M B N B M S M N n c l l s s s l s f s f s h s f s f s f s f s f s f s z s f s h s f s f s h s f s h s h s f s f s f s z s f s h s f s p s p p S W T E T T J R T T T Y T J Y E -.1.#.>.>.>.1.>.%.>.>.>.1.>.>.0.l.j.f.j.f.l.s.l.l.j.l.j.f.j.f.l.l.l.f.j.l.Z.&.                                                                                                                                                                                                                                                                                        ",
"                                                                                                                                                                                                                                                                                                                      y -.1.>.>.1.>.>.e.j.f.f.j.l.l.l.M.H.M.D.V.H.G.k.) T Y T T T Y T R T Y E T E Y T E T Y E Y T T T R T R T Y T J D M M M N M S M V S M M N M M M M M M D M M M M M S M N M M S N M M M M M N n h s h s f s f s f s h s f s f s h s f s f s f s h s f s f s f s f s f s h s f s z s f s f s f s z s s s p p D Y T Y T R E T Y J R T E E Y E +.>.%.>.#.1.#.1.>.>.#.>.>.#.>.r.f.f.l.h.j.f.c.f.s.l.f.l.l.l.l.j.f.l.j.f.l.l.&.                                                                                                                                                                                                                                                                                        ",
"                                                                                                                                                                                                                                                                                                                      8 #.1.>.#.>.#.1.e.j.f.l.l.a.j.l.M.H.G.D.V.V.H.l.) K T J R T E Y J E T Y T Y T T Y T T T T E Y T Y T J T R T T B M M S B S M M M M M M B S M B N M M M M M D M M B M M M N M S M N M M S N n h s f s f s f s h s f s z s h s f s f s f s h s f s h s f s h s f s f s f s f s f s f s h s z s f s s s p s D Y T T T Y T T E Y E T Y T T E -.1.#.>.>.1.>.>.#.>.>.#.1.>.1.5.l.s.l.s.f.l.s.l.l.f.j.f.a.l.f.l.j.l.f.j.l.b.&.                                                                                                                                                                                                                                                                                        ",
"                                                                                                                                                                                                                                                                                                                      8 -.1.>.1.#.>.>.e.k.f.f.j.l.f.l.M.H.V.D.V.H.H.k.} Y T E Y J E T R T T Y T E T Y E T R J R T J R J E T T Y T J D M B M M B S B M M M M M M M M M M M M N M M M M M N M M M M M n S S M M N S f s z s f s h s f s h s f s f s f s f s f s f s f s f s h s f s f s h s f s h s f s f s f s f s f s r s s s Z Y T Y T E Y J R T T J T Y T E +.>.1.>.#.>.%.1.>.#.>.>.>.#.>.e.f.l.f.l.f.l.s.l.j.f.l.j.f.j.l.s.l.l.s.l.l.c.&.                                                                                                                                                                                                                                                                                        ",
"                                                                                                                                                                                                                                                                                                                      e +.1.>.#.>.>.1.e.j.f.f.f.j.j.l.V.H.V.D.V.D.H.n.) K T T T R T T Y T E J E Y T J Y T T T T Y T E T R J E Y E T B M M B M M B M M D M M M M M M B S B M M B M M V M M M D M B S M S M B S M n s h s f s f s f s f s f s f s f s f s z s f s f s z s f s f s f s z s f s f s f s h s h s f s f s f f s r p M L T E Y J E R T T Y E T R J E #.>.%.>.>.1.>.>.#.>.>.#.1.>.1.5.f.j.f.j.f.l.f.j.f.l.j.l.l.f.j.l.f.l.l.a.l.c.&.                                                                                                                                                                                                                                                                                        ",
"                                                                                                                                                                                                                                                                                                                      t #.1.>.>.1.#.>.e.k.f.j.l.k.j.l.M.H.G.D.V.V.H.k.) Y T R J T R T T Y T Y T E Y E T J R T R T T Y T E Y T Y T Y B B M B B M B M M M M B M D N M M M N B S M M M M M D M M B M B M B b M B M M f s f s f s h s h s f s z s f s f s f s f s f s f s f s f s f s h s f s f s z s f s f s f s f s z s f f s f B Y T Y T E Y T T E T Y T T Y E -.1.#.>.>.#.1.1.>.>.#.>.>.#.>.e.f.l.l.l.j.l.j.l.s.l.l.s.l.l.f.l.j.l.s.l.l.b.&.                                                                                                                                                                                                                                                                                        ",
"                                                                                                                                                                                                                                                                                                                      8 >.>.>.#.>.>.1.e.j.f.f.s.l.s.l.V.H.M.D.V.D.H.n.) Y J E R T T J E T Y E Y J E T R T T T J E R T Y T J E Y E T B M B v S B M D M M M S N M M B M M M M M M M M M M M B M M M B v S M b M M M s f s f s f s f s f s h s f s f s f s h s f s h s f s h s f s h s f s f s h s f s f s f s f s f s f p d d s B Y T T T Y T T Y J E T R J Y E +.1.%.>.>.1.#.>.#.>.>.>.%.>.>.e.s.l.j.l.f.l.f.l.l.l.f.k.s.l.j.l.f.l.s.l.l.l.&.                                                                                                                                                                                                                                                                                        ",
"                                                                                                                                                                                                                                                                                                                      e -.1.1.>.%.>.>.e.l.f.f.l.j.l.l.M.H.V.D.V.G.Z.n.) Y T T T Y E Y T R J T T E Y T T R J R E T T E J E Y T Y T J D M M B B M b M M M B M M B M M S V S B M N B M B S B M B b M D M B b M B M M f s z s f s h s h s h s f s h s h s f s f s f s f s f s f s f s f s h s f s f s z s f s s f f s f d d r y r n L Y E T T E J E R T T E E T E +.>.>.#.>.1.>.1.%.%.%.:.>.1.%.6.j.f.l.s.l.j.l.s.l.j.l.l.l.f.l.j.l.l.f.j.l.C.&.                                                                                                                                                                                                                                                                                        ",
"                                                                                                                                                                                                                                                                                                                      8 #.1.#.>.>.#.1.e.k.s.f.j.a.l.l.M.H.V.D.D.V.H.n.) K T Y E T T T J E R T Y T T R J E Y E Y T Y E Y T T J E E Y B M b M B v S M B M N M M M S N M M M M B M M S M N M B S B M B v S B M D M M s f s f s f s f s f s f s f s f s f s h s z s f s h s f s h s z s f s f s h s f s f s h s f z M n n n m n n F T T Y T Y T R T T R J Y T Y E -.1.%.>.>.#.1.1.>.#.>.>.>.>.#.e.s.l.l.l.s.l.f.j.f.l.s.l.j.l.f.l.s.l.j.f.l.b.&.                                                                                                                                                                                                                                                                                        ",
"                                                                                                                                                                                                                                                                                                                      t +.1.>.>.>.#.>.e.j.f.f.l.l.s.l.M.H.V.V.D.G.H.k.) Y T T Y J R T R T T E T Y T T R T T T T J E T T R J E Y T T B M B M M B B M M M D M M M B M B M B M M M B M B M M M v B M B M M D b B M M s h s f s h s f s z s f s h s f s h s f s f s z s f s z s f s f s f s z s f s f s z s f s p n L T J T Y Y J T Y T T T E Y T E Y T E T Y T E +.>.#.>.>.1.#.>.>.>.:.-.1.%.>.0.a.j.l.j.l.l.l.f.l.s.l.l.f.j.l.s.l.l.f.j.l.l.&.                                                                                                                                                                                                                                                                                        ",
"                                                                                                                                                                                                                                                                                                                      8 >.1.>.#.1.>.1.e.j.f.f.j.l.j.l.V.H.G.D.V.D.H.n.) Y J E T T Y T T T Y J E T Y J E T Y J R E Y T J E T Y T Y T B M M B M M M M D M M M M M M M M M N M M M M N M D M B M S M M D M M M D M M s f s z s f s z s f s h s f s f s f s h s f s f s f s f s f s h s f s f s f s h s f f s h s n T T T Y T T T T T Y T Y J E T Y J E T E J Y E +.>.1.#.>.>.1.1.#.>.>.>.>.>.#.e.f.l.f.l.s.l.j.l.s.l.l.l.f.l.f.l.l.l.l.l.l.c.&.                                                                                                                                                                                                                                                                                        ",
"                                                                                                                                                                                                                                                                                                                      t +.1.>.>.>.#.>.e.k.f.f.l.k.s.l.M.H.M.D.V.H.G.n.) Y T Y T Y E J R T T E Y T E T Y T E T Y T E T R T T T R T Y B n M M M S M M M M M B M B N M M M B M D M B M M M M M B M B M M M B M B M M s f s f s f s f s f s f s f s h s h s f s f s f s f s f s f s f s h s f s f s f s f s f s h n Y T T T T Y T Y T T T R T Y E T Y E Y T Y T E +.>.%.>.>.%.#.1.>.%.>.>.>.%.>.0.j.l.j.f.l.f.f.l.l.l.s.l.j.l.s.l.j.l.s.l.l.l.&.                                                                                                                                                                                                                                                                                        ",
"                                                                                                                                                                                                                                                                                                                      8 >.1.>.%.>.>.1.e.j.f.s.l.j.l.l.M.H.G.D.V.V.H.k.) T Y T E J E Y T T Y T T Y J R T T Y T T T Y T T Y J T Y T Y B M M B M M B M B M M N M M S M B S M M M N M S B M B M M M M M M M M S V M M h s z s f s h s f s f s f s f s f s f s f s h s f s f s h s h s f s f s h s z s f s f h s s n T T Y T R T E T T R J E T T J R T T E E T Y E -.1.>.#.>.-.1.>.%.#.#.>.>.>.>.5.s.l.f.j.l.j.l.j.a.l.f.l.s.l.f.l.l.s.l.l.l.c.&.                                                                                                                                                                                                                                                                                        ",
"                                                                                                                                                                                                                                                                                                                      e +.1.>.>.%.>.>.e.l.f.f.j.k.s.l.M.H.V.D.V.H.H.n.) K T Y T Y T E Y T E Y J E E T T Y E J R T E J R T E Y T R J D n M M M M M M M M B M D M B M M M B M B M M M M M M M S M B M M B M M D M M s f s f s h s f s z s f s h s f s f s f s f s f s h s z s f s f s f s h s f s f s h s f s f n Y T E J E Y T Y J E Y T Y E E Y T T Y T T T E +.>.%.>.>.%.1.>.>.>.>.>.>.%.#.e.s.l.l.f.l.l.f.l.l.l.j.l.l.l.j.f.l.l.l.l.l.c.&.                                                                                                                                                                                                                                                                                        ",
"                                                                                                                                                                                                                                                                                                                      0 #.1.>.>.>.#.1.e.k.s.f.l.j.l.l.M.H.G.D.V.D.H.k.) Y T J R T T T J R T T E Y Y T Y J E Y T J R E T T J T Y T Y B n M M D M M M S N M M M M M N M M M N S M B M M B S N M M M S M M D M M M M f s h s f s f s f s f s h s f s h s f s h s f s f s f s f s f s f s h s f s f s z s f f s s n T Y T R T T Y E E T Y T T Y T Y J Y T J R J E +.>.%.>.-.1.#.1.#.>.:.-.1.#.1.e.s.j.l.j.l.j.l.l.s.l.f.j.f.j.f.l.l.l.c.l.c.Z.=.                                                                                                                                                                                                                                                                                        ",
"                                                                                                                                                                                                                                                                                                                      e -.1.>.#.1.>.>.e.j.f.f.l.a.j.l.V.H.M.D.V.V.H.n.) Y T E T T Y T R T J R T T T T E Y T T E R T Y T Y E Y T T Y B M M M M B M M B M B M M V M B M M B M M M M M N M M B M M M B N M M N M M M h s f s h s f s f s h s f s h s f s z s f s h s h s f s f s h s f s f s f s h s f s f s h s M Y T T T Y T J E Y T T E J R T T Y E T E T Y E +.1.>.#.1.>.1.>.#.%.%.1.%.1.#.e.j.f.f.f.l.f.l.j.l.l.l.l.l.l.l.a.a.a.s.a.a.l.$.                                                                                                                                                                                                                                                                                        ",
"                                                                                                                                                                                                                                                                                                                      8 >.1.>.>.>.#.1.e.l.f.s.l.j.f.l.M.H.V.D.V.D.H.n.) K T Y T E J E T T E T Y J R T J E T Y T T T T T Y J T Y E J J D K J K L K F M M M S M M S M B S M M B M V M M M M M M M M M M M B M B M M f s h s f s f s h s f s h s f s f s f s h s f s f s f s f s f s h s f s f s f s h s f f s h n T T R J E T R T T T Y T R T E ` ` ] ` ] { ] | +.>.%.>.#.>.%.1.e.r.e.y.e.e.e.s.j.l.j.l.j.l.f.l.f.j.f.s.l.l.a.J f h h z g m r                                                                                                                                                                                                                                                                                         ",
"                                                                                                                                                                                                                                                                                                                      e +.1.>.%.>.>.>.e.k.f.f.l.k.j.l.M.H.V.D.V.G.H.k.) Y T E J R E Y T Y T J E E T Y E Y T E Y J R T E T E T Y Y E J T T Y Y Y T Y M M B N B M M M M M M M M M S M M D M V M M V S M M M M M B M h s f s f s h s f s f s f s f s z s f s f s h s h s f s h s f s f s z s h s f s f s f s h s n Y T T R T T T E Y E J E T Y T { >.1.>.>.>.>.>.>.%.#.>.1.>.%.3.f.f.s.f.l.f.i.l.k.l.l.f.l.s.l.j.l.f.k.s.l.l.t.                                                                                                                                                                                                                                                                                                        ",
"                                                                                                                                                                                                                                                                                                                      0 #.1.>.>.>.#.1.e.j.f.s.j.l.s.l.V.H.V.D.V.D.H.n.) Y J E Y T T T Y E T R T Y T T Y T T Y E E T T Y J R T E T T E T T T T Y E K B M M M M B N B M B N B M V M B M N M S B M M B M B S B M M M z s f s z s f s f s h s f s h s f s f s h s f s f s h s f s f s f s f s f s z s f s f h s s n T Y T T T Y J R T T R T Y J E { >.>.#.>.1.>.>.>.>.%.>.>.#.>.5.s.l.l.l.l.l.l.k.a.l.l.j.l.f.l.l.s.l.s.f.l.c.w.                                                                                                                                                                                                                                                                                                        ",
"                                                                                                                                                                                                                                                                                                                      e -.1.>.#.1.#.>.e.l.f.f.l.j.l.l.M.H.V.D.V.H.M.n.) Y T E T Y T E J Y T T Y E J E T E Y T J Y T J E Y T T Y E J R T Y J E Y T J B M B M M M S M M S M M S M M M M B M M M M M M N M M N M B M f s h s f s f s h s f s f s f s f s z s f s h s z s f s f s h s f s h s f s f s f s f s h s n Y T T Y E T E T E Y J E T Y T { >.1.#.>.#.>.#.>.#.>.%.>.#.#.5.f.l.s.l.l.k.f.l.l.f.l.s.l.s.l.l.s.l.a.j.l.l.t.                                                                                                                                                                                                                                                                                                        ",
"                                                                                                                                                                                                                                                                                                                      8 >.1.>.>.>.>.1.e.j.f.f.j.k.s.l.M.H.M.D.V.V.H.n.) J R T T T Y E T E T Y T E Y T Y T E T R T E R T E T R J E Y T E T R J R T Y B M M M M B M M B M M M M B M B M S B M B S B M D M B M S M M z s f s f s z s f s f s h s f s f s f s f s f s f s f s f s f s f s f s f s h s f s h f s f n T T Y J E Y T Y J E T Y T T E ] #.>.>.#.>.>.+.>.%.>.>.>.#.>.5.s.l.f.j.f.l.l.j.k.l.s.l.l.l.l.j.f.l.s.f.l.l.p.                                                                                                                                                                                                                                                                                                        ",
"                                                                                                                                                                                                                                                                                                                      e +.1.>.#.1.#.>.e.k.f.s.l.j.l.l.M.H.V.D.V.H.H.k.) Y T Y T Y T T Y T T Y J E T Y E J R J T Y T T T Y T J E Y T T T Y T T Y T J B M M M M M M M M B M M M M N M M M M M M M N M M M M M B M M f s f s h s f s f s h s f s f s h s f s h s h s f s f s f s f s h s f s h s f s f s f s h s n Y T E T R T Y E E Y T T Y T E { >.1.#.>.1.>.>.>.>.%.>.%.>.#.3.f.l.f.j.l.k.f.l.k.l.l.s.l.s.l.f.j.f.a.f.l.c.t.                                                                                                                                                                                                                                                                                                        ",
"                                                                                                                                                                                                                                                                                                                      0 #.1.>.>.>.>.%.r.j.j.l.l.k.s.l.V.G.D.V.D.V.H.n.) Y Y T T J R T J R T E T Y T T Y T T R T E T Y E J R E T T E Y J T J T J E Y n M M B M S M N M M M B M M D M M B M M N B M M B M M N M M M s s s s s s h s h s f s f s h s f s f s f s f s f s z s f s z s f s f s f s f s h s f f s s M T Y T T T J E T Y T Y E J Y T { >.1.>.#.>.>.#.>.%.#.1.>.#.>.5.s.f.j.f.l.l.j.l.a.l.j.l.l.l.l.l.l.l.j.l.l.c.p.                                                                                                                                                                                                                                                                                                        ",
"                                                                                                                                                                                                                                                                                                                      e -.1.>.%.>.%.#.e.i.s.s.a.a.s.j.m.G.D.G.D.V.H.n.) K Y T R T T R E T Y T T E Y E T E Y T J R T J R E T Y T Y T T T P P P J L K B M M M B M M M B M M N M M M M M N D M M M D M M N M D M B M h h h h h l h h s h s f s f s f s f s f s h s f s f s f s h s f s f s h s h s h s z s f s f n Y T E Y E Y T T E J E T R T E { >.1.#.>.%.>.>.>.1.#.>.>.>.#.3.s.f.x.f.s.l.s.f.j.l.f.f.j.f.j.f.l.l.f.j.l.C.w.                                                                                                                                                                                                                                                                                                        ",
"                                                                                                                                                                                                                                                                                                                      8 >.1.>.>.>.>.1.3.3.5.=.3.3.3.3.M.H.V.D.V.H.H.n.) Y Y Y T T Y T T Y J R T J E J R T J R T T T E T Y T T T E Y E J T J R T E Y M M M S N B M M S B M S M B N M S M M M B M M M B M M M M M S M S S S S n S z h s z s f s f s f s h s f s f s h s f s h s f s f s h s f s f s f s f h s s n T Y J E T T R J R E Y T T Y T { >.1.>.#.>.-.>.#.>.%.>.>.#.>.4.f.j.f.j.l.l.s.l.k.s.l.j.f.l.l.j.l.j.f.l.l.c.p.                                                                                                                                                                                                                                                                                                        ",
"                                                                                                                                                                                                                                                                                                                      e +.1.#.1.#.1.>.%.#.%.#.%.%.%.%.f.D.V.G.D.V.H.n.) K Y T T Y T T J E T T Y E Y T T R T T T R T Y T T Y T Y T J R T T R T Y E Y N M B M M M M M M M M B M M S B M M B M M S V M S B M M F M B M M M M M S N m l s f s f s f s h s f s f s f s f s h s f s f s h s f s f s h s h s h s f s n Y T E Y E Y T T T Y T T Y J E o.>.1.#.>.>.#.>.1.>.#.1.>.:.#.3.f.s.c.s.f.j.l.s.j.l.l.l.s.l.f.l.l.l.s.l.l.c.w.                                                                                                                                                                                                                                                                                                        ",
"                                                                                                                                                                                                                                                                                                                      0 #.1.>.>.>.>.1.>.>.>.%.%.>.>.1.n.H.D.V.D.V.H.n.) Y Y Y T T Y T Y T Y E T T Y T T J R T T J R T E J E T E T E T Y Y J R Y T Y B M M M B M M S B M M N M M M M M N M M M M M M M M V M M M M M B n B M n N n h s f s f s f s f s f s f s f s f s f s f s h s f s f s z s z s h s f h s f n T J R T J T R J Y T T E T Y E { >.1.>.#.>.>.>.#.1.#.>.%.>.>.3.f.s.l.j.f.l.s.l.a.l.s.l.f.j.f.j.l.l.f.j.l.C.w.                                                                                                                                                                                                                                                                                                        ",
"                                                                                                                                                                                                                                                                                                                      e -.1.>.#.1.#.>.>.%.>.>.%.>.#.1.l.H.V.V.D.V.H.M.~ Y T E E R E R T T T Y T J E Y E Y T E Y E T T R T Y T Y J R T J R R Y T Y J B M M M M M B V F M B M D M M M B M D M V M M B M M S M M B M M M M M B M N n h s h s h s f s h s f s h s h s f s h s f s f s f s h s f s f s h s f s h s n Y E J E Y E T Y T E Y J E Y T { >.1.#.>.%.-.#.>.1.#.>.>.#.>.3.f.i.l.f.j.f.j.f.l.s.l.l.l.l.l.f.j.f.s.a.l.c.p.                                                                                                                                                                                                                                                                                                        ",
"                                                                                                                                                                                                                                                                                                                      0 #.1.>.>.>.>.1.#.>.%.#.%.>.>.>.n.D.V.D.V.H.H.n.) K Y E Y R W Y T Y E J E Y T T T T Y T J E Y T J R T E T E T E R T Y E Y E Y M B M B M B D V S M M M M M B N M M M M M D M M D N B M M M B M V M M M M m n h s s h s f s f s f s h s f s z s f s z s f s f s h s f s h s h s h h s f s n Y T R T T T T T Y T E E Y T E { 1.>.>.#.>.1.>.>.1.#.>.>.>.>.3.f.l.x.s.l.l.s.l.k.j.l.f.j.a.l.j.l.l.l.f.l.l.p.                                                                                                                                                                                                                                                                                                        ",
"                                                                                                                                                                                                                                                                                                                      e -.1.>.#.1.#.>.>.#.>.>.#.>.#.1.l.D.V.D.V.D.K.n.~ K T Y Y Y Y Y R T T R T T Y T Y E J E Y T E Y E T T Y J R T Y T Y T Y Y J T n M M M M M N D V B M B N M M M M M B S M M B M M M M M B M N M M B M B M N n p p s p h f f f f h f s f s f s f s f s f s h s f s f s z s s h f p s s s s n Y T Y T Y J R T J R T Y T T E { 1.1.>.>.1.>.1.>.>.-.1.1.-.-.4.a.j.j.f.j.l.f.j.s.f.l.a.l.l.f.l.l.l.j.l.l.C.w.                                                                                                                                                                                                                                                                                                        ",
"                                                                                                                                                                                                                                                                                                                      8 #.1.>.>.>.>.#.>.>.#.%.%.>.>.>.k.D.H.V.H.V.H.M.~ H Y Y Y W Y Y T J R T T Y T J E Y E T T Y T T T R J E R T T J R J R J R E K M S M M M S M B M S M M B M M M M M M M V M M M N B M M N S B M M M M M M V n s s l s s p p f s f s f s h s f s z s f s z s f s f s f s h s f f d s f s p v Y E Y T E E T Y Y T Y J Y Y L { >.1.>.%.>.>.-.%.>.-.1.%.>.%.3.f.j.j.l.f.j.f.j.l.k.l.l.l.l.l.c.c.c.c.c.b.A.a.                                                                                                                                                                                                                                                                                                        ",
"                                                                                                                                                                                                                                                                                                                      t +.1.>.%.>.%.>.%.>.>.#.>.#.>.1.l.D.V.V.D.H.H.n.| ~ } ` ` ] ` ~ Y T T T T J E Y T T T Y T E T R J E T E T T R E T E E E T T T D D F D D F M M M M B N M S M V S B M M M M M B M M M D M M M M B S B N M M n l l s l z s f h f s f s z s f s f s f s h s f s f s h s f h f h f z z s z l M Y T R T Y T Y E T E E E E E ~ o.>.1.>.>.1.>.>.1.2.,.3.3.1.1.q.a.l.j.s.l.l.s.l.l.f.k.f.l.l.a.e.$.&.&.%.&.=.$.                                                                                                                                                                                                                                                                                                        ",
"                                                                                                                                                                                                                                                                                                                      8 >.1.>.>.>.>.>.>.#.1.#.%.>.>.>.n.D.D.G.D.V.V.V.s.a.y.s.a.a.s.1.E K T R T R T T R T T Y T J R T E Y T Y T Y T J R T Y T Y T Y T Y T Y T Y F F M M M S M M M M M M M D M V M M S M M M M B M M M M M M B M M B M M n n M m z s d f s f s f s f s z s f s f s f s f s f s l J L K K F K J T Y Y T T Y J E ` #.:.#.>.>.>.-.>.1.>.>.1.#.#.1.s.j.s.s.a.s.s.s.l.l.j.f.s.l.s.l.k.s.l.f.l.M.s.m                                                                                                                                                                                                                                                                                                                       ",
"                                                                                                                                                                                                                                                                                                                      e -.1.>.%.>.%.>.%.>.>.1.#.>.#.1.l.V.D.V.D.V.D.V.c.l.c.l.l.l.C.5.E K T T J E Y T T J R T Y E T T T R T E J E Y E T T Y T E T J E T J T T T J F M M N M B M B M M B N M M M S M B M B M M M B M N M M M M M M M n n M M B V n f p f f s f s f s h s f s f s h s f s h s s z J T L T L T P T Y T Y T T Y T ` >.1.>.>.%.>.>.#.>.>.%.>.>.>.1.s.j.f.s.l.l.f.l.l.f.j.f.j.l.s.j.l.s.s.a.s.l.a.f                                                                                                                                                                                                                                                                                                                       ",
"                                                                                                                                                                                                                                                                                                                      8 #.1.>.>.#.>.>.>.1.>.#.%.>.>.>.l.D.V.D.V.H.V.V.l.s.j.l.l.l.M.5.E K T R T E T E Y E T T E T Y E T J E Y E T T Y T T E J R T R T Y E Y E T Y F M N n B M M N M M M B n B M B N M M N B M N S M M N M N S N M M M M M M B M n s y f s f s h s f s f s h s f s f s z s f s z F T T J T J T J R T E T Y T E ` >.>.#.>.>.>.#.>.1.#.1.>.#.-.>.s.j.s.f.j.k.j.f.k.f.f.j.f.l.f.j.f.l.s.f.s.c.a.f                                                                                                                                                                                                                                                                                                                       ",
"                                                                                                                                                                                                                                                                                                                      t +.4.>.1.1.1.1.1.1.>.1.#.>.#.1.n.H.V.G.D.V.H.V.M.f.f.j.l.l.M.5.E K T T Y T Y J E Y E Y J R T J R E T T Y E T E J R T R T T T E T T T J R T J C S S S N S S D M M M B M M M M B M S M B M B M S M M M M M M M N M M M m n z f s h s f s f s f f h f h f f l s s s p s p l Y T Y T Y T T T T Y J E T Y T ` #.1.>.#.>.>.-.1.-.1.-.>.-.%.3.s.l.l.l.f.l.f.l.l.l.f.l.f.l.f.l.l.f.j.l.l.c.a.g                                                                                                                                                                                                                                                                                                                       ",
"                                                                                                                                                                                                                                                                                                                      e -.3.1.1.1.>.1.1.#.-.1.%.>.#.3.l.G.D.V.D.G.H.V.l.l.f.l.k.l.l.0.E K T T T E T R T T J E E T E Y T T Y E T Y J R E T T J R T Y J R T R E T T D D D S D S D S S M B M M S M B M M M B M M M N M M M M M M M M M M M M n m n n h h f s h s f s h s d s f f s s s s p s p s z Y Y T Y T T J T J E T Y T J E ` >.>.#.>.%.>.+.>.-.1.-.<.-.>.>.s.j.l.l.k.f.j.l.s.l.j.f.l.l.j.f.l.l.f.s.f.l.s.h                                                                                                                                                                                                                                                                                                                       ",
"                                                                                                                                                                                                                                                                                                                        +.3.>.1.2.1.%.1.%.1.>.>.>.>.1.l.G.G.V.D.H.V.V.l.l.f.j.f.l.c.0.E K T R J R T J E Y E Y T Y T E T Y T J E T R T Y T R T T E T R T T J R T T J Z S S S S S S S M n M B M M M M D M M N B M M B M N B M M M M M M M M M n m z p d h s f s z s f f f f s f f s s f p d p p z Y E Y E Y T T E Y T J E Y T Y ] #.1.>.>.1.>.>.1.#.1.#.1.#.-.;.a.l.l.a.l.j.l.l.s.l.l.l.f.l.l.f.l.j.l.k.j.C.a.f                                                                                                                                                                                                                                                                                                                       ",
"                                                                                                                                                                                                                                                                                                                        1.6.1.2.1.1.4.1.#.-.>.>.#.>.3.k.H.V.D.V.D.H.V.l.l.f.l.f.n.M.0.E K T T E T T R T T T T Y T T Y T E Y E Y T T T T J E Y T Y J T E Y E T T R K Z D Z S S S S B M M B S B M V M M N M M M B M M M S M M D N B M B M B m n n z s h s s s s s f s s r h s f r s s p d s y s l Y T Y T Y T J Y Y Y Y Y T Y T ` >.-.#.>.#.>.-.>.#.+.>.%.>.+.1.a.l.l.l.j.l.f.l.l.l.s.l.l.f.l.l.f.l.s.f.l.l.s.h                                                                                                                                                                                                                                                                                                                       ",
"                                                                                                                                                                                                                                                                                                                        C D Z C Z C D ` 1.#.>.#.>.#.1.l.H.V.G.D.V.V.D.M.l.l.l.l.M.M.0.E K T Y T R J E Y T Y T E T J E Y J E T T J R T E R T T E T E Y T T T R J E Y D D D D F G D D M N M B M M M M M M M B S M M S B M B M M M M M S M M M n m n z h z z z z s s s f s s f s s n n n n n n n N Y Y T Y T T L E / ` } ~ ` ~ ` | >.#.>.-.>.>.:.3.r.r.0.5.0.0.e.n.f.f.k.l.l.j.f.j.f.l.l.f.l.l.l.l.l.s.l.s.M.a.f                                                                                                                                                                                                                                                                                                                       ",
"                                                                                                                                                                                                                                                                                                                                      v 1.%.%.1.#.>.3.k.H.V.D.G.D.V.D.Z.Z.M.M.V.V.H.t.E K T E T Y T T T E Y T Y T R T T E Y T R E T Y J E Y J Y T T E J R J E R T Y E T T L L P L F M M M B M M M D M B S M M M M N M M M N B M S B M N M B B M M M N n M n n n l s s s p l p s V J T T Y L J J Y T Y E T Y T ) -.:.>.#.>.+.>.#.>.-.>.#.-.#.1.p.f.l.f.f.f.l.a.l.l.f.l.k.f.l.l.j.l.f.l.l.f.l.f.l.l.s.k.f.c.s.h                                                                                                                                                                                                                                                                                                                       ",
"                                                                                                                                                                                                                                                                                                                                      l 1.>.>.#.>.#.>.l.H.V.V.D.V.H.V.D.H.G.Z.D.V.H.t.E K T Y T T Y E Y T J E E J E Y T Y T T T Y T E R T T E Y E Y T E R T T T R J R T Y E T T T D M M M B M B M M M M M M M M M B M B M M S B M M M M M M M M M M M M M M M M l p s l h s s z K T Y T T T T J T Y T L T T K } :.>.>.>.>.#.>.>.-.%.>.1.1.-.1.y.l.c.l.l.l.l.l.l.l.l.f.l.l.s.l.f.l.j.f.j.l.l.j.f.l.f.j.f.l.a.f                                                                                                                                                                                                                                                                                                                       ",
"                                                                                                                                                                                                                                                                                                                                      z 1.1.>.%.>.>.3.n.H.G.V.D.V.D.V.H.M.D.D.Z.H.H.t.E K T T R J T T T E Y Y E Y T E T T E Y J E T J E Y T Y T T E Y T T Y T T R T R E Y E Y R Y D S M M M S M B M B N M B N B M M S N B M M N M M B M M M M M M M M M M B M M l p l p s s s h K J E Y T Y T T T L T L T T K ` >.>.#.>.>.1.#.1.>.>.>.>.1.#.>.t.c.l.l.s.l.s.l.l.l.n.f.l.l.l.f.j.l.f.l.l.s.l.f.l.j.a.l.f.c.s.f                                                                                                                                                                                                                                                                                                                       ",
"                                                                                                                                                                                                                                                                                                                                      z 1.>.>.>.#.#.1.l.G.D.V.V.D.V.D.V.V.G.S.D.G.H.e.E K T Y T R T R J R T T T Y T Y J R J E E Y E R T T Y T J R J E T Y E T Y J R T R Y E Y T Y D M M M B M M M N S B M M S M B N B M M M B M M M N D M B S B M N N m N n M n z l p l h s s s F Y T T L Y T Y T Y T T J T T ` #.>.>.>.>.>.>.>.+.>.+.>.>.#.>.t.c.l.f.l.f.c.f.l.n.l.l.f.f.l.l.l.j.f.j.f.l.l.j.l.l.f.j.f.l.a.z                                                                                                                                                                                                                                                                                                                       ",
"                                                                                                                                                                                                                                                                                                                                      z 1.1.>.%.>.>.3.l.H.V.D.V.V.H.V.V.G.D.D.D.D.H.t.E K T T T Y T E T T T T T J R T E Y E Y T Y T T T R J E E T E Y T T J R T R E Y E Y E R T Y D M M M M B S B M M M M M B M M S M M B S M B N M M M M M N M M B M M m S M N z l p s s s h s K T Y T T Y T J T T L T T Y K ` +.1.>.#.#.#.>.#.>.>.>.#.>.-.,.t.l.l.f.l.f.l.h.k.k.l.n.l.l.l.s.l.l.l.s.l.s.l.f.l.j.f.l.l.l.s.f                                                                                                                                                                                                                                                                                                                       ",
"                                                                                                                                                                                                                                                                                                                                      z 1.1.>.>.#.>.1.k.H.V.D.D.V.V.H.V.D.G.D.V.V.H.t.E K T Y E J E Y T R J R E R T T Y T T T T T Y E J E R T Y T Y E T R T T E Y E Y E Y J R T Y D M M M D M M M B M B M M M B M B M M M B N S B M B M M B M B M M m M M M n n z d s s s p s s F T R T T Y Y T T T K Y T T T ` #.1.%.>.%.>.%.>.>.#.>.>.#.>.;.y.l.c.l.l.f.l.l.k.l.l.l.l.l.f.l.s.l.f.l.l.l.l.l.l.c.l.l.c.C.l.f                                                                                                                                                                                                                                                                                                                       ",
"                                                                                                                                                                                                                                                                                                                                      z 1.1.1.1.#.+.3.k.H.D.G.D.V.D.D.D.V.D.V.D.V.H.t.E K T T R T Y E T T E T T T T Y T T R T R J E Y E Y T T E T T Y J E Y T J R T R Y E R Y T Y D M M M M B M M M M N B S N M S N B M N M B M M M S M N S M M M M M n N M M n z d l p s s h s K T Y T L Y T K T T T Q Y T Y } -.%.>.#.>.#.>.#.%.1.%.%.%.>.1.t.l.l.l.f.l.f.f.k.l.l.k.l.l.l.s.l.s.l.j.l.j.l.l.l.l.f.s.l.l.a.g                                                                                                                                                                                                                                                                                                                       ",
"                                                                                                                                                                                                                                                                                                                                      l 1.1.>.-.%.>.1.s.V.Z.M.Z.M.V.V.D.D.D.V.V.D.H.p.E K T Y T E T T Y J R T R J R T E J E T T R T T T T Y J Y E J E R T T E Y T Y J E Y T E R T D S N B M M B M M D M M B M B M M M D M M M M B M B M M B M M D M B M S M M M M M M B S M M B L T Y T Y T K J Y T T Y T Y L ` 0.e.e.e.e.e.0.3.%.>.>.>.>.#.1.a.S.M.Z.M.M.M.V.M.M.M.B.M.M.M.M.l.l.l.l.l.l.c.>.D M M B B B M                                                                                                                                                                                                                                                                                                                         ",
"                                                                                                                                                                                                                                                                                                                                      h >.>.1.>.>.1.1.u.l.l.l.k.l.k.l.V.V.D.V.D.V.H.p.E K T E Y T Y J E E T T E T E J R T Y J R T J R T E T E T R T T T R J E T E T E Y T J R T J D D M S B S M M M N M M M M M B M M M M B M M S M M M M M D N M M N S S S B M F J T T Y T Y T Y T T Y T T T Y Y E L Y T T L -.s.l.j.j.f.l.l.e.%.>.#.1.>.#.1.l.H.H.V.D.V.V.D.D.V.D.D.V.D.S.M.M.n.k.s.f.k.c.Y                                                                                                                                                                                                                                                                                                                                       ",
"                                                                                                                                                                                                                                                                                                                                      z ;.1.>.-.1.>.1.u.l.f.l.l.j.j.l.D.D.V.D.V.D.K.t.E K T T Y T E E Y T Y T Y T R T E T E T T E Y E J R T Y T T Y E T T T Y T Y T Y E T E R E T D S N S B M M M B M B M M B S M M F M M M D M B M V M M M M M B M M M M M M V K T T Y E T T T Y T Y T Y T Y T T Y T T Y L K ;.k.l.l.s.l.k.j.e.#.>.1.>.1.#.>.l.H.V.D.D.V.D.G.V.D.G.D.V.D.V.S.l.j.c.f.l.l.l.D                                                                                                                                                                                                                                                                                                                                       ",
"                                                                                                                                                                                                                                                                                                                                      z ,.,.>.>.#.>.1.t.j.f.k.l.j.j.l.V.D.V.D.V.V.H.p.E K T Y T J Y T T Y E J E T J R T Y T Y T Y T T R T T E Y E J R J R T E T E J E Y T J R T T D M D M M M M M M M M F M M N B M M B M N M M N M M M M B M M M B M B N B M S F T T T T R T Y T J T Y J T T T Y T T T T T D | a.l.l.j.j.l.a.e.%.>.>.#.>.>.1.l.V.D.M.S.V.G.D.V.V.D.V.V.D.M.V.j.f.j.f.l.c.l.D                                                                                                                                                                                                                                                                                                                                       ",
"                                                                                                                                                                                                                                                                                                                                      z ,.>.>.1.>.>.>.s.l.j.l.j.j.j.j.D.V.D.G.G.D.K.t.E K T E Y E T E Y T T R T Y E T T E Y E J E Y T T J R J E Y T T Y T T Y J R E Y T E T R E T D S M S B M D M N D M M M M M M M M M M B M M B M B M S N B S N M S M M M M B J Y T R T J Y E T Y E T R T Y T T T Y T Y T L -.a.l.l.f.j.k.j.e.#.#.>.>.%.#.>.k.H.G.G.V.V.G.V.H.G.G.D.M.D.V.Z.l.j.l.f.l.l.c.D                                                                                                                                                                                                                                                                                                                                       ",
"                                                                                                                                                                                                                                                                                                                                        >.>.,.>.>.#.1.t.l.j.j.k.j.j.h.V.D.V.D.V.D.K.t.E K T Y T T Y T T Y E J E Y T Y T Y J E Y E T E Y E T R T T Y E T T R T R T T T T Y T E Y T D M V S M M M B M M M M M B M M M M B M M M M M M S B M M M M M B M B M M M S F T Y J R T E T Y T Y T T Y T Y T Y T T T T D | k.l.j.l.j.l.a.e.%.>.>.#.>.>.1.l.H.D.D.G.V.D.V.V.D.V.D.M.G.Z.V.j.f.j.l.l.l.l.D                                                                                                                                                                                                                                                                                                                                       ",
"                                                                                                                                                                                                                                                                                                                                        3.2.>.1.>.1.3.t.c.j.l.j.j.l.l.V.D.H.V.G.D.G.p.E K T T R J E T E J R T T T E J E T R T T Y T Y T T T Y T E T T R J E T J E Y E J E Y T E J K S M D B S M S M N M M M M M S V M S M M M D M M M M M B M B M M M M M M V B D T T E T T Y E T J E T R J E L Y L K Y Y J L | a.l.j.f.l.l.l.e.%.>.>.>.1.+.>.l.G.G.V.D.V.V.H.D.V.D.H.M.D.G.M.l.s.l.l.l.l.c.D                                                                                                                                                                                                                                                                                                                                       ",
"                                                                                                                                                                                                                                                                                                                                        +.+.O.+.o.+.>.w.k.k.j.s.f.s.f.V.D.G.G.G.G.H.w.E K T T T Y T Y E Y E T R J R E Y E T Y E J E E Y E J E Y J R T T R T R T R T Y E Y T J R T K b Z Z B D S M N M M B M M B M M M M M M M N M M B M M M M M M S V M M S M M J T T Y T E T T R E Y T T E T J ! E T R E T P -.a.l.l.s.j.a.j.r.>.1.1.2.>.>.2.C.V.H.Z.V.V.D.V.V.D.V.D.M.G.Z.M.l.j.l.f.l.l.l.K                                                                                                                                                                                                                                                                                                                                       ",
"                                                                                                                                                                                                                                                                                                                                          8 8 4 0 < 0 { r.e.5.e.e.e.s.V.D.G.M.G.G.H.w.E K T R T E T T T T T Y T E Y T T T Y J E R T T J R E Y E T E Y J E T J E T T T T T E R T J Y K K J K L K L F M M N D M M M S B M B M B M B M M N D N M S F G K L L K L L Y T J E T Y E J T T T E Y T R ` 3.3.3.3.5.3.5.r.f.l.l.j.f.l.l.j.s.f.f.f.f.f.f.V.D.V.H.V.V.D.D.B.n.V.M.M.M.M.M.l.s.l.l.l.l.c.D                                                                                                                                                                                                                                                                                                                                       ",
"                                                                                                                                                                                                                                                                                                                                                    X A 4.:.#.#.#.@.%.M.H.G.M.M.G.H.p.E K T T Y J R J R T R J E Y T T R J E E T T Y E Y T T T T Y T E T Y E Y T R J R J R T J E R T T T T E T E T F M M M M M N B M M M M M M M M M D M M M N M D L T T Y T T Y T T Y E Y T E Y E Y T Y J E Y ] s.c.B.c.M.C.M.l.l.l.l.k.j.s.k.M.H.D.V.H.D.H.D.G.D.V.V.D.V.V.V.n.n.l.n.l.l.k.a.l.s.s.f.l.l.l.D                                                                                                                                                                                                                                                                                                                                       ",
"                                                                                                                                                                                                                                                                                                                                                      A 3.%.>.#.:.#.3.C.D.Z.H.Z.H.H.t.E K T E T T E T R J E Y T T J E T E Y T Y T T T T E Y E J E Y T E Y T T Y T E T R T T R J E J R J R Y Y Y T D S M B M D M M M M D N M M S B N M M M M N M G T T Y T Y T T E T T T T J R T T J E E R T Y ] a.l.l.l.l.l.l.l.l.l.l.k.l.j.l.M.V.V.D.V.V.D.V.D.V.D.G.V.D.D.V.B.n.n.l.n.f.l.j.l.j.j.l.l.l.l.D                                                                                                                                                                                                                                                                                                                                       ",
"                                                                                                                                                                                                                                                                                                                                                      H 4.>.#.:.#.>.4.M.D.Z.S.Z.D.H.t.E K T Y T Y T T T E T T E Y E Y T Y T T T R J R T Y J E Y E T Y J E Y E J R T T T Y J E Y E T T E J Y K T T D M M M M M M B M M M M B M M M M B M B M n S D T T T E T E Y J R T Y E E T J R E Y T T Y Y ` a.l.l.k.j.k.l.l.k.l.l.l.l.j.k.M.D.H.V.D.V.D.V.D.G.D.V.D.V.D.V.M.n.M.l.l.l.j.l.j.l.j.f.l.l.l.D                                                                                                                                                                                                                                                                                                                                       ",
"                                                                                                                                                                                                                                                                                                                                                      K 4.>.>.#.>.#.4.c.A.D.Z.D.Z.A.t.) K T E T E Y E Y T Y J T T T T J E T Y J E Y T T E T Y T Y T E T Y T T E T Y E J E E Y T J R J R T J Y L L F S M B N M M N S M N M S M N M S M M N M N M F L T Y T Y T E Y T J E Y T Y T T T T T J E U { a.l.j.j.l.l.k.l.l.l.l.n.j.l.l.Z.Z.D.G.H.M.H.V.D.V.V.D.V.V.H.M.l.n.k.l.s.f.j.f.j.j.s.l.l.l.l.D                                                                                                                                                                                                                                                                                                                                       ",
"                                                                                                                                                                                                                                                                                                                                                      H 3.1.%.#.1.%.5.V.D.V.V.D.D.K.p.~ T T Y Y J R T E J T Y T Y Y T T J T E Y T E Y J R T T E T J R T T J R T Y J E Y T T Y E E T E Y J R T T T D S M S M N S M N M M M N M M M N M M M M M S D T Y R E Y Y Y E Y T T J T T Y T Y J Y T T K ~ d.z.l.l.l.l.s.l.l.l.l.l.l.f.l.m.V.A.S.V.D.V.H.V.D.V.V.D.V.D.V.l.j.f.l.l.f.f.s.f.l.f.l.j.x.c.F                                                                                                                                                                                                                                                                                                                                       ",
"                                                                                                                                                                                                                                                                                                                                                      H 4.1.%.%.#.%.5.V.H.D.V.D.K.K.w.E K K Y Y T K Y Y Y Y T Y Y T Y T J R T T T T E T T R T T Y T T Y T E T T E E Y T R J E J Y T J E R Y Y J T D S M M M S M M M M M M M M M M M M M M M M M D T T Y E Y E E Y Y K K Y K K J K L Y L K K K ) k.l.n.l.f.l.l.l.l.l.l.l.l.f.k.M.V.S.V.V.H.V.V.V.H.D.H.V.H.D.Z.l.l.s.k.j.f.s.c.C.c.c.l.c.c.v.L                                                                                                                                                                                                                                                                                                                                       ",
"                                                                                                                                                                                                                                                                                                                                                      I 3.1.#.%.1.+.3.N.D.V.V.V.V.D.p.~ E ) E ) E ~ E R E R E ! E R E T T T T R J R T Y T J E Y E Y T E Y J R J R J E J E Y E E T R E Y J R J E L K D D D D B D D B D B D B D B D B D B D V D D F T T R J R Y Y P ) ) ) ) ) ) ~ ) ~ ) ~ ) ) E ) a.l.l.n.k.l.l.l.k.a.l.f.l.l.M.V.D.V.V.V.G.D.G.V.D.V.V.D.V.Z.Z.l.k.j.l.l.f.h.p.e.9.w.=.w.9.e.v                                                                                                                                                                                                                                                                                                                                       ",
"                                                                                                                                                                                                                                                                                                                                                      H 3.1.1.>.1.1.4.n.l.l.l.l.l.M.l.s.e.t.t.t.u.t.3.>.+.+.+.-.-.| ~ Y Y T J R E T T E Y E Y T T J E J E E T E T Y E Y T J E Y J E J E Y E R T T L L T K L K L Y T Y T T Y T T Y T T L Y L Y K T J R T R T Y E @.d.w.e.w.e.t.e.t.e.t.e.e.e.e.u.V.V.D.V.D.V.M.M.D.V.D.V.V.D.V.V.G.D.D.V.D.V.D.M.l.l.l.l.k.l.k.j.l.k.j.f.l.c.o.                                                                                                                                                                                                                                                                                                                                                      ",
"                                                                                                                                                                                                                                                                                                                                                      H 4.1.>.>.1.-.1.k.l.l.f.j.j.l.l.l.c.l.l.l.l.M.y.:.>.>.1.>.>.>.` Y T Y E T T Y J R T T E J R T R T Y T Y T R J E J R E J E R T R T T R J E T T T E E E E T E T T T T T T T T T E T E T E E Y E Y E Y Y Y E =.M.l.l.c.l.M.l.l.M.l.M.l.M.l.c.V.D.D.G.V.D.G.V.V.M.D.G.D.G.D.V.D.V.V.D.V.V.D.l.a.l.l.a.l.s.l.k.j.l.k.l.l.c.'                                                                                                                                                                                                                                                                                                                                                       ",
"                                                                                                                                                                                                                                                                                                                                                      I 3.1.%.#.1.%.3.s.c.f.j.f.f.l.l.l.l.l.f.l.l.l.e.:.-.>.:.1.>.>./ Y Y T Y T E T R T J R T E T T Y E T T E Y T T Y E T Y E T T J E Y J E T Y T T T T T Y T Y T J R J R J E Y E Y J R J R R R E R E Y E J R E =.M.l.l.k.l.l.k.l.l.k.l.l.l.l.M.D.D.V.G.G.V.G.G.Z.V.D.M.M.D.V.D.D.V.D.V.D.G.D.B.l.l.j.c.j.l.l.l.l.k.s.j.c.v. .                                                                                                                                                                                                                                                                                                                                                      ",
"                                                                                                                                                                                                                                                                                                                                                      H 3.1.#.>.1.>.1.s.l.l.f.l.l.k.f.j.l.f.l.f.l.k.r.>.-.1.>.>.>.-./ Y T Y E T Y J E Y E T Y T Y T T Y J R T J R T T T R T Y T R T Y E Y T T Y T R Y Y J E T J E Y T E T Y T T J E Y T E T L T E J T J E Y J T =.M.k.l.l.k.l.l.k.l.l.k.l.k.k.M.V.V.G.H.V.G.G.G.Z.D.G.V.H.V.G.V.V.D.V.V.D.V.V.M.f.l.l.l.l.k.j.l.k.s.k.f.l.c...                                                                                                                                                                                                                                                                                                                                                      ",
"                                                                                                                                                                                                                                                                                                                                                      H 4.>.>.#.>.>.1.f.l.f.j.f.j.l.l.l.s.l.s.j.l.k.e.-.-.1.-.>.-.>.~ Y T T T Y T E Y T T J R T E Y J E E Y T R T T Y J E T E T T Y T T T Y T J R Y T T T T J Y T T T Y T T T Y T T T T Y T T T T T T Y T T Y T 3.B.s.k.j.l.k.j.l.k.j.l.j.l.l.M.V.D.G.V.V.M.G.H.Z.G.H.V.V.V.D.G.V.G.V.D.V.D.D.M.l.l.l.l.l.l.l.l.s.l.s.j.l.c. .                                                                                                                                                                                                                                                                                                                                                      ",
"                                                                                                                                                                                                                                                                                                                                                      K 4.>.#.#.>.+.>.s.l.l.s.l.s.k.f.j.l.f.l.s.l.k.r.;.-.2.-.>.-.#./ Y T T T T Y T T T Y T E T Y E T Y T T T T Y J E E Y T Y E Y J E Y T J T T T J T T J T T T T T T T J E T T Y T J Y T T J T T L Y T J R J R =.n.l.l.l.l.l.l.l.l.l.l.l.l.k.M.V.V.V.V.G.D.V.V.G.V.H.D.D.D.V.D.D.D.V.V.D.G.V.M.f.l.j.f.k.f.a.f.f.s.j.j.l.A.'                                                                                                                                                                                                                                                                                                                                                       ",
"                                                                                                                                                                                                                                                                                                                                                      A 3.>.#.>.#.>.1.s.l.f.l.s.l.l.k.l.s.l.l.a.j.f.e.;.-.-.;.>.,.-.` T Y T Y T T T Y T T Y T J E T Y E T R J R E T Y T T Y T J E E Y T T R T Y T Y K L Y L Y L Y Y Y Y Y Y Y Y D Y Y J Y K K K Y Y K K K K K Y 8.l.l.f.l.f.l.f.f.l.f.l.f.l.l.M.V.D.G.V.V.V.D.V.D.M.V.D.V.V.H.V.V.V.D.H.D.H.D.l.l.f.l.s.l.a.l.c.v.C.b.b.b.A.+.                                                                                                                                                                                                                                                                                                                                                      ",
"                                                                                                                                                                                                                                                                                                                                                      U r.3.3.=.3.1.3.f.l.j.f.l.l.f.l.s.l.j.f.s.l.j.e.-.<.;.<.>.>.>.) L T Y T Y T Y T T T E Y E Y T J T T Y E T Y T E T R T T R T T E Y T Y T T Y ~ | } } } } } } } } } ` } } } } } } ` } } } { | | | | ) | | +.e.C.l.l.B.l.l.l.l.l.l.l.l.B.l.V.D.V.V.G.V.D.V.D.D.D.D.Z.D.G.D.V.V.V.V.V.V.V.V.l.l.j.l.a.l.l.a.<. ... .X. .#.Z                                                                                                                                                                                                                                                                                                                                                       ",
"                                                                                                                                                                                                                                                                                                                                                      ' c.s.s.s.a.s.s.l.l.l.s.k.j.l.k.j.l.s.l.j.f.i.r.1.1.1.>.*.*.>.~ L Y T T T Y L T Y T Y T Y T E R T R J E T T Y J E T J E T Y T J R T Y T J ~ 3.g.u.s.u.s.u.s.u.u.u.s.u.u.u.a.u.a.s.a.a.a.d.k.Z.M.M.V.M.M.M.V.D.V.D.V.D.V.D.V.D.V.D.V.V.D.Z.D.H.M.V.V.V.V.D.M.Z.D.V.S.S.S.B.l.l.l.l.l.l.l.k.j.k.j.l.l.C.w.                                                                                                                                                                                                                                                                                                                                                                      ",
"                                                                                                                                                                                                                                                                                                                                                      ] b.c.l.l.j.c.f.j.l.s.f.s.f.j.f.j.l.f.j.f.j.j.e.>.+.>.>.#.1.-.~ T L Y T T T T T T T E T T J R T J E T Y T Y T E Y E R T T E Y E T Y T T Y E 0.c.j.l.j.l.x.j.l.c.j.l.j.c.j.x.l.j.j.l.l.l.M.M.H.D.G.D.G.D.G.D.V.D.G.V.D.D.V.D.S.S.V.D.V.D.V.Z.V.D.V.D.V.D.V.D.V.D.V.D.V.D.M.l.f.f.l.f.l.a.l.l.s.k.s.l.C.9.                                                                                                                                                                                                                                                                                                                                                                      ",
"                                                                                                                                                                                                                                                                                                                                                       .C.l.l.l.j.l.s.f.f.l.s.l.f.l.f.l.s.l.l.s.l.f.e.>.>.>.>.-.>.-./ T Y T Y T Y T Y E Y J R T E T T R T Y E T E J R T T T Y J E T Y T T T J Y T e.l.l.j.l.l.l.l.l.l.l.l.l.l.l.l.l.l.c.l.j.s.f.M.D.V.D.D.D.V.D.D.V.D.G.G.D.D.V.D.S.A.S.V.V.D.V.D.V.Z.V.D.V.D.V.D.V.Z.D.V.V.D.Z.l.l.l.l.l.f.l.l.l.k.f.k.l.v.9.                                                                                                                                                                                                                                                                                                                                                                      ",
"                                                                                                                                                                                                                                                                                                                                                       .c.s.j.j.k.j.l.s.l.s.f.f.s.l.s.l.l.s.k.f.f.l.e.>.+.#.>.>.>.-.~ T Y T T T T E Y T T E Y T Y E T T T T Y T Y E T Y T J R T Y T J E Y T E L E 0.l.s.l.f.j.f.j.l.l.j.l.j.l.l.j.l.l.l.l.f.j.l.M.D.G.D.V.D.V.D.V.D.G.V.D.D.V.D.D.D.D.D.D.V.G.G.V.G.V.G.V.G.V.G.V.H.V.V.D.V.H.M.l.l.f.j.l.l.j.l.l.k.f.j.f.c.9.                                                                                                                                                                                                                                                                                                                                                                      ",
"                                                                                                                                                                                                                                                                                                                                                       .c.j.s.s.k.l.j.f.f.l.s.l.f.j.l.s.k.l.s.f.s.f.e.>.>.>.#.-.>.>.~ Y T Y T R T Y T J R T T T T Y T Y E J E Y T T Y T Y E T E T T R T T T Y T T e.l.l.l.j.l.l.f.l.j.c.l.l.f.c.l.l.l.j.l.j.f.f.M.D.V.D.V.D.D.V.D.V.V.V.V.V.D.V.D.D.G.D.V.D.V.D.V.D.D.V.D.D.V.D.V.V.D.D.V.D.D.M.l.l.l.f.s.f.l.l.f.s.k.j.f.c.9.                                                                                                                                                                                                                                                                                                                                                                      ",
"                                                                                                                                                                                                                                                                                                                                                       .Z.l.l.l.l.l.s.f.j.f.s.f.s.l.l.l.j.l.l.f.j.f.e.>.#.+.>.-.>.>.` L Y T T Y J E T E T Y E Y E J E T R E T E J E T J E T Y T R T T Y J E T K E 5.l.f.j.f.l.j.f.l.l.l.l.l.l.j.l.l.l.l.c.f.j.l.C.V.D.V.D.V.D.D.D.D.V.D.D.V.V.D.G.G.V.D.H.H.D.G.D.G.Z.H.V.Z.H.M.H.D.Z.H.Z.H.D.M.n.j.l.l.s.l.s.l.f.l.c.l.x.Z.e.                                                                                                                                                                                                                                                                                                                                                                      ",
"                                                                                                                                                                                                                                                                                                                                                      ] A.c.c.c.j.x.c.j.f.f.j.l.l.l.s.l.f.j.l.s.i.f.e.1.>.>.#.>.>.>.` Y T Y R J E Y Y T E J E T Y E Y T T Y T Y E Y E R T T Y T J R T E T T T K ) 0.l.j.l.l.f.l.j.l.l.l.j.c.l.l.l.c.l.j.l.j.f.l.l.D.V.D.D.V.D.V.V.D.V.V.V.D.V.D.V.D.D.D.M.D.D.V.D.D.V.V.H.V.D.V.D.G.V.D.D.Z.V.z.k.f.s.l.f.j.f.c.h.h.c.l.c.Z.t.                                                                                                                                                                                                                                                                                                                                                                      ",
"                                                                                                                                                                                                                                                                                                                                                      a T K K K K D ~ a.l.j.f.l.l.l.l.l.l.f.l.l.f.i.r.1.%.>.>.>.>.>.` ` ` ` ` ` ~ ` E Y T Y Y T J E T E Y T E T T Y T T Y E J E R T E Y T Y T Y T e.l.f.l.s.l.s.l.C.l.C.M.M.l.C.l.M.M.C.M.C.l.M.S.V.D.V.D.V.D.V.D.V.D.D.V.D.V.D.M.M.M.M.M.M.M.M.M.M.M.M.M.M.V.M.M.M.M.M.z.M.Z.M.a.f.l.s.l.l.a.| D Y D K K Y                                                                                                                                                                                                                                                                                                                                                                         ",
"                                                                                                                                                                                                                                                                                                                                                                      9.c.l.f.j.l.s.f.j.s.l.j.l.n.i.e.>.%.#.>.%.>.1.>.>.#.>.%.-.1.+.~ T T E T E Y T Y T E J Y J R T E J R T R T T J R T J E T L E 5.l.l.s.l.l.f.l.V.D.V.S.V.D.V.D.V.D.V.D.V.D.V.D.V.G.D.V.D.V.D.V.D.V.V.D.V.Z.V.c.l.j.l.l.l.l.l.l.l.l.l.l.l.l.l.l.l.l.l.l.l.l.k.l.l.f.k.l.c.a.t .                                                                                                                                                                                                                                                                                                                                                                                   ",
"                                                                                                                                                                                                                                                                                                                                                                      w.C.l.l.l.l.l.l.f.l.s.l.l.l.f.e.>.%.%.>.>.1.>.>.1.>.>.%.>.>.+.~ Y Y T Y T T E T Y E T E R T J R T T T T Y E Y T E T Y T K E 0.l.s.l.l.l.s.l.D.V.V.D.V.D.V.D.V.D.V.V.D.V.D.V.D.V.D.V.D.V.H.V.G.D.V.V.G.V.D.l.a.l.j.l.l.l.l.l.l.l.l.l.l.l.l.l.l.l.l.l.l.f.l.l.l.j.f.l.l.p.0                                                                                                                                                                                                                                                                                                                                                                                     ",
"                                                                                                                                                                                                                                                                                                                                                                      9.b.l.j.f.j.l.j.l.j.f.l.a.l.n.e.>.%.>.1.>.%.>.#.>.>.%.>.#.#.+.~ Y E J E Y T Y J E Y T T J R E T R T Y E J E T Y T T T T L E 0.l.l.l.s.l.l.j.V.D.V.D.G.D.V.D.V.D.V.D.V.D.V.V.D.V.V.D.V.D.V.D.V.V.G.V.H.V.V.M.l.s.f.s.l.s.j.f.j.f.j.f.j.f.j.f.j.f.s.s.l.s.l.s.l.l.j.l.c.t.t                                                                                                                                                                                                                                                                                                                                                                                     ",
"                                                                                                                                                                                                                                                                                                                                                                      9.Z.l.l.l.l.l.f.j.k.l.l.l.l.k.e.1.%.%.%.>.>.>.1.>.#.1.#.#.>.+.~ T T R T T J E Y T E Y E T T Y T T E J R T Y T T J R T Y L E 0.l.j.l.f.l.j.f.D.V.H.V.D.V.H.V.H.V.H.V.H.V.D.G.D.V.D.G.D.V.H.V.D.V.V.G.V.D.D.l.l.l.f.i.l.s.f.j.f.x.f.s.f.x.f.s.c.s.x.l.s.l.l.k.s.s.f.s.c.t.t                                                                                                                                                                                                                                                                                                                                                                                     ",
"                                                                                                                                                                                                                                                                                                                                                                      9.b.l.f.j.l.j.f.l.s.l.s.l.f.l.e.1.#.1.#.>.%.>.%.>.>.>.>.#.#.-.~ Y T T T R E T E Y T J R T T T R J R T T T E Y T E T T T K E 0.l.l.l.j.f.l.f.G.D.V.D.G.D.V.D.V.D.V.D.V.D.V.D.V.K.V.D.V.D.V.V.D.D.V.D.V.D.V.l.l.l.l.f.c.j.l.x.l.j.l.j.l.j.l.j.l.l.s.c.f.f.f.f.l.l.l.l.C.a.t                                                                                                                                                                                                                                                                                                                                                                                     ",
"                                                                                                                                                                                                                                                                                                                                                                      w.C.l.l.l.f.l.s.l.l.s.l.s.l.l.e.1.#.%.>.#.>.>.>.%.>.#.>.#.>.+.~ Y T Y J E Y T Y T E E T Y E Y T E T T R T Y T R T Y J R L E 5.c.f.j.f.l.s.l.D.V.H.V.D.V.H.V.H.V.H.V.H.V.K.V.D.V.D.V.K.V.D.G.D.V.D.V.D.D.D.B.l.f.c.f.l.i.l.l.j.l.x.l.x.l.j.f.j.l.s.c.j.s.l.f.l.j.l.l.Z.a.t                                                                                                                                                                                                                                                                                                                                                                                     ",
"                                                                                                                                                                                                                                                                                                                                                                      w.c.l.j.l.j.l.f.j.f.l.k.l.j.f.e.1.-.1.>.>.1.#.1.>.>.%.#.1.>.+.' ! E T E E Y R J T Y T Y T J E T Y T T Y J E T J E Y R Y Y ! 3.i.s.f.f.s.f.s.V.S.V.V.D.V.V.D.V.V.S.V.V.D.V.V.D.V.V.S.V.V.S.V.V.D.V.D.V.V.V.l.f.l.f.l.f.l.f.l.i.l.i.i.s.s.s.l.f.l.f.s.f.f.g.g.s.u.s.a.x.w.                                                                                                                                                                                                                                                                                                                                                                                      ",
"                                                                                                                                                                                                                                                                                                                                                                      9.Z.l.l.f.l.j.l.l.a.l.s.l.f.j.e.1.1.>.#.>.>.>.>.%.>.>.%.>.1.>...] ` ] ` ] ` ` T Y Y T T Y T Y T J R J E Y T Y T Y T T Y T R :.i.6.r.0.0.0.q.r.t.y.y.y.y.y.y.y.y.y.y.y.y.y.y.y.y.y.y.y.y.y.y.y.y.y.p.y.y.y.e.0.e.0.e.0.e.0.e.0.r.6.r.6.0.y.s.l.s.f.s.l.f.} h f z f z m                                                                                                                                                                                                                                                                                                                                                                                         ",
"                                                                                                                                                                                                                                                                                                                                                                      w.c.l.l.j.f.l.s.l.j.f.j.l.l.f.e.1.-.1.#.>.#.1.>.>.>.%.>.#.>.>.>.>.1.>.>.>.%.+.W T Y Y T Y T Y T Y T Y T T Y T Y T T T J T E { >.-.>.>.%.1.%.>.>.>.>.>.>.#.>.>.#.>.>.#.1.>.%.1.1.%.>.1.#.1.>.#.1.>.>.1.1.1.#.1.%.>.#.>.%.%.#.>.#.>.#.>.%.e.s.f.l.l.s.c.a.n                                                                                                                                                                                                                                                                                                                                                                                                     ",
"                                                                                                                                                                                                                                                                                                                                                                      w.C.l.j.l.l.l.l.f.j.l.f.s.l.s.e.1.<.>.>.>.>.#.>.%.>.>.>.>.>.#.1.#.>.1.1.1.>.-.E T T T E T E Y E T T E Y E T E J R T K T Y E o.1.#.:.#.1.>.:.>.>.#.>.#.>.>.#.>.>.#.>.>.>.#.>.>.#.>.>.#.>.>.>.>.#.>.>.#.>.>.>.1.>.1.1.1.%.%.1.>.>.>.:.#.%.0.j.j.s.f.j.l.s.S                                                                                                                                                                                                                                                                                                                                                                                                     ",
"                                                                                                                                                                                                                                                                                                                                                                      w.c.l.l.f.l.j.f.j.l.l.j.l.l.f.e.>.>.#.>.#.1.>.1.>.>.#.>.>.#.>.%.>.1.#.>.>.1.+.E Y Y Y T Y J E Y J R T J Y T Y T T Y T T Y E o.>.#.>.>.>.>.>.>.#.>.>.>.#.>.>.>.>.>.>.#.>.>.>.>.>.>.>.>.>.#.>.#.>.>.#.>.>.#.>.#.%.>.#.>.1.*.>.>.1.>.>.>.#.0.s.h.s.l.s.l.s.C                                                                                                                                                                                                                                                                                                                                                                                                     ",
"                                                                                                                                                                                                                                                                                                                                                                      w.c.l.l.j.l.l.s.l.s.l.f.s.l.j.e.1.<.>.>.>.#.>.#.1.>.>.>.>.>.%.%.#.>.>.>.#.1.+.! Y U T T Y T Y T T Y T Y T Y T Y J R Y Y Y E { >.%.>.:.>.>.%.>.>.1.%.>.>.#.1.>.#.1.#.>.>.#.>.#.>.#.>.%.>.>.>.>.>.>.>.>.>.>.%.>.#.>.#.%.1.%.>.>.>.>.+.:.%.5.j.l.s.f.s.l.f.n                                                                                                                                                                                                                                                                                                                                                                                                     ",
"                                                                                                                                                                                                                                                                                                                                                                      w.C.l.l.l.l.l.l.f.k.s.l.l.l.f.e.1.-.1.#.>.1.>.>.#.>.>.#.>.#.>.>.>.%.>.1.>.:.-.R Y T Y T Y J Y T Y J Y T Y J Y T Y T J J Y E { >.#.-.-.>.-.1.>.#.>.>.>.%.>.>.#.1.>.>.1.>.1.>.1.>.>.#.>.>.%.>.%.>.%.>.#.1.#.>.>.%.>.>.>.%.*.#.%.#.>.>.>.$.e.s.i.f.l.j.c.l.N                                                                                                                                                                                                                                                                                                                                                                                                     ",
"                                                                                                                                                                                                                                                                                                                                                                      w.c.l.j.f.j.f.j.l.j.l.s.f.j.f.e.1.1.>.>.#.>.#.1.>.1.#.>.1.>.>.%.>.>.1.#.>.>.{ ~ Y L Y L Y T Y J Y T Y T Y T Y J Y Y Y Y Y R { :.1.1.1.>.>.>.1.>.%.>.>.>.#.1.>.>.#.>.#.>.#.>.%.>.#.1.>.>.#.>.>.>.>.>.#.>.>.>.%.>.>.%.>.%.%.>.1.#.#.#.-.%.e.i.c.x.l.j.c.l.n                                                                                                                                                                                                                                                                                                                                                                                                     ",
"                                                                                                                                                                                                                                                                                                                                                                      w.c.l.l.l.l.l.s.f.f.j.l.l.l.s.e.1.-.%.>.>.1.>.#.>.#.>.>.>.%.>.>.>.#.>.>.%.>.| ( ! ~ E E E E E E E E E E E E E E E E E R ~ ` | >.1.>.>.>.-.1.#.>.>.>.%.>.>.>.#.1.>.1.>.1.>.>.>.>.>.>.#.1.>.1.%.>.%.>.1.>.%.>.>.1.>.>.1.%.%.%.>.>.>.>.#.#.5.y.i.s.a.s.j.a.n                                                                                                                                                                                                                                                                                                                                                                                                     ",
"                                                                                                                                                                                                                                                                                                                                                                      w.C.l.l.s.l.l.l.j.l.l.s.l.l.f.e.1.>.>.#.>.#.>.>.1.>.#.1.>.>.>.%.>.>.%.>.>.>.>.o.| o.{ o.{ o.{ o.{ o.{ { { { o.{ o.o.| o.o.-.-.>.>.>.1.>.>.#.>.1.#.>.>.1.#.>.>.#.>.#.>.#.1.%.>.%.>.#.1.>.#.>.>.>.>.#.>.>.>.1.#.>.#.>.%.>.%.>.%.>.>.>.1.>.1.3.4.3.4.4.6.4.g                                                                                                                                                                                                                                                                                                                                                                                                     ",
"                                                                                                                                                                                                                                                                                                                                                                      w.c.l.l.l.l.s.l.f.j.a.l.s.l.j.e.1.-.1.#.>.>.#.1.#.>.>.#.>.%.>.>.%.>.>.>.%.>.#.>.>.-.1.>.1.>.1.>.1.>.1.>.1.>.1.>.1.1.1.2.1.1.>.>.1.>.#.>.>.>.#.>.1.>.#.>.>.%.>.1.>.1.#.>.>.>.>.#.1.>.>.#.>.1.%.>.#.1.>.%.>.#.>.>.1.>.>.#.>.>.:.#.>.>.>.#.>.>.#.-.-.-.>.-.y                                                                                                                                                                                                                                                                                                                                                                                                     ",
"                                                                                                                                                                                                                                                                                                                                                                      w.c.l.l.j.l.l.f.j.l.l.f.l.l.f.e.1.<.>.>.#.1.>.>.>.1.>.>.1.>.>.#.>.>.#.>.>.#.>.>.1.1.>.1.>.>.1.>.>.1.>.1.>.1.>.>.>.>.>.>.>.>.1.>.>.>.1.>.>.1.>.#.>.1.>.#.1.>.#.>.#.>.>.1.>.%.>.>.>.%.>.1.>.>.>.>.1.>.#.>.1.>.>.%.>.#.>.>.#.>.>.>.>.>.>.>.#.1.>.1.<.-.>.-.r                                                                                                                                                                                                                                                                                                                                                                                                     ",
"                                                                                                                                                                                                                                                                                                                                                                      w.C.l.l.f.j.l.s.l.f.j.f.j.f.k.r.>.%.%.%.>.#.%.%.%.1.%.<.%.1.1.>.#.1.>.%.>.>.%.>.>.>.1.>.>.1.>.>.>.>.>.>.>.>.>.1.>.>.>.>.>.1.>.#.1.#.>.>.#.>.%.>.>.#.1.>.#.>.>.>.%.>.>.#.>.>.>.%.>.>.#.>.#.1.#.>.%.>.>.>.%.>.>.>.>.1.>.>.>.#.>.>.#.>.#.1.>.>.#.>.%.>.1.>.d                                                                                                                                                                                                                                                                                                                                                                                                     ",
"                                                                                                                                                                                                                                                                                                                                                                      w.c.l.j.l.l.l.l.f.k.f.l.k.j.f.e.1.%.1.#.#.>.#.#.1.<.1.-.1.+.<.1.>.#.>.>.#.>.>.>.%.>.>.#.>.>.#.1.#.>.%.>.#.>.#.>.%.>.1.>.#.>.>.#.>.>.1.#.>.>.>.#.1.>.>.#.1.>.%.>.>.>.%.>.>.#.1.>.#.1.>.>.1.#.>.>.>.1.#.>.>.#.1.#.#.>.#.1.#.>.>.#.>.>.1.#.>.%.>.>.>.>.1.>.f                                                                                                                                                                                                                                                                                                                                                                                                     ",
"                                                                                                                                                                                                                                                                                                                                                                      w.Z.l.l.l.l.l.j.l.j.f.j.f.l.l.e.1.#.#.>.>.#.>.>.#.>.#.1.1.>.#.>.#.1.>.>.1.>.#.1.>.#.1.>.1.#.>.>.>.1.>.>.#.1.>.#.1.>.#.>.>.%.>.1.>.%.>.>.1.#.>.>.>.#.1.>.>.>.>.#.>.1.>.>.#.1.>.#.>.>.%.>.>.>.#.1.#.>.>.1.>.#.>.>.1.>.>.#.>.#.1.>.1.#.>.>.>.>.>.1.>.1.3.>.d                                                                                                                                                                                                                                                                                                                                                                                                     ",
"                                                                                                                                                                                                                                                                                                                                                                      t.A.Z.Z.c.Z.Z.c.l.f.l.l.j.l.f.e.%.#.#.>.#.-.#.>.>.1.>.>.%.>.>.#.>.>.#.1.#.>.>.#.>.>.>.%.>.>.1.%.>.%.>.#.>.>.1.>.>.>.1.%.>.>.>.%.>.>.>.%.>.>.%.>.%.>.>.#.1.#.>.1.#.>.#.1.>.>.>.>.1.>.>.#.>.1.>.>.>.%.>.#.>.1.#.>.%.>.#.1.>.>.>.#.1.>.1.#.>.1.1.3.3.>.4.4.f                                                                                                                                                                                                                                                                                                                                                                                                     ",
"                                                                                                                                                                                                                                                                                                                                                                      $.w.=.7.8.=.8.w.s.l.j.f.l.j.l.t.3.3.3.1.3.1.1.1.#.>.#.>.>.%.>.1.>.%.>.>.>.1.#.1.>.#.1.>.>.#.>.>.>.#.>.1.>.#.>.#.1.#.>.>.#.1.>.>.>.#.1.>.>.>.>.>.>.#.>.>.>.#.>.>.>.%.>.>.#.>.%.>.#.>.#.1.>.#.>.%.>.>.>.>.1.#.>.>.>.1.>.>.#.1.#.>.%.1.>.>.o._ _ ' ' ' ' ' 8                                                                                                                                                                                                                                                                                                                                                                                                     ",
"                                                                                                                                                                                                                                                                                                                                                                                    u a.l.l.s.l.l.s.f.s.a.s.a.f.f.f.5.>.>.1.#.>.>.>.#.>.>.>.%.>.>.>.>.1.>.>.%.>.>.%.>.%.>.>.#.>.1.>.>.>.>.%.>.>.>.#.1.%.>.%.>.#.>.%.>.%.>.1.%.>.1.>.%.>.>.>.%.>.>.>.>.1.>.>.>.#.>.>.>.>.%.>.#.>.>.1.>.%.>.#.1.>.>.1.>.%.1.1.>.D                                                                                                                                                                                                                                                                                                                                                                                                                     ",
"                                                                                                                                                                                                                                                                                                                                                                                    0 p.c.l.l.l.j.l.l.l.l.l.l.l.l.l.5.#.>.>.>.1.#.1.>.1.#.1.>.>.%.>.#.>.#.>.>.1.>.>.>.>.>.1.>.>.#.>.%.>.#.>.>.%.>.>.>.>.>.>.>.1.>.>.>.>.>.#.>.>.#.>.>.>.#.>.>.1.#.1.#.>.%.>.1.>.1.#.1.>.>.#.1.>.#.>.>.>.>.>.#.>.#.>.1.%.1.>.4.v                                                                                                                                                                                                                                                                                                                                                                                                                     ",
"                                                                                                                                                                                                                                                                                                                                                                                    0 t.M.j.f.j.f.l.j.f.l.l.l.f.l.f.5.>.>.%.>.#.>.>.%.>.>.>.#.>.>.>.#.1.>.1.#.>.#.1.#.>.#.>.%.>.1.>.>.>.1.>.>.>.%.>.#.>.%.>.#.>.#.1.#.1.%.>.1.>.>.%.>.%.>.1.#.>.>.>.>.>.#.>.#.>.>.>.#.>.1.>.>.%.>.1.#.1.#.>.1.>.1.%.>.%.%.,.4.Z                                                                                                                                                                                                                                                                                                                                                                                                                     ",
"                                                                                                                                                                                                                                                                                                                                                                                    0 u.C.l.l.a.l.s.f.l.j.f.l.l.l.f.5.>.#.>.1.>.1.>.>.>.%.>.1.>.%.>.>.>.#.>.>.1.>.>.>.1.#.>.>.>.#.>.#.1.#.>.%.>.>.1.#.>.>.>.1.>.>.#.>.>.>.>.%.>.#.>.1.>.>.#.>.1.#.>.%.>.1.>.>.#.1.>.1.#.>.#.>.>.>.#.>.#.>.>.#.>.>.>.#.1.>.1.1.M                                                                                                                                                                                                                                                                                                                                                                                                                     ",
"                                                                                                                                                                                                                                                                                                                                                                                    0 p.l.l.j.l.f.l.k.s.l.l.j.f.l.s.0.>.1.>.#.>.%.>.#.>.>.#.>.>.#.1.#.1.>.>.#.#.>.#.>.#.>.1.#.1.>.1.>.%.>.>.>.%.>.%.>.>.%.>.%.>.>.1.>.#.1.#.>.>.1.#.>.>.%.>.>.>.1.>.>.#.>.#.1.>.#.>.#.>.1.>.%.>.1.#.1.>.#.1.>.%.>.%.>.>.#.1.3.M                                                                                                                                                                                                                                                                                                                                                                                                                     ",
"                                                                                                                                                                                                                                                                                                                                                                                    0 u.C.l.f.j.f.j.l.l.f.j.l.l.l.f.e.>.1.>.1.>.1.1.1.>.>.>.%.>.>.>.>.#.>.1.>.1.>.%.>.1.>.>.>.#.>.#.>.>.#.1.>.>.>.#.>.>.>.>.>.#.1.#.>.>.>.>.1.#.>.>.1.%.>.>.%.>.#.1.#.>.1.>.>.%.>.>.%.>.#.>.>.1.#.>.>.>.1.>.#.>.>.>.>.%.>.1.2.C                                                                                                                                                                                                                                                                                                                                                                                                                     ",
"                                                                                                                                                                                                                                                                                                                                                                                    0 t.l.l.s.l.f.l.s.f.j.l.f.l.l.s.r.1.4.3.1.1.4.4.>.1.#.>.>.%.>.%.>.>.>.#.>.#.>.>.>.%.>.%.>.1.>.1.#.1.>.>.#.1.#.>.1.#.1.#.>.>.>.>.%.>.%.>.%.>.>.#.>.>.>.>.>.>.>.>.1.>.#.>.>.>.1.>.>.>.1.>.%.>.>.>.%.>.#.>.1.>.>.2.3.1.>.4.4.D                                                                                                                                                                                                                                                                                                                                                                                                                     ",
"                                                                                                                                                                                                                                                                                                                                                                                    0 u.C.l.f.j.l.j.l.f.l.l.l.s.l.f.] Z D Z D A Z K o.>.>.%.>.>.>.>.>.%.>.1.>.1.>.%.>.>.>.#.>.#.>.#.>.>.>.%.>.>.>.#.>.>.%.>.1.%.>.#.>.>.>.>.>.>.%.>.>.#.1.#.1.#.>.%.>.%.>.#.1.#.>.#.1.#.>.>.>.#.1.>.>.#.>.1.>.o.D Z Z D Z A D                                                                                                                                                                                                                                                                                                                                                                                                                       ",
"                                                                                                                                                                                                                                                                                                                                                                                    0 a.c.l.j.l.f.f.j.l.s.l.s.j.c.t.g o           O ~ ,.1.>.#.>.%.>.>.>.#.>.#.>.%.>.>.%.>.1.>.>.1.>.>.%.>.>.1.#.1.>.1.>.>.>.#.>.>.>.%.>.%.>.%.>.>.>.%.>.>.>.>.%.>.>.>.>.>.1.>.>.#.1.>.>.%.>.%.>.>.#.1.#.>.1.>.! +                                                                                                                                                                                                                                                                                                                                                                                                                                   ",
"                                                                                                                                                                                                                                                                                                                                                                                    0 p.c.l.f.l.j.l.f.l.f.l.l.j.c.a.t               U 4.1.#.>.>.>.%.>.1.>.%.>.>.>.>.#.1.>.#.>.#.>.%.>.>.1.#.>.>.>.#.>.#.1.>.>.1.#.1.>.>.>.1.>.>.%.>.>.1.#.>.#.>.>.%.>.#.1.#.>.%.>.>.#.>.>.>.>.>.1.>.>.#.>.1.>.U                                                                                                                                                                                                                                                                                                                                                                                                                                     ",
"                                                                                                                                                                                                                                                                                                                                                                                    0 a.l.l.l.j.f.j.l.j.l.s.l.l.c.u.y                .1.1.>.+.1.#.>.>.#.>.>.#.1.#.1.>.>.>.1.#.1.>.>.#.1.>.>.#.1.>.1.#.>.>.%.>.#.>.#.>.%.>.#.>.#.>.>.#.>.1.#.1.>.>.#.>.>.>.>.>.>.>.1.>.1.#.1.#.>.#.>.1.#.>.>.3.R                                                                                                                                                                                                                                                                                                                                                                                                                                     ",
"                                                                                                                                                                                                                                                                                                                                                                                    0 a.c.l.l.l.l.l.s.f.l.k.j.f.l.p.y               U 3.1.#.>.>.>.%.>.1.#.1.>.>.>.#.>.%.>.>.>.#.>.>.>.#.>.>.>.>.#.>.>.1.#.>.>.>.1.>.>.>.>.1.>.>.1.#.1.#.>.>.>.#.1.>.1.#.>.%.>.#.1.#.>.1.>.1.>.1.1.>.1.>.#.1.3.!                                                                                                                                                                                                                                                                                                                                                                                                                                     ",
"                                                                                                                                                                                                                                                                                                                                                                                    0 a.C.l.j.f.j.l.l.l.j.f.j.a.l.a.y               ^ 3.1.>.#.>.%.>.>.>.>.#.>.%.>.1.>.>.%.>.%.>.1.%.>.>.%.>.#.1.>.#.>.%.>.>.%.>.#.1.#.1.#.>.%.>.>.>.>.>.1.#.1.>.>.#.>.>.%.>.>.>.#.>.1.>.1.>.1.>.1.>.>.#.>.>.4.R                                                                                                                                                                                                                                                                                                                                                                                                                                     ",
"                                                                                                                                                                                                                                                                                                                                                                                    y s.Z.c.l.l.C.l.l.l.f.l.l.s.c.a.y               U 2.1.>.+.1.>.>.%.>.1.>.>.>.>.#.>.1.>.>.>.>.#.>.>.#.>.1.>.#.1.>.>.>.>.>.>.>.>.>.>.>.%.>.>.#.1.%.>.#.>.>.>.#.1.>.%.>.>.1.#.>.1.>.1.>.1.>.1.>.1.>.1.>.1.>.3.!                                                                                                                                                                                                                                                                                                                                                                                                                                     ",
"                                                                                                                                                                                                                                                                                                                                                                                    t a.C.l.l.l.l.l.l.j.l.s.l.l.l.t.y .           O ! 2.>.#.>.#.>.>.>.%.>.#.1.#.1.>.>.#.>.#.>.%.>.1.#.>.>.#.>.>.>.%.>.%.>.%.>.#.1.%.>.#.>.>.1.>.>.>.#.1.>.%.>.>.#.1.>.>.#.>.1.#.>.:.>.1.>.>.>.>.>.1.>.>.>.>.,.~                                                                                                                                                                                                                                                                                                                                                                                                                                     ",
"                                                                                                                                                                                                                                                                                                                                                                                      n D B D M D B -.l.f.j.f.k.l.s.~ c n M c M c V ..>.>.1.>.1.>.#.>.>.>.>.>.#.>.#.1.>.%.>.>.>.#.>.>.1.>.>.%.>.>.>.#.>.>.>.1.>.>.>.>.1.>.#.>.#.1.>.>.#.>.>.#.1.>.>.#.1.>.>.>.+.J s s f s h s h s s h s s h h                                                                                                                                                                                                                                                                                                                                                                                                                                       ",
"                                                                                                                                                                                                                                                                                                                                                                                                    M s.f.s.s.l.s.l.f.l.f.f.l.f.l.s.1.>.#.>.#.>.1.>.%.>.%.>.1.>.>.>.#.>.>.1.#.1.>.>.%.>.%.>.>.#.1.>.1.>.%.>.#.>.%.>.#.>.1.>.1.>.#.1.>.>.#.>.>.#.>.1.>.#.>.#.>.| 8                                                                                                                                                                                                                                                                                                                                                                                                                                                                   ",
"                                                                                                                                                                                                                                                                                                                                                                                                    n j.x.j.f.x.s.l.l.l.l.l.l.l.Z.a.3.#.>.1.>.%.>.>.>.>.>.#.>.#.1.>.1.>.#.>.>.>.%.>.>.>.>.#.1.>.#.>.%.>.>.>.1.#.>.1.>.#.#.>.#.>.>.%.>.1.>.%.>.1.>.%.>.>.#.1.1.+.0                                                                                                                                                                                                                                                                                                                                                                                                                                                                   ",
"                                                                                                                                                                                                                                                                                                                                                                                                    m s.x.j.s.l.s.i.l.l.l.j.j.j.l.s.3.>.>.#.>.>.#.1.#.1.>.1.>.>.#.>.#.>.1.#.1.#.>.>.%.>.1.>.#.>.>.>.>.>.%.>.#.>.>.#.1.>.>.#.1.>.>.#.>.#.>.>.>.#.>.>.#.>.#.>.1.>.8                                                                                                                                                                                                                                                                                                                                                                                                                                                                   ",
"                                                                                                                                                                                                                                                                                                                                                                                                    n i.s.i.l.f.f.h.l.l.j.l.l.x.j.s.3.>.#.>.1.#.>.>.>.>.#.>.#.1.>.#.1.>.>.>.>.>.1.>.#.>.%.>.>.1.%.>.%.>.>.#.>.>.1.>.#.>.#.>.>.%.>.>.1.>.#.1.#.>.1.>.1.#.>.>.1.-.8                                                                                                                                                                                                                                                                                                                                                                                                                                                                   ",
"                                                                                                                                                                                                                                                                                                                                                                                                    n f.c.l.s.l.l.l.l.l.j.l.l.f.l.s.3.#.>.>.>.>.1.1.>.>.>.>.>.#.>.>.>.>.#.>.1.>.%.>.>.>.>.1.#.>.>.1.>.>.1.>.>.#.>.#.>.>.>.#.>.>.%.>.%.>.>.%.>.#.>.%.#.1.%.>.>.+.t                                                                                                                                                                                                                                                                                                                                                                                                                                                                   ",
"                                                                                                                                                                                                                                                                                                                                                                                                    M l.l.l.s.l.l.j.f.f.l.s.l.j.l.a.3.1.-.<.-.1.>.-.1.1.>.1.>.>.1.1.1.1.1.>.1.>.1.>.1.1.1.1.1.1.1.1.1.1.1.1.>.1.>.>.1.#.1.>.%.>.>.>.>.1.#.>.%.>.1.1.1.1.1.3.3.>.w                                                                                                                                                                                                                                                                                                                                                                                                                                                                   ",
"                                                                                                                                                                                                                                                                                                                                                                                                    M f.l.j.f.j.l.f.j.l.j.l.f.l.l.s.3.1.1.2.1.1.1.1.-.+.+.o.+.o.+.+.+.+.+.+.+.+.+.+.+.+.+.o.+.o.o.o.o.o.o.o.o.{ +.>.>.>.>.>.>.>.#.1.#.>.>.>.>.#.+.o.+.+.o.+.#...                                                                                                                                                                                                                                                                                                                                                                                                                                                                    ",
"                                                                                                                                                                                                                                                                                                                                                                                                    n l.c.l.s.l.l.s.l.f.f.l.j.l.f.l.a.e.p.t.t.t.s.#.u                                                           t o.3.>.%.>.%.>.>.>.>.>.%.>.1.,.L 8 4                                                                                                                                                                                                                                                                                                                                                                                                                                                                               ",
"                                                                                                                                                                                                                                                                                                                                                                                                    M f.l.j.f.j.l.f.l.j.l.l.f.j.l.s.l.l.l.l.l.z.Z.O.                                                              ' 3.1.>.>.>.#.1.#.>.#.>.>.>.>.s .                                                                                                                                                                                                                                                                                                                                                                                                                                                                                 ",
"                                                                                                                                                                                                                                                                                                                                                                                                    n l.c.l.s.l.l.j.l.f.j.f.l.l.f.l.f.l.l.M.k.n.Z.O.                                                              ' 4.1.>.#.1.>.>.#.>.#.1.>.1.>.s                                                                                                                                                                                                                                                                                                                                                                                                                                                                                   ",
"                                                                                                                                                                                                                                                                                                                                                                                                    M f.l.j.f.j.l.f.l.f.l.j.l.a.l.s.l.l.l.l.k.l.b.O.                                                               .3.>.>.>.>.#.1.>.#.>.>.#.1.,.z                                                                                                                                                                                                                                                                                                                                                                                                                                                                                   ",
"                                                                                                                                                                                                                                                                                                                                                                                                    n l.l.f.j.l.f.j.l.j.f.a.l.l.s.l.l.f.l.l.l.l.Z.o.                                                              ' 4.1.>.%.>.>.>.>.#.>.%.>.>.;.h                                                                                                                                                                                                                                                                                                                                                                                                                                                                                   ",
"                                                                                                                                                                                                                                                                                                                                                                                                    M f.c.l.s.l.l.f.l.l.j.l.l.s.l.l.s.l.l.n.l.l.M.O.                                                              ..2.1.1.1.1.>.%.>.%.>.1.>.,.>.z                                                                                                                                                                                                                                                                                                                                                                                                                                                                                   ",
"                                                                                                                                                                                                                                                                                                                                                                                                    n l.l.s.l.s.l.j.f.j.l.f.l.f.l.l.f.l.l.l.k.l.Z.O.                                                              o.6.4.1.2.1.>.2.>.>.1.>.1.2.,.z                                                                                                                                                                                                                                                                                                                                                                                                                                                                                   ",
"                                                                                                                                                                                                                                                                                                                                                                                                    M f.l.l.s.l.l.f.j.f.l.j.l.s.l.j.l.l.a.l.l.l.B.$.                                                              ( +.{ [ ' { ' ' ..' ]  .` ..] p                                                                                                                                                                                                                                                                                                                                                                                                                                                                                   ",
"                                                                                                                                                                                                                                                                                                                                                                                                    n l.c.l.s.l.l.s.l.l.l.f.l.s.l.f.j.l.l.l.n.l.l.a.&.&.&.@.&.&.@.$.$.$.$.$.$.%.$.r                                                                                                                                                                                                                                                                                                                                                                                                                                                                                                                                                 ",
"                                                                                                                                                                                                                                                                                                                                                                                                    M f.l.l.s.l.l.f.l.j.f.j.l.f.j.l.f.l.l.l.l.l.l.l.M.z.M.M.M.M.Z.Z.b.Z.Z.b.Z.Z.c.n                                                                                                                                                                                                                                                                                                                                                                                                                                                                                                                                                 ",
"                                                                                                                                                                                                                                                                                                                                                                                                    n f.c.l.f.j.l.s.l.l.l.f.j.f.l.f.j.l.l.l.l.l.l.l.l.l.c.l.j.l.l.l.f.l.l.l.l.c.l.n                                                                                                                                                                                                                                                                                                                                                                                                                                                                                                                                                 ",
"                                                                                                                                                                                                                                                                                                                                                                                                    M j.l.l.s.l.l.f.j.l.j.f.l.s.l.l.l.f.l.l.l.l.l.j.l.l.j.l.l.l.l.l.s.l.l.l.l.l.l.n                                                                                                                                                                                                                                                                                                                                                                                                                                                                                                                                                 ",
"                                                                                                                                                                                                                                                                                                                                                                                                    n f.c.l.l.l.j.l.l.f.l.l.j.l.l.s.l.j.l.s.l.j.f.l.s.f.f.s.f.j.l.l.k.f.l.f.l.c.l.n                                                                                                                                                                                                                                                                                                                                                                                                                                                                                                                                                 ",
"                                                                                                                                                                                                                                                                                                                                                                                                    N l.C.l.l.l.l.l.l.j.f.l.f.l.l.j.f.l.l.l.l.l.j.f.l.j.l.l.l.f.k.l.l.f.l.f.l.l.f.z                                                                                                                                                                                                                                                                                                                                                                                                                                                                                                                                                 ",
"                                                                                                                                                                                                                                                                                                                                                                                                    V c.Z.Z.c.Z.A.Z.l.l.l.s.l.s.l.f.l.j.f.j.f.s.l.l.l.l.s.l.s.l.l.l.k.j.l.l.l.C.a.z                                                                                                                                                                                                                                                                                                                                                                                                                                                                                                                                                 ",
"                                                                                                                                                                                                                                                                                                                                                                                                    p O.+.O.O.O.O.%.t.c.s.l.f.l.s.l.j.l.l.f.j.l.f.j.f.j.f.l.l.j.f.k.l.l.l.l.l.l.j.P *                                                                                                                                                                                                                                                                                                                                                                                                                                                                                                                                               ",
"                                                                                                                                                                                                                                                                                                                                                                                                                    / l.f.s.s.j.f.k.n.k.f.j.f.l.s.l.f.l.s.l.s.f.j.f.j.l.j.s.l.f.s.a.w.w.w.w.w.t.*.                                                                                                                                                                                                                                                                                                                                                                                                                                                                                                                                  ",
"                                                                                                                                                                                                                                                                                                                                                                                                                    Y c.s.l.s.l.s.l.n.l.l.l.l.l.l.l.j.l.l.l.l.l.f.j.k.j.l.j.l.j.l.l.M.M.l.c.c.Z.y.                                                                                                                                                                                                                                                                                                                                                                                                                                                                                                                                  ",
"                                                                                                                                                                                                                                                                                                                                                                                                                    ! c.x.s.l.s.l.l.n.l.l.s.l.s.l.f.l.s.l.s.l.j.f.l.l.l.j.l.f.l.j.l.l.l.l.j.l.l.e.                                                                                                                                                                                                                                                                                                                                                                                                                                                                                                                                  ",
"                                                                                                                                                                                                                                                                                                                                                                                                                    T v.j.i.l.s.l.l.n.k.l.f.k.s.l.s.l.l.s.l.f.l.s.f.l.k.l.l.k.l.k.l.l.l.l.j.l.l.t.                                                                                                                                                                                                                                                                                                                                                                                                                                                                                                                                  ",
"                                                                                                                                                                                                                                                                                                                                                                                                                    R c.c.j.f.j.f.l.n.l.l.j.l.l.l.l.j.l.a.l.l.l.f.k.j.l.k.l.l.k.l.l.k.l.k.j.j.l.t.t                                                                                                                                                                                                                                                                                                                                                                                                                                                                                                                                 ",
"                                                                                                                                                                                                                                                                                                                                                                                                                    ! Z.l.l.l.s.l.k.n.n.l.l.l.l.j.l.f.l.l.s.f.j.l.l.l.l.j.l.k.l.l.l.l.j.l.l.l.c.a.0                                                                                                                                                                                                                                                                                                                                                                                                                                                                                                                                 ",
"                                                                                                                                                                                                                                                                                                                                                                                                                    ! b.c.l.l.c.l.M.M.C.Z.c.C.C.C.M.n.n.n.n.n.n.l.j.l.k.l.l.l.j.k.j.l.l.l.s.j.c.t.5                                                                                                                                                                                                                                                                                                                                                                                                                                                                                                                                 ",
"                                                                                                                                                                                                                                                                                                                                                                                                                    p W W Y W Y W U W U Y W Y Y Y ` a.M.k.l.k.l.l.l.j.l.j.j.k.l.j.l.l.k.j.s.j.c.e.4                                                                                                                                                                                                                                                                                                                                                                                                                                                                                                                                 ",
"                                                                                                                                                                                                                                                                                                                                                                                                                                                    w.M.l.l.l.k.j.s.l.s.f.j.s.s.l.s.s.s.l.l.j.l.e.0                                                                                                                                                                                                                                                                                                                                                                                                                                                                                                                                 ",
"                                                                                                                                                                                                                                                                                                                                                                                                                                                    w.C.f.j.l.l.f.l.f.l.l.f.l.l.f.l.l.f.l.j.x.l.t.4                                                                                                                                                                                                                                                                                                                                                                                                                                                                                                                                 ",
"                                                                                                                                                                                                                                                                                                                                                                                                                                                    w.l.l.f.j.l.l.l.f.l.f.l.f.l.l.l.f.l.j.x.j.x.t.                                                                                                                                                                                                                                                                                                                                                                                                                                                                                                                                  ",
"                                                                                                                                                                                                                                                                                                                                                                                                                                                    w.c.l.s.l.l.s.j.j.s.j.l.j.j.f.s.j.l.s.c.j.c.e.                                                                                                                                                                                                                                                                                                                                                                                                                                                                                                                                  ",
"                                                                                                                                                                                                                                                                                                                                                                                                                                                    w.l.l.l.l.f.l.f.l.l.l.s.f.l.j.l.f.l.j.j.s.l.t.                                                                                                                                                                                                                                                                                                                                                                                                                                                                                                                                  ",
"                                                                                                                                                                                                                                                                                                                                                                                                                                                    a.Z.c.l.c.l.l.c.l.l.c.l.c.l.C.l.c.l.c.l.l.c.a.                                                                                                                                                                                                                                                                                                                                                                                                                                                                                                                                  ",
"                                                                                                                                                                                                                                                                                                                                                                                                                                                    9.l.s.s.a.s.f.a.s.s.a.s.a.s.a.s.a.s.a.a.s.j.p.                                                                                                                                                                                                                                                                                                                                                                                                                                                                                                                                  ",
"                                                                                                                                                                                                                                                                                                                                                                                                                                                    h m n n n n n m n n n n m n n n m n n j n                                                                                                                                                                                                                                                                                                                                                                                                                                                                                                                                       ",
"                                                                                                                                                                                                                                                                                                                                                                                                                                                                                                                                                                                                                                                                                                                                                                                                                                                                                                                                                                                                                                    ",
"                                                                                                                                                                                                                                                                                                                                                                                                                                                                                                                                                                                                                                                                                                                                                                                                                                                                                                                                                                                                                                    ",
"                                                                                                                                                                                                                                                                                                                                                                                                                                                                                                                                                                                                                                                                                                                                                                                                                                                                                                                                                                                                                                    ",
"                                                                                                                                                                                                                                                                                                                                                                                                                                                                                                                                                                                                                                                                                                                                                                                                                                                                                                                                                                                                                                    ",
"                                                                                                                                                                                                                                                                                                                                                                                                                                                                                                                                                                                                                                                                                                                                                                                                                                                                                                                                                                                                                                    ",
"                                                                                                                                                                                                                                                                                                                                                                                                                                                                                                                                                                                                                                                                                                                                                                                                                                                                                                                                                                                                                                    ",
"                                                                                                                                                                                                                                                                                                                                                                                                                                                                                                                                                                                                                                                                                                                                                                                                                                                                                                                                                                                                                                    ",
"                                                                                                                                                                                                                                                                                                                                                                                                                                                                                                                                                                                                                                                                                                                                                                                                                                                                                                                                                                                                                                    ",
"                                                                                                                                                                                                                                                                                                                                                                                                                                                                                                                                                                                                                                                                                                                                                                                                                                                                                                                                                                                                                                    ",
"                                                                                                                                                                                                                                                                                                                                                                                                                                                                                                                                                                                                                                                                                                                                                                                                                                                                                                                                                                                                                                    ",
"                                                                                                                                                                                                                                                                                                                                                                                                                                                                                                                                                                                                                                                                                                                                                                                                                                                                                                                                                                                                                                    ",
"                                                                                                                                                                                                                                                                                                                                                                                                                                                                                                                                                                                                                                                                                                                                                                                                                                                                                                                                                                                                                                    ",
"                                                                                                                                                                                                                                                                                                                                                                                                                                                                                                                                                                                                                                                                                                                                                                                                                                                                                                                                                                                                                                    ",
"                                                                                                                                                                                                                                                                                                                                                                                                                                                                                                                                                                                                                                                                                                                                                                                                                                                                                                                                                                                                                                    ",
"                                                                                                                                                                                                                                                                                                                                                                                                                                                                                                                                                                                                                                                                                                                                                                                                                                                                                                                                                                                                                                    "
};
