/* XPM */
static char *out[] = {
/* columns rows colors chars-per-pixel */
"498 498 162 2 ",
"   c None",
".  c black",
"X  c #0C0C0D",
"o  c #0C0D11",
"O  c #0B1212",
"+  c #0C161B",
"@  c #141213",
"#  c #16181B",
"$  c #041524",
"%  c #041C2B",
"&  c #0C1D2C",
"*  c #141A24",
"=  c #151B2C",
"-  c #041F34",
";  c #0C222B",
":  c #15242C",
">  c #0C2533",
",  c #04273C",
"<  c #0C263A",
"1  c #0C2A3C",
"2  c #142433",
"3  c #1C2632",
"4  c #142A3D",
"5  c #042B43",
"6  c #0C2B44",
"7  c #042F4B",
"8  c #142C43",
"9  c #142E4C",
"0  c #0C3244",
"q  c #0C344C",
"w  c #153244",
"e  c #14354D",
"r  c #1C364C",
"t  c #0C3654",
"y  c #043A5C",
"u  c #0C3B59",
"i  c #143654",
"p  c #143B54",
"a  c #1D3C53",
"s  c #143A5C",
"d  c #1C3D5C",
"f  c #0C3E64",
"g  c #143E63",
"h  c #0C4365",
"j  c #0C466A",
"k  c #144265",
"l  c #1C4565",
"z  c #154B64",
"x  c #1C4A64",
"c  c #14466C",
"v  c #1C466C",
"b  c #144A6C",
"n  c #1C4A6B",
"m  c #0C4672",
"M  c #0C4A74",
"N  c #0C4D7C",
"B  c #144674",
"V  c #144A74",
"C  c #1C4B74",
"Z  c #144C7C",
"A  c #145274",
"S  c #1C5274",
"D  c #14557C",
"F  c #1C567C",
"G  c #24557C",
"H  c #0C5383",
"J  c #0C578B",
"K  c #145683",
"L  c #1C5684",
"P  c #145A84",
"I  c #1C5A84",
"U  c #14568C",
"Y  c #1C568C",
"T  c #145B8C",
"R  c #1C5D8C",
"E  c #0C5B94",
"W  c #145C95",
"Q  c #1C5D94",
"!  c #125E99",
"~  c #255584",
"^  c #245B84",
"/  c #245E8B",
"(  c #1C6394",
")  c #14639B",
"_  c #1C669B",
"`  c #1C6A9C",
"'  c #246494",
"]  c #2C6694",
"[  c #246A9C",
"{  c #2C6C9C",
"}  c #1466A3",
"|  c #1C66A5",
" . c #146AA4",
".. c #1C6BA4",
"X. c #1C66AC",
"o. c #146DAC",
"O. c #1C6EAB",
"+. c #1472AD",
"@. c #1C72AC",
"#. c #1C6EB4",
"$. c #1473B4",
"%. c #1C74B4",
"&. c #1476BC",
"*. c #1C76BC",
"=. c #1C7ABD",
"-. c #246DA4",
";. c #2C6FA4",
":. c #2C6EAC",
">. c #2472A4",
",. c #2473AC",
"<. c #2C74AB",
"1. c #246EB4",
"2. c #2474B4",
"3. c #2C76B4",
"4. c #247AB4",
"5. c #2C7AB4",
"6. c #247DBC",
"7. c #2C7DBB",
"8. c #147BC2",
"9. c #1C7EC3",
"0. c #1C81C3",
"q. c #1482CC",
"w. c #1C83CC",
"e. c #2482C5",
"r. c #2C82C4",
"t. c #2486CB",
"y. c #2C86CB",
"u. c #248ACC",
"i. c #2C8ACC",
"p. c #348CCC",
"a. c #2386D4",
"s. c #2C86D4",
"d. c #248CD4",
"f. c #2C8ED4",
"g. c #248EDC",
"h. c #2C8EDB",
"j. c #348ED2",
"k. c #348EDC",
"l. c #2492D4",
"z. c #2C92D4",
"x. c #2C92DC",
"c. c #2C9ADB",
"v. c #3492D4",
"b. c #3494DB",
"n. c #3C96DB",
"m. c #359ADC",
"M. c #2494E2",
"N. c #2C95E5",
"B. c #2C9AE4",
"V. c #2496EC",
"C. c #2C96EC",
"Z. c #249AEB",
"A. c #2C9DEC",
"S. c #349AE4",
"D. c #3C9DE4",
"F. c #349EED",
"G. c #3C9EEC",
"H. c #2C9EFC",
"J. c #2CA1F3",
"K. c #2CA2FC",
"L. c #34A2F3",
"P. c #3CA6F5",
/* pixels */
"                                                                                                                                                                                                                                                                                                                                                                                                                                                                                                                                                                                                                                                                                                                                                                                                                                                                                                                                                                                                                                    ",
"                                                                                                                                                                                                                                                                                                                                                                                                                                                                                                                                                                                                                                                                                                                                                                                                                                                                                                                                                                                                                                    ",
"                                                                                                                                                                                                                                                                                                                                                                                                                                                                                                                                                                                                                                                                                                                                                                                                                                                                                                                                                                                                                                    ",
"                                                                                                                                                                                                                                                                                                                                                                                                                                                                                                                                                                                                                                                                                                                                                                                                                                                                                                                                                                                                                                    ",
"                                                                                                                                                                                                                                                                                                                                                                                                                                                                                                                                                                                                                                                                                                                                                                                                                                                                                                                                                                                                                                    ",
"                                                                                                                                                                                                                                                                                                                                                                                                                                                                                                                                                                                                                                                                                                                                                                                                                                                                                                                                                                                                                                    ",
"                                                                                                                                                                                                                                                                                                                                                                                                                                                                                                                                                                                                                                                                                                                                                                                                                                                                                                                                                                                                                                    ",
"                                                                                                                                                                                                                                                                                                                                                                                                                                                                                                                                                                                                                                                                                                                                                                                                                                                                                                                                                                                                                                    ",
"                                                                                                                                                                                                                                                                                                                                                                                                                                                                                                                                                                                                                                                                                                                                                                                                                                                                                                                                                                                                                                    ",
"                                                                                                                                                                                                                                                                                                                                                                                                                                                                                                                                                                                                                                                                                                                                                                                                                                                                                                                                                                                                                                    ",
"                                                                                                                                                                                                                                                                                                                                                                                                                                                                                                                                                                                                                                                                                                                                                                                                                                                                                                                                                                                                                                    ",
"                                                                                                                                                                                                                                                                                                                                                                                                                                                                                                                                                                                                                                                                                                                                                                                                                                                                                                                                                                                                                                    ",
"                                                                                                                                                                                                                                                                                                                                                                                                                                                                                                                                                                                                                                                                                                                                                                                                                                                                                                                                                                                                                                    ",
"                                                                                                                                                                                                                                                                                                                                                                                                                                                                                                                                                                                                                                                                                                                                                                                                                                                                                                                                                                                                                                    ",
"                                                                                                                                                                                                                                                                                                                                                                                                                                                                                                                                                                                                                                                                                                                                                                                                                                                                                                                                                                                                                                    ",
"                                                                                                                                                                                                                                                                                                                                                                                                                                                                                                                                                                                                                                                                                                                                                                                                                                                                                                                                                                                                                                    ",
"                                                                                                                                                                                                                                                                                                                                                                                                                                                                                                                                                                                                                                                                                                                                                                                                                                                                                                                                                                                                                                    ",
"                                                                                                                                                                                                                                                                                                                                                                                                                                                                                                                                                                                                                                                                                                                                                                                                                                                                                                                                                                                                                                    ",
"                                                                                                                                                                                                                                                                                                                                                                                                                                                                                                                                                                                                                                                                                                                                                                                                                                                                                                                                                                                                                                    ",
"                                                                                                                                                                                                                                                                                                                                                                                                                                                                                                                                                                                                                                                                                                                                                                                                                                                                                                                                                                                                                                    ",
"                                                                                                                                                                                                                                                                                                                                                                                                                                                                                                                                                                                                                                                                                                                                                                                                                                                                                                                                                                                                                                    ",
"                                                                                                                                                                                                                                                                                                                                                                                                                                                                                                                                                                                                                                                                                                                                                                                                                                                                                                                                                                                                                                    ",
"                                                                                                                                                                                                                                                                                                                                                                                                                                                                                                                                                                                                                                                                                                                                                                                                                                                                                                                                                                                                                                    ",
"                                                                                                                                                                                                                                                                                                                                                                                                                                                                                                                                                                                                                                                                                                                                                                                                                                                                                                                                                                                                                                    ",
"                                                                                                                                                                                                                                                                                                                                                                                                                                                                                                                                                                                                                                                                                                                                                                                                                                                                                                                                                                                                                                    ",
"                                                                                                                                                                                                                                                                                                                                                                                                                                                                                                                                                                                                                                                                                                                                                                                                                                                                                                                                                                                                                                    ",
"                                                                                                                                                                                                                                                                                                                                                                                                                                                                                                                                                                                                                                                                                                                                                                                                                                                                                                                                                                                                                                    ",
"                                                                                                                                                                                                                                                                                                                                                                                                                                                                                                                                                                                                                                                                                                                                                                                                                                                                                                                                                                                                                                    ",
"                                                                                                                                                                                                                                                                                                                                                                                                                                                                                                                                                                                                                                                                                                                                                                                                                                                                                                                                                                                                                                    ",
"                                                                                                                                                                                                                                                                                                                                                                                                                                                                                                                                                                                                                                                                                                                                                                                                                                                                                                                                                                                                                                    ",
"                                                                                                                                                                                                                                                                                                                                                                                                                                                                                                                                                                                                                                                                                                                                                                                                                                                                                                                                                                                                                                    ",
"                                                                                                                                                                                                                                                                                                                                                                                                                                                                                                                                                                                                                                                                                                                                                                                                                                                                                                                                                                                                                                    ",
"                                                                                                                                                                                                                                                                                                                                                                                                                                                                                                                                                                                                                                                                                                                                                                                                                                                                                                                                                                                                                                    ",
"                                                                                                                                                                                                                                                                                                                                                                                                                                                                                                                                                                                                                                                                                                                                                                                                                                                                                                                                                                                                                                    ",
"                                                                                                                                                                                                                                                                                                                                                                                                                                                                                                                                                                                                                                                                                                                                                                                                                                                                                                                                                                                                                                    ",
"                                                                                                                                                                                                                                                                                                                                                                                                                                                                                                                                                                                                                                                                                                                                                                                                                                                                                                                                                                                                                                    ",
"                                                                                                                                                                                                                                                                                                                                                                                                                                                                                                                                                                                                                                                                                                                                                                                                                                                                                                                                                                                                                                    ",
"                                                                                                                                                                                                                                                                                                                                                                                                                                                                                                                                                                                                                                                                                                                                                                                                                                                                                                                                                                                                                                    ",
"                                                                                                                                                                                                                                                                                                                                                                                                                                                                                                                                                                                                                                                                                                                                                                                                                                                                                                                                                                                                                                    ",
"                                                                                                                                                                                                                                                                                                                                                                                                                                                                                                                                                                                                                              h 0.0.9.0.9.t.&.                                                                                                                                                                                                                                                                                                                                                                                      ",
"                                                                                                                                                                                                                                                                                                                                                                                                                                                                                                                                                                                                                              C S.S.b.S.b.S.f.                                                                                                                                                                                                                                                                                                                                                                                      ",
"                                                                                                                                                                                                                                                                                                                                                                                                                                                                                                                                                                                                                              V b.x.h.x.x.b.e.                                                                                                                                                                                                                                                                                                                                                                                      ",
"                                                                                                                                                                                                                                                                                                                                                                                                                                                                                                                                                                                                                              b x.b.z.h.z.b.e.                                                                                                                                                                                                                                                                                                                                                                                      ",
"                                                                                                                                                                                                                                                                                                                                                                                                                                                                                                                                                                                                                              V z.x.z.x.z.b.e.                                                                                                                                                                                                                                                                                                                                                                                      ",
"                                                                                                                                                                                                                                                                                                                                                                                                                                                                                                                                                                                                                              b x.b.z.x.x.x.e.                                                                                                                                                                                                                                                                                                                                                                                      ",
"                                                                                                                                                                                                                                                                                                                                                                                                                                                                                                                                                                                                                              b x.x.z.x.f.b.e.                                                                                                                                                                                                                                                                                                                                                                                      ",
"                                                                                                                                                                                                                                                                                                                                                                                                                                                                                                                                                                                                                              V z.b.z.x.z.b.e.                                                                                                                                                                                                                                                                                                                                                                                      ",
"                                                                                                                                                                                                                                                                                                                                                                                                                                                                    ..@.O.O.O.O.#.O.#.O.#...-.#...#...1...#.-.#...1...#.-.#...1...#.-...O.@.O.@.O.@.O.O.O.O.@...                                                              b x.x.z.x.x.z.t.                                                                                                                                                                                                                                                                                                                                                                                      ",
"                                                                                                                                                                                                                                                                                                                                                                                                                                                                    2.4.,.2.2.2.2.2.2.2.2.2.2.2.2.3.2.2.2.2.2.2.2.2.2.2.2.2.2.2.2.2.2.2.5.4.4.4.4.4.4.4.,.4.4.,.                                                              V z.b.f.f.x.b.t.                                                                                                                                                                                                                                                                                                                                                                                      ",
"                                                                                                                                                                                                                                                                                                                                                                                                                                                                    O.,.,.2.,.,.,.,.,.,.,.,.,.,.,.@.,.,.,.,.,.,.,.,.,.,.,.,.,.,.,.,.,.,.,.,.@.,.,.@.,.,.,.2.,.,.                                                              n x.x.h.z.z.x.a.                                                                                                                                                                                                                                                                                                                                                                                      ",
"                                                                                                                                                                                                                                                                                                                                                                                                                                                                    -.2.%.,.,.,.,.%.,.@.,.,.%.,.,.,.,.%.,.,.@.,.,.@.,.,.@.,.@.,.,.@.2.@.,.,.,.@.,.,.,.@.,.2.2.O.                                                              V z.b.f.x.h.x.a.                                                                                                                                                                                                                                                                                                                                                                                      ",
"                                                                                                                                                                                                                                                                                                                                                                                                                                                                    O.2.@.,.@.,.2.,.,.,.2.@.,.%.,.@.,.,.@.2.,.,.%.,.,.2.,.,.,.@.2.,.,.,.2.@.,.,.,.,.,.,.,.,.,.O.                                                              V x.b.f.z.x.b.a.                                                                                                                                                                                                                                                                                                                                                                                      ",
"                                                                                                                                                                                                                                                                                                                                                                                                                                                                    1.2.@.,.2.@.,.@.,.%.,.,.,.,.,.2.,.%.,.,.2.@.,.,.%.,.%.,.2.,.,.@.2.@.,.,.,.@.,.%.,.,.%.,.,.O.                                                              V b.m.x.x.b.S.d.                                                                                                                                                                                                                                                                                                                                                                                      ",
"                                                                                                                                                                                                                                                                                                                                                                                                                                                                    O.2.2.@.,.,.,.2.@.,.@.2.@.,.%.,.,.,.2.@.,.,.2.,.,.,.,.@.,.%.,.,.@.,.2.,.%.,.,.,.,.,.,.%.,.O.8                                                             b z.x.f.f.x.x.a.                                                                                                                                                                                                                                                                                                                                                                                      ",
"                                                                                                                                                                                                                                                                                                                                                                                                        C b V b n c                                               C O.2.,.,.%.,.@.,.,.2.,.@.,.,.,.@.2.@.,.,.,.%.,.@.2.@.,.2.@.,.2.,.2.,.,.,.,.,.@.,.,.@.,.,.2.,.C u                                                             c v k k c l k                                                                                                                                                                                                                                                                                                                                                                                       ",
"                                                                                                                                                                                                                                                                                                                                                                                                      j.v.f.v.z.z.i.                L <.,.,.,.,.,.>.,.<.,.,.,.-.,.,.2.,.,.@.,.,.,.%.,.@.,.@.,.@.2.,.,.,.@.2.,.,.@.,.,.,.,.,.2.,.%.,.@.,.@.@.,.@.,.,.%.,.@.,.,.2.2.2.,.2.,.%.4.                                                                                                                                                                                                                                                                                                                                                                                                                                                      ",
"                                                                                                                                                                                                                                                                                                                                                                                                    z z.b.b.x.v.b.f.                ! 5.<.,.%.2.2.,.,.<.>.2.%.2.2.,.,.@.,.2.@.2.@.,.,.,.,.%.,.@.,.@.2.,.,.@.2.,.,.%.,.%.,.@.,.@.,.2.,.@.,.,.,.2.@.,.,.,.2.,.@.2.,.2.,.,.,.2.<. .                                                                                                                                                                                                                                                                                                                                                                                                                                                    ",
"                                                                                                                                                                                                                                                                                                                                                                                                    l f.z.f.z.z.b.f.                P <.,.2.,.@.@.,.,.,.,.,.%.@.,.@.,.,.@.,.,.,.,.%.,.%.,.@.,.@.,.,.@.2.@.,.,.@.,.,.,.2.,.2.%.,.,.@.,.,.@.,.%.,.,.%.,.@.,.%.,.,.2.,.,.,.,.,.2...                                                                                                                                                                                                                                                                                                                                                                                                                                                    ",
"                                                                                                                                                                                                                                                                                                                                                                                                    k f.x.h.f.b.b.u.                T 2.%.,.,.,.,.@.%.@.%.,.,.@.,.@.%.,.,.%.2.@.2.,.,.,.,.,.,.,.,.2.,.,.,.,.@.2.,.%.,.@.,.,.,.2.@.,.2.@.,.,.@.,.2.,.,.,.%.,.,.,.@.,.,.%.,.2.2...                                                                                                                                                                                                                                                                                                                                                                                                                                                    ",
"                                                                                                                                                                                                                                                                                                                                                                                                    k f.b.z.x.f.b.f.                T <.2.,.@.,.%.,.%.2.@.,.@.,.2.2.%.,.%.@.,.@.,.%.@.%.2.@.2.@.,.@.,.@.2.@.,.,.@.,.,.2.@.,.@.,.,.,.,.@.2.@.,.2.@.,.@.,.,.,.%.,.,.2.,.,.,.,.,. .                                                                                                                                                                                                                                                                                                                                                                                                                                                    ",
"                                                                                                                                                                                                                                                                                                                                                                                                    k f.h.b.z.j.x.i.                U 3.%.,.-.2.,.%.2.2.2.,.,.,.2.,.%.2.,.%.%.,.%.,.,.%.,.,.@.,.2.,.,.2.,.,.,.2.,.@.2.,.,.,.2.,.%.,.2.,.,.2.@.,.,.,.2.@.,.,.,.@.2.@.,.@.2.@.,.)                                                                                                                                                                                                                                                                                                                                                                                                                                                     ",
"                                                                                                                                                                                                                                                                                                                                                                                                  X n f.x.f.x.z.b.d.a             @ W 5.3.2.2.2.,.2.#.2.@.,.-.2.@.2.#.,.2.%.,.%.,.@.2.@.@.,.2.,.@.,.@.,.@.2.@.,.,.,.@.,.@.,.@.,.,.%.,.%.,.,.,.%.,.@.,.,.%.,.2.,.,.,.,.,.@.,.2...                                                                                                                                                                                                                                                                                                                                                                                                                                                    ",
"                                                                                                                                                                                                                                                                                                                                                                                        W T T W T T 2.h.z.z.l.f.z.f.O.W ) W T E W ( 6.i.e.e.e.e.e.e.@.2.,.,.,.,.,.2.@.,.,.%.,.,.%.,.@.,.2.@.,.%.,.%.2.%.,.%.,.%.,.%.,.2.,.2.,.%.,.,.,.@.2.@.,.,.2.,.%.,.,.@.,.@.2.%.,.,.2.,.,.O.L M M Z M M V M M V M M M M V                                                                                                                                                                                                                                                                                                                                                                                                                       ",
"                                                                                                                                                                                                                                                                                                                                                                                      h.D.b.b.m.b.n.b.M.z.x.x.f.h.z.x.b.b.m.S.m.m.S.x.x.z.v.z.b.z.f.2.@.,.,.@.,.@.,.,.2.@.,.2.@.,.,.,.@.,.,.,.@.,.@.,.@.,.@.,.@.,.,.,.@.,.@.,.,.@.,.%.,.,.@.,.%.,.%.,.,.,.,.2.@.,.,.,.@.,.%.,.2.4.5.5.4.5.5.4.5.5.4.5.2.5.5.5.V                                                                                                                                                                                                                                                                                                                                                                                                                     ",
"                                                                                                                                                                                                                                                                                                                                                                                      d.S.x.N.b.x.x.x.f.x.M.l.x.x.h.x.x.x.x.x.x.x.x.b.x.x.x.x.x.x.i.%.,.@.,.,.,.,.%.,.,.,.,.@.,.,.%.,.,.2.@.2.,.2.,.,.,.,.,.,.,.,.@.,.,.%.,.@.,.,.2.,.@.,.2.,.,.,.,.,.@.2.%.,.,.,.@.,.2.@.,.2.,.2.2.2.2.2.2.2.2.2.2.,.2.,.2.5.B                                                                                                                                                                                                                                                                                                                                                                                                                     ",
"                                                                                                                                                                                                                                                                                                                                                                                      a.S.h.h.x.h.d.z.x.x.x.M.M.f.M.z.h.M.x.h.x.x.x.g.x.x.h.h.h.x.y.%.2.,.@.,.@.,.,.@.,.%.,.2.,.@.,.2.@.,.,.@.,.@.,.@.2.@.,.%.,.2.,.%.,.,.,.2.,.@.,.@.,.2.@.,.%.,.%.,.,.,.,.@.,.@.2.,.,.,.,.,.,.,.,.,.,.,.,.,.,.,.,.,.,.,.2.<.k                                                                                                                                                                                                                                                                                                                                                                                                                     ",
"                                                                                                                                                                                                                                                                                                                                                                                      e.b.h.f.x.x.f.l.f.M.x.M.x.x.x.M.x.x.M.x.M.h.M.x.x.h.h.x.h.x.f.2.@.,.@.,.,.,.2.,.,.@.,.@.2.,.@.,.,.,.2.,.,.2.,.@.,.,.%.,.%.,.,.,.,.%.,.@.,.@.,.2.,.@.,.,.2.@.,.2.@.,.,.,.2.,.,.@.2.@.2.@.2.%.,.,.@.,.@.,.,.%.,.,.@.2.,.<.v                                                                                                                                                                                                                                                                                                                                                                                                                     ",
"                                                                                                                                                                                                                                                                                                                                                                                      a.N.x.x.z.z.f.f.x.x.x.h.z.x.h.z.h.z.h.z.x.z.x.f.x.h.x.h.x.x.u.2.-.,.,.,.%.,.@.,.,.2.,.,.,.,.,.,.%.,.O.2.O.2.@.2.%.2.@.,.,.@.2.%.,.,.2.,.,.2.,.@.,.,.2.@.,.,.,.,.,.%.,.@.,.,.2.,.,.,.%.,.,.,.2.@.2.,.,.2.@.,.,.%.,.@.2.=.j                                                                                                                                                                                                                                                                                                                                                                                                                     ",
"                                                                                                                                                                                                                                                                                                                                                                                      t.N.h.z.h.h.z.x.g.x.x.h.x.h.x.h.x.h.x.h.h.h.x.h.x.h.C.h.x.x.d.2.O.-.@.@.,.@.-.%.,.O.%.,.#.@.-.%.-.1.2.O.2.%.2.@.,.2.@.%.,.,.,.@.,.@.,.@.,.@.,.2.,.@.,.,.2.@.,.%.,.,.@.2.,.@.,.%.,.@.,.@.2.@.,.,.,.,.%.,.,.,.@.,.@.,.,.4.m                                                                                                                                                                                                                                                                                                                                                                                                                     ",
"                                                                                                                                                                                                                                                                                                                                                                                    r a.x.h.h.x.f.f.h.M.h.x.h.x.h.x.h.x.h.x.h.x.x.h.x.h.h.h.h.x.x.f.3.2.3.2.2.2.2.3.2.2.3.2.2.3.2.2.3.2.2.2.2.2.%.,.2.,.%.,.,.@.,.2.,.,.2.,.2.,.,.@.,.2.,.@.2.,.@.,.,.,.2.,.@.,.2.@.,.,.2.@.,.,.,.@.2.@.,.,.,.%.,.2.,.,.,.2.3.M                                                                                                                                                                                                                                                                                                                                                                                                                     ",
"                                                                                                                                                                                                                                                                                                                                                                        6.=.&.=.=.&.e.d.x.x.z.h.x.f.M.A.A.A.A.F.A.F.A.F.A.F.A.F.A.F.A.F.F.A.A.B.F.c.f.u.f.d.d.u.f.d.f.d.f.u.f.d.f.d.d.f.d.f.d.f.i.6.,.,.,.,.@.2.%.,.@.,.@.,.@.,.@.,.@.,.%.,.@.,.,.,.@.2.@.,.,.,.@.,.2.@.,.,.@.2.@.,.,.2.,.%.,.,.@.,.%.@.,.2.2.b                               H w.9.9.=.9.6.}                                                                                                                                                                                                                                                                                                                                                                       ",
"                                                                                                                                                                                                                                                                                                                                                                      e.D.m.D.m.b.m.S.x.x.x.x.x.x.x.A.A.F.L.A.L.A.F.F.A.F.A.F.A.F.A.F.F.F.F.F.S.J.B.b.z.z.z.v.x.z.x.z.x.z.h.x.f.x.f.x.h.x.x.z.h.f.5.@.-.2.@.%.,.,.,.2.@.,.,.2.@.2.,.2.,.,.,.2.@.2.,.,.,.%.,.%.,.,.,.@.,.%.,.,.,.,.2.@.,.,.@.,.@.2.,.,.,.@.,.2.j                               _ F.S.m.x.F.D.r.                                                                                                                                                                                                                                                                                                                                                                      ",
"                                                                                                                                                                                                                                                                                                                                                                      e.S.S.h.x.b.x.x.x.x.x.x.x.x.x.N.F.A.A.J.J.J.J.J.J.J.L.J.J.J.L.J.J.S.A.S.J.L.A.x.h.x.x.x.x.h.h.f.h.x.f.x.f.x.h.z.h.z.g.x.z.f.6.,.,.,.%.%.@.%.,.@.,.2.@.,.,.,.@.,.@.,.@.,.,.@.,.%.,.,.,.,.@.2.,.2.,.,.,.%.,.@.,.,.@.,.,.2.,.,.@.,.@.2.,.2.c                               W S.x.z.z.b.S.9.                                                                                                                                                                                                                                                                                                                                                                      ",
"                                                                                                                                                                                                                                                                                                                                                                      q.S.x.x.x.h.x.h.x.h.f.b.f.h.x.N.F.J.F.A.F.L.F.L.F.J.F.J.F.J.F.J.F.F.S.F.F.A.S.h.h.h.x.h.k.x.x.x.x.x.x.x.x.x.x.x.x.x.f.z.f.f.6.,.,.@.>.%.,.,.,.,.,.@.,.%.,.,.,.2.,.%.,.2.,.,.,.,.%.,.@.2.,.%.,.@.,.%.,.,.,.2.,.%.,.%.,.@.,.@.2.,.@.,.2.5.j                               W m.x.x.x.h.b.0.                                                                                                                                                                                                                                                                                                                                                                      ",
"                                                                                                                                                                                                                                                                                                                                                                      q.S.x.x.f.x.h.x.f.x.x.h.x.h.x.N.F.A.A.J.A.F.A.A.F.A.F.A.F.A.F.A.F.F.F.F.A.F.F.h.x.h.h.x.h.x.x.x.h.x.h.x.h.x.h.x.h.z.f.z.h.f.6.,.>.,.,.%.,.%.,.%.,.2.,.,.@.,.@.,.,.,.@.,.%.,.@.,.,.,.,.,.,.,.,.2.,.,.,.@.2.@.,.,.,.,.,.,.%.,.,.,.@.,.,.4.V                               W S.x.x.M.z.b.9.                                                                                                                                                                                                                                                                                                                                                                      ",
"                                                                                                                                                                                                                                                                                                                                                                      9.b.h.f.f.f.x.x.h.x.x.h.h.h.z.B.F.L.J.F.A.F.A.F.A.F.A.L.L.J.F.A.F.A.F.F.F.A.F.x.d.x.x.x.z.x.h.x.x.x.x.f.x.f.f.h.f.h.x.z.h.f.6.O.%.@.,.2.,.2.,.,.2.,.@.2.,.2.2.,.2.,.,.%.,.,.,.%.@.,.%.,.@.2.@.,.@.,.%.,.,.@.,.%.,.%.,.2.,.,.%.,.,.2.,.2.M                               ) S.x.M.z.h.S.q.                                                                                                                                                                                                                                                                                                                                                                      ",
"                                                                                                                                                                                                                                                                                                                                                                    O 9.b.f.z.f.f.g.x.x.b.x.b.x.h.x.N.J.F.J.A.A.A.A.A.F.H.L.J.A.J.J.J.L.A.L.J.F.L.A.x.M.z.x.l.x.M.z.M.x.x.M.z.x.x.z.h.z.f.x.z.x.f.6.,.,.@.,.%.,.2.2.2.2.2.2.2.2.2.,.2.2.2.2.,.,.@.2.,.%.,.,.,.,.,.,.@.,.2.,.@.2.,.,.,.,.,.@.,.%.,.,.,.@.,.@.4.j                               ) B.c.M.x.h.x.0.                                                                                                                                                                                                                                                                                                                                                                      ",
"                                                                                                                                                                                                                                                                                                                                                                  < r e.S.z.z.z.x.z.f.t.i.f.t.s.t.i.x.A.A.A.A.A.A.A.A.A.A.A.A.A.A.A.A.A.A.F.A.A.A.A.x.x.x.N.x.x.x.N.x.N.x.N.x.x.x.x.x.x.x.f.f.x.f.6.O.2.@.,.%.,.,.....-...-...-...-.....-...O.` O.%.,.@.,.,.2.,.%.,.2.,.@.,.,.%.,.2.@.,.%.,.,.@.,.%.,.2.@.,.4.D                               E S.x.M.M.z.N.w.                                                                                                                                                                                                                                                                                                                                                                      ",
"                                                                                                                                                                                                                                                                                                                                                        i.e.t.w.e.w.w.h.x.x.x.M.x.z.y.2.%.2.2.2.2.%.e.x.b.z.x.x.x.z.x.z.z.x.x.x.x.x.S.F.A.A.F.A.F.A.F.A.F.A.A.F.A.A.F.A.A.F.A.A.F.N.g.h.x.z.x.x.f.6.,.@.,.%.,.2.O.^ L I I I I I I I I I I I P P ( ;.,.@.2.,.@.,.,.,.@.,.2.@.2.,.@.,.2.@.,.%.,.,.,.,.,.@.,.2.%.O.O.O. . .` O.                  W m.z.z.z.x.b.9.                                                                                                                                                                                                                                                                                                                                                                      ",
"                                                                                                                                                                                                                                                                                                                                                      ) D.b.N.N.N.N.x.x.h.g.h.f.h.b.t.,.,.,.,.@.2.%.e.f.z.x.f.z.z.z.z.x.z.x.M.z.g.x.B.F.F.A.F.A.A.F.A.F.A.F.A.F.A.F.A.F.F.A.A.F.A.A.x.x.x.h.z.x.f.6.,.@.2.%.,.2.O.I K D L L K L L K L L K L S P ( ,.@.,.,.,.2.,.2.,.,.,.@.,.,.,.2.,.@.,.,.,.,.@.2.@.,.2.,.@.,.2.2.2.2.4.4.5.,.                W m.b.z.x.M.b.9.                                                                                                                                                                                                                                                                                                                                                                      ",
"                                                                                                                                                                                                                                                                                                                                                      } m.N.x.x.x.x.x.M.x.x.z.x.x.b.t.,.@.,.2.,.@.%.e.h.z.f.h.f.h.x.f.x.f.x.g.x.M.x.S.S.A.F.A.F.J.F.F.A.S.A.F.B.F.A.F.A.A.F.A.K.F.A.h.x.x.z.x.x.f.6.,.%.,.%.,.,.@.I L L K L L L K L L K L S L K ( ,.%.%.,.@.,.,.@.,.%.,.2.,.@.,.@.,.2.,.2.@.,.2.,.,.@.,.@.,.,.%.2.-.2.>.,.4.>.                T b.h.x.l.z.x.9.                                                                                                                                                                                                                                                                                                                                                                      ",
"                                                                                                                                                                                                                                                                                                                                                      } S.b.v.z.v.f.h.h.x.x.x.x.x.x.u.2.@.%.@.2.2.,.e.j.h.x.M.l.z.l.M.M.l.x.x.f.h.x.A.F.F.J.F.F.A.F.A.F.F.A.F.F.A.A.A.F.A.A.F.A.F.N.M.x.x.x.f.x.f.6.,.@.,.,.%.2.-.I L K L L A I L L K L L P K P ( ,.@.,.@.2.%.,.%.@.,.@.,.,.%.,.,.,.@.,.,.,.%.,.@.,.2.,.2.,.,.,.2.,.,.%.,.,.-.                W S.x.z.x.x.N.w.                                                                                                                                                                                                                                                                                                                                                                      ",
"                                                                                                                                                                                                                                                                                                                                                      } S.x.x.f.x.h.x.x.h.z.M.z.M.x.t.,.,.2.@.,.2.@.r.f.x.z.x.g.h.z.z.x.x.x.x.z.h.x.A.J.F.A.J.F.A.L.A.F.J.F.A.J.F.A.A.A.A.A.A.F.A.N.M.x.x.x.z.x.h.6.O.,.,.,.,.,.O.I L L S I I K L A L L L L K L ( 2.,.%.,.,.@.,.%.,.,.2.,.@.,.,.%.,.,.@.,.%.,.,.,.2.%.,.@.,.%.,.,.2.@.@.@.2.-.                W m.x.z.x.x.N.0.                                                                                                                                                                                                                                                                                                                                                                      ",
"                                                                                                                                                                                                                                                                                                                                                      ) S.x.z.f.x.h.h.h.z.M.f.x.z.x.t.,.@.2.,.,.2.,.e.z.v.h.z.x.x.h.h.z.f.x.M.z.x.x.A.L.A.F.A.L.A.F.J.F.A.F.A.F.A.A.A.F.A.A.F.A.F.B.x.x.M.z.M.x.h.6.,.2.@.,.%.,.-.I K L P L L K L I L P S L L L ( 2.,.,.2.,.2.,.2.%.,.@.,.,.2.,.,.,.%.,.,.,.,.@.2.,.,.%.,.,.,.,.@.-.2.@.2.2.-.                T m.x.x.M.x.B.q.                                                                                                                                                                                                                                                                                                                                                                      ",
"                                                                                                                                                                                                                                                                                                                                                    $ ) m.x.z.M.M.z.z.b.z.f.x.f.x.f.i.,.,.,.@.,.O.%.e.h.z.x.f.x.h.x.x.x.x.h.x.f.z.h.B.L.F.A.F.F.A.F.F.A.F.F.F.A.L.A.L.A.J.F.J.A.F.B.M.x.z.z.z.v.f.4.-.,.@.,.,.,.-.L K P L L K L L L K L L P K P ( 2.,.,.,.,.,.,.,.2.,.2.@.,.@.2.@.,.,.,.%.,.@.,.@.,.,.,.,.%.,.,.2.,.@.,.,.%.,.q               ) S.N.x.N.x.S.0.                                                                                                                                                                                                                                                                                                                                                                      ",
"                                                                                                                                                                                                                                                                                                                                          p k u s u k =.z.x.z.z.M.z.f.y.e.e.y.e.t.e.6.,.,.,.,.2.,.%.6.e.y.e.e.y.e.y.d.h.g.h.z.f.z.x.N.B.N.A.N.A.N.B.C.B.N.A.B.C.B.A.F.F.A.F.A.F.A.B.B.B.N.S.B.N.S.r.6.7.6.e.6.7.6.I K I K L L L K L L K S P L K R ` _ _ _ ( _ [ ..@.,.@.,.2.,.,.,.@.2.,.,.@.2.,.,.@.,.%.,.,.,.@.,.2.,.,.@.,.,.C 8             j D D D D Z D D s p s k p k                                                                                                                                                                                                                                                                                                                                                           ",
"                                                                                                                                                                                                                                                                                                                                        z.l.d.f.d.g.l.f.M.x.f.z.l.x.f.=.*.2.%.2.2.%.2.,.@.,.,.,.,.,.%.*.2.2.%.3.,.%.y.f.h.f.z.j.j.f.h.x.x.x.x.x.x.x.x.x.x.x.x.x.g.N.S.F.S.F.F.A.F.F.F.F.F.A.F.A.F.b.j.h.h.f.f.f.u.R A S K L K L L L L L I L S L L T Y L L L L L ` ,.,.,.@.,.@.,.2.,.%.,.,.,.,.@.2.,.,.,.,.%.,.,.,.@.,.@.,.%.%.-.-.-.O.O.>.,.|                 &.x.f.f.h.f.j.                                                                                                                                                                                                                                                                                                                                                        ",
"                                                                                                                                                                                                                                                                                                                                      D S.B.x.x.x.x.b.x.f.M.f.x.h.z.f.4.@.@.2.%.@.2.@.,.,.@.,.@.,.,.,.@.,.@.,.%.%.2.t.h.h.h.x.h.h.z.h.M.f.z.d.x.f.l.h.z.d.x.d.x.f.N.A.F.A.F.A.F.A.A.A.F.F.B.F.A.A.N.M.z.x.x.x.x.d.R D L L L L K S P L K K L D L K L L L K L K L ( @.@.,.2.@.,.,.@.@.,.,.%.,.2.@.,.%.,.%.,.,.@.2.,.,.,.@.,.,.2.,.,.,.,.,.,.4.O.                9.m.x.x.b.x.D.X.                                                                                                                                                                                                                                                                                                                                                      ",
"                                                                                                                                                                                                                                                                                                                                      D b.x.x.x.x.x.x.h.z.x.f.f.h.x.d.4.,.%.,.2.@.,.%.,.@.2.,.@.2.@.2.,.@.,.,.%.2.2.e.x.h.x.x.z.x.x.f.z.h.x.f.x.z.h.z.x.x.z.x.z.h.N.F.A.F.A.F.A.F.F.L.A.F.A.F.J.F.N.M.x.M.M.h.S.d./ D K L K I L K L S I L S I K L K L K I K L I ( -.%.@.,.,.2.@.2.@.2.,.,.@.,.,.,.,.@.,.,.%.,.,.@.,.,.2.,.@.,.@.,.%.,.,.2.4.O.                9.S.x.x.x.x.S. .                                                                                                                                                                                                                                                                                                                                                      ",
"                                                                                                                                                                                                                                                                                                                                      D b.l.x.x.x.x.z.z.z.x.x.f.M.z.f.4.@.,.%.,.@.,.@.,.2.,.@.,.,.,.,.,.2.,.,.%.@.2.a.k.h.h.h.x.f.h.x.x.z.x.z.h.z.x.z.h.z.h.z.x.x.N.J.F.A.F.A.L.A.F.A.L.A.F.B.F.A.N.M.f.x.x.f.b.d.R D L K L S P L L P L K L K L L L P L K I A I ( ,.%.,.@.,.,.,.@.,.@.,.,.2.@.2.@.2.,.,.,.@.,.,.,.%.,.@.,.,.2.,.,.,.,.@.,.5...                6.b.z.z.h.h.m._                                                                                                                                                                                                                                                                                                                                                       ",
"                                                                                                                                                                                                                                                                                                                                      D x.z.z.z.M.z.g.z.h.z.h.z.f.h.d.2.%.,.2.%.,.@.2.,.%.,.,.,.%.,.%.,.@.,.@.2.%.2.e.x.x.x.x.x.x.x.x.x.l.h.l.h.l.h.l.x.l.x.h.l.x.N.F.A.F.A.F.A.F.A.F.A.F.A.F.A.B.b.x.z.x.x.x.b.d./ K L L P L L I A I L S P L S K L L A I K I I ( ,.@.,.2.,.%.,.2.@.2.,.@.,.,.,.,.@.2.%.,.2.%.,.@.,.2.,.%.,.@.2.@.2.,.2.,.4.O.                =.b.x.x.f.x.n.}                                                                                                                                                                                                                                                                                                                                                       ",
"                                                                                                                                                                                                                                                                                                                                      D x.x.z.f.x.z.x.x.b.x.b.b.x.b.d.2.@.%.,.,.%.,.@.,.,.,.%.,.,.@.,.,.,.2.,.%.%.2.a.h.x.x.x.M.z.h.M.x.x.x.x.x.x.x.x.x.x.x.x.x.b.S.A.F.F.A.F.A.F.A.F.A.F.A.F.F.B.x.h.f.f.h.z.x.t.R D D L K L A I L L L I K I P S I P I K S L I ( >.2.,.,.,.,.2.,.,.@.,.,.%.,.%.,.,.,.,.%.,.,.@.2.,.@.,.,.,.,.,.,.@.,.@.2.2...                =.b.x.x.h.x.S.)                                                                                                                                                                                                                                                                                                                                                       ",
"                                                                                                                                                                                                                                                                                                                                    X L x.x.x.x.z.g.z.d.d.d.d.f.d.g.t.2.@.,.%.,.%.,.@.,.%.,.,.@.,.,.%.,.@.,.,.%.%.2.a.b.h.x.f.f.g.x.f.h.z.x.z.x.z.x.f.x.f.d.f.d.h.N.F.L.A.F.A.F.A.F.A.F.A.F.A.S.S.b.x.x.f.x.x.x.d.^ L L L L I I L L K L K L S P I K L L L P L L ] ;.>.,.,.,.,.,.,.1.,.2.@.,.,.,.@.,.@.2.,.@.,.2.,.%.,.2.,.%.,.@.,.2.,.@.,.2.O.                *.m.x.h.f.h.b.| @                                                                                                                                                                                                                                                                                                                                                     ",
"                                                                                                                                                                                                                                                                                                                          K A D D D U 2.x.x.z.h.z.x.d.~ i s p a s p l O.,.,.,.,.,.,.2.,.,.,.2.,.%.,.,.,.,.@.,.2.%.2.6.e.r.6.6.r.6.6.2.@.-.-.-.-.-.,.-.,.,.-.,.-.@.6.x.S.N.S.F.A.A.A.L.A.J.A.A.F.F.B.N.B.B.B.B.B.N.6.2.2.*.4.6.6.O.R K L L K I L L L S K L S P L I ' ( ( ' Q ' ' O.,.@.,.,.2.@.,.2.@.,.@.,.2.@.,.,.,.@.,.,.,.%.,.,.@.,.2.,.2.O.                &.b.x.j.x.x.x.9.L Z D D C K L                                                                                                                                                                                                                                                                                                                                         ",
"                                                                                                                                                                                                                                                                                                                        z.b.x.x.x.b.x.x.x.x.z.M.x.b.a.              O ) 5.,.,.,.2.,.,.@.2.@.,.@.,.,.@.,.,.,.@.%.%.%.2.%.%.2.2.1.,.-.W D K D U D U D D D L D D L J O.h.b.f.h.x.x.M.A.A.A.F.F.A.F.A.F.A.F.F.F.A.A.F.x.x.x.b.x.x.S.6.T D K I L L K S P L I K I L A I L L L K L D L ..,.,.,.%.,.,.,.,.2.,.,.,.@.,.,.%.,.2.,.%.,.,.@.,.,.2.@.,.2.O.                =.b.x.f.f.x.g.M.x.b.b.v.b.b.m.                                                                                                                                                                                                                                                                                                                                        ",
"                                                                                                                                                                                                                                                                                                                        f.x.b.z.x.z.x.x.x.f.x.x.z.N.t.                ) 5.,.,.@.,.,.,.2.,.,.,.,.@.,.,.%.,.@.,.,.,.,.,.>.,.-.2.,.,.-.R K L L L L F L L L D L L D L [ f.z.v.z.f.h.z.S.F.F.A.F.A.L.L.A.L.F.A.L.A.F.A.x.x.x.x.x.x.S.6.R K P L S I L I L L L L K L I K L L P L I L I ` ,.,.,.,.@.,.%.,.@.,.%.,.,.2.@.,.,.@.,.,.@.2.,.2.@.,.,.2.,.O.                &.b.x.z.h.x.x.z.h.x.x.h.x.b.x.D                                                                                                                                                                                                                                                                                                                                       ",
"                                                                                                                                                                                                                                                                                                                        d.b.z.z.z.z.h.x.f.h.z.g.x.b.w.                ) 2.,.,.,.,.2.,.,.@.2.%.,.,.%.,.,.,.,.,.,.2.,.,.,.,.2.2.,.2.-.R K L L L I L L L L L L L I D -.z.x.x.h.z.h.x.S.F.F.L.A.F.A.F.A.F.J.F.A.A.J.F.x.h.x.h.x.x.x.6.I K L K I K L K S P L A I L K L L L K K L K I ` ,.@.,.2.@.,.,.2.,.,.,.,.@.,.,.2.@.,.,.2.,.,.@.,.,.%.,.,.2...                *.b.x.f.f.z.x.h.x.x.x.h.z.x.b.K                                                                                                                                                                                                                                                                                                                                       ",
"                                                                                                                                                                                                                                                                                                                        d.x.f.z.f.z.x.x.x.f.g.z.x.S.w.                ) 3.,.,.,.,.,.,.2.,.@.,.,.@.,.,.@.,.@.,.@.@.%.,.,.,.,.2.2.,.@.R P I L P L I P I I I I K I K -.M.x.x.M.f.x.h.B.F.S.F.J.F.J.A.F.A.F.A.F.A.F.A.x.g.l.d.x.x.x.9.I D L L K I S I K L L I K L S I K I S P I S I ` ,.,.%.,.,.2.@.,.%.,.%.,.2.@.,.@.2.,.@.,.@.2.,.@.2.,.,.2.2.O.                &.b.z.x.f.x.h.z.h.h.h.f.h.x.x.Z                                                                                                                                                                                                                                                                                                                                       ",
"                                                                                                                                                                                                                                                                                                                      p d.b.f.l.z.f.x.f.x.x.x.x.x.S.a.                ) 2.,.,.,.2.,.,.,.,.,.%.,.,.,.@.,.,.,.,.,.,.,.,.,.,.,.@.@.,.-.R K L K L K K L K K K K L K F -.f.x.f.h.h.x.h.B.F.F.A.F.A.F.F.J.F.J.F.A.F.A.F.M.x.z.x.z.x.x.6.R D L L L L P L I K L S I L P L S I P L K L I ` ,.@.,.,.@.,.,.,.,.,.@.,.,.,.2.,.@.,.2.,.@.,.2.,.,.%.,.,.2.O.                &.b.z.x.f.x.x.h.h.x.x.h.z.x.b.Z                                                                                                                                                                                                                                                                                                                                       ",
"                                                                                                                                                                                                                                                                                                                      p u.x.z.z.d.x.h.x.b.b.x.x.b.D.d.                } <.2.,.,.,.,.2.@.2.,.,.2.@.,.,.,.@.,.@.2.@.%.,.,.-.2.,.,.,.O.R K L K L K L K L K L L K L D -.j.b.x.v.z.h.z.S.F.F.L.L.L.L.L.A.F.A.F.F.J.F.A.M.M.x.z.x.z.x.6.R K L K I S I K L S P I K L L I P L L P S P I [ <.,.2.,.2.,.%.@.2.@.,.%.,.%.@.,.2.@.,.2.,.,.@.,.,.,.%.,.2.O.                *.c.x.f.h.z.h.z.x.x.x.h.x.x.b.Z                                                                                                                                                                                                                                                                                                                                       ",
"                                                                                                                                                                                                                                                                                                                    X l g.x.z.M.M.h.f.y.e.e.e.a.6.a.*.3             # } 2.,.@.2.%.,.@.,.,.@.,.,.,.%.,.%.,.,.,.%.%.%.,.-.1.-.O.@.@.O.Q U L L K L S I L L L K L K K [ y.d.i.y.i.t.i.x.Z.B.B.B.Z.N.B.A.J.A.F.F.A.L.A.N.M.x.x.x.x.N.=.I K L L K I K L L P L L L K S I L K S I L L I ] ;.O.,.O.,.@.@.@.,.%.,.%.,.,.2.@.@.2.@.,.@.,.2.@.,.%.,.,.2...                &.S.b.z.h.x.x.h.h.x.x.f.x.x.b.Z                                                                                                                                                                                                                                                                                                                                       ",
"                                                                                                                                                                                                                                                                                                        E ..}  .}  . .6.g.x.h.x.h.x.f.G 2             m J K J P J H T ,.2.,.2.,.,.2.,.%.,.2.@.2.,.%.,.,.,.@.,.2.,.,.[ ( R R Q / R R I K K L S P I K L A I L S L F I ' ' [ ' ' ( ' [ -.-.[ ` ` ` >.d.L.F.F.H.F.J.A.A.A.B.A.A.A.S.t.R D L A I L L S K L I A I L I K L I K I K L K I / R R R R R [ O.%.%.,.,.2.@.%.,.@.,.@.,.2.,.,.,.2.,.,.2.4...                *.b.x.h.z.x.z.x.h.x.x.h.x.x.b.Z                                                                                                                                                                                                                                                                                                                                       ",
"                                                                                                                                                                                                                                                                                                        y.D.D.S.D.S.n.x.x.x.f.x.h.x.i.p               H r.5.4.4.4.5.,.,.,.@.,.@.2.,.@.,.2.@.,.,.@.,.,.@.2.,.2.,.,.,.Q K D L D F K L K L S I P L L L I L K I K I F F F L F F K K D K H D D J K D T t.P.F.A.A.A.F.H.A.A.F.F.A.F.L.u.I L L I L A I K I S I L K L L L A I L L K S L L K S L L K K R ,.2.%.,.@.,.@.,.@.2.@.2.,.@.,.@.2.@.,.@.,.2.O.                &.b.x.z.h.h.x.f.x.x.x.f.x.x.b.Z                                                                                                                                                                                                                                                                                                                                       ",
"                                                                                                                                                                                                                                                                                                        t.S.x.x.x.x.x.f.x.z.h.x.h.x.i.p               N 5.2.,.,.@.%.+.%.,.@.,.,.@.,.,.@.,.,.,.2.,.@.,.,.@.,.,.,.,.,.( P L L L L S P P P L L L L A I K S I L L L P L L S I L K P Y K L F K K K K R i.L.H.F.F.A.F.F.F.A.F.A.F.A.L.t.I A I A I L I L L P L L L P S I K L K L I K L P L P L K L L R O.%.%.,.,.,.2.,.,.,.,.,.,.%.,.@.,.,.,.2.,.2...                =.S.x.h.f.x.z.h.x.h.x.h.x.x.b.Z                                                                                                                                                                                                                                                                                                                                       ",
"                                                                                                                                                                                                                                                                                                        0.S.x.x.x.x.x.f.x.g.x.h.x.x.f.p               H 7.%.%.,.@.@.%.>.,.,.%.,.,.@.,.2.,.%.,.@.,.2.,.,.2.,.@.%.>.@.( K P A P P L S P S P L K I L L K I L K S P L S P L K L L K K L K P L L K K R d.L.F.A.F.A.F.A.A.J.F.F.A.F.L.u.I A L I K L K L A I L K S I P L I K S I K L S I L K L K A P R @.2.@.%.,.@.,.@.-.2.@.2.@.,.,.2.,.@.,.@.2.2.O.                &.S.z.x.f.x.x.h.x.x.x.h.z.x.b.Z                                                                                                                                                                                                                                                                                                                                       ",
"                                                                                                                                                                                                                                                                                                        e.S.x.x.h.x.x.d.f.x.M.f.x.z.i.                H 7.2.2.@.,.@.2.-.@.,.,.@.,.2.@.,.@.,.,.,.@.,.@.,.%.,.,.%.@.-.( A I P A I A I P K L L A I K S I K L I L L S L L K L K L K L K K K L F K D R t.P.F.A.A.F.F.A.J.A.A.F.F.B.L.u.I K S L A I L K L L L I K L L K L I I L L P L K S P L K L K R O.2.@.,.%.,.,.,.,.,.2.,.,.,.@.,.,.2.,.,.,.2.O.                *.N.z.h.h.z.x.f.x.h.x.h.x.x.b.Z                                                                                                                                                                                                                                                                                                                                       ",
"                                                                                                                                                                                                                                                                                                        e.b.h.f.h.h.M.x.M.x.x.x.x.b.d.                H 4.2.,.,.,.,.%.@.2.,.2.@.,.,.@.,.2.@.,.2.@.,.%.%.%.%.%.,.,.-.' L L L L L L L L L L I I L K I L L I A I K L P L L L L K L L I L L P L L K R e.F.F.F.F.A.A.A.F.F.F.A.F.L.L.w.G D L L L K D L L L F L L I K L S P L K S I L I K I L L K L I ,.,.,.,.@.,.@.2.%.@.,.@.,.%.,.,.@.,.%.,.2.,...                8.b.x.z.h.h.x.h.x.x.x.f.x.x.b.Z                                                                                                                                                                                                                                                                                                                                       ",
"                                                                                                                                                                                                                                                                                                        0.b.x.x.x.f.l.x.x.S.S.S.S.S.v.                N 5.2.@.,.,.2.%.,.@.,.,.,.%.2.@.,.,.,.2.@.,.%.2.,.2.2.,.,.<.<./ L L K L K L K L K L A I K L L P S I L K L L L K L P L L L K L K L L P L A R e.P.S.A.F.F.L.F.A.A.A.H.A.A.J.a.L Z K S D D D D L F L K L A I L I L A I I L K L L L A I L K R O.,.2.@.,.@.,.%.,.,.,.,.,.,.,.%.,.,.,.@.,.4.O.                *.S.z.h.z.x.z.h.x.h.x.h.x.x.b.Z                                                                                                                                                                                                                                                                                                                                       ",
"                                                                                                                                                                                                                                                                                                        e.S.h.h.x.x.x.d.=.&.=.&.9.=.                  H 5.,.2.2.,.2.2.@.,.,.2.2.,.@.,.%.,.@.,.,.2.@.@.@.O.O.O.-.[ -.R L L K L L K L L L I L K L I S P L K L L I A I L S I A I K I S I L K K S K I e.S.F.F.A.F.S.S.F.H.A.A.A.A.L.d.( R ( / ' ( ' R L K L L I I K L K I L L K L I S P I I K S K R -.%.,.,.@.2.,.,.@.2.@.,.%.,.@.,.,.%.,.2.,.2...e               9.S.f.x.h.z.x.h.z.x.x.h.z.x.b.Z                                                                                                                                                                                                                                                                                                                                       ",
"                                                                                                                                                                                                                                                                                                        0.b.x.x.h.x.x.I #                             D 7.2.2.%.2.%.2.>.,.2.,.,.,.2.,.,.,.2.@.,.@.,.( R I R R I T T L L L L K L L L K L K L S I K L L I L A I L I L P I L L K L I L K I S P I K I 9.x.x.x.x.x.M.x.F.L.F.F.A.L.F.C.j.y.i.d.u.u.i.@.K F K L K L L I S P L L L S P I L L A L I K I @.2.%.2.@.@.,.@.,.,.,.2.%.,.,.%.,.,.,.@.,.@.,...) _ ) ( ) ) ..g.x.x.h.z.x.x.h.M.h.x.h.z.x.b.Z                                                                                                                                                                                                                                                                                                                                       ",
"                                                                                                                                                                                                                                                                                                        e.x.x.x.x.x.b.D                               N 7.2.2.,.,.2.,.,.,.,.@.,.,.@.,.%.,.,.,.2.,.,.( K L K K K K K L L L K L K L K L L I A I P L I A L P L L A I K L L K I L S K I L L P L A K R 6.x.f.x.x.x.z.z.B.F.A.A.F.A.L.A.j.f.z.z.x.b.x.2.L K L L I S P L I L K S P I L K L I L K L L R ,.,.,.@.2.@.,.2.%.2.@.,.,.,.2.,.2.@.2.,.@.-.%.,.,.,.,.2.2.2.7.g.x.z.x.h.f.x.f.x.x.x.h.x.b.x.Z                                                                                                                                                                                                                                                                                                                                       ",
"                                                                                                                                                                                                                                                                                                        e.b.x.f.x.x.S.D                               H 7.2.%.,.@.,.@.,.@.,.-.%.-.2.-.2.@.,.%.,.,.,._ R S I P P K L K L F L L L L L L K L I L L A I K L L A I I L L A I L K I P L L A I K I L K R =.z.h.h.g.l.h.x.B.L.F.A.A.A.L.Z.x.d.h.z.z.z.z.,.K D K K I L L K L S P L L L K S I K L L S K R O.,.2.,.@.,.,.,.,.2.,.@.,.%.,.@.,.,.%.,.@.,.O.,.,.,.,.,.,.,.2.d.x.M.l.x.x.z.h.x.h.x.j.x.x.b.Z                                                                                                                                                                                                                                                                                                                                       ",
"                                                                                                                                                                                                                                                                                                        0.b.z.x.v.b.b.D                               N 5.,.,.@.,.@.2.@.,.2.@.,.2.,.@.,.2.,.@.,.%.,.( I K K L S I K L L L L K L K L K L S P L I L L L I K I L K L I L K L S L L S I L L K L K L R =.x.b.h.h.x.z.z.F.A.A.F.A.F.H.A.f.x.z.M.z.x.x.2.L F L L S P S I K I L L P L L P L S I K I K I ,.@.,.@.,.,.@.,.,.,.@.,.,.@.,.,.@.,.,.,.2.@.,.,.2.,.@.2.@.,.,.d.x.z.x.f.h.f.h.f.z.x.z.x.x.x.Z                                                                                                                                                                                                                                                                                                                                       ",
"                                                                                                                                                                                                                                                                                                        0.x.v.h.z.b.b.D                               N 7.%.,.2.,.,.,.,.@.,.2.,.@.,.2.@.,.2.,.,.2.,.( L K S I K L L S P L K L L L L L L P L L A I K L S I L K L K L S I L P L P L K L K I K L K R =.x.f.x.h.f.f.z.F.F.F.A.F.F.K.A.x.z.x.x.x.x.x.2.L F L K L L K L S K L A I L L S P L L L L K I @.2.,.2.@.2.,.%.,.,.2.,.,.2.,.%.,.2.@.,.@.2.,.@.,.@.,.,.,.,.2.f.z.f.x.h.x.h.z.h.z.x.f.x.z.x.V                                                                                                                                                                                                                                                                                                                                       ",
"                                                                                                                                                                                                                                                                                                        w.b.x.z.h.b.x.K                               N 5.2.,.@.,.@.2.,.2.,.@.,.2.@.,.,.%.,.@.,.%.2._ L L L I L P L I L K L L K L K L L L K L I L I K L K L S I L P L K L L L L I L P S L K L K I e.b.z.h.f.x.M.z.A.F.A.F.F.F.J.A.v.h.z.j.f.x.x.2.L F L P K I K P L L I I L K I L L I K I S K R ,.%.,.%.2.@.,.@.2.@.,.@.,.@.,.,.,.,.%.,.,.,.,.%.,.,.2.@.,.,.2.d.x.f.x.z.x.x.h.x.x.z.x.z.x.b.Z                                                                                                                                                                                                                                                                                                                                       ",
"                                                                                                                                                                                                                                                                                                        u.S.b.b.b.b.m.                                H 5.,.%.,.2.@.,.@.,.@.2.,.@.,.,.@.>.,.2.,.2.@.( K L K L L A I K L S I L L K L L K L L K L A L I L I K I K L S P L S P I A L K L I L P L L R 0.m.b.S.N.x.x.x.L.L.L.L.L.L.L.F.x.z.h.z.x.z.b.2.I F L L L L L L I K L K L S P L K L L K I L R >.2.2.,.,.2.,.,.,.2.,.2.,.%.,.2.@.,.,.2.@.2.@.,.@.%.,.,.%.@.2.p.b.x.f.x.b.h.x.f.f.h.f.d.x.x.V                                                                                                                                                                                                                                                                                                                                       ",
"                                                                                                                                                                                                                                                                                                      l P T T T T T                                   N 5.2.,.,.@.,.,.2.@.,.,.,.,.2.@.>.,.,.,.,.2.,._ P L L P L I L L L P L K L L L K L K S I I L I A I L L S I I K L I P L L P L I S P L K F D K ` 4.%.*.*.%.%.%.6.9.6.9.6.9.9.t.h.z.z.j.h.x.x.,.D V F A S A S A S A F S K L S K S I K L A L I _ ` ..` ..` _ -.@.2.@.,.,.,.,.%.,.2.@.,.,.,.,.%.,.@.,.,.2.@.2.r.y.t.t.y.t.y.i.f.x.z.h.z.z.x.D                                                                                                                                                                                                                                                                                                                                       ",
"                                                                                                                                                                                                                                                                                          f.d.d.g.u.f.} *                                             N 5.%.,.,.2.,.@.,.,.@.,.@.,.,.,.,.,.,.@.2.-.2.( I K K S P L K S P L L L K L L L L L I K L K L L K I K I K L L K L L S I L S P L L S S S L S V V C C C C C C V C V C C C V ( f.x.h.z.h.z.x.@.V m V b b b b c V b V b b c b L I L K L P L P L I L I L L L ( ,.,.@.,.%.,.@.,.,.@.,.2.@.,.@.@.,.%.,.@.,.@.%.2.@.2.,.,.2.%.6.f.f.x.d.d.x.x.V                                                                                                                                                                                                                                                                                                                                       ",
"                                                                                                                                                                                                                                                                                        2.D.x.b.b.B.D.o.                                              N 7.,.,.@.,.2.,.%.,.2.,.2.%.,.@.2.@.2.-.%.,.@.( L A I P L S P I L K L K L L K L K L K L I S K L L S P L L L A I L P L K L P L L K L L S S S V h c k c k c c c c k m k m f R u.x.f.h.z.x.z.O.V c c c c c c c c B b c b c b A L S P L K L L L L L L L K L R @.,.2.,.,.@.2.,.,.2.@.,.,.%.,.@.,.@.2.,.,.2.%.@.@.%.@.,.@.O.6.h.x.x.x.f.x.x.D                                                                                                                                                                                                                                                                                                                                       ",
"                                                                                                                                                                                                                                                                                        %.S.f.z.x.x.m.o.                                              N 5.2.@.,.,.@.,.,.,.@.,.,.@.,.2.@.,.,.%.,.,.2.( I K S S P I L L L A I L L K L L L I S I K I L K I K L L A I I L A I L L S I L K L S L S L F V j c c c c c k c c B c c k k / d.x.z.h.x.f.l.-.B b c b c c V c b c B b V b b L K L K L K L A L A L A L S K ( ,.,.,.@.,.,.,.%.,.,.,.@.,.,.,.@.%.,.@.2.%.,.,.@.,.2.@.,.2.@.6.d.x.x.z.x.z.b.V                                                                                                                                                                                                                                                                                                                                       ",
"                                                                                                                                                                                                                                                                                        @.S.x.x.x.M.S.o.                                              N 5.,.2.@.,.2.@.2.,.@.,.,.2.,.@.%.2.2.,.2.2.,._ L L P I L L K L P I L K S I K I A I K L K L K S I L I K I L K L I L K I P L L S I L S I S A V c k v k c k c c c c c c B h ' u.x.x.x.h.z.d.O.V c b c c c c c c v V c c b c K L I K L K I L L I K L L I K ' @.,.2.,.@.2.,.,.%.,.%.,.2.,.@.,.@.2.,.,.,.@.2.@.%.,.,.@.,.#.6.h.x.M.f.x.x.x.Z                                                                                                                                                                                                                                                                                                                                       ",
"                                                                                                                                                                                                                                                                                        %.S.h.x.x.x.B.o.                                              H 5.%.,.,.@.,.,.@.,.2.@.,.@.,.,.@.,.,.,.@.2.2.( K L L K L L S I L S P L I K L L L K L L I S I K L K S I K L S I K L L S I K I K L A L S L F V B c c c c c v b c c c c c k / d.z.z.h.x.f.x.-.b c c c c c b v c b c c c c c F S L S I K L A I L L K L K L R ,.@.2.,.,.%.,.@.,.,.,.,.@.,.2.@.%.,.@.%.,.%.,.@.,.%.@.,.,.@.6.h.x.x.z.z.x.x.V                                                                                                                                                                                                                                                                                                                                       ",
"                                                                                                                                                                                                                                                                                        =.S.b.x.x.B.S.+.                                              N 5.,.@.2.,.@.2.,.,.,.2.@.,.2.@.@.,.,.2.2.,.@.( I K L L I A I K L P L L L S I A I L P S P L K L L I K L S I P L L S P L K L L I L L L L F L V j c c c v c c c c c c c c k R f.x.x.x.x.z.x.@.n j b c c v c c c c c c c c c L S K L S I L L K L I S I L A ( ,.,.,.@.,.2.,.,.@.2.@.,.2.@.,.,.@.2.,.,.,.@.2.@.@.,.,.@.2.@.6.f.x.x.z.M.z.b.N                                                                                                                                                                                                                                                                                                                                       ",
"                                                                                                                                                                                                                                                                                        &.S.x.x.x.x.B.                                                N 7.,.2.,.@.,.,.%.,.@.,.2.,.@.,.>.,.@.,.,.2.2._ K L L L K I L L L S I K I K L I K L L L K I L I A I L I K L L L P L I L L P S P L A L S L S Z c c c v c c c c c b c c c c R u.x.z.x.h.z.z.O.C c c c c c c b c b c b c c c S L A I S I A I L A I K L I K ' @.2.,.2.,.%.,.%.,.,.2.@.,.,.%.,.,.,.@.,.2.@.,.@.2.@.%.,.2.,.6.h.M.x.z.x.x.x.V                                                                                                                                                                                                                                                                                                                                       ",
"                                                                                                                                                                                                                                                                                        f C c n c b                                                   N 5.2.%.,.,.2.,.,.@.,.,.@.,.2.O.( ( _ [ ( _ [ R L K L K L L K I K I L K L I L L L I A I L L A I L L K L I L K I S P L K S I A C A C V C V V V c c c c c c c v c c c c c c F ` -.-.-...-.O.R c b c c c b B c c n c n v c n F K S K I A I L L I K L K L K R ,.,.,.@.,.,.,.,.%.,.,.,.,.,.,.,.-.2.2.@.,.,.2.6.e.e.e.e.e.e.y.h.z.x.x.z.x.x.,.b c c v k b                                                                                                                                                                                                                                                                                                                           ",
"                                                                                                                                                                                                                                                                                                                                                      N 5.,.,.@.,.@.,.2.,.2.@.2.,.,...I K L L L I K K L K L L I A I S I K L S P L A I K L I L P L L K I L I A I L S P L L I L P L V c c c c c c c c c c c c c c c b c c c c c c c c k c c c b c c c c c b B c v b B v B b c b c L L L L L L K L K L L L S K F ' -.,.,.,.@.,.%.,.%.,.@.,.%.,.2.,.,.@.,.,.@.,.2.d.x.x.h.f.h.x.h.x.x.h.f.x.z.x.x.h.f.x.h.x.z.z.                                                                                                                                                                                                                                                                                                                        ",
"                                                                                                                                                                                                                                                                                                                                                      N 7.%.,.,.@.2.,.@.,.@.,.,.,.2.` I L D L L L F L L L K L L L I K L S P L L L P L S I K L L L L K L A I L K I K L K L A L L L V c c c c c c c c c c c c v c c c c v c c c c c k j c h c c k c c c c c c B c B c c c c v c c L L L K L K L L L A I K L K L Q -.-.2.@.,.@.,.%.,.@.,.,.,.,.2.,.,.2.,.@.,.@.2.f.x.x.f.x.h.b.f.x.h.x.M.f.x.d.x.x.x.b.b.b.m.l.                                                                                                                                                                                                                                                                                                                        ",
"                                                                                                                                                                                                                                                                                                                                                      H 5.,.,.%.,.,.@.2.,.,.2.@.,.2...L K L L L I L L K L L I A I K L I K I L K S I L P L L S L D L L L I K L L K L I S I I K L S S c c c c c c c c v c c c c c c v c c c c v c c c c c c c c c c c c v c c c c c c C c n b c b F L F L L L K L I I L L K L D ( ,.,.,.,.,.,.2.@.2.,.,.%.,.,.2.@.2.@.,.,.@.2.2.f.x.x.x.f.x.h.x.x.x.f.x.z.x.z.x.f.f.x.f.f.z.u.                                                                                                                                                                                                                                                                                                                        ",
"                                                                                                                                                                                                                                                                                                                                                      N 5.2.@.,.,.2.,.,.@.2.,.,.2.,...I L K L K L I L I K S P L L L A I L K L I P L L L K I K L L L F K L L K I S L K I K L L P F Z c c c v c v c c c v c c v c c c c c v c c c c c c c c c c v c v c c c v c v c c c c V c n c L K L D Y L L K L K S P L L L R -.2.,.,.@.@.,.,.%.%.,.,.,.,.,.%.,.,.%.,.,.,.2.f.x.x.x.f.x.f.x.h.x.h.z.h.z.g.x.x.x.z.x.z.z.u.                                                                                                                                                                                                                                                                                                                        ",
"                                                                                                                                                                                                                                                                                                                                                      N 5.,.2.,.@.,.%.,.,.%.,.%.,.2.` L K L L I I L A I L I L L K L I L L S K L S K L K S I L L D L L L L I S I K I K K K P K L L C c c b c c c c c c c c b c c c c c c c c c c c c c c c c c c c c c c c c c c c c v c l c c v F F F L L F K L K I L S L K K ' ,.>.,.2.,.2.2.,.%.,.,.@.,.,.2.@.2.@.,.,.@.,.2.u.x.x.z.f.x.f.x.z.x.M.z.x.z.x.z.x.d.x.x.f.x.f.                                                                                                                                                                                                                                                                                                                        ",
"                                                                                                                                                                                                                                                                                                                                                      N 7.%.,.@.2.,.,.%.,.,.,.,.@.2._ I L L L L S I I L K L P S I K L S P I L I L K I L L K L L L L K L K S P L S P L P I K I P L V c c c V c V c V c V c B B b B V c V c V c V c V c V c c c c c c c v b c c c c k c c c v v k F L L L L L L P L L L S L L K ( -.,.,.,.,.,.2.,.%.,.,.,.,.@.2.,.@.,.,.@.,.%.2.f.x.x.z.x.f.b.f.x.f.x.f.x.f.M.f.x.x.M.z.x.x.f.                                                                                                                                                                                                                                                                                                                        ",
"                                                                                                                                                                                                                                                                                                                                                      N 5.,.,.2.,.@.,.,.2.%.,.%.,.2...I K L L I P L K L I A I K I L K I L L K L K L S P L L K L K L L L I I L I L I S I S I S L D C c b c c B c c c c c B c c c c c B c c B c c c B c c V c b c b k b k b c c c c c k v k v v v L K S A K S A I S L L K S L K R -.>.O.,.%.,.@.,.%.,.@.,.@.,.2.,.@.,.,.,.@.,.2.d.x.f.f.f.h.f.g.x.M.z.h.l.x.z.M.f.x.f.x.z.x.u.                                                                                                                                                                                                                                                                                                                        ",
"                                                                                                                                                                                                                                                                                                                                                      N 5.2.@.,.@.2.,.@.,.,.,.2.,.,...I K L P L I L L A I L L L L S I L K L S P S I L I L I S L L L K L K S P S P A A V V V A V V V c c c b c c b B c c c c c b B c b c c b c c b c c c c c v c k k h h k s s s s s s f k s f s k k k k k j k b D L L P L L K I ( ( Q ( ( ( ( [ -.2.,.>.,.,.%.,.@.,.%.,.,.%.2.6.7.6.6.6.6.e.e.z.x.M.z.z.x.l.x.f.x.x.h.z.x.d.                                                                                                                                                                                                                                                                                                                        ",
"                                                                                                                                                                                                                                                                                                                                                      H 5.,.,.2.,.@.,.@.,.%.,.%.,.2.` I L P L L L P L I K L K P L P L K S I K I L K L K S P L K L L L L L I L K L A b j b b c c V c c n B c c c c c c b c b c c c c c c c c b c c c b c c c b c k u u u u u u u u u u u u f f t u u u u u u u h A L L K L K L K K K K L S K F ( ,.,.-.>.>.@.,.%.,.,.,.@.,.,.>.%.*.%.%.%.,.%.9.z.x.z.h.z.f.x.h.b.g.z.x.f.x.f.                                                                                                                                                                                                                                                                                                                        ",
"                                                                                                                                                                                                                                                                                                                                                      N 5.%.,.@.,.2.,.2.,.,.2.,.,.2...L K I L P S I L K S I L S P L L L P L L L K L S I I L K L L K L K L K L I S D M b c c b c B c B c c c c v c b v c c c c c c c c b c c c c c B c v c c c c k u p u u u u u u u u u u s u u u u t u t u u k D K P L L L K L S L L S K L K ( -.,.-.,.O.>.@.,.@.,.@.,.@.,.,.%.*.2.%.2.,.@.6.f.x.M.z.h.z.x.z.h.z.x.g.z.x.u.                                                                                                                                                                                                                                                                                                                        ",
"                                                                                                                                                                                                                                                                                                                                                      N 7.,.2.,.,.@.,.@.,.%.,.%.,.2._ I K L L L I K L I I K I I L S P L L K L I S I P L K L L K L L P L L L S P L A V b b c c c b c b c v c b c c c c c b v B c b c c c b B c b v b c c c b v b k s u p p u u u u u u u u u u u u u u u u u u s K L K L K L P L K L K L L A I ' -.,.,.,.,.,.O.,.@.,.,.,.2.,.@.%.*.2.2.%.@.%.6.f.z.x.z.x.z.g.x.f.x.x.f.x.x.f.                                                                                                                                                                                                                                                                                                                        ",
"                                                                                                                                                                                                                                                                                                                                                      H 5.2.@.,.%.,.2.,.,.@.,.,.,.2...I L K S P L L S P L L A I K I L A I L S P I K L L L K I S P L L L A L L L L A c c c c n c c c v c b c c c b c c v c c c c v c c v c c v c c c c c v c c c k u p u u u u u u u u u f u s u u u u u u u f s D I K L L K L K L K K S I K L _ ,.-.,.,.,.-.,.@.,.@.,.@.@.,.,.%.2.2.1.1.%.@.6.d.x.M.z.h.z.x.x.x.x.l.h.z.x.f.                                                                                                                                                                                                                                                                                                                        ",
"                                                                                                                                                                                                                                                                                                                                                      H 4.2.,.@.,.2.%.-.,.,.,.,.-.-._ L K L I L S P I L L P L L L L P I L I K L K L L K I S I K L S P L L P L K L V b c b c c c c b c c c c B v c b B b c b c b c c v c c c c c c v v k v c c c k s u p p u u p u u p s p u p s p s p s p s u s D I L A P S L S P S P L L F I ( -.,.2.2.2.,.-.2.,.,.@.2.,.@.2.,.,.%.,.,.2.,.6.g.x.x.x.M.z.M.x.h.f.x.h.x.v.d.                                                                                                                                                                                                                                                                                                                        ",
"                                                                                                                                                                                                                                                                                                                                                      H 7.,.2.,.,.,.%.-.2.,.,.,.,.,.` L L P S P I L L A I L A I K L L L K L I L L I S I L P L L L I L L K L L L S D M c c c c n c c c b c c b c c c v c c c c c V v c c v c v c c k k v k v b c k s u s u p u u u p u u s u u u u u u u u p u k F L L P L K I S P K S S L K K ( ,.,.,.<.,.,.,.,.@.,.,.@.2.,.,.,.,.2.@.,.@.,.6.f.x.M.z.x.x.z.x.h.x.h.z.h.x.f.                                                                                                                                                                                                                                                                                                                        ",
"                                                                                                                                                                                                                                                                                                                                                      K 4.2.2.2.,.@.2.-.-.@.-.@.,.>._ L A I I S I K L I K L I L I A I L S P S P L K I K L L K S P L K I S P L P L V b c k b c c c c v c b v c c b c b c b c v c c c c v c c c c c l v v v k c c s s p u p u p p u p s p p s p s p s p s p s u k F L D D A A L A I K L I L L K ( -.-.-.-.1.-.-.O.2.,.%.,.,.@.,.@.,.2.,.,.2.@.6.d.x.x.x.l.x.M.x.h.x.h.z.h.v.d.                                                                                                                                                                                                                                                                                                                        ",
"                                                                                                                                                                                                                                                                                                                                          E E E E J ) O.,.2.,.,.,.%.O.R Y I I L I L L K I S K I L A I L S P L A I I L P L I L K L L L I S P I L L A I L I L L S L A c b c c k c c c b c c c c c v c c c v c B c c s u u s u s u u u s u u s u f f p s p s u s u p u p u s u p s u p s u p u p p s s u k h p j V A L A P L K L I R T R / R T Q -.,.@.,.@.,.,.2.@.2.@.,.@.2.,.4.x.M.x.l.x.z.x.M.f.x.h.f.x.x.f.                                                                                                                                                                                                                                                                                                                        ",
"                                                                                                                                                                                                                                                                                                                                        7.6.5.4.4.4.4.2.@.2.,.@.,.2.O.I L L L L L K L L I K L S P I L K I L I L K L K L S P L L A I A I K L L I L I L K L P L P L V M c c c c v c c c c c b v b c b c b c b c b c u t u u t u u u u p u p u u f t s u s p u u p u u s p u p u p s u p s u p u t s u t u u u y j P I L K L L K K L K F L K L T ..,.2.,.,.@.,.@.2.@.,.2.,.@.,.6.g.x.x.x.x.M.z.x.h.x.z.h.z.b.d.                                                                                                                                                                                                                                                                                                                        ",
"                                                                                                                                                                                                                                                                                                                                      k 6.2.,.,.,.2.2.,.2.,.-.2.%.,...L L L L L F L L S I S P I L L K L L K L I L K S I I L K I L L L L I L A I K L K I S I K L S D c c k b c b c c n c c c B c c c c c c c v c c p u p u p u u u p u p q u q f u s p p s u p u u s u p u p u s u p u p u s p u s u s u p u q l A I S I K L P L S L L L L K T ..,.,.%.,.@.,.,.@.2.,.@.,.2.@.7.l.x.x.l.x.z.M.x.h.x.h.z.h.z.f.                                                                                                                                                                                                                                                                                                                        ",
"                                                                                                                                                                                                                                                                                                                                      k 2.2.%.2.2.,.,.2.%.2.2.,.,.2.O.I L K L L L L L P L P L S P L I S P L A L P L I K L L S I K I K L K I L K L S I K L L L I K A b c c c v k c c c c V c c c b c n c B c b c c s p u p u p u p q p u p p p u s u u u p u u s u u p u s u p u p u p u s u p u p u p u u p u k L S I K L L A I K K K K I D I ` 2.,.,.@.2.,.2.@.@.,.,.@.,.,.6.d.x.x.x.M.z.x.x.h.z.h.h.v.x.f.                                                                                                                                                                                                                                                                                                                        ",
"                                                                                                                                                                                                                                                                                                                                      k 2.,.@.2.2.2.,.%.2.2.@.,.,.,.O.R K L L K L K L S I S P I L S P I L I I L S I K L L P I L K L S I L A I L P L L L K L A I F V b c c b k c c b c c v c c c c c B c c c c v b u p u s u p u p u p u p u u s p u p s u p u u p u p u p u p u p u s u p u p u p u p u p u p k F L S L S L P S P L K L K K I ` ,.2.@.,.@.,.@.2.,.%.,.,.2.@.6.h.x.M.z.x.f.M.x.h.x.z.h.z.x.d.                                                                                                                                                                                                                                                                                                                        ",
"                                                                                                                                                                                                                                                                                                                                      f 2.%.2.@.2.%.2.2.,.,.,.,.%.,.O.I L L K L L S P L P L L S P L L L K L A I K L S I L S P L S P L P L I K L S P L S I K L L L A B b c c c b v c c c c c b c n c c c n c c c c s u p u p u p u p u p u s u p u s u p u u p u u u p u s u s u p u p u p u p u p u p u p u u k F L L L P L L L S L L L S K L ` ,.,.,.,.@.,.,.@.2.,.,.@.,.,.4.g.x.x.z.M.z.x.M.f.h.x.h.z.b.d.                                                                                                                                                                                                                                                                                                                        ",
"                                                                                                                                                                                                                                                                                                                                      f 2.4.%.@.2.2.%.2.@.%.,.,.,.2.O.I K L S P L K L L S P L P L K I A I L I K L I P L P L L K I L L L L L L K L L K I L L K L A D c c c k c c c c b v b c c c c b c c c c c c c p u p u s u p u p u p u p u s u p u p u s u s u p u s p u p s u s u p u p u p u p u p u p u h F L S I L S P S P S K I A L I _ ,.,.,.@.,.@.2.@.,.%.,.,.%.,.6.f.M.x.z.x.M.z.x.h.x.f.x.f.x.f.                                                                                                                                                                                                                                                                                                                        ",
"                                                                                                                                                                                                                                                                                                                                    = C *.,.%.@.%.,.,.2.@.,.,.,.,.,.O.R L P L I A I L P I S I S I S P I L K L S P L L S I K L L L L S K L S L L L L L L K L S I L A b c b c c n c c c c c c n B c c v c c c b c b s u p u p u p u s u s u s u p p u p u p u p u p u s p u s p s p p s s p s u p u p u p p u y c F L K L K L L L S L L S P S I _ <.-.2.@.,.,.,.%.,.,.%.,.,.@.6.z.x.x.M.z.z.M.h.x.h.x.h.z.b.d.                                                                                                                                                                                                                                                                                                                        ",
"                                                                                                                                                                                                                                                                                                                         .$.$.$.o. .#.#.2.%.%.2.%.%.%.>.-.-.,.2.%.2.O.I L L L P L L L S P I K I K L L K L S P L L L P L L L S L K L L L L I K L S I L S L L I L L V m c c b c c c b c b B c c b c b c b c c c v c u p u p u p u s u p u p u p u p u s u p u s u s u p s p s u p u s u p u p u p u p u p u p u k S S S I L K S P S K I I K L I _ ,.,.-.2.@.,.@.2.@.,.,.,.%.,.6.g.x.x.z.M.z.x.x.h.z.h.z.h.x.i.                                                                                                                                                                                                                                                                                                                        ",
"                                                                                                                                                                                                                                                                                                                        2.6.4.6.2.2.2.2.2.,.@.,.%.,.@.>.,.,.@.,.,.,.O.I K L S I L P S P L L L L L K L S P I L L P S I K L K I L S I K L K L S I K L K L K L L K S D b c c c c c c v c c n c c c v c c c b c b c c u u u u u u u u s p s u p u p u p u u u u u u u u p u u p u s u p u s u p u p u p u p u p u k F L L K L L I L L S K L S K I ` ,.,.2.@.,.,.2.@.2.,.@.,.,.-.6.f.x.x.z.x.z.M.z.h.x.z.h.z.b.d.                                                                                                                                                                                                                                                                                                                        ",
"                                                                                                                                                                                                                                                                                                                        O.3.,.1.2.2.2.,.,.,.2.@.,.,.,.,.,.,.,.,.@.2.O.R L P L A I S I L K L A I K L I K L L P S I K L L I S P L K L I A I L P L L A I L L L K I L V c c c c n c c b c c c c b c c b c V c b c V b u u p u p u f u s u p s u s u u u u p u u p u p u u p u s u p u s u p u s u p u p u p u p u l K L S L K F K S K L L K L K I ` ,.,.,.,.,.2.,.,.,.,.,.,.@.,.6.f.x.x.f.z.h.z.x.f.x.x.h.x.x.f.                                                                                                                                                                                                                                                                                                                        ",
"                                                                                                                                                                                                                                                                                                                        O.2.%.,.%.,.,.%.,.%.,.,.@.,.@.,.@.,.,.@.,.,.O.I L S I I K I K I L I L P L S P L K L L L L L A I K L L P L L L L K L S P I I K S K L L K S A v c b c c c c c c c c c v b c c c c b j c c c p u p u p u p s u p u u p u u u p u u u u u q u p u p u p u p u p u p u p u p u p u p u p u k F L K L L L L L L S I L K S I ` 2.,.,.,.%.,.,.%.,.%.,.,.2.,.4.f.x.x.z.x.z.g.x.k.z.M.f.z.x.f.                                                                                                                                                                                                                                                                                                                        ",
"                                                                                                                                                                                                                                                                                                                        %.2.,.%.,.@.,.,.,.,.@.,.,.2.,.2.,.,.,.,.,.2.O.I K K L K S K L S K K L S I K L L I A I P L P L L I K S L I A I I S I K L L L S I L F K L L V c c c c c c b c b c v b c c B c b c c b c M b u p u p u s u p u s u p u u p u u u p u p u u p u p u p u p u s u p u s u p u p u s u p u p k L S L P A L K S K L K L L K I ` ,.,.,.,.,.,.,.,.2.,.,.,.,.,.4.h.x.f.x.f.x.z.x.f.x.x.x.x.x.f.                                                                                                                                                                                                                                                                                                                        ",
"                                                                                                                                                                                                                                                                                                                        O.2.%.,.%.2.,.%.,.%.,.2.@.,.@.,.2.,.,.,.@.,.O.R L I S I I L I P L I K I L I K S P L L L L L S P L L I K L I K L P L I L K I K I K L L K L S c c c c v c c c v b c c c b c c c b M c b c c u p u s u p u s u p u p u p u s u u u u u q p u u u p u s u p u p u s u p u p u s u p u p u k F L S K L S L I L K L S P L I ` ,.,.,.%.,.2.@.2.@.,.@.,.,.@.5.d.x.x.z.x.f.M.f.x.f.x.f.x.x.f.                                                                                                                                                                                                                                                                                                                        ",
"                                                                                                                                                                                                                                                                                                                        @.2.2.@.,.@.2.,.,.,.@.,.,.2.,.2.,.,.,.,.2.2.O.I K L P L A I A L L S I K L S I K L L P S P L P L S P L L S P L L L K L A I L A L L S L S L S c c c c c b c b c c c B c v c c c c c c c c c p u p u p u p p u p u p u u s u u p u p u p u u p u p u p u p u s u p u p u p u p u p u s y k F G L S P L L L K S L K L A I ` 2.,.,.,.,.@.,.,.2.,.,.,.,.,.6.f.x.h.z.g.z.x.x.j.M.z.x.z.x.f.                                                                                                                                                                                                                                                                                                                        ",
"                                                                                                                                                                                                                                                                                                                        @.2.@.2.%.,.@.,.%.,.2.@.,.@.O.` _ _ _ _ ` [ _ I L L A I I L I L P L L L K I L I L S I L I L L I L L A I I L S P L S I L K L A S S D S D C Z c c c c c c c c c c c v c c c k k k s k s k k u p u s u p u s u s u s u p u p u p u p u s u p u p u p u s u p u p u p u p u s u p u s u u s c n b V b b V A L K L L L K I [ ,.,.2.@.,.2.,.,.@.,.,.@.,.@.5.g.x.x.f.x.z.h.z.h.x.x.h.z.x.d.                                                                                                                                                                                                                                                                                                                        ",
"                                                                                                                                                                                                                                                                                                                        O.2.2.%.,.%.,.,.2.,.2.%.,.,.-.R L I I L I L L K L P I L A I K S I K I S I K L A P I K L K S P L K I I K L K I L L K L P L A M M c V c b B c b c b c b v b c n c c B c v k h u u u f u u u s u p u p u s u p u p u p u s u p u s u p u p u p u s u p u p u s u p u s u p u p u s u p u s u u p u u u f M L L L K S L I ` 2.,.,.,.,.,.@.2.2.,.,.,.,.-.6.f.x.z.h.z.h.z.x.x.z.M.z.x.b.d.                                                                                                                                                                                                                                                                                                                        ",
"                                                                                                                                                                                                                                                                                                                        ,.2.,.@.,.@.O.,.%.,.,.%.,.,.O.R L A L L L K L K S I L K I L I P L L K I L I K I L L L L I P L S I K L L L L K S I L L L L K V b c b B b V c c c c v c c c c c B c v c c k f u u s u s u u p u s u p u p s u p u p u p u p u s u p u s u p u p u p u s u p u p u p u p u p u p u p u s p p p u u p u u V L F K L P L I ` ,.,.,.@.,.2.,.,.@.,.@.,.%.,.6.f.x.x.z.x.f.M.z.h.h.z.h.z.x.f.                                                                                                                                                                                                                                                                                                                        ",
"                                                                                                                                                                                                                                                                                                                        O.2.,.2.,.,.@.,.2.@.2.,.,.,.O.I L K I K I I I L I K L L A I L L L S I K L S I K L L P S K L I K L L S P L A I L K L A I K S M b B c c c c B b c b c c b c c b c c B c c c s f u u u u u s u p u p u p u p u p u s u p u s u p u p u p u s u s u s u p u p u s u s u s u s u p u s u p u t s u p u s p c L L S I K S I ` ,.,.,.2.,.,.,.2.2.,.,.,.,.-.6.f.x.h.z.x.z.x.h.j.x.M.f.x.x.f.                                                                                                                                                                                                                                                                                                                        ",
"                                                                                                                                                                                                                                                                                                                        ,.2.,.@.,.,.@.,.2.,.,.%.,.,.O.R S I L I L K L K L S P I L K L P L P L S P I L L A I L I K L L I A I I L I I L L L L L P S K c c c c b c n c c v c c c c v c c v c c v c k h u u s u u s u u s u p u s u p u s u p u p u p u p u s u s u p u p u p u p u s u p u p u p u p u s u p u u u u u u s u p s b L S P L L K I ` 2.,.,.@.,.2.-.%.,.,.@.,.2.,.4.f.x.x.f.x.f.x.z.x.z.x.f.x.x.f.                                                                                                                                                                                                                                                                                                                        ",
"                                                                                                                                                                                                                                                                                                                        O.2.,.,.%.,.@.,.2.@.2.%.,.,.O.R L A I L I I S I I K L L L I S L A I K I L K L I L P L L L I A I I K L K L K L A I K L L L S b c c c c c B c c c c b c V c c b c c c c c k s f u u u u u u s u p u s u p u s u p u p u s u p u p u p u p u s u p u p u s u p u p u p u s u p u p u p s u s s u p u u u c L L L A L K I ` ,.,.,.2.,.@.2.,.%.,.,.,.,.@.7.d.x.h.z.z.x.d.x.h.x.M.z.x.x.f.                                                                                                                                                                                                                                                                                                                        ",
"                                                                                                                                                                                                                                                                                                                        ,.4.2.2.,.2.,.@.,.2.@.,.,.,.O.R I L P L A I P L K I A I K L P I L I L L K I S K L L A I K I L K L L L S I L I L L L L A I A c c c v c c c V c b c B c c c c B b c v c c c f f u u u s u u s u s u p u s p u p u s u p u p u s u p u s u p u p u p u s u p u p u p u p u p u s u p u p u p u u p s u s c F S L I L K L ` ,.,.2.@.,.,.,.,.,.,.,.,.,.,.4.h.z.x.h.z.h.x.x.f.z.h.h.z.b.d.                                                                                                                                                                                                                                                                                                                        ",
"                                                                                                                                                                                                                                                                                                                        O.2.,.2.,.%.%.2.@.%.2.@.,.2.-.R K I A I I K L P I K I L S I K L K S P L S I P L K I I L L A L I L K I K L A I K L K L K L F b c c b c b c v c c c n c c v c c v c c c v k f u u u u u u u p u p u p u p u p u p u s u p u s u p u p u p u p u s u p u p u s u s u p u p u p u p u s u p u p u u u p u c L I L K L L L [ ,.,.,.,.,.,.;.,.,.,.,.,.@.,.4.h.x.h.z.x.z.M.z.k.x.x.f.x.x.f.                                                                                                                                                                                                                                                                                                                        ",
"                                                                                                                                                                                                                                          B F D D D D Z                                                                 @.2.,.@.,.,.,.@.2.@.,.,.,.2.@.R A I I L L L P S I L K I K L I S I I L I P L L L I A I K I L L K L S I L I K L L L L L K L D v c c c v c B c c b c c c c b c c b c c c c c s f s u s u s u p u p u p u p u s u p u p u s u p u p u s u s u p u p u p u s u p u p u p u s u p u s u p u s u p u u p s u b L L S P L A L R ( ( ( ( ( ' ( O.,.-.,.,.2.,.4.f.x.z.h.f.z.h.z.h.f.x.h.f.b.u.                                                                                                                                                                                                                                                                                                                        ",
"                                                                                                                                                                                                                                          y.b.x.v.x.b.z.                                                                -.2.2.,.2.@.,.,.%.,.@.,.@.2.-.R P P L K I A I K L S P L L A I P L K L K L A I K L I L L K I S I K I K L A I L K L K F L L D b c c c c c c b B v c c b c c c c c c v c v k s t u s u s u s u p u p u s u s u p u p u p u p u s u p u p u p u s u s u p u p u p u s u s u p u s u p u p u p u s u u p u c L S P L P L L K I L L L K K R ..,.,.,.,.@.,.6.f.x.x.z.x.f.M.z.k.x.f.x.z.x.f.                                                                                                                                                                                                                                                                                                                        ",
"                                                                                                                                                                                                                                          i.x.x.z.x.b.x.                                                                @.2.,.@.,.,.,.@.,.%.2.%.,.2.O.R L P S I L I L L P I L S I L L L L K S I L I L S I K L I S P I L K L S I I L K L L L L K L D v c c c b c B v c b c c B c v c c n c k c c v s u p s p p p p u s u p u p u p p u p u s u p u s u p u s u p u s u p u p u s u s u p u p u p u p u p u p u s u p u u p u p c L I L K L L L L L I K L L L I -.,.,.%.%.,.,.4.h.x.h.z.x.z.x.h.f.x.h.z.h.v.d.                                                                                                                                                                                                                                                                                                                        ",
"                                                                                                                                                                                                                                          u.b.x.x.h.b.z.                                                                -.2.,.2.,.@.2.,.,.@.,.%.,.,.-.R K I P L A I K L S I K I K L P L A I I L K S P I L L A I K L K L I K I K K L S L A L K K L S b c b c v c c c c c b v c c b c c c c b c c k s t u i t t t p u p u p u p u s u p u p u p u p u p u p u p u p u p u p u p u p u p u s u p u s u p u s u s u p u p u p u u b L S I K I S K L K L I K L K I ..,.,.@.2.,.-.6.f.x.z.x.f.x.l.x.b.f.x.h.f.x.f.                                                                                                                                                                                                                                                                                                                        ",
"                                                                                                                                                                                                                                          u.b.z.v.h.b.h.                                                                @.2.,.%.,.,.,.%.2.@.2.@.,.2.O.R P S I K I L L I P L L L I K L L I L K L I I K L K I L K I P L P S P K P K K S L K A L L L A b c c c c b B b c v c c b c c c b c c b c v c s u p u s s u s u p u s u s u p u p u s u p u s u p u s u p u p u p u p u p u p u p u p u p u p u p u p u p u p u s u u s p c K L I A I L L K I K K K I K I -.,.,.%.%.,.,.6.f.x.h.z.x.f.x.f.x.h.x.f.x.b.u.                                                                                                                                                                                                                                                                                                                        ",
"                                                                                                                                                                                                                                          a.x.h.z.f.x.f.                                                                -.2.,.,.2.@.2.,.@.2.%.,.2.,.-.Q K P L L K S P L S K I A L L A I K L L I A L L L S P L L S I A I P L L P L K I S L L A L L C V j c b c c c v B b c c c v c c v c c c c c k s u u p u p u p u s u p u p u s u s u p u p u p u s u p u p u s u p u s u p u s u s u p u p u p u s u s u p u s u u u p u u c L S I P L K L S I L L L K L I O.,.@.,.,.2.,.4.f.x.x.f.l.x.x.x.h.z.h.x.f.x.f.                                                                                                                                                                                                                                                                                                                        ",
"                                                                                                                                                                                                                                          t.b.z.h.h.b.f.                                                                @.2.,.@.,.,.@.,.,.@.2.@.,.2.O.R I K I S P I L L P L L K L P I L L P S P I K L P L L A I K I L L L L K I K A I S K S I S L F b c c c v c B c c c c V c c c c b c b b c B v u u p u s u p u s u p u p u p p u p u p u s u p u p u p u p u p u s u p u s u p u p u p u s u s u p u p u p u p p u u p i u b L L L K L L L K L K S P S P I O.,.2.,.,.@.,.4.h.x.z.h.x.f.z.x.h.z.h.x.f.b.d.                                                                                                                                                                                                                                                                                                                        ",
"                                                                                                                                                                                                                                          t.x.z.b.f.x.f.                                                                ,.2.,.2.,.,.,.2.@.%.,.%.,.2.O.R K I A I L L A I L A I L S L K I S I I L L L S I L L P L L L P L A I L K P K S L S L F F F C B c c c c c b c c c v c c c b c c c c b c c c s t u p u p u s u p u p u p u s u p u s u p u p u p u p u s u p u p u p u p u p u p u s u p u p u p u p u p u s u p u u p u c L L P S P S I L L I K L I L I O.,.@.,.,.,.,.4.f.x.x.z.f.x.M.z.k.x.f.h.z.x.f.                                                                                                                                                                                                                                                                                                                        ",
"                                                                                                                                                                                                                                          t.x.h.z.f.b.f.                                                                O.2.,.@.,.%.,.%.,.@.2.@.,.2.,.R K A I K I L P L L I L P I K L L P L K L A I K L A I L A I K S I L K I K P K A b M V Z V V C c c c c c c v B c b c b c v c c v b c c b c v u u p u p u s u p u s u p u s u p u s u p u s u p u s u p u p u s u p u s u p u s u s u p u s u p u p u s u p u p u u p u s b L S I P L K L L A I L K L K I O.,.,.@.,.,.@.7.d.x.h.z.h.z.f.x.f.x.x.h.f.b.u.                                                                                                                                                                                                                                                                                                                        ",
"                                                                                                                                                                                                                                          t.b.z.h.z.x.f.                                                                O.2.,.,.,.,.@.,.,.%.,.%.,.2.-.T L P L L L A L I K L A I K S I K S I L P L L I L I K L I K I L L K S I K L A V j V m c B B B c c v b c c B c c c c c c c c B c c c b c c v s u u s u p u p u p u p u p u p u p u p u p u p u s u p u s u p u p u p u p u s u p u p u p u p u s u p u p u s u p u u p u c L L A I K L L L P L S I L K I O.2.@.,.,.2.,.4.h.z.x.f.x.f.x.x.h.z.h.z.h.x.f.                                                                                                                                                                                                                                                                                                                        ",
"                                                                                                                                                                                                                                          t.x.x.v.h.b.f.                                                                ,.2.,.%.,.%.,.,.@.,.%.,.2.2.,.R K A I K I I K L S I K L L I K L I K L S P L K L K I A I L L K I L I K I K S b c c c B c c c c b c c c b c c b v c b c B b c c c c b B c k s u u p u p u p u p u p u s u p u s u p u s u p u p u s u p u s u p u s u p u p u s u p u p u s u p u s u s u p u u u p u p c K L I K I L S P L L K K L K I O.,.,.,.,.@.-.6.f.x.x.z.x.z.M.z.k.x.h.z.h.v.d.                                                                                                                                                                                                                                                                                                                        ",
"                                                                                                                                                                                                                                          t.b.x.h.z.x.h.                                                                @.2.,.,.,.,.%.,.2.@.2.@.2.,.O.R K I K S K L S I P L L P L L S P L I L I L P S P L K I K L S I K L L K I L A C c c c b c b c c c c n c c v B c c c c v c c v c b c c c c v u u p u p u s u s u s u p u p u s u p u s u p u p u p u p u p u p s u p p u p s u p p u p u p u p u p u p u p u p u u u s u b L S L L K I P L A I K I K F I O.2.%.%.@.2.@.6.f.M.M.h.M.f.x.z.h.z.h.z.x.x.f.                                                                                                                                                                                                                                                                                                                        ",
"                                                                                                                                                                                                                                          u.x.x.f.h.x.x.                                                                -.2.,.@.,.,.,.,.@.%.,.%.,.2.,.R K A I I L P I K L L A L S P I L L A I K L P I K I A I L K I L I S P S P I A b c b c c c c b b k c c c B b c c b c b c c c b c c c b c c k s u u p u s u p u p u p u s u p u p u p u p u p u s u p u p u p u p p p u p p p p p u p p p u p u p u p u p u p u p u s u u c K L A I L K I I P K K K L D I O.2.%.%.%.%.%.6.d.z.M.z.x.z.M.z.h.x.d.x.z.b.d.                                                                                                                                                                                                                                                                                                                        ",
"                                                                                                                                                                                                                                          a.b.x.x.h.b.x.                                                                @.2.,.2.@.2.@.2.,.@.2.@.2.2.-.R K P L K L S K L L I K I I L K L I K L I A I L L L I K S I K L K L K I P L S b c c k b c c k v b c c c c c B c c c c c c c c c c c b c B v u u p u p u p u p u p u s u p u p u s u p u p u p u p u s u s u s u s u s s u s u s s s u s s p s p s p p s p s p s s u u s b K L I L P L P S I L S I K K G -.2.,.%.%.%.%.6.h.x.z.g.x.z.M.z.h.z.h.z.h.x.f.                                                                                                                                                                                                                                                                                                                        ",
"                                                                                                                                                                                                                                          t.x.h.z.h.x.x.                                                                -.2.,.@.,.,.%.,.,.2.2.2.,.3.-.R D L S I K I L P S I L K S P L A I L K L I L A I K L I K I S P L I L L K I A C k c v k c v c b k c b v c b c b c c B b v b c v b c c c c v s u u p u p u s u p u s u p u p u s u p u p u p u s u p u p u p p u p u p u p u p u u p u p u u u u u u u u u u s u p u s u c L S K L L K I I K K L P S K I O.4.5.2.2.2.2.6.z.x.x.h.x.l.x.x.h.x.d.x.z.b.d.                                                                                                                                                                                                                                                                                                                        ",
"                                                                                                                                                                                                                                          a.b.x.h.z.x.h.                                                                @.2.,.,.2.@.,.O.-.O.O.-.O.O...R D L P L I K L L P L L P L L I L K L I A I L I K L S P L K I L S P L A I K S b c b c b c c k c b v c b c B v c V c v c c c c c c c b c c c s u p u s u p u p u s u p u p u s u p u s u s u p u p u p u p u u t t t t t t t t t q t t u u u u q u u u u u q u u u s u s b K L L I K I P S I K S I P K P _ O.-.O.O.-...4.f.x.x.h.z.h.l.x.f.x.d.x.f.b.d.                                                                                                                                                                                                                                                                                                                        ",
"                                                                                                                                                                                                                                          t.b.x.f.x.x.x.                                                                -.2.,.%.,.,.@._ Q W W W Q Q W L L K L A L I A I L A I L S P L K I S I L K L L L P I L L L L P L L K I K L K n c c c c b c b v c c c c b c B c c c b c b c b c b c c b c v u u u p u p u s u p u p u p u s u p u s u p u p u s u p u s u q 7 6 6 6 6 6 6 6 8 6 6 6 6 6 1 1 8 6 6 4 1 1 8 6 6 1 6 6 6 6 k K S K L L K I I K L K L K L P I I I I R P K -.f.x.h.h.x.x.x.h.h.x.f.x.z.x.d.                                                                                                                                                                                                                                                                                                                        ",
"                                                                                                                                                                                                                                          a.x.x.h.x.x.x.                                                                @.2.,.,.,.,.,.( D H U K K K K L L K L I L P L L I P L K I L L S I P L K I L P S L K S P S I L K L L L K L S V c c b c c v c c b c c c v c b c b c c c c c v B c c c c c v u u p u p u p u p u p u p u s u p u s u p u p u s u p u p u p 7 7 6 6 1 6 6 1 6 6 6 6 6 1 6 1 6 1 1 1 6 6 1 1 1 6 1 6 1 6 5 k L L L I A I K L L A I L K I K K K F K K L D [ d.b.x.x.h.x.h.h.f.x.d.x.f.b.d.                                                                                                                                                                                                                                                                                                                        ",
"                                                                                                                                                                                                                                          t.b.x.f.x.b.x.                                                                ,.2.,.@.2.@.,.( U U K K L P K L L K S P L S I K S I K S I K I P L L K S I A I K L I I K I K L I A I K L K F b c c c v c b c c c c v c b B c c v b c v c c c c c b b B c v s u u p u s u p u p u s u p u p u p u p u p u s u p u p u p u t 7 6 1 8 1 6 8 1 1 6 1 6 4 6 6 1 6 6 6 6 1 6 6 6 1 6 1 6 1 6 k K S P L I K I L K L K L P L P L K L P L K D [ i.x.x.x.x.x.x.x.j.x.f.x.z.b.d.                                                                                                                                                                                                                                                                                                                        ",
"                                                                                                                                                                                                                                          a.b.x.h.l.b.x.                                                                O.2.,.,.,.,.,.( D L L L L L K L F L P L L P L I K L L I K L S L K S I I K L L L K L K L L L A I I L L P L D n c b c c c c c b c b c c c c n c c c c c c c c v c c b c c c s u p u p u p u s u s u p u p u s u p u p u p u p u p u s u u 7 7 6 6 1 6 1 6 6 6 1 6 1 6 6 6 4 6 1 8 1 6 6 1 6 6 4 6 1 1 6 h L L S P L P L I L K L S P L P L P A I K L A [ d.x.b.x.x.x.x.x.h.l.h.z.h.x.d.                                                                                                                                                                                                                                                                                                                        ",
"                                                                                                                                                                                                                                          t.x.x.f.x.x.x.                                                                -.2.,.%.,.%.,.[ K L D L L P L L L K L S K L S K L A I K L L K I L P L L L I A I L S I L A I L L K L A L K L b c c c b c c c v c c b c n B c c c c c V c v b c c c c c v k s u u p u p u s u p u p u s u p u p u p u s u p u p u p u p u t 7 1 6 6 6 6 6 1 6 8 1 6 6 1 1 6 6 1 6 6 1 8 1 6 6 1 1 6 1 6 k K S P L L K I K L S P L P S P L P L K L L K [ f.x.x.z.x.x.x.M.x.z.g.z.z.b.d.                                                                                                                                                                                                                                                                                                                        ",
"                                                                                                                                                                                                                                          f.S.x.x.x.S.x.                                                                @.2.,.,.,.,.,.( L L L S I K K L K L L I L P L K L K L A K S K L L L L P S P I L K I K I L K L L P L I K L A C c b v c c n c b c c v c c c c c b v c c c c c c c b b c c c s u u p u s u p u p u p u p u p u p u s u p u p u s u p u p u q 7 6 1 6 1 1 6 1 6 1 6 1 6 6 6 1 6 6 1 6 1 6 6 1 6 1 8 1 6 6 h L L L I K L P L K I L K I P L A P A I P S D [ u.x.x.x.x.x.g.h.f.x.f.x.h.x.f.                                                                                                                                                                                                                                                                                                                        ",
"                                                                                                                                                                                                                                          z.D.S.S.b.S.S.                                                                ,.2.,.%.,.@.2.( K L L L K I L I K S K L S I K S D A D F K L K S P L A I I L K L I L S P L I S P S I K L L D b c c c b c B c c c b c b c b B v c c c b c B b c c c c b c v u u p u p u p u p u s u s u p u s u s u p u p u s u p u s u u t 7 6 1 8 6 1 8 1 6 6 6 6 1 6 1 6 1 6 4 6 1 6 6 1 8 1 1 6 1 6 k K S P L L K I L L L A I K L P I K I K L K K [ f.x.x.x.z.h.f.x.M.x.d.z.z.b.d.                                                                                                                                                                                                                                                                                                                        ",
"                                                                                                                                                                                                                                          E ) ) W W ) W                                                               l @.2.,.,.,.2.,.( L A L L I A L K L P L L P L I ( [ [ [ [ [ [ ( I L K I L K L L S P L K L L P L I L K L K L S V c c c B c c b c c c c c c v c b c c c v b c v c c b c B c c s u u p u p u p u p u p u p u p u p u p u p u p u p u p u p u q 7 1 6 1 6 1 6 6 6 1 4 6 6 4 6 6 1 6 6 1 6 4 6 6 6 6 1 6 1 6 k K L L A I K I A I L L L K I A I K K L P S D [ u.x.z.x.x.f.x.z.x.x.h.x.h.x.d.                                                                                                                                                                                                                                                                                                                        ",
"                                                                                                                                                                                                                                                                                                        Q ....O.O.O...O.2.,.,.2.@.,.%.( K L I A I L L L L S L K S K ( t.h.d.d.d.f.z.=.I D L S P L S P I L L I S I L K L L L I K L K n c c c n B c v c c v V c B b c c c b B c c c b c c c b c c v u u p u p u s u s u p u p u s u p u p u p u s u p s p p u u u 0 6 1 6 6 6 6 1 1 6 6 6 1 6 6 1 6 8 1 6 6 6 1 6 1 1 6 6 6 1 5 k K I K I L L L D L K L A I L I K L S I L K A ' f.x.x.z.h.d.z.x.x.M.f.x.z.b.d.                                                                                                                                                                                                                                                                                                                        ",
"                                                                                                                                                                                                                                                                                                        ` 5.,.2.,.2.2.,.,.2.,.@.,.,.%.( K S P L L K L L K L L L L K / d.x.b.x.x.x.S.6.I L K L L I P L L K S P I K L S P L A L K L A V c V c B b c c c b B c c c c c B v c c b c c c v b c b c c v s u u p u p u p u p u s u p u p u p u s u p u p u u u p u u p 0 6 1 6 1 8 1 6 6 4 6 6 1 6 1 6 6 1 6 6 1 6 1 6 6 6 1 8 6 1 1 h L A I L K I K S L L L I K L K S K L K L K F [ d.x.x.x.z.h.f.x.M.x.g.z.h.x.d.                                                                                                                                                                                                                                                                                                                        ",
"                                                                                                                                                                                                                                                                                                        ) 2.,.,.,.,.,.@.,.2.,.2.@.,.,.( K L I S I S L K L S P L S K / d.b.x.x.x.x.b.6.I D L S P L L K L I K L L L P I L I I K L K F n c c v B c B c c B c c v B c n c b c c v c c c c c c b c c k s u p u s u p u s u p u p u p u s u s u p u s u u t u e u u u 0 6 6 1 6 1 6 1 6 1 1 6 8 1 6 1 6 1 6 1 6 8 6 1 6 1 6 6 6 6 1 j L I L I A I L A L S P L S I L K L K I S K D [ d.x.x.z.h.f.l.x.x.x.h.x.x.b.d.                                                                                                                                                                                                                                                                                                                        ",
"                                                                                                                                                                                                                                                                                                        ` 2.,.@.,.@.,.@.,.%.,.@.,.%.,.( K L K I P L L L K L L K I D R d.x.x.z.h.x.x.6.I D K I L L S I A I L I A I L L A L K L P L A V c B b c b c C c c C c V c c c c c c b c b c c c c c b B c v u u u p u p u p u p u p u s u p u p u p u p u p t p u q u u p 0 6 1 6 6 6 4 6 6 6 6 1 6 1 6 1 6 8 1 6 6 1 1 6 1 6 6 6 1 1 1 h I I K I L K L A L L L I K L L L A I L K L A [ u.x.x.x.z.f.h.x.x.M.z.f.x.x.h.                                                                                                                                                                                                                                                                                                                        ",
"                                                                                                                                                                                                                                                                                                         .,.2.,.@.,.,.@.,.%.2.@.,.%.2.( K S I S I K L L L A I L S K / d.x.x.x.x.z.b.6.I D L K S P I L I K L L I K S I K I L L A I F b c c c c B c c c c c B c c b c c b c c c c c n c B c c c B k s u p u p u s u p u s u s u p u s u s u s u s u u t u p u u u 0 6 1 6 4 6 6 1 6 1 8 6 6 1 8 6 1 6 6 1 6 6 6 6 1 8 1 6 6 1 7 p P I L L S I K F L S L L L K S P L L L S K D [ f.x.x.z.h.d.z.x.x.x.M.x.x.b.g.                                                                                                                                                                                                                                                                                                                        ",
"                                                                                                                                                                                                                                                                                                        _ 2.,.,.,.@.,.%.,.2.@.,.@.,.@.( K L P L S L L K I L K L L D R d.b.x.f.x.h.x.6.I D L L P L L K L L A I L L K L L L A I P L A n c c n c b c c b c b c C c c v c B v c b v c c c b c b B c v s u u s u p u p u s u p u p u p u p u p u s u s u u p t y u u q 7 1 6 1 6 1 6 1 6 1 1 6 1 6 6 6 1 6 1 6 1 1 6 1 6 6 6 6 1 1 k I L I I K L L V L L L P S I L L K S P L K A [ d.z.x.x.z.h.f.x.M.z.x.f.x.b.h.                                                                                                                                                                                                                                                                                                                        ",
"                                                                                                                                                                                                                                                                                                         .<.2.@.2.,.@.,.%.,.2.%.,.%.,.( K L S P I K L L A L L K L D / g.x.M.x.x.x.N.9.I D L L L P S I K I I K L P S I K I I K L P S V c c c B c v c c v B c c B b c c c c c c c c c c c b b n b k u t u p u p u s u p u p u p u s u p u s u s u p u t u u u u u 0 6 1 6 1 6 6 6 1 6 6 1 6 6 1 6 1 6 8 1 6 6 8 1 6 1 6 6 1 < 7 k F P L P L P K A L S I L P L L K I K I L L D ' d.x.x.x.f.f.M.z.x.x.x.x.h.b.g.                                                                                                                                                                                                                                                                                                                        ",
"                                                                                                                                                                                                                                                                                                         .,.,.,.@.,.,.@.,.2.%.,.@.2.@.( K L I L S I L L L L D F L K ' M.B.N.B.N.B.S.e.I D L P S I K L L A L I A I I K L A I L P L A n c b c c b c c b c b B b c c B c b c c b c c c f h k j k k s u u p u p u p u p u p u p u s u p u p u p u p t t e q q q q q 6 1 6 1 6 4 6 1 6 8 1 6 1 6 6 1 8 1 6 1 6 1 6 6 6 1 6 6 6 1 6 t s k k k k k k V L I L A I L S I K L L A K D [ f.x.x.z.x.f.f.x.x.M.z.x.h.x.d./                                                                                                                                                                                                                                                                                                                       ",
"                                                                                                                                                                                                                                                                                                        _ ,.2.@.,.,.2.,.,.@.,.,.,.,.%.( K S P L P L D L K L L D L D ' M.L.L.F.A.F.L.t.I D L A I K L L I L K L I K L L I L L K I S K b c c c v c c c c c c c v B c c v c b c c B c f f y f u f f f u q u p u s u p u s u p u s u p u p u s u u u q 6 6 6 4 6 1 6 6 6 1 6 6 6 6 6 1 6 6 6 8 1 6 6 1 6 6 1 6 8 1 6 1 6 1 6 6 6 6 6 5 6 6 6 1 1 6 b L L P L L K L K S L P L L A ' d.x.x.x.f.d.x.x.x.x.M.z.x.f.h.6.O.@.>.,.>.<.'                                                                                                                                                                                                                                                                                                         ",
"                                                                                                                                                                                                                                                                                                        ` ,.,.,.2.@.,.@.2.,.,.%.,.@.2.( K I L S I L L L S K L K L D ' M.L.J.J.J.J.L.w.I D L I L L P S P L I S K L L A I K I S P I S b c c c c c b c n c V c V c c c c c c v c c c s u u u u u u u u u p u p u p u p u p u s u p u p u s u p u p q 6 8 6 6 6 6 1 1 6 1 8 6 1 1 8 1 6 1 6 1 6 1 6 6 1 6 8 1 6 1 6 6 4 6 1 6 < 6 1 1 6 6 6 6 < 6 V L S I A I L L L K L L A L D [ f.x.z.x.h.f.f.x.M.z.h.x.f.x.x.e.,.,.4.2.4.5.@.                                                                                                                                                                                                                                                                                                        ",
"                                                                                                                                                                                                                                                                                                        ` 2.@.2.,.,.@.2.,.@.,.,.,.2.%.( L A I P S L L P L L L L L D ' M.L.A.F.F.J.L.a.I D L K I A I L L L P L I L I I L L K I K L D n c c b c c v c c c c c B b v b c b c c b c v f s s u u u u u p u p u p u p u p u s u p u p u s u p u u u p q 6 6 6 6 6 1 6 6 4 6 1 6 1 6 6 6 1 6 6 1 6 6 6 1 8 1 6 6 1 6 6 6 1 6 1 6 1 6 8 1 < 6 6 6 6 8 V L L P I L K L S P L K I K A [ d.x.x.z.x.f.M.z.x.h.x.z.x.h.f.6.,.,.,.@.,.2.|                                                                                                                                                                                                                                                                                                         ",
"                                                                                                                                                                                                                                                                                                        _ 2.,.@.,.@.2.,.,.2.@.2.%.,.,.( K L L L P L L L K S K L L D ' M.L.L.L.A.F.L.t.I D L L L L I K L S P L L A L K L I K L P S K b c c v c c b c b c C c c B c c c v c c c c c k u u s u u p u u u p u p u p u p u p u p u p u p u p p u u u q 6 8 6 6 1 6 8 1 6 1 6 1 6 6 6 1 8 1 6 8 6 1 1 6 6 6 1 6 6 1 4 6 6 1 6 1 < 6 6 5 6 6 6 6 6 6 B L S I K L S I K L S I L F D [ d.x.x.x.f.f.f.x.x.z.x.h.M.z.h.e.%.@.,.@.,.4.)                                                                                                                                                                                                                                                                                                         ",
"                                                                                                                                                                                                                                                                                                        ` 2.,.,.@.2.,.@.,.,.-.,.,.,.,.( L K A L S P A L L L L L K D ( N.F.A.F.A.F.L.t.I D L P S P L L K I L L K I K S P A S S I S L b b c b c B c c c c c c c b c v b c c b c v c s u s u u u u u p u p u p u p u p u s u s u s u s u s u p u u e 6 6 6 8 1 6 6 1 6 6 6 1 6 1 1 6 6 1 6 1 1 6 6 1 1 6 1 6 4 6 1 1 1 6 6 6 6 6 6 6 6 6 6 6 6 6 c I L K I L P L L K L K L K D ' f.x.z.x.z.h.x.M.M.h.z.f.z.x.f.6.%.,.@.,.,.,.)                                                                                                                                                                                                                                                                                                         ",
"                                                                                                                                                                                                                                                                                                        ` ,.@.2.,.,.@.,.,.,.,.-.,.,.,.( L P L L I L P L A S A D F Z R N.L.F.A.A.A.L.t.I D L L L L K I S P L A I L S I S P I S S I S V c c B c c V v c b c c c v b c c c c c c c c s u u s u u p u u u p u p u p u p u p u p u p u p u p u p s u q 6 6 6 1 6 1 6 1 6 1 6 8 1 6 8 1 6 6 1 6 6 1 6 1 8 6 6 1 6 1 1 8 1 1 6 6 6 6 6 6 6 6 6 6 6 6 B L S P S P L S L K S I K L D ' d.x.b.M.f.f.x.x.M.x.x.h.z.x.d.e.,.,.@.,.@.5.}                                                                                                                                                                                                                                                                                                         ",
"                                                                                                                                                                                                                                                                                                        _ 2.,.,.@.,.,.@.-.-.-.-.,.@.,.' K L K S L L S I I P L I L K ' N.L.A.A.F.A.L.a.I D L K I L A I L L I L L K K S I S I S L S S b b c b B c c b c c v b c c c B c c c n c c c s f s u u u u u p u u p u p u p u p u s u s u p u p u p u u q q 6 6 6 6 1 6 1 6 4 6 1 6 6 1 6 6 1 6 6 1 8 6 1 6 6 1 1 6 6 4 < < 2 < 1 < 1 < 1 < 6 < 6 < < 6 c L L K I L L K L K I L L L D ' d.b.h.x.x.f.x.M.M.x.M.x.M.x.h.e.%.,.,.,.2.,.)                                                                                                                                                                                                                                                                                                         ",
"                                                                                                                                                                                                                                                                                                        ` ,.@.,.2.@.2...( ( ( Q ( ( _ R L K L F L K I 2.6.e.e.e.e.e.t.A.A.F.A.A.A.L.t.I D L L S P I L K L K I K L S A V b V b C V C b c B c c C c B c c c c V c b c c n B c c c v f u s u p u p u u p u p u p u p u s u p u p u s u p u s u p u q 8 6 6 1 6 1 6 1 6 6 1 6 1 6 1 6 1 6 4 6 1 6 1 6 6 6 6 6 1 2 < > > > - > - > - - - > - - & < c I S I K L K L S K L A I K A [ d.x.x.x.h.f.z.x.A.B.B.B.B.A.B.r.@.,.%.,.@.4.}                                                                                                                                                                                                                                                                                                         ",
"                                                                                                                                                                                                                                                                                                        ` 2.,.@.,.,.,._ K F L L P P D K L K L K L A I f.P.L.F.L.J.L.L.F.F.J.F.L.F.L.a.I D L P L L L L I S I L K L K C k c c c c b c c c c c B c B c c c V c c c v c c c c c c c c k u s u p u p u p u p u p u p u p u p u s u p u p u p u p u u q 6 6 8 1 6 1 8 6 1 6 6 1 8 1 6 1 6 1 6 6 1 6 6 1 6 1 1 6 6 4 < & % % % % % % % % % % % % % & h I L K I S I L P L L I L L D ' f.x.h.x.h.f.x.N.A.F.F.F.F.J.F.e.@.,.,.@.,.3. .                                                                                                                                                                                                                                                                                                        ",
"                                                                                                                                                                                                                                                                                                        ` ,.@.,.@.,.2._ K K L K K K P L I K L L D D R u.L.J.L.A.L.A.J.B.A.F.A.F.A.L.t.I D L L A I K S P I K L K L S V c c c c B c B b c B c b c c b c c c v c c c b c c c c b c v f u s u u u u u u u p u p u p u p u p u p u s u p u s u p p u q 8 6 6 6 1 6 1 6 1 6 1 6 6 6 1 8 6 1 6 1 6 1 6 6 6 6 6 1 6 6 , % % & % % & % & % % % % % % & c I L S P I K L S K S P L K D ' d.x.b.M.f.h.z.x.A.A.J.J.J.J.A.y.%.,.,.2.,.,.)                                                                                                                                                                                                                                                                                                         ",
"                                                                                                                                                                                                                                                                                                        _ 2.,.2.,.@.,._ L K L L P I L L L K L K I A R a.L.A.A.B.S.A.L.A.L.A.A.A.F.L.a.I D L I I L I I L L L K I K L b c c c b c c c c c b B c B B c c c c b c b c c B c c B c c c s u s u p u s u u p u p u p u p u s u p u s u p u s u p u u u q 6 6 1 6 1 6 6 1 6 8 1 6 1 6 1 6 6 1 6 6 1 6 6 1 5 1 6 5 6 1 - % % % & % % & % & % & & % % & c I L I K L S I K L K L L L A ' d.b.f.x.h.f.x.N.F.A.F.A.A.L.A.t.,.@.,.@.,.2. .                                                                                                                                                                                                                                                                                                        ",
"                                                                                                                                                                                                                                                                                                        ` 2.@.,.,.2.,._ L K L S P K L L L K L L K K I d.J.A.F.A.F.A.A.J.A.F.F.A.A.L.t.I D L A L K L K L K I S P S K C k c c c c b c b c c B c b c B b c c c B c c c v c b c c v c k u s u u u u u p u p u p u p u p u s u p u p u s u p u p s u q 6 6 6 1 6 1 6 6 1 6 6 1 6 4 6 1 6 8 1 6 1 6 6 5 6 6 5 1 6 5 , % % & % & % & % & % & % % % & k I L A I I K L L L L I A L D ' d.x.x.x.h.f.x.x.A.A.F.A.A.A.A.r.@.,.2.@.,.2.)                                                                                                                                                                                                                                                                                                         ",
"                                                                                                                                                                                                                                                                                                        ) ,.,.%.,.@.2._ I F L L I P L I L P L D K A R u.L.F.L.S.J.L.F.L.F.J.L.F.J.L.a.I D L I L L S I L S P L P L S V c c c C c c v c c V v c B n c c c n c b c n c b c c v c c c s u u s u u u p u u p u p u p u p u p u p u p u p u p u p u u 0 8 6 6 6 1 6 6 4 6 1 6 8 1 6 6 6 6 1 6 6 6 6 6 1 5 1 6 5 6 1 > % % & % & % & % & % & % & $ > k I L I K L L L A I A I I K D ' d.b.h.x.h.f.x.N.F.A.F.A.J.F.A.y.@.,.%.,.,.4.)                                                                                                                                                                                                                                                                                                         ",
"                                                                                                                                                                                                                                                                                                        _ 2.,.,.,.,.,._ L K A L A I K P L L K F K K ^ d.L.J.A.A.F.A.A.L.L.L.L.L.F.L.d.I D L K L P I K I L I L K I A C c c c c c c b c c c c V c B c c B c c c B c c B c c b c c c s u s u u p u u u u p u p u p u p u s u s u s u p u s u p u u q 6 6 6 1 6 1 6 1 6 1 1 6 1 6 1 6 1 6 1 6 6 1 6 5 6 6 5 1 6 1 - - & % & % & % & % & % & % % & c I L A I L A I L K L L L L D ' d.x.x.x.h.f.x.x.A.A.F.F.A.J.A.r.@.,.,.@.,.2. .                                                                                                                                                                                                                                                                                                        ",
"                                                                                                                                                                                                                                                                                                        ) 2.,.@.2.@.2._ I I I I I I T I K L L L L A / d.L.A.J.L.J.F.A.Z.V.C.V.V.V.A.9.I D L L A I L L K L K L K L S V c c b c c c c b c c B c c c C c b c v b c b c c b c c c c c s u s u u u u p u u p u p u p u p u p u p u p u s u p u s u q q 8 6 6 1 6 1 6 6 4 6 6 6 6 6 4 6 1 6 8 1 1 6 6 1 6 1 6 6 5 6 > % % & % & % & % & % & % & % & h I L I K I L L K L K L K L A ' f.x.h.x.h.f.M.x.F.A.A.L.A.F.A.y.@.,.2.,.,.2.)                                                                                                                                                                                                                                                                                                         ",
"                                                                                                                                                                                                                                                                                                        _ 2.,.,.,.,.,.O.-.[ ` -.` O.[ ( K S P A L A I d.L.J.F.A.F.J.V.-.' ' ' ' ' ' ' L L P L I L K S I K I S P I D C k c c v b c c v c V c c C c c c c c c c c c n c c v V c c c s f s u p u p u u p u p u p u p u s u p u p u p u p u p u p u q 6 6 6 1 6 1 8 1 6 1 6 1 1 6 6 1 6 1 1 6 6 1 < - % % % % % & % & % & % & % & % & % & % & % ; k I S I K S I L S K L S I D D ' d.x.b.M.h.f.x.x.A.F.A.F.A.J.A.y.@.,.%.,.@.3.)                                                                                                                                                                                                                                                                                                         ",
"                                                                                                                                                                                                                                                                                                        _ 2.,.@.,.%.,.,.@.,.,.,.,.>.>.( L P S P S K ^ d.L.J.J.J.L.L.M.R D D D K S K D I K L S K L I I L S P L L K S V c c b c c B c c c c v c c B b c b c V v b B c c c c c c c v f u s u p u u p u u p u p u p u p u p u p u s u p u s u p u u q 6 6 8 6 1 6 6 6 6 6 4 6 6 1 6 1 6 6 1 6 6 1 1 % % % % & % & % & % & % & % & % & % + % % % & k I L L P L K L I K L P L L D ' d.b.h.x.x.z.h.N.F.A.F.A.A.F.A.r.@.,.,.@.2.4. .                                                                                                                                                                                                                                                                                                        ",
"                                                                                                                                                                                                                                                                                                        ) 2.2.,.@.,.2.,.,.,.,.@.,.,.O.( K I K L K F I f.L.J.F.F.A.L.V./ D L L L K L L L L I P L L K L P L I L I S I V b b B c B c b c B b B b B c c c v c c c c c c b B b c c c c s u s u u u u u u p u p u p u p u p u s u p u p u p u p u u p q 6 8 6 6 6 6 6 6 4 6 1 6 6 1 8 6 1 6 8 1 6 4 < & - & - % % % & % & % & % & % + % & % & % % & k I L K L L L L S P S I L S D ] d.x.x.x.M.M.x.N.A.F.A.F.F.A.F.t.%.,.2.,.,.,.)                                                                                                                                                                                                                                                                                                         ",
"                                                                                                                                                                                                                                                                                                        _ 4.,.@.,.@.,.@.2.@.2.,.2.,.@.' P K L S K L I d.L.J.A.L.F.L.V./ D L K L S P L I A I L L I S I L L K S P L L V j c c b c c B c c B c c V c B b c c c b c n B c c c c c v c s u s u u p u u p u p u p u p u p u s u p u s u p u p u p u p 0 6 1 6 6 1 6 1 6 6 1 6 1 6 1 6 1 6 1 6 6 1 6 6 % % % % % % & % & % & % & % & % & % & % & % & h L L L K L L L P L I L I L A [ d.N.x.x.x.z.x.N.F.A.F.A.F.A.A.y.%.,.@.,.@.2. .                                                                                                                                                                                                                                                                                                        ",
"                                                                                                                                                                                                                                                                                                        _ 2.2.-.%.,.2.,.,.@.,.,.@.,.O.( L P K L K F I f.L.A.F.A.L.H.M./ K L A I K L L P L L K S P I K L A I I L L L V b b c B c B n B b c V c c c c c c b c c c c c b c v c c c c k u u s u u u p u u u p u p u p u p u p u p u p u p u p u u p q 6 6 1 6 6 1 6 6 1 6 6 6 1 6 6 6 4 6 1 6 1 1 1 & % & % & % & % & % & % & % + % & % & % + % & k L L I K L K S I S P S P S D ] d.x.x.x.M.x.M.B.F.A.F.A.H.F.A.t.,.,.2.@.,.,.}                                                                                                                                                                                                                                                                                                         ",
"                                                                                                                                                                                                                                                                                                        ) 3.,.@.,.,.@.,.2.,.2.@.,.2.-.( K I K K L D ^ d.L.F.J.F.F.L.M./ D L K L K S P L S I I I L L L P L I K L A L b j b B c B c c c c B c B c C c b c c B v c c c v c c c b c c s u s u u u p u u u p u p u p u p u s u p u u u q u u u u u p t 1 1 6 1 6 6 1 6 6 1 1 6 8 6 1 6 6 1 6 1 6 8 < % % % % - % & % & % & % & % & % & % & % % % & h I L L K L L L P L S P L L V [ d.S.h.x.x.l.x.N.F.A.F.A.A.J.F.t.,.@.,.,.2.,. .                                                                                                                                                                                                                                                                                                        ",
"                                                                                                                                                                                                                                                                                                        _ 4.2.,.@.2.,.@.,.@.,.,.,.@.2.( K K D A D Z I d.L.F.A.L.A.L.V./ K L A L K L L L P L K L K S P L L L L I L L V b c c c b B b B v b c n B c B c v c b c c V c c c b c c c v f u s u p u u u u u p u p u p u p u p u s p t q u e u e u u p q 6 6 4 6 6 4 6 1 8 6 6 1 1 6 6 1 1 6 6 6 6 1 6 % & % & % - & % & % & % & % & % & % & & % % & k L L L K L S L A K A D S D V ' d.x.x.x.M.x.x.N.A.A.F.F.L.H.F.r.,.,.%.,.,.2.)                                                                                                                                                                                                                                                                                                         ",
"                                                                                                                                                                                                                                                                                                        ) 2.,.O.,.@.2.,.,.,.@.2.,.,.,.[ ( ' ( ( ( ( ] f.L.A.F.A.L.F.V./ A L K L S P L S I L L S I K I S P L A I K S V j b B c c c v b c B c B c c c c c c c c c c b c c c c c c c s u s u u u u s u u p u p u p u p u p u p u p q e t q q t q t q 6 1 6 1 6 6 6 6 6 1 1 6 6 1 1 6 6 1 1 1 6 1 < - % - % % % & % & % & % + % & % + % & % + % & h L L L K L K L ' ' ' ' ' ' / ;.h.N.N.x.x.M.x.N.F.A.H.A.A.F.F.r.@.,.,.%.,.,. .                                                                                                                                                                                                                                                                                                        ",
"                                                                                                                                                                                                                                                                                                        _ 2.2.,.@.,.,.2.%.,.,.@.,.@.@.e.u.u.y.y.u.t.f.C.F.A.F.L.H.L.M./ D L K K L K L K L K I P L L I L P L L K L L V c c b B b B c B c b B b c V c c V c c B b c c c c c b c c v f u s u s p u p u p u p u p u p u p u s u p p q 6 7 6 6 6 6 6 6 1 6 4 6 6 1 1 1 6 1 6 6 1 6 8 1 6 8 6 6 4 6 1 & % % & - % & % & % & % & % & % & % & % % % & k I L L K L L I e.d.d.d.f.d.a.h.A.L.B.A.A.F.A.B.x.x.C.x.x.N.x.6.@.,.,.,.@.2. .                                                                                                                                                                                                                                                                                                        ",
"                                                                                                                                                                                                                                                                                                        _ 4.,.-.%.,.@.,.,.,.2.,.2.,.,.e.b.x.b.b.x.x.x.A.F.F.A.F.L.L.V./ D L L A L L A I L L A L L K L A I L S I L A V j V c c B b B b c B v c B v c c c b v c c c c v b B c c c c k u s u p u p u p u s u p u p u p u p u p u p q 6 1 1 5 6 1 6 1 6 1 6 1 6 4 6 6 1 6 1 8 1 6 6 1 6 1 1 6 6 1 < % & % % % & % & % & % & % & % & % & % & & % & f I L L K L K / u.S.x.b.x.z.x.b.B.A.A.F.A.F.A.N.x.g.h.h.h.x.h.6.>.,.%.2.,.4. .                                                                                                                                                                                                                                                                                                        ",
"                                                                                                                                                                                                                                                                                                        ) 3.2.@.,.,.2.,.@.2.@.,.@.,.>.e.z.x.h.f.M.M.x.B.F.F.L.H.L.H.M./ K K L L K L L K L P L I L S I L L P I K L L V c b c V c c c B v b B c b c V c c c b c b c B c c c c v c c s u s u s u s u s u p u s u p u s u s u s u p t 6 < 6 6 6 1 6 6 8 6 1 6 6 1 6 6 6 8 6 1 6 1 6 1 6 6 6 1 6 1 8 % % % & - % & % & % & % & % + % & % & % % % & k L L K L L D / i.x.x.x.x.f.h.b.A.S.J.A.F.B.A.A.x.h.x.h.z.x.h.7.-.2.,.,.@.,. .                                                                                                                                                                                                                                                                                                        ",
"                                                                                                                                                                                                                                                                                                        _ 2.,.,.,.%.,.@.,.,.@.,.2.,.,.r.M.x.x.h.l.z.x.B.A.F.A.F.A.L.M./ D L A I A I K S I L L A I P L K L L A I L S V j c c c c C c B c B c c B c c n c c c c B c v b c c b c c c s u s u p u p u p u s u p u p u s u p u p u s q 6 8 1 6 6 6 4 6 1 6 8 1 6 6 1 8 1 1 6 6 1 6 8 6 1 6 4 6 1 6 1 % & % % % - & % & % & % & % & % & % + % + % & h L L L K L K ^ d.x.x.x.x.f.f.x.F.J.B.L.A.F.J.N.x.x.x.f.b.f.h.7.>.,.@.,.,.2.}                                                                                                                                                                                                                                                                                                         ",
"                                                                                                                                                                                                                                                                                                        ) 2.,.%.,.,.,.,.2.,.2.,.@.,.,.e.z.x.f.h.l.x.x.B.A.S.J.L.F.L.V./ K L L K L L L P L K I L L L K L S P L L K L V c b B c B c V c b c v B b v B c b c V c c b c c c B c c v c s u s u p u p u s u p u p u s u p u p u p u p t 6 < 8 6 1 6 1 6 4 6 1 6 1 6 6 1 6 1 6 1 8 1 6 1 6 1 6 6 1 1 1 % - % - % % & % & % & % + % & % & % & % & % & k I L I K L D / t.x.h.x.z.x.f.x.F.L.J.F.A.F.A.B.x.h.x.z.x.z.x.6.,.@.2.,.,.2.}                                                                                                                                                                                                                                                                                                         ",
"                                                                                                                                                                                                                                                                                                        _ 2.,.,.@.,.@.2.@.,.@.,.,.,.,.r.f.x.f.h.M.l.x.A.J.J.F.A.J.L.V./ A L K S P L A I L S P L P L S I P L L L S L V j c b B b c v B c V c c B c c c c c c v c c c c c b v c c c s u u s u s u p u p u p u s u p u p u s u p s q 6 6 1 6 6 1 8 1 6 1 6 8 6 1 6 1 6 6 1 6 1 6 6 1 6 6 1 6 1 8 1 % & % & % % & % & % + % & % & % & % & % % % & h L L L K L D / t.x.x.h.x.f.h.x.S.J.B.F.A.A.F.B.N.d.x.x.z.h.x.6.,.,.,.@.,.2.}                                                                                                                                                                                                                                                                                                         ",
"                                                                                                                                                                                                                                                                                                        ) ,.,.%.,.2.,.,.,.%.,.%.,.@.,.e.x.h.x.f.M.x.x.A.F.J.A.F.F.L.M./ K L K L L I K L I L L S I K I K L L K I K L V b c c c B c V c c c B c c b B c c c c b c c c b c c c c c c k u s u s u p u p u s u p u p u p u p u p u p t 6 4 6 6 1 6 1 6 1 8 1 6 1 6 4 6 1 6 8 1 6 1 6 4 4 4 4 4 4 4 2 & % % & % & % & % & % & % & % + % & % & & % & k L L K L L D / t.x.x.x.f.z.h.x.A.A.J.F.A.F.A.N.x.z.x.f.x.l.h.6.@.,.@.,.2.2.}                                                                                                                                                                                                                                                                                                         ",
"                                                                                                                                                                                                                                                                                                      d ..2.,.,.@.,.@.,.%.,.,.,.,.,.,.s.N.N.N.N.B.B.C.A.F.A.L.H.A.L.V./ D L L A I L L S P L P L K L L L S I L S I L b j V c B c c c B n B c V c c c b c b v c c b v c B c c b v c s f s u p u p u s u p u s u p u p u s u s u s q 6 6 4 6 6 1 8 6 < 6 6 1 6 1 6 6 1 6 1 6 1 6 1 > : ; : ; ; : ; % & % & % & % & % & % & % & % & % & % & % % & h L L L K L D / u.x.x.x.g.z.M.x.A.F.A.F.A.L.A.B.x.f.x.h.x.x.x.6.,.,.,.@.2.,.}                                                                                                                                                                                                                                                                                                         ",
"                                                                                                                                                                                                                                                                                        J ,.-.O.-...O.-.1.,.@.,.,.2.,.,.,.@.,.@.2.@.%.d.L.F.F.A.A.F.F.F.A.F.A.F.A.L.V./ K L I L K L P L L L L I L I A I P L K I K L b V c b c V c v c B c c v B c B c v c c c B c c c c c v c c c s u u s u s u p u p u s u p u s u p u p u p u e 6 1 1 6 6 6 1 8 6 1 6 6 6 1 6 1 6 1 6 1 6 6 6 & % & % & % & % & % & % & % & % & % & % & % & % & % & % & % & k I L L K L D / t.x.x.x.f.z.z.x.A.A.J.F.A.L.F.B.M.z.x.z.x.z.h.6.,.@.,.,.2.2. .                                                                                                                                                                                                                                                                                                        ",
"                                                                                                                                                                                                                                                                                        ) 7.4.2.<.,.,.,.2.,.2.,.%.,.@.2.@.,.,.,.@.2.%.f.K.F.A.F.A.S.F.A.F.J.F.K.F.L.M./ D L A I L S I L P S P S K L L L L K L S L L V j b c B c V c B b B c b c c b c b c b c c c b c c c b B c c s u s u p u p u s u p u p u p u p u p u p u s q 6 8 1 6 1 6 6 1 8 6 1 8 1 6 1 6 6 4 6 6 1 6 1 & % % & % % & % & % & % & % & % & % + % & % + % & % & % % $ & f I L K L L D / u.x.x.x.h.z.g.x.A.A.J.F.A.L.A.Z.M.f.x.x.z.g.x.6.,.,.@.,.2.2.}                                                                                                                                                                                                                                                                                                         ",
"                                                                                                                                                                                                                                                                                        W 2.2.,.,.,.,.,.1.,.@.,.,.,.,.,.,.%.,.@.,.,.%.g.F.H.A.F.A.F.F.A.F.A.F.A.A.L.V./ K L L K I P L L L I L I L I K L A I L P L A V c b c b c c c c c b B c B B c c c c c B b c c v c c c b c c s u u s u s u p u s u p u s u p u s u p u s u e 6 6 2 6 6 6 4 6 1 6 1 6 1 6 6 6 1 6 1 6 1 6 1 & % & % & % & % & % & % & % & % & % & % & % & % & % & + % % & k L L L K L D / t.x.x.x.d.x.z.x.A.F.J.F.A.A.A.B.x.M.z.h.x.z.x.6.@.,.@.,.2.,.}                                                                                                                                                                                                                                                                                                         ",
"                                                                                                                                                                                                                                                                                        W 3.2.2.@.@.2.,.-.2.,.2.@.2.@.2.,.,.2.,.2.@.%.h.J.F.F.A.S.F.S.A.A.F.H.F.A.L.V.^ K L L S I L K S P L K L A L S I I L K L L I V c b B c B c C B c c B b c v c b B b c c v c c B c b v c c v f s u s u p u s u p u s u p u p u p u s u p s t 6 1 6 6 6 1 6 6 4 6 6 1 6 1 6 1 6 6 6 1 6 4 6 & % & % & % & % & % & % & % & % + % & % & % & % & % & % & % & h L L I K L F R i.x.x.x.h.z.g.x.A.A.A.F.A.F.L.N.x.f.x.z.x.l.h.7.@.,.,.@.2.2.}                                                                                                                                                                                                                                                                                                         ",
"                                                                                                                                                                                                                                                                                        W 2.2.,.2.%.,.,.1.,.@.,.,.,.,.%.,.@.,.@.,.,.2.d.L.F.A.A.A.F.F.A.A.K.A.F.A.F.M./ F K I K L L I K L L A I I P I K L K S I K S V M c c c B c c c V v c B c V c c c v c b c b c b c c B c c c s u s u p u p u p u p u p u s u p u s u p u p q 6 6 2 6 6 6 4 6 1 6 1 6 6 1 6 8 1 6 8 1 6 6 6 % & % & % & % & % & % + % & % & % & % & % & % & % & % & % % & k I L K L L D ^ d.x.x.M.f.z.x.x.A.J.F.A.F.A.A.B.z.f.x.h.z.x.h.e.,.,.@.,.2.2. .                                                                                                                                                                                                                                                                                                        ",
"                                                                                                                                                                                                                                                                                        W 3.2.2.@.,.,.2.-.2.,.%.,.%.,.,.%.,.2.,.%.,.,.f.F.A.F.F.A.A.F.A.F.J.L.L.F.L.x./ D L L L S P L L S I P L K L L L L I I K L I b c b c V c V c B c V c b v B c c c b c c B c c c B b c b c v f u s u s u p u s u p u s u p u s u p u p u s q 6 6 6 6 1 6 6 1 8 1 8 1 6 6 1 6 6 1 6 6 1 6 1 & % & % & % & % & % & % & % + % & % & % + % & % & % & % + % & h L L L K L D / t.x.x.z.h.z.g.x.A.A.J.F.A.L.A.N.x.z.x.z.x.z.h.6.@.,.,.@.2.,.}                                                                                                                                                                                                                                                                                                         ",
"                                                                                                                                                                                                                                                                                        W 2.2.,.,.%.,.,.1.@.,.,.,.,.2.,.,.,.%.,.,.@.,.d.F.F.A.A.F.A.F.A.F.A.A.F.F.L.V./ L L K L P L L K I L L L L A I K S K L I S L V j b B c c v c b B c c B c c V c c c v c b v b c c v c c c c k u s u p u s u p u s u p u p u p u p u s u p t 6 4 1 6 6 1 8 6 1 6 6 6 1 6 1 6 6 1 6 1 6 6 1 & % & % & % & % + % & % & % & % & % & % & % & % & % & % % % & s I L L K L D / u.x.x.x.h.z.x.x.A.F.J.F.A.A.F.B.x.f.x.h.x.l.x.6.,.,.@.,.2.2.}                                                                                                                                                                                                                                                                                                         ",
"                                                                                                                                                                                                                                                                                        W 3.2.2.@.,.%.,.1.,.%.,.%.,.@.,.%.,.,.@.,.,.2.f.J.F.A.F.A.F.A.F.B.A.c.N.B.A.g.^ F P L L L S I L K L A I L I L I I K L L K L V c c c V c B c B v b c c V c v c c V c c c c c c b c c c v c s u s u s u p u p u p u p u p u p u s u p u p t 6 1 8 6 1 6 1 6 8 1 6 1 8 6 1 6 4 6 1 6 1 8 6 % & % & % + % & % & % & % & % & % + % & % & % + % & % + % $ & h L L L K L D ^ d.x.x.x.d.x.d.x.A.A.J.F.A.F.J.N.x.f.x.z.x.f.x.6.,.@.,.,.2.2.}                                                                                                                                                                                                                                                                                                         ",
"                                                                                                                                                                                                                                                                                        W 2.2.,.2.%.,.,.-.2.,.@.,.,.,.@.,.,.2.,.%.,.@.i.A.F.A.A.F.A.F.N.x.x.M.x.x.x.d.^ F L K S P I K L S I L K I K L A I L S P L S V M c c c B b c b c B c v c B c c c c c c B b c v c c B c c c s u s u p u p u p u p u p u s u p u p u p u s q 6 4 < 6 6 6 8 < 6 8 1 6 1 6 6 1 6 1 6 6 6 1 6 & % & % & % & % & % & % & % & % & % & % & % & % & % & % & % & k L L L K L D / t.x.x.x.h.z.x.x.A.A.A.F.A.F.F.A.x.f.x.h.z.M.h.6.,.,.%.,.,.2. .                                                                                                                                                                                                                                                                                                        ",
"                                                                                                                                                                                                                                                                                        W 3.2.,.@.,.,.2.1.,.,.,.,.%.,.2.,.@.,.,.,.@.,.d.F.F.A.F.A.F.A.S.h.x.z.x.g.N.d.G L L I K L L L P I K I L S I L I K L I L L L V c b c V c c B c c B c B c c B c c b v c c c b c B c b c c c k u u s u p u s u p u p u s u p u s u p u s p t 6 6 6 6 1 6 1 6 6 1 6 1 6 1 8 1 6 6 1 8 6 1 1 % & % + % & % & % & % & % & % & % & % + % & % & % + % & % % & k R L K L L D / u.x.x.x.f.z.g.x.A.F.J.F.A.A.F.B.x.f.x.x.z.z.x.6.,.@.,.@.2.2.}                                                                                                                                                                                                                                                                                                         ",
"                                                                                                                                                                                                                                                                                        W 2.2.2.,.%.,.,.-.%.,.%.,.%.,.%.,.%.,.%.%.@.2.d.L.A.F.A.A.F.A.b.h.x.z.f.x.b.t.R K L K L I K I S I L L P L P L K L L K L A L V j c c c B c c B b c c V c V c c c c c c b B c c c c c n c c s f s u p u s u p u p u p u p u p u s u p u p t 6 4 1 6 6 1 6 4 6 8 1 6 6 6 1 6 1 6 6 1 1 6 6 & % & % & % & % & % & % & % & % & % & % & % & % + % & % & % & h L L L K L D / t.x.x.x.g.z.x.x.A.A.A.F.A.F.A.B.x.h.z.h.x.M.f.6.,.,.,.,.,.2.}                                                                                                                                                                                                                                                                                                         ",
"                                                                                                                                                                                                                                                                                        W 3.2.,.%.,.%.2.2.2.%.2.2.%.@.,.%.@.2.@.2.@.*.f.A.F.A.F.A.L.A.b.f.j.j.j.j.v.e.R K L L A I L L K L K S I K L S I K L S I I L b b b B c c V c c B v c c B c c n c B b c v c c b v b c c c c s u s u s u p u p u s u s u p u s u p u s u p q 6 < 8 6 1 6 8 6 1 6 6 1 8 6 1 6 6 4 6 6 6 6 1 & % & % & % & % + % + % + % + % & % & % + % & % & % & % + % & k L L I K L D / u.x.x.x.f.x.d.x.A.L.A.F.A.A.L.N.x.f.x.z.x.z.h.e.,.@.,.%.,.2.}                                                                                                                                                                                                                                                                                                         ",
"                                                                                                                                                                                                                                                                                        W 2.2.,.2.%.,.,.-.2.,.,.@.,.,.%.2.%.2.%.2.@.%.f.A.L.A.F.A.F.A.x.f.k.j.z.h.b.t./ F L I L L P S I L I K L L K I L L K I L K L b M c b c c c B n c B c B b v c B b c v c c c c c c c c B c v f u s u p u p u p u p u p u s u p u p u p u p t 6 8 1 6 6 1 6 1 6 4 6 6 1 6 6 1 6 6 1 1 6 1 6 & % & % & % & % & % & % & % & % & % + % & % & % & % & % % % & h I L K L L A ^ d.x.x.x.h.z.x.x.A.A.A.F.A.F.A.B.x.h.x.x.z.M.f.6.,.,.@.,.2.2. .                                                                                                                                                                                                                                                                                                        ",
"                                                                                                                                                                                                                                                                                        W 3.2.,.@.,.,.2.1.,.@.,.,.%.,.2.@.2.2.O.%.%.%.h.A.F.L.A.F.A.A.b.z.z.b.j.x.b.t./ K L K L S I L P L K I S I L A I K I L A I L b c c c B c c B c B b c c B b c c c c c b c c b c c b c c c c s u s u p u p u p u s u p u p u p u s u p u p t 6 1 6 6 1 6 1 8 1 6 1 6 1 6 1 6 1 6 1 6 1 8 1 % & % & % & % + % & % & % & % & % & % & % & % + % & % & & % & k L L L K L D / a.x.x.z.g.z.g.x.A.F.J.F.A.A.L.N.x.f.x.f.x.z.x.6.,.@.,.,.,.2.}                                                                                                                                                                                                                                                                                                         ",
"                                                                                                                                                                                                                                                                                        W 2.2.2.,.@.,.,.-.2.%.,.@.,.@.2.4.2.2.2.2.2.6.d.A.L.A.F.A.F.A.x.i.f.i.i.f.f.w.R K L S P L K L L S I K L P L L L L A I L L L V M c b c V c b c c B c c c B b c b c c c c B v b c v c c c c s u s u s u p u s u p u p u p u s u p u s u s q 6 4 < 6 6 4 6 < 6 8 1 6 6 1 6 8 6 1 8 6 6 6 6 & % & % & % & % & % & % & % & % & % & % & % & % & % + % % % & h L L L K L D / u.x.x.x.h.z.z.x.A.A.A.F.A.F.A.B.x.h.z.x.x.l.h.6.,.,.@.2.,.2.}                                                                                                                                                                                                                                                                                                         ",
"                                                                                                                                                                                                                                                                                        W 2.2.,.%.%.,.2.2.@.,.@.,.%.,.6.t.y.t.a.t.t.y.b.A.L.L.A.A.L.N.3._ [ [ ` [ [ _ L F L P L L I A I P L L K L A I K I I L K S K b c b c B c B v B c b B c C c c c v b c c b c c c c c c b v c s u u s u p u p u p u p u s u p u p u p u p p t 6 6 8 6 6 6 1 6 6 1 6 1 6 8 1 6 1 6 1 6 1 6 1 & % & % & % & % & % & % + % & % + % & % & % & % & % & & % % & k L L K L L D ^ d.x.x.x.f.x.g.x.A.F.A.F.A.A.L.N.x.f.x.x.z.h.x.6.,.@.,.@.2.2.}                                                                                                                                                                                                                                                                                                         ",
"                                                                                                                                                                                                                                                                                        W 2.2.,.@.%.,.%.-.%.,.%.,.%.,.e.x.x.x.x.x.b.j.S.F.J.F.F.J.L.N.` Z Z D K L D K F L L L K L K I L L K L I L I K I L K L L I L V c c b c c c V c B c v c c B c V c c c B v b c V c b B c c c s f s u p u p u s u s u s u p u p u s u p u s q 6 4 1 6 1 6 6 2 6 8 6 1 6 6 6 1 6 6 6 6 1 6 6 & % & % + % & % & % & % & % & % & % & % + % & % & % & % + % & h I L L K L D / t.x.x.x.d.z.x.x.A.A.J.F.A.F.A.B.x.h.z.h.x.l.x.6.,.,.@.,.,.2. .                                                                                                                                                                                                                                                                                                        ",
"                                                                                                                                                                                                                                                                                        W 2.2.2.@.%.,.,.2.@.,.@.,.@.@.e.z.f.z.x.z.l.x.A.F.F.A.F.A.F.B.-.D L L L K L L L L K S I L S P L I S I A I K L S P L I A L L V M c c B b c c c b B c B c b c c c c b c c c c c c c c c c c s u s u s u s u p u p u p u p u s u p u s u p t 6 6 < 6 6 1 6 6 6 1 6 4 6 1 6 6 1 6 1 1 8 6 1 % & % & % & % + % & % & % & % & % & % & % & % + % & % & % % & s I L L K L D / u.x.x.x.h.z.g.x.F.A.A.F.A.A.L.N.x.f.x.z.x.z.h.6.,.@.,.2.,.2.}                                                                                                                                                                                                                                                                                                         ",
"                                                                                                                                                                                                                                                                                        W 2.2.,.%.%.,.%.-.%.,.%.,.@.,.e.z.x.z.g.x.x.M.B.F.H.L.F.A.L.V.[ D L K L I L K I A I L K I K L L K I L I L S P L I S P L L S V c b c c B c C c B c c b B c v c c v c c b c c b v c b v c c s u s u p u p u p u s u p u s u p u p u p u p t 6 4 6 6 6 1 8 1 8 1 6 6 1 6 1 8 1 6 8 6 1 6 1 & % & % & % & % & % & % & % & % & % & % & % & % & % & % & % & h L L L K L D / t.x.x.x.f.x.z.x.A.A.F.A.F.A.F.B.x.h.x.x.x.d.x.6.,.,.@.,.2.2.}                                                                                                                                                                                                                                                                                                         ",
"                                                                                                                                                                                                                                                                                        W 2.2.,.@.%.,.,.2.@.,.%.,.%.@.e.z.h.z.x.l.z.x.B.F.F.F.A.F.A.A.[ L K L L K L L K I L L L K I L S I K L K L I L K L I K L L K V j b c B b B c c c C c c c B c B b c c B c c B c c c c c c c s u s u s u p u s u p u s u p u p u s u p u p q 6 6 2 6 6 6 1 6 6 6 1 6 1 6 1 6 1 6 1 6 1 6 1 & % & % & % + % & % + % & % + % & % & % & % & % & % + % % % & k L L P L L D / u.x.x.x.d.x.d.x.A.F.J.F.A.A.L.N.x.f.x.z.x.x.x.6.,.,.@.,.2.2.}                                                                                                                                                                                                                                                                                                         ",
"                                                                                                                                                                                                                                                                                        W 2.2.2.@.%.,.%.-.2.@.,.@.,.@.r.l.z.z.M.x.h.x.A.F.J.F.J.F.L.C.[ D L L K L L S I L K S P L S P L K L K S I K L L A I L L A I b b c V c c c B c c c B c B c c c c c c c c v c c c c V c c v f u s u p u s u p u p u p u p u s u p u p u s t 6 4 6 6 6 1 8 < 8 1 8 1 6 1 6 6 6 1 6 1 6 6 6 & % & % + % & % & % & % & % & % & % + % & % + % & % & & % % & h I L L K L D / t.x.x.x.h.z.x.N.A.A.A.F.A.F.A.B.x.h.z.x.z.M.f.6.,.@.2.@.,.2. .                                                                                                                                                                                                                                                                                                        ",
"                                                                                                                                                                                                                                                                                        ) 5.4.,.3.2.2.2.2.%.,.@.,.%.,.e.z.z.f.M.z.M.z.A.F.F.A.F.A.J.A.[ D L L L L P L K L L L L I K L L L I L I K L A I L L K L I L V j c c B c B c V c B b v b B n c c c b v c c b c V c v c c c s u s u s u p u p u p u s u p u p u p u s u p q 6 6 < 6 6 6 1 6 6 1 6 6 1 6 1 1 8 6 6 6 1 6 1 & % & % & % & % & % & % & % + % & % & % & % & % & % & % & % & k L L L K L F R i.x.x.z.h.f.d.x.F.A.A.F.A.A.L.N.x.f.x.x.x.f.x.6.,.,.,.,.2.2.}                                                                                                                                                                                                                                                                                                         ",
"                                                                                                                                                                                                                                                                                        J ` ) ( ) ) ) ..%.@.2.@.,.@.@.e.d.x.z.h.z.l.x.N.A.F.A.F.F.F.Z.-.D L K L K S I L A I K L L I K L A I K L L I K L K L S P L S V b V c b B b v c c v B c B c c c B c c B b c B c c c c c c v f u s u p u p u p u s u p u s u p u s u p u s t 6 4 6 6 1 6 8 1 6 8 1 6 8 6 6 6 1 6 1 8 1 6 6 & % & % & % & % & % & % & % & % & % & % + % & % & % & % % % & h L L I K L D / t.x.x.M.z.x.x.x.A.A.L.A.F.A.F.B.x.h.z.x.z.x.x.6.,.@.,.@.,.2.}                                                                                                                                                                                                                                                                                                         ",
"                                                                                                                                                                                                                                                                                                        | 2.,.,.2.,.,.6.z.h.h.x.x.x.x.A.F.A.F.A.J.L.A.[ D L L L L I K L I L L P S L L I I L A I K S I L L P L L L K V j c c B c c B c V c V c b B c b c v b c c c c n c c b v c c k u s u s u p u s u p u p u p u s u p u p u p q 6 1 4 6 6 1 6 4 6 1 6 1 6 1 1 6 6 6 1 6 6 1 6 & % & % & % & % + % & % & % & % & % & % & % & % + % & + % % & k I L S P L A / M.L.A.F.A.F.J.A.L.A.F.F.F.A.F.A.x.x.x.h.x.h.h.6.O.@.,.,.,.,.}                                                                                                                                                                                                                                                                                                         ",
"                                                                                                                                                                                                                                                                                                        | 2.,.,.%.,.@.6.x.z.h.h.x.x.x.A.F.A.A.F.A.L.B.-.D L K L A I L K L P S I K I K L A I I L L P L K L L I K S I V b c b c V c V c B c c B v b B c c c c c c n c c c c c b c c s u s u p u p u p u p u s u p u p u p u s u s q 6 8 < 6 6 6 < 6 6 4 6 1 6 6 1 6 4 6 6 1 6 6 1 & % & % & % & % & % & % & % + % & % & % & % & % & % & % & % & k L L P L L K / M.L.F.J.L.F.A.L.A.A.F.F.A.J.A.N.x.x.M.z.h.z.x.e.,.,.,.,.,.2. .                                                                                                                                                                                                                                                                                                        ",
"                                                                                                                                                                                                                                                                                                        | 2.,.@.,.,.,.6.x.h.h.h.x.M.x.A.J.F.A.A.L.L.A.[ D L A I I K L A I L K L L L A I L K L K L L K I S P S I L L V j b B c B c v c b v V c c B c v c c c c B c c V c c B c c c s u s u s u p u p u s u p u s u p u s u p u p t 6 6 6 6 1 6 8 1 6 1 6 6 4 6 6 6 1 6 1 8 1 6 1 % & % & % & % + % & % & % & % & % & % & % & % + % & % & % % & h L S I K L S / M.L.A.F.A.F.J.J.A.A.F.F.B.F.J.B.x.f.x.z.x.M.f.6.,.,.@.,.%.2.}                                                                                                                                                                                                                                                                                                         ",
"                                                                                                                                                                                                                                                                                                        ..,.2.,.,.%.,.6.x.f.x.h.x.f.x.A.F.A.F.A.F.J.A.-.A L L K L L I L L I L K I A I L L K L L A I L L I L P L K L V c c b c b c B c B c c B b c b c b c V c c b c c c c b c v c s f u s u p u p u p u p u s u p u s u p u p s q 6 4 < 6 6 < 6 8 6 8 1 6 6 6 1 1 6 1 6 6 1 6 6 & % & % + % & % & % & % & % & % + % & % & % & % & % & % & % & k I L L P S K / M.L.A.A.F.B.J.J.A.F.A.F.J.B.J.B.x.g.x.h.z.x.f.e.@.,.2.,.,.4.}                                                                                                                                                                                                                                                                                                         ",
"                                                                                                                                                                                                                                                                                                        | ,.,.@.,.,.,.6.x.h.f.h.x.x.M.B.F.A.A.A.F.L.B.[ D L K L I A I K L A I L L I L K I L S I I K L P S P L L S L V j c B c B b c V c V c v c B c c c c v b c v c c n c c c c c s u s u p u s u p u p u p u p u s u p u p u s q 6 6 8 6 6 6 8 1 6 1 6 1 1 8 1 6 6 8 1 6 6 6 1 & % & % & % & % & % + % & % + % & % & % + % & % & % & % % % & h L S P L I A / M.L.A.F.J.F.J.J.J.A.L.F.B.L.A.A.x.z.x.z.h.M.f.6.,.2.@.@.,.2.}                                                                                                                                                                                                                                                                                                         ",
"                                                                                                                                                                                                                                                                                                        ` 2.@.2.,.%.,.6.x.z.h.x.x.z.x.A.L.H.F.A.L.J.A.[ D L A I K L L S I L K L A I K L L K I K L L S I L L L P L L b b b c V c B c c B c c V c V v b c c c c c b c B c c B b c c s u s u s u p u p u s u s u p u p u p u s u p t 6 4 < 6 6 1 6 1 6 < 6 8 6 1 6 6 1 6 6 1 8 1 6 & % & % & % & % & % & % & % & % & % & % & % & % & % + & % % & k I L I A I D / M.L.A.F.A.S.J.A.L.B.A.F.A.J.A.B.x.d.x.x.z.x.f.e.@.,.,.,.,.2.}                                                                                                                                                                                                                                                                                                         ",
"                                                                                                                                                                                                                                                                                                        ..,.,.,.%.,.,.6.x.h.M.h.M.h.M.A.F.A.A.A.F.L.B.-.A L I L L K I K L L I L L L L S P L L L K I K L K L S P L S V j c c c c b v V c b B c v c B c c V c b c B b c b c c v c c k u u s u p u p u s u p u p u s u p u p u p s q 6 6 6 6 1 6 8 1 8 6 1 6 1 6 6 8 1 6 1 6 6 1 6 & % & % & % + % & % & % & % & % & % & % & % & % & % & % & % & h L S I K L K / M.L.A.A.F.A.L.J.A.A.F.L.F.J.A.A.x.x.k.x.h.x.x.r.%.,.%.,.%.2. .                                                                                                                                                                                                                                                                                                        ",
"                                                                                                                                                                                                                                                                                                        _ 2.,.@.,.2.@.e.C.N.N.C.C.N.N.F.J.F.A.F.J.L.A.[ D K L K I S P L I A I K S P I K L L I S I L L L I K I L L K V c V c V c B c c c v c V c V c b c v c c n c c c c n c c c c s u s u p u s u p u p u s u p u p u s u p u s q 6 4 1 6 6 1 6 6 1 8 1 6 6 1 1 6 1 6 8 1 6 6 1 & % & % & % & % & % + % & % & % & % & % + % & % + % & % % % & k I L I K L S / M.L.A.F.J.F.J.A.J.A.F.F.J.L.A.x.t.y.t.t.y.y.u.6.%.,.,.,.,.2.}                                                                                                                                                                                                                                                                                                         ",
"                                                                                                                                                                                                                                                                                                        ..,.@.2.,.%.,.r.F.F.F.F.F.F.F.F.L.A.L.A.L.J.B.-.A L K L L I L L P L L I K L L L L A I K L P S P S I L K S I V b c c c B c V c B B c c c B c c c c b B c c c n B c b c c c s u s u s u p u p u s u p u p u p u p u s u p t 6 6 4 6 6 1 8 1 6 1 6 1 8 6 6 1 6 6 1 6 1 6 6 & % & % & % & % & % & % & % & % + % & % & % & % & % & & % % & k L S P S I D / M.L.A.F.B.F.J.J.B.F.A.F.J.A.A.g.2.%.2.%.2.%.2.,.,.,.%.,.%.2.}                                                                                                                                                                                                                                                                                                         ",
"                                                                                                                                                                                                                                                                                                        ` 2.,.,.,.,.@.r.F.S.F.F.F.F.F.F.A.A.A.S.A.L.B.[ D L L P S P L L S I K L I L A I I K L I L K L I L K L I L L b m b c V c v B b c b B b B c b v V c c c c b B c c c c c c v h u s u p u p u s u p u p u s u p u s u p u s q 6 4 6 6 1 6 < 8 6 8 6 6 6 1 6 8 1 6 6 1 8 1 6 & % & % & % & % & % & % & % + % & % & % & % & % & % & % + % & h I L I K L A / M.L.A.F.A.A.J.F.A.A.L.F.F.J.J.d.2.,.,.,.%.,.%.2.,.,.,.@.,.2. .                                                                                                                                                                                                                                                                                                        ",
"                                                                                                                                                                                                                                                                                                        | ,.@.2.@.2.,.e.F.S.F.F.F.S.F.A.A.F.A.J.F.L.B.[ D L A I L L P L P L I A I K I L K L L K S I L K I L A I K L V c b c B b c B c v B c v b B c c c c c v c c v c b c b B c c s u s u s u p u p u p u s u p u p u p u p u p t 6 1 1 6 6 6 6 1 6 1 1 1 6 1 6 6 1 6 8 6 6 6 6 % & % & % + % & % & % & % & % & % & % & % + % & % & % & % % & k L S I K I D / M.L.A.F.J.S.J.J.J.A.A.F.J.A.L.d.2.>.,.,.,.2.%.2.,.@.2.,.,.2.}                                                                                                                                                                                                                                                                                                         ",
"                                                                                                                                                                                                                                                                                                        ` 2.%.,.%.%.,.r.F.F.F.F.F.F.F.F.A.A.S.A.J.L.A.[ D L I L K L S I L A I L L L L K S I L I P L K S I I L L S L V j c c c B c c V c c c B c c c c c c c V c b c c c c c b v c s u s u s u p u s u s u p u p u s u p u s u s q 6 8 < 6 6 1 8 1 8 1 6 6 1 8 1 6 1 6 1 1 1 6 1 & % & % & % & % + % & % & % & % & % + % & % & % & % & % & % & h I L K L L A / M.L.A.F.A.F.A.J.B.F.L.S.A.J.J.d.%.%.,.,.<.,.%.2.,.2.,.@.,.2.}                                                                                                                                                                                                                                                                                                         ",
"                                                                                                                                                                                                                                                                                                        ` 2.,.@.,.,.@.r.A.F.F.F.F.A.S.A.A.F.A.F.B.L.B.-.D K L K L L P L L P L K I K S I I K L A I L I I K L K L P L b b c V c B b c c B b B c c B c B c c c c c c c c c V c c c c k u s u p u s u p u p u p u s u p u s u p u p t 8 1 6 6 1 6 6 1 6 6 6 4 6 6 6 1 6 6 6 6 1 6 6 & & + & + & % % % % % & % & % + % & % & % & % & % + % & % % & k I S I K I K / M.F.A.F.A.A.A.J.A.J.A.L.F.A.F.f.2.@.,.,.,.2.2.,.%.,.,.,.2.4.}                                                                                                                                                                                                                                                                                                         ",
"                                                                                                                                                                                                                                                                                                        | ,.2.,.@.,.,.y.A.L.A.A.F.A.F.J.A.F.B.F.F.J.B.[ D L A I L S I K L L I L L P I K L L I L L K L L L I S P L S V m c c b B c v B c c c C c V c c c c b v b c b c v c c c c v f u s u s u p u s u p u s u p u p u p u p u p t 6 1 6 6 6 1 6 1 6 1 6 6 1 6 1 8 6 1 8 1 6 1 1 & + & + & + % & % & % % & % & % & % & % & % & % & % & % & % & h I L L S P D ( M.L.S.A.F.A.J.J.F.A.A.F.A.F.F.f.,.,.,.,.,.@.,.,.,.,.%.,.@.2.}                                                                                                                                                                                                                                                                                                         ",
"                                                                                                                                                                                                                                                                                                        ` 2.,.,.@.@.-.y.A.F.F.A.L.A.F.L.J.F.A.F.A.L.Z.[ A L L I K I L L I A I K S I L L A I K L K I S P L P L L L K V b b B c c B c b B c c c c c c v b c c c c B c c b c c n c c s u s u p u p u p u s u p u p u s u p u s u p q 8 6 1 8 6 1 8 1 6 1 8 1 6 6 6 1 6 1 6 6 1 8 6 & % % % % & % % % % % & % & % & % & % & % & % & % & % + % $ & k I L L P L K R l.F.S.F.A.F.A.J.F.L.L.L.L.J.L.d.,.@.2.%.,.,.%.,.@.,.,.@.,.4.}                                                                                                                                                                                                                                                                                                         ",
"                                                                                                                                                                                                                                                                                                        ..2.2.,.,.@.2.r.A.L.A.F.J.B.A.F.J.B.F.F.B.L.B.[ D K L K L L A I K L L I L K L I L L I S I K L L S P L A I L b c c c B c b B c n B c B b B c c c c B c c c c c c c B c c c k u s u s u s u p u p u p u s u p u s u p u s q 6 < 6 1 6 6 1 6 6 6 1 6 1 6 1 6 6 1 6 1 6 1 6 ; > ; ; ; ; & % & % % & % & % & % & % & % & % & % & % & % % & k I S L S K D / M.L.L.A.F.A.L.A.S.A.A.F.C.F.A.a.,.,.@.,.,.@.,.,.2.@.,.2.,.2.}                                                                                                                                                                                                                                                                                                         ",
"                                                                                                                                                                                                                                                                                                        _ 2.,.@.,.,.O.y.A.F.A.F.L.A.F.A.J.F.A.F.A.L.Z.[ D L A I L K I L L A I K L L A I K K L P L L A I I L K I L L V j b c b B c v B c c B c c v B c c c c c n c c v B c n c c c s u s u p u p u s u s u p u p u s u p u s u p t 8 6 1 6 6 1 6 1 8 6 6 1 8 1 6 4 6 6 8 1 6 6 6 < < < < < 6 < > % % % & % + % & % + % + % & % & % & % & % % & k L F L L L A ^ M.L.J.A.F.A.L.B.x.x.N.x.x.h.x.e.,.,.,.,.2.,.2.@.,.2.%.,.@.4.}                                                                                                                                                                                                                                                                                                         ",
"                                                                                                                                                                                                                                                                                                        ` 2.2.,.@.,.2.r.A.L.A.F.J.F.A.F.J.F.B.F.F.J.B.[ A L L K L I K L I L L L A I I L L S I L K I I K L L L L A L V c b B c B c b c B b c c V c c c c c b c c c V c c c c c c v f u s u s u p u p u p u p u s u p u p u p u s q < 6 4 6 6 4 6 6 1 1 6 6 6 6 1 6 1 6 1 6 1 6 1 6 6 6 6 6 6 4 2 % % & % & % & % & % & % & % + % & % & % & % & h I L L A L D / M.L.J.F.A.J.F.B.x.f.x.k.f.v.h.r.;.@.,.@.,.@.,.,.@.,.,.,.,.2.}                                                                                                                                                                                                                                                                                                         ",
"                                                                                                                                                                                                                                                                                                         .5.,.,.,.@.-.y.A.F.F.A.L.A.S.J.A.F.F.A.S.L.Z.[ D K L L A I S P L A I L I L K L P L K L S K L L A I K L I L b M c c b c B c c c B c v B c c c c c v c B c c c b c b c c c k u s u p u s u s u p u s u p u p u s u s u p t 8 6 1 6 1 6 1 6 6 1 6 1 1 6 6 1 6 6 1 6 1 6 8 1 6 6 6 1 6 6 4 % % % % & % & % & % & % & % & % + % & % + % & k I I K I K F / M.L.J.A.F.J.F.A.x.f.x.f.x.z.x.r.,.,.2.,.@.,.%.,.2.@.,.%.,.2.}                                                                                                                                                                                                                                                                                                         ",
"                                                                                                                                                                                                                                                                                                        o.,.,.%.,.@.2.r.A.L.A.F.A.A.A.L.F.A.S.A.A.L.B.[ D L K L I L L L I L K L K L L S P L L P I L P L I L L A L L V c b c B c b B B b c B c b B b c C c c b c c b c c c c b c v f u s u s u p u p u s u p u s u p u p u p u p t 6 < 6 6 6 6 8 6 1 6 6 6 6 1 6 8 1 1 6 8 1 6 1 6 6 1 6 6 1 1 , & % & % % & % & % & % + % & % & % & % & % % & h I I K L P D / M.L.F.J.A.F.J.A.x.f.x.z.z.x.x.e.,.@.,.2.,.,.,.%.,.,.2.,.,.4.}                                                                                                                                                                                                                                                                                                         ",
"                                                                                                                                                                                                                                                                                                        o.,.2.,.@.,.O.y.A.F.A.F.J.F.J.J.A.F.A.A.A.L.Z.[ A L L A I K L A I K L I A I P L L K S I K L S P L K L I K S V j b c c B c b c v V c c B c v c c c c c b c c v c b v B c c s u s u p u s u p u p u p u p u p u s u p u s q 8 6 1 6 4 6 1 1 6 4 6 1 8 1 1 6 6 1 6 1 6 1 6 1 6 4 6 1 8 6 < - & & % % & % & % & % & % & % + % & % + % % & h I L L L K D / V.L.L.K.J.F.L.A.h.x.h.x.z.l.x.t.,.,.,.@.2.@.,.,.2.@.,.@.,.2.}                                                                                                                                                                                                                                                                                                         ",
"                                                                                                                                                                                                                                                                                                         .4.,.,.,.@.,.y.A.L.A.F.J.B.A.L.A.F.A.J.L.J.B.[ D K L I L L L K L I S P L L L I K L I L L P L L L S P L L I V c c B c b B c B c c B b v c B b c c b B v c c c c B c c c c k u s u s u p u p u s u s u p u s u p u p u p q 6 1 6 6 6 6 1 6 1 6 6 1 6 1 6 6 1 6 6 1 6 6 1 6 6 6 1 6 6 6 , % % & % % & % & % & % & % + % & % & % & % % & u L K S K L A / M.L.H.J.A.A.F.A.x.f.x.z.x.z.x.e.,.@.,.,.,.2.@.,.@.,.,.,.%.4.}                                                                                                                                                                                                                                                                                                         ",
"                                                                                                                                                                                                                                                                                                         .,.2.2.,.@.-.y.A.F.F.A.L.F.J.L.A.L.L.A.F.L.B.[ D L A L P L I L L K I L L P S K I S P L K L L P S P L I A L V M b c c B c v V c V v c V c c c c c c c c c c b c c c c c c s u s u p u s u s u p u p u p u p u p u s u s q 8 6 1 8 1 1 6 6 6 1 1 6 6 1 6 1 6 1 6 6 6 1 6 1 6 6 6 6 1 6 1 & % & % % & % & % & % & % & % & % & % & % % & c R I I I P K ' M.L.L.J.L.A.L.A.h.x.h.z.z.l.x.r.,.,.%.,.@.,.2.,.2.,.%.,.,.2.}                                                                                                                                                                                                                                                                                                         ",
"                                                                                                                                                                                                                                                                                          c k c j h u C +.,.,.2.,.2.,.y.A.L.A.F.J.A.S.F.N.N.N.B.B.A.M.[ V K L I L A I A I L K L A I L L L L K L S I A I I K L L L L V k j b B c c B c c B c c B b B c b v b c c b B c v c b c v c s u s u s u p u p u p u s u s u p u s u p u p t 6 < 6 6 6 6 6 1 6 6 6 1 6 6 1 6 8 6 1 4 1 6 8 1 6 4 1 6 4 6 , % & & % % & % & % & % & % & % & % & % & % $ ; W e.e.e.6.e.6.r.A.L.J.A.F.A.L.A.x.f.x.x.z.z.x.e.,.@.,.2.,.@.,.@.,.,.,.@.,.2.}                                                                                                                                                                                                                                                                                                         ",
"                                                                                                                                                                                                                                                                                        / 5.,.;.,.,.<.,.%.@.2.,.,.@.-.t.F.L.B.F.A.L.S.N.x.x.x.x.M.M.g.` D L K L I I L I K L I L I L K I K I L I K L L L L I L P S I b m c c c B c b B c b B c c c c v c c c c c c v c b c c c c c s f s u p u p u p u s u p u p u p u p u p u s q 8 6 1 6 1 1 8 1 6 1 8 1 6 1 6 1 6 1 6 6 6 1 6 1 6 6 6 1 6 6 < % % & % % & % + % & % & % & % & % & % + % $ ; @.P.L.F.J.L.F.S.L.J.A.L.A.F.J.A.x.h.z.h.z.M.x.e.,.,.,.@.,.2.,.2.@.2.@.,.2.4.}                                                                                                                                                                                                                                                                                                         ",
"                                                                                                                                                                                                                                                                                        ! 4.,.2.,.2.,.,.,.,.,.%.,.%.,.y.B.L.A.F.J.F.F.B.g.x.x.h.x.x.g.[ Z K S P L A P L L L A I K L S I L S P L L I K I K L S I K L V b b B b c B v b B c c v V B b c b c c B c b c c c B c c c v f u s u s u s u s u p u p u p u s u s u p u p t 6 1 4 6 6 6 1 6 1 6 1 6 1 8 1 6 6 1 6 1 6 1 6 6 1 6 1 6 6 6 , & % & % % & % & % & % % % & % & % & % % % $ ; @.P.J.A.A.A.J.J.J.B.F.F.J.J.A.A.z.M.z.x.z.f.x.r.,.@.,.2.,.@.,.,.@.,.,.@.,.4. .                                                                                                                                                                                                                                                                                                        ",
"                                                                                                                                                                                                                                                                                        W 5.%.-.2.2.,.,.@.,.,.2.,.@.,.r.A.F.A.F.J.A.F.B.f.x.M.f.x.x.d.[ D L I L K I L L A I L L K I K L P L L A I L L S I P I L L L b j b c B c c B c c c B c c c c c B c b c v c c V c v c b c c k u s u p u p u p u s u p u s u p u p u s u s q 8 < 6 6 1 6 1 6 8 6 1 6 6 6 6 1 8 6 1 6 6 1 6 1 8 6 6 4 6 6 < % % & % % & % & % & % % % & % & % + % % % $ ; 2.P.J.L.A.F.A.J.L.A.B.L.F.J.L.A.z.l.x.h.x.z.x.e.2.,.@.,.@.2.,.%.,.,.,.,.,.4.}                                                                                                                                                                                                                                                                                                         ",
"                                                                                                                                                                                                                                                                                        ! 6.,.2.,.2.,.2.,.%.,.%.,.,.O.y.A.L.F.A.L.A.F.B.g.x.x.f.x.b.g.[ D K L A I L L I I L K I S I L K L S I I L A I P L L K L A L V b c c c c V c C c B n B c B n c b c c c c b c c c c c c c v f u s u s u p u s u p u s u p u p u s u p u p t 6 6 1 6 8 6 6 6 1 6 6 6 1 1 6 6 1 6 6 4 6 6 1 6 1 6 1 6 1 6 , & % & % % & % & % & % % & % + % & % & % % % ; @.P.A.J.A.F.A.J.B.J.J.A.J.B.J.B.x.z.z.h.z.h.x.r.,.@.2.,.,.,.,.,.,.%.,.%.,.4. .                                                                                                                                                                                                                                                                                                        ",
"                                                                                                                                                                                                                                                                                        ! 5.%.2.-.2.,.2.,.,.,.,.,.@.,.y.A.L.A.F.J.F.A.S.l.x.x.x.h.N.d.[ D L P I L L A I K L S P L K L I L P L K L I K L L L S I L L V j V c V c c c c B c c B c B c c c c B b c c c c b c c c c c s u s u p u s u p u s u p u p u s u p u p u p t 8 1 6 6 1 6 1 1 6 1 6 1 8 6 1 6 1 6 1 6 1 6 1 6 6 1 6 6 1 6 < % & & % % & % & % + % % % & % & % & % % % $ ; 2.P.J.F.A.A.F.A.L.F.A.F.F.A.A.A.x.M.z.x.x.z.b.e.2.,.,.%.,.%.,.@.2.,.@.,.,.4. .                                                                                                                                                                                                                                                                                                        ",
"                                                                                                                                                                                                                                                                                        W 6.,.2.%.,.@.,.,.@.,.@.,.@.,.y.A.F.A.F.A.F.A.B.h.x.M.z.h.x.g.[ D L S I K I L K L I P L L L A L L K L L I K L L A I P L K L b c b c c B b B c b B b c C c b c b c v c c V v c B c c c v c s u s u s u p u s u p u p u p u p u p u p u s q 6 < 6 6 1 6 1 6 8 6 1 6 1 6 6 4 6 6 1 6 6 4 6 1 8 6 1 6 6 6 5 & % & % % & % + % & % % & % & % & % % % % $ ; %.P.K.A.J.F.A.F.A.F.A.F.A.L.J.A.x.z.b.x.b.x.x.r.2.@.,.,.,.,.2.,.,.2.,.@.2.4.|                                                                                                                                                                                                                                                                                                         ",
"                                                                                                                                                                                                                                                                                        Q 7.2.2.2.,.2.2.2.,.%.,.2.,.-.y.A.L.F.J.L.A.F.N.z.M.f.x.x.b.g.' D K I K L L K S I K L L A I I K S I K S L I L I I K L L L S V M c c B c B n B c c v B c B c c B b c b c c b c b v b c c c s u s u p u p u p u s u p u s u p u p u s u p t 8 6 1 6 6 6 6 1 6 1 6 1 6 1 6 6 1 6 6 1 6 6 6 1 6 1 6 1 8 6 < % % & % % & % & % & % % % & % + % & % + % $ ; 2.L.L.A.A.F.A.J.F.J.F.A.F.J.J.B.d.d.d.f.d.f.d.e.2.,.,.%.,.@.,.@.,.@.,.@.,.4. .                                                                                                                                                                                                                                                                                                        ",
"                                                                                                                                                                                                                                                                                        o.x.f.u.i.d.f.t.,.,.,.,.@.@.2.r.A.L.A.F.A.L.A.B.f.x.x.x.h.x.g.[ D L K L S P L I L L S P I L K L L K L I K L A I K L L A I L V c b c c b c c c V c B b c b B b c c c c c c c c c c c b c c s u u s u p u s u p u p u p u p u s u s u p u q 6 < 6 6 8 1 6 1 6 6 1 8 6 1 8 1 6 1 6 8 1 1 6 1 6 6 8 1 6 1 6 1 1 < < < 1 < 1 < 1 < < 1 1 < 1 < 1 1 1 , , w %.P.K.A.F.H.F.A.F.A.A.F.A.S.F.f.' ( ' ' ( ' [ ` ,.@.2.,.,.,.%.,.2.,.@.2.,.4. .                                                                                                                                                                                                                                                                                                        ",
"                                                                                                                                                                                                                                                                                        *.S.x.x.x.x.b.i.2.@.2.%.,.,.O.y.A.F.A.F.J.A.F.N.x.M.x.z.x.x.g.[ D L S P L L L K L K I L L K I L K I L L K L I L L A I I K L b M c b B c v B c c b c B c c v c c n c c n B b v c c c B v c s u s u p u p u p u s u p u s u p u p u p u s q 8 6 1 6 1 6 1 6 4 6 6 1 6 1 6 1 6 6 1 6 6 6 8 1 6 1 6 6 1 6 1 6 6 1 6 1 1 6 1 6 1 6 1 1 1 6 1 6 1 1 1 1 , w %.P.H.J.A.A.F.J.F.J.F.F.F.F.S.u.Y Z D D D D D ( %.,.,.@.,.@.,.,.@.,.2.,.,.4.}                                                                                                                                                                                                                                                                                                         ",
"                                                                                                                                                                                                                                                                                        *.S.x.f.z.x.x.t.2.,.,.,.@.,.,.r.A.L.F.A.L.A.F.B.f.x.x.h.x.b.d.[ D K L L K S P L I S I K I S P L S I K L I S K I K I L L L L b b c c c V c V c B v V c V c V c c c c c c c c c b c b c c c s f s u s u s u p u p u s u p u s u p u p u p t 6 < 6 6 6 1 8 6 6 1 6 6 1 6 6 6 1 8 6 1 1 6 1 6 1 6 1 6 1 6 6 1 6 1 6 6 6 1 6 1 6 1 6 6 6 1 6 1 6 1 6 , , w %.P.K.L.A.F.A.J.F.A.F.A.J.F.L.u.L D L K K K K ( @.,.2.,.2.,.2.,.,.%.,.@.,.4...                                                                                                                                                                                                                                                                                                        ",
"                                                                                                                                                                                                                                                                                        &.b.x.f.h.f.x.y.2.,.@.,.2.@.-.y.A.F.A.F.J.F.F.N.l.x.M.z.x.x.g.[ D L A I L I L S P L L L L K L I K L L S P I L L L L K L A L V j b B c B c c c V c c c c v c c c b B b c V c c c c c b c c s u u s u p u p u s u p u p u p u p u s u p u t 8 6 1 6 4 6 6 1 6 1 6 6 8 1 6 4 6 1 6 6 6 6 1 6 6 4 6 6 6 1 8 6 6 1 6 1 6 1 6 1 6 1 6 1 1 6 1 6 1 1 6 1 , w *.P.A.F.K.A.A.J.A.F.A.F.A.L.L.u.R U L L F L L ( ,.,.@.,.%.,.@.2.,.,.,.,.2.4. .                                                                                                                                                                                                                                                                                                        ",
"                                                                                                                                                                                                                                                                                        *.b.x.z.f.x.x.t.2.,.,.,.@.,.%.r.A.L.F.A.L.A.F.B.h.x.h.x.h.x.g.[ A L P L K L P L L K I A I L L L I K I I L K L P S I L I L L V c b c c b B c c v B c B c B b c c v c c c c v b c v B c v c s u s u p u p u s u p u p u s u s u p u p u s q 8 < 6 6 6 1 6 6 1 6 1 1 6 1 6 1 6 6 1 6 4 6 1 6 1 6 1 1 6 6 1 6 1 6 1 6 1 6 1 6 1 6 1 6 1 6 1 6 6 1 6 1 , 8 %.L.L.H.F.A.F.K.J.H.F.K.F.A.L.u.R Z L L L S L ( %.,.,.2.,.@.,.,.@.2.@.,.@.4.}                                                                                                                                                                                                                                                                                                         ",
"                                                                                                                                                                                                                                                                                        =.S.x.x.x.x.x.i.2.,.@.2.,.@.-.y.A.F.A.F.J.A.F.N.l.x.M.f.x.b.g.[ D K L L I S P L I S I I K L A I K S I K L S I L P L A I K S V j b B c B c C c B b c b B c c V c c b c v c c c B b c b c c k u s u s u p u p u p u s u p u p u p u s u p t 6 6 1 6 6 1 1 6 1 6 6 6 1 6 6 6 1 6 1 6 1 6 6 1 6 6 6 6 4 6 6 1 6 1 6 1 6 1 6 6 1 6 1 6 6 1 6 1 1 1 1 5 , w %.L.L.A.F.A.A.J.F.F.F.L.L.B.L.u./ L L L L K I ( %.%.,.@.,.,.,.2.,.,.,.@.2.5. .                                                                                                                                                                                                                                                                                                        ",
"                                                                                                                                                                                                                                                                                        6.D.m.b.b.b.n.f.2.,.,.,.,.@.2.r.A.F.A.A.F.A.F.c.h.x.z.x.x.x.f.[ A L K S P L L K L P L K L I I K L I L L L K L L K I L L L L V c c b B b c B c c B c B v V c c c c c c c b B b c c c c c c s u u s u p u p u p u p u p u p u p u s u p u t 6 7 6 7 6 6 6 1 6 8 1 6 8 6 1 8 6 6 1 6 6 1 8 1 6 1 8 1 6 1 6 8 6 1 6 1 6 1 1 6 1 6 1 6 5 1 , 5 , , , , - 1 *.L.L.K.A.F.A.F.A.A.A.F.F.L.P.u.R D L K K F K ( ,.,.,.2.@.2.@.,.@.2.,.,.,.2. .                                                                                                                                                                                                                                                                                                        ",
"                                                                                                                                                                                                                                                                                        E 2.$.%.@.@.O.O.,.,.2.,.,.@.,.r.A.F.F.A.A.A.F.B.d.x.l.h.x.x.f.` D K L I L K L I S L L L L A L L L K S P L S P L S P L K S I b M c c c B c c V c b B c c c b c b c C c c c c c c c b c v c s u s u p u s u p u s u p u s u p u s u p u p t 7 7 q 7 6 9 6 8 1 1 1 6 1 6 6 6 1 6 8 1 6 1 6 6 1 6 6 1 6 6 1 1 6 1 6 6 1 6 6 6 1 6 6 7 7 1 q l l l l l p x w.L.A.J.J.F.A.A.F.A.S.A.S.S.S.i.R R I R R R / _ O.2.@.,.,.,.,.2.@.,.@.,.%.2.}                                                                                                                                                                                                                                                                                                         ",
"                                                                                                                                                                                                                                                                                                        ..2.,.,.,.,.@.y.A.F.A.F.A.A.F.B.f.x.x.z.x.x.f.[ A L A I L S P L K I K S P L I K I L I K I I L K I L L I K L V c M c b c V c c v B c b c B c c v c c c c b c c c c c c c c k u s u s u p u s u p u p u p u s u p u p u s u u t t u t t q q 6 6 1 6 6 6 6 6 6 1 6 1 6 6 6 1 8 1 6 6 1 6 6 6 1 8 1 6 6 4 1 6 1 6 6 1 1 6 Q h.M.M.M.M.M.x.Z.L.A.A.J.A.F.A.C.x.M.x.N.x.x.t.,.-.O.-.-.-.-.2.%.%.,.2.@.,.@.,.,.,.2.@.,.2.}                                                                                                                                                                                                                                                                                                         ",
"                                                                                                                                                                                                                                                                                                        | ,.,.,.@.,.-.y.A.F.A.H.F.A.F.B.d.x.l.x.f.b.d.[ D P L L K I L K S I L I L K L S P L A I L K L L A I K L L S V j b c B c c B b B b B v c c V c b c b c c c v b c b v b c c s u u s u p u p u p u s u p u s u p u s u p u p p s u s u u p q 6 1 6 6 6 6 1 6 6 1 6 6 1 1 6 1 6 6 1 6 1 6 4 6 6 6 6 1 6 6 6 1 8 6 6 6 6 1 [ L.L.L.L.L.L.L.F.J.A.A.J.F.A.A.N.M.x.x.x.x.b.a.<.,.,.2.2.2.2.,.*.,.,.,.2.,.2.,.%.,.@.,.2.4.}                                                                                                                                                                                                                                                                                                         ",
"                                                                                                                                                                                                                                                                                                        ..3.,.,.@.,.@.r.A.F.F.A.F.A.F.B.f.x.x.f.x.x.f.` A L K L I A I L K L K L K I L K L L L K L S I I L L I S P L V c c c c B c v c B c c B c B c c c B c b B c c B c c c B c v f s u s u p u p u p u p u s u p u p u p u p u p u u p u p u e q 6 6 4 6 6 8 6 6 8 1 6 1 6 8 6 6 1 6 8 1 6 6 1 6 1 6 8 1 6 6 4 6 6 1 6 6 6 6 [ F.L.L.L.L.L.A.J.A.J.A.J.F.F.A.x.x.h.h.x.x.b.a.2.O.2.,.%.2.,.@.2.@.2.@.,.%.,.,.,.,.2.@.,.2.}                                                                                                                                                                                                                                                                                                         ",
"                                                                                                                                                                                                                                                                                                         .2.,.,.@.,.,.r.A.F.A.F.A.A.F.B.d.x.l.x.x.x.f.[ D A L L L L L K I L I S I L S I K I S I P L K L P L K I L L V M c b c c c V c c V c c V c c c c b v c c c b c c b c c c c k u s u p u s u s u s u p u p u p u s u p u s u p u p u p u s q 7 1 6 6 6 6 6 6 6 6 1 6 6 1 6 1 6 1 6 6 1 8 6 1 6 1 6 1 6 1 6 1 6 6 6 1 1 6 | F.F.J.F.A.F.F.J.L.A.J.A.A.S.F.x.h.z.h.x.h.x.a.2.,.2.,.,.%.,.@.,.@.,.,.,.,.%.,.@.,.,.,.,.2.}                                                                                                                                                                                                                                                                                                         ",
"                                                                                                                                                                                                                                                                                                        ..3.,.@.,.O.,.r.A.L.A.H.F.A.F.B.f.x.x.f.x.x.f.` A I K S P L K S L K I K L K L K L L P L L A I L A I L K S K b b c c B c B c V c c v B c b B n c c c c c v c c c v c b c c s u u s u p u p u p u p u p u p u p u p u s u p u s u s u u u t 7 1 1 6 6 1 1 6 1 6 1 6 6 1 6 6 1 6 1 6 1 6 6 1 6 8 6 6 1 6 6 6 1 6 6 6 6 6 _ F.F.F.A.F.L.A.J.J.A.F.A.F.F.S.N.h.x.x.x.x.b.t.2.-.2.@.2.2.,.@.%.,.2.@.2.,.,.,.2.@.,.%.,.4.}                                                                                                                                                                                                                                                                                                         ",
"                                                                                                                                                                                                                                                                                                        _ 2.,.,.-.2.-.s.A.L.F.F.H.A.F.B.d.x.l.x.x.x.f.[ D K L I L L I I L L S I L I L I S P L S P I L I L I L I L L V j b c b B c c c v B b c B v c c c c c V c c V c c c c c v c s u s u s u p u s u p u s u p u s u s u p u p u s u p u p u p q 6 6 6 4 1 1 6 4 1 6 8 1 1 6 1 8 1 6 6 4 6 1 6 6 6 1 1 6 4 6 1 8 6 1 1 1 6 6 [ P.L.L.L.F.F.F.J.J.L.L.H.F.F.S.x.M.z.x.x.x.S.s.2.%.2.,.,.%.,.,.@.,.,.@.,.%.,.%.,.,.%.,.,.2.}                                                                                                                                                                                                                                                                                                         ",
"                                                                                                                                                                                                                                                                                                         .5.,.%.,.@.,.y.A.F.H.F.A.F.A.B.f.x.x.z.x.x.f.` A L A I K L A I K I P L K S P L I L I L L K L K L A I K S L V c c B c c B b B c c B c c b B b c c c c b c c v c c c c c c s f s u p u s u p u s u p u p u p u p u p u s u p u p u u u u q 9 6 6 6 1 6 1 6 1 6 6 1 6 6 6 1 6 6 1 6 6 1 6 1 1 6 6 6 1 6 1 6 1 6 6 1 6 6 [ D.L.L.L.L.L.L.L.J.L.H.L.L.L.S.N.x.x.x.x.b.S.d.2.,.,.,.2.,.@.,.%.@.,.,.2.,.,.@.,.@.2.,.@.4.}                                                                                                                                                                                                                                                                                                         ",
"                                                                                                                                                                                                                                                                                                        @.r.6.6.6.6.6.f.F.L.A.F.H.F.F.B.d.x.l.h.x.b.d.[ A K L K I L P L L K S P I L P L A L K I K L L S I I L P L L V M c b c V c v b B b c b B c c c c c V c c c c c b c V c c c s u u s u p u p u p u p u p u s u p u s u p u p u p u s u p u t 6 6 6 1 6 1 6 1 1 6 1 6 1 6 1 6 1 6 6 1 6 8 1 6 8 1 6 1 6 6 1 6 6 1 6 1 1 1 Z ,.%.%.%.%.%.%.e.a.e.a.e.e.6.e.6.=.6.=.4.6.6.2.,.O.2.,.%.2.,.@.2.,.@.2.@.,.2.,.,.,.,.@.,.2.}                                                                                                                                                                                                                                                                                                         ",
"                                                                                                                                                                                                                                                                                                        e.x.z.f.f.f.f.N.A.F.A.F.A.A.F.B.f.x.x.z.x.x.f.[ D L L L L A I L K L I L K L S I K L L A I L I P L K L L L A V c c c c c B c B c B v c B c B c b c v c c c c B c c c c v c s u s u p u p u s u p u s u s u p u s u p u p u p u s u u u p q 6 6 1 6 6 7 1 6 6 1 6 1 8 6 1 6 6 4 6 6 1 6 6 1 6 6 1 6 1 8 6 1 6 1 1 6 6 6 0 q w e 8 e 8 e V T R U P Y I R I L I I I Y K Q ,.,.2.,.,.@.,.@.%.,.,.,.,.%.,.@.2.%.,.,.2.2.}                                                                                                                                                                                                                                                                                                         ",
"                                                                                                                                                                                                                                                                                                        w.b.x.l.h.l.x.S.A.F.H.F.F.A.F.B.d.x.z.x.x.x.f.` A K S P I L L L I S P L L L P L L I L I L A I L L L P S P L V b b c B b c V c c c V c c C c c c c c c c v c b c n c b c c k u s u s u s u p u s u p u p u s u p u s u s u s u p p u p u t 6 6 6 1 1 1 1 1 1 1 6 6 1 6 6 4 6 1 6 1 8 1 6 6 1 6 8 1 6 1 6 6 4 6 6 6 1 1 6 7 , , , 1 , 6 m U K K K F D D D D K K D D D R -.-.,.-.,.@.-.,.2.@.2.@.,.,.2.,.,.,.%.,.,.4.}                                                                                                                                                                                                                                                                                                         ",
"                                                                                                                                                                                                                                                                                                        w.x.x.z.x.z.f.B.F.A.F.H.A.F.A.B.f.x.M.f.x.x.f.[ A L P L L K L A I K L I S P L L K L K L P L L K S P L I L L b j c b c B c c c V c c B c c c b c c c b c c c c c c c c c c s u u s u p u p u p u p u s u p u p u p u p u p u p u s u u p t 6 6 6 6 6 1 6 1 6 1 6 1 6 6 1 6 6 6 1 6 6 6 1 6 4 6 1 6 6 6 1 6 6 6 6 1 6 6 6 6 1 1 6 6 6 6 V I L P P L K L K K L K L D L R -.2.,.,.-.#.>.,.2.,.,.,.%.,.@.,.@.,.,.@.,.2. .                                                                                                                                                                                                                                                                                                        ",
"                                                                                                                                                                                                                                                                                                        w.b.x.x.f.x.h.B.J.L.A.J.J.A.F.B.h.M.z.x.x.x.f.` D K L S P L I L I L L K I L A I I A I L L K S I I L L K S L V c b B c c B n B c v B b c V c c v c B v b B b c B c c B b v k u s p u p u p u s u s u p u p u s u p u p u s u p u p u p u t 7 6 6 6 1 6 6 1 6 6 6 1 6 1 6 1 1 8 6 1 6 1 8 6 6 1 6 6 1 6 1 1 6 1 6 6 1 6 1 6 6 6 1 6 1 6 b P L L L L I L I L K L K K K R %.2.%.@.2.%.2.%.%.,.@.2.,.,.2.@.2.,.@.,.2.4. .                                                                                                                                                                                                                                                                                                        ",
"                                                                                                                                                                                                                                                                                                        e.N.x.h.x.z.h.S.J.A.L.A.L.A.F.B.f.x.x.x.x.x.f.[ D L K I L L A I K L I S P L I K L I L A I L I K L K S I K L V j c b B b B c c B b c c B v c B b c c c c c c n c c v c V c s u s u s u p u s u p u p u p u p u p u s u p u p u s u s u u t 7 5 1 6 6 1 6 1 1 6 5 1 1 6 6 6 1 6 1 8 1 6 1 1 6 6 6 1 6 4 6 6 1 6 1 6 1 6 6 1 6 1 1 6 6 1 b K I K L L P L K I L I L K L R @.2.,.,.@.,.@.2.%.,.,.,.@.,.,.,.,.,.2.@.,.4.}                                                                                                                                                                                                                                                                                                         ",
"                                                                                                                                                                                                                                                                                                        w.S.x.z.h.h.z.B.L.A.F.J.J.A.F.B.g.x.M.f.x.x.f.` D L L K S I I K L S P L L K L L A I L K L K L P L I K I L L b b c c B c c B b c B c c B c c c c c b c b c c c b c c c V c k u s p u p u p u p u p u s u p u s u p u p u s u s u p u p u t 7 5 1 1 1 6 1 6 5 1 6 5 1 5 6 1 6 8 < 6 8 1 6 6 1 6 1 6 1 6 6 1 8 1 6 6 1 1 6 1 6 6 4 6 1 6 b I L L K L L I L A L K I K K R ,.,.2.%.,.2.@.,.,.%.,.%.,.2.@.,.%.,.@.,.,.4. .                                                                                                                                                                                                                                                                                                        ",
"                                                                                                                                                                                                                                                                                                        w.b.x.h.z.x.h.B.J.L.A.A.J.A.F.B.f.x.x.z.x.x.h.[ D K L I K L K L L I K L P S I L K L K I L S I L S I K L A L V j V c b c B c c c B c c b B c b c c B c c B c c c c B c b B s u s u p u p u p u s u p u s u p u p u s u p u p u p u p u p 7 7 1 6 6 6 6 6 1 1 1 1 1 1 1 6 1 6 6 8 1 6 6 1 6 1 6 1 8 6 6 1 6 6 6 1 6 7 1 6 6 6 1 6 6 5 4 M L K L I S I K I I L L K S P ( @.%.,.%.%.,.%.,.@.,.2.,.,.@.,.,.,.@.2.,.@.5. .                                                                                                                                                                                                                                                                                                        ",
"                                                                                                                                                                                                                                                                                                        t.x.x.x.f.M.f.S.J.A.L.A.L.A.F.B.g.x.M.f.x.b.d.[ D K S L K I L I A I L S I K L I L K L S I P L K I K L I L L V c c c B c b B c c C c B c c B c n c b v b c c b B v c c V c k t s p u s u s u p u p u p u p u s u p u p u s u p u s u s u t 7 q q q q 0 q q q q q q q q q 6 6 1 6 6 1 6 6 6 4 6 6 1 6 1 6 4 6 1 6 1 1 6 5 1 6 6 1 6 1 1 b P L L P I L L S P L L P L K R >.,.2.@.,.@.,.,.,.,.@.,.,.2.@.2.,.,.@.,.2.4.}                                                                                                                                                                                                                                                                                                         ",
"                                                                                                                                                                                                                                                                                                        w.b.x.h.z.x.f.B.L.A.J.A.J.A.F.B.f.x.x.x.x.x.h._ D L P L L A I L K L L K L I K L A I L P L L L L K I S K L A V M b c c B c c C c c c c v V c c c c c c c c c v c c c c V c k u s u p u p u p u p u s u p u s u p u s u p u p u s u p u p u u p u p t p t p i u u u u p u 7 5 8 6 4 6 4 6 1 6 1 6 1 6 6 1 6 6 6 1 6 6 6 1 6 6 1 4 6 1 6 b L P S L K I P L L P S I A L R @.,.,.%.,.,.,.@.,.,.2.@.,.,.,.@.2.,.2.@.,.4. .                                                                                                                                                                                                                                                                                                        ",
"                                                                                                                                                                                                                                                                                                        w.b.x.x.f.h.h.S.J.B.F.J.L.A.A.B.d.x.M.f.x.x.f.[ D K L K I L K L L K L I K L L K I L K L K L P S I K I L L L V c c b B b B c c B b B B c c b c V c c V v b B b c c c c b c s u p u s u p u s u s u p u s u p u p u p u p u p u p u p u p u p u p u p u p u p u p p u u u q 5 6 6 6 6 1 6 1 6 6 4 6 1 8 6 1 6 1 6 1 6 1 6 6 6 < 6 6 6 1 b P L I K I L S P L I L L K L ( >.2.,.@.2.@.,.,.,.@.,.2.%.,.2.,.@.,.,.,.,.4. .                                                                                                                                                                                                                                                                                                        ",
"                                                                                                                                                                                                                                                                                                        e.N.x.f.x.x.f.B.J.L.A.J.A.A.F.B.h.x.x.x.x.x.h._ D L L S P L S I A I L A I S P L L K S I L A I L K L L A I L b M c c c c B b c B c c b B v B c c c c c c c c c b c b c b b s u s u s u p u p u p u p u p u p u s u s u p u s u p u s u p u s u p u p u p p u p u p p u u q 7 8 1 1 8 6 1 8 1 6 6 6 6 1 6 6 6 1 6 1 6 1 6 1 6 6 1 6 1 6 b L K L L S I I L L A I K L S ( @.,.2.@.,.,.,.@.,.,.,.,.,.@.,.@.,.2.@.,.%.5.}                                                                                                                                                                                                                                                                                                         ",
"                                                                                                                                                                                                                                                                                                        w.S.x.x.f.x.h.S.J.A.F.J.L.A.F.B.d.x.x.z.h.x.f.[ D K L P L I K L I L I L P L I S P L I K I I K L L S P I L A V b b c B c v B b c B c v c V c b c c v b c c b c c v c c B b s u s u p u s u p u p u s u p u s u p u p u s u p u s u p u s u p u p u p u p u s u s u u p t 7 6 6 6 8 1 6 6 6 6 1 6 1 6 1 6 1 1 6 6 1 6 1 6 6 8 1 6 6 1 6 b P L I K I I K L I I K L A I R ,.,.,.,.@.,.,.,.,.%.,.%.,.,.2.,.@.,.,.@.,.4. .                                                                                                                                                                                                                                                                                                        ",
"                                                                                                                                                                                                                                                                                                        w.b.x.f.x.x.f.B.L.J.F.J.A.A.F.B.h.x.M.x.x.x.h._ D L K L L L L K L K L L L K L I L K L L L K L I K I L K L L V c j b c V c c B c c V c c c c c c c c c c c c b c b c b c b s u s u s u p u p u s u p u p u p u p u p u p u p u p u s u p u p u p u p u p p u p u p s u u 7 6 6 1 6 1 6 1 6 1 6 1 6 4 6 6 6 1 6 1 6 6 1 6 1 6 6 1 6 1 1 b I L K L L L I A I L S I K L R @.,.2.@.2.@.,.@.,.,.,.,.%.,.@.,.2.,.2.,.,.4. .                                                                                                                                                                                                                                                                                                        ",
"                                                                                                                                                                                                                                                                                                        t.x.x.h.z.h.z.B.A.L.A.J.J.A.F.B.d.x.x.f.x.x.f.[ D K S I K I S I L S P S P L S K I L I A I L S I L L L I S I b M c c c c V c c b v c B b B b c v b c V c b v c c c c c b c k u s u p u p u s u p u p u s u p u s u p u p u s u p u p u p u p u p u p u p u s u p u p u u t 5 6 6 8 6 1 8 1 6 1 8 6 6 1 1 8 6 1 6 6 1 6 6 6 1 8 1 6 6 6 b K I L S P L L I K L P L K A / @.,.,.@.,.,.,.,.,.,.@.,.,.,.2.,.2.,.,.2.2.5...                                                                                                                                                                                                                                                                                                        ",
"                                                                                                                                                                                                                                                                                                        w.b.x.x.h.z.h.S.J.B.F.A.L.A.F.B.f.M.x.x.h.x.h._ D I K I L L P L K I I I L I P L L A I I L K I K L A I K L L V c b c V c c B c B c B c c B c c c c c c c c c V c c b c V c k t s u s u p u p u p u p u p u s u p u s u p u p u s u s u p u p u p u p u p p u p u s u p t 7 6 6 1 6 4 6 1 6 6 6 6 1 6 6 6 1 6 6 6 1 6 1 6 6 6 1 6 1 1 1 b P L K I L I A I L L L L L L ( ,.,.2.,.%.,.@.,.,.,.2.@.,.2.@.@.O...O.O.` -.W                                                                                                                                                                                                                                                                                                         ",
"                                                                                                                                                                                                                                                                                                        w.b.x.z.h.x.z.x.x.N.x.x.x.x.x.x.x.x.z.x.x.x.f.[ D L L S P L S P L L K L K L L A I I L K I L L L I I L L A L V j b c c c v b c b c c C c b v c V c b c c c c c v c c c b b s u p u p u s u s u p u s u s u p u p u p u s u p u p u p u s u p u p u p u p u p u s u p u u t u i t i t q t q q e t q q q t q q q q t q t q q t q q t t t V I K I K K L K ` ` ` ` ` [ ( -.,.@.,.%.,.2.,.,.@.,.,.,.%.2.,.l                                                                                                                                                                                                                                                                                                                       ",
"                                                                                                                                                                                                                                                                                                        t.x.x.x.f.x.x.h.x.f.x.h.x.x.M.x.h.x.M.f.x.x.f.` A K L P L I K L P L I A I L I I L K L L L A I A I K L P L L V c c c B c c c c B c c B c B c c c c c c c v c c b c c c b b s u p u s u p u p u p u p u p u p u s u p u p u s u p u s u p u p u p u p u p u p u p u p u s p u p u p u p u u p u u p u p u p u p u t u u t u u p u u p u V I K I K L A I -.,.,.;.,.,.,.-.%.2.,.,.@.,.@.,.2.@.,.@.2.5.@.                                                                                                                                                                                                                                                                                                                        ",
"                                                                                                                                                                                                                                                                                                        w.S.x.h.x.x.f.x.z.x.x.x.z.h.z.x.x.z.x.f.x.x.h.[ A K L S I L L S I K L L L A L K L I A I K I L L L S P L S I b M b c b c c b v c B b c V c c b c c v c B c c c c c b c c b k u p u p u p u p u s u s u p u p u p u p u p u p u s u p u p u p u s u p u p u s u p u s u p u s u p u p u s p u s s u s u s s u s s p s p s p u s p u u p V P L P S P K I @.2.,.@.@.2.%.2.%.,.@.2.,.,.2.%.,.,.2.,.,.2.,.                                                                                                                                                                                                                                                                                                                        ",
"                                                                                                                                                                                                                                                                                                        w.b.x.f.x.f.x.h.x.h.z.h.x.d.x.x.h.x.x.x.x.x.f.` D L K L K L K L K L A I I L P L S I I K L L K I K L L I K L b b c c c c B c c c c B v c B c c C c b c b c b B c c c b c b s u p u p u s u p u p u p u s u s u s u p u s u p u p u p u s u s u p u p u s u p u s u p u s u p u p u s u p u s u u p u p u p u u u u u u u s u u p u u p V I K I P K K I O.2.,.2.@.,.@.2.%.,.,.@.2.@.,.,.,.@.,.%.,.2.,.                                                                                                                                                                                                                                                                                                                        ",
"                                                                                                                                                                                                                                                                                                        t.x.x.h.z.x.h.l.x.x.f.x.x.x.x.x.x.x.l.x.x.x.f.[ A K S I L P S I L I L K L K L L P L L L I A I L L P S I L L b m b c c c b c b c V c b B b c c c c c c c c c c c n c c b b s u p u s u p u s u p u s u p u p u p u s u p u s u p u s u p u p u p u s u p u p u p u s u p u p u s u p u s u p u p u s u p u p s p p s p u p p u s u p u V P I K L K L I O.,.2.,.%.,.2.@.,.%.,.,.@.,.,.%.,.2.,.,.2.2.,.                                                                                                                                                                                                                                                                                                                        ",
"                                                                                                                                                                                                                                                                                                        w.S.x.f.x.x.f.x.h.z.x.x.f.x.l.x.h.x.x.f.x.x.f.` A I K I K L L P L K L L S I K L S P L K L I K L S P L K L S V b j c b c c c B v c c B c c B c b c B b v B c b c c c c b b s u p u p u p u p u p u p u p u p u s u p u p u p u p u p u p u p u s u p u p u s u s u p u p u s u p u p u p u p u p u p u s u p u u u u p u u s u p u u p V I K I A I K I O.%.,.%.@.,.%.,.@.,.,.%.,.,.2.,.,.@.,.@.,.2.,.                                                                                                                                                                                                                                                                                                                        ",
"                                                                                                                                                                                                                                                                                                        w.b.x.x.f.x.x.f.x.x.f.x.x.h.x.x.x.x.z.x.x.x.f.[ D K L L S P L L S I L P I L S I P L L I S I L P L L I L L L V j b c B c n c b c c B v c B n c c b v c c b c v c c b c c k s u u u u u u u p u s u p u p u s u p u p u s u p u s u s u s u s u p u p u s u p u p u p u s u p u p u s u p u p u s u p u p u s u p s u p s u p u p u u p V L K I L K L I @.,.@.,.%.,.@.,.,.,.@.,.2.@.,.%.,.,.2.,.,.2.@.                                                                                                                                                                                                                                                                                                                        ",
"                                                                                                                                                                                                                                                                                                        e.N.x.h.x.h.x.x.x.h.x.x.f.M.z.x.h.x.M.f.x.x.f.` A L A I L L P L P L A L L K I L L K L A I K L S I K L A I K b V c b c c c B c c V c b B c c c B c c c c c c b c c c c c n s u f u u u s p u p u p u s u p u p u p u s u p u s u p u p u p u p u s u p u p u p u p u p u p u p u p u p u s u p u p u p u p u p u p u u p u p u p u p u V I L S P L A R O.,.2.@.,.,.,.,.,.@.2.,.,.,.,.,.@.2.%.,.,.2.,.                                                                                                                                                                                                                                                                                                                        ",
"                                                                                                                                                                                                                                                                                                        w.S.x.z.f.x.z.h.z.x.f.x.x.f.x.x.x.z.x.z.x.x.f.[ A K L K L K S I L L L L A I L K L L I L L L K I L K L L L S V c c c b c c b v c c B c c b B b v b c c c b B c c c b v c B c k v k c v c k s u p u p u p u s u s u p u p u p u p u p u p u s u p u p u s u s u s u s u s u s u s u p u s u p u p u p u p u s u p u s u p u p u s u u s V L P I L K L I O.,.,.2.@.@.,.@.,.,.,.@.,.%.,.%.,.,.@.,.2.2.,.                                                                                                                                                                                                                                                                                                                        ",
"                                                                                                                                                                                                                                                                                                        w.b.x.h.x.x.f.x.h.x.z.x.h.z.M.x.h.x.x.h.x.x.f.` D L L I L L I K L A I K I L L A I L A I K L L K L S I K L L V j b c c V c c b c B n B c B v c c c c b B c c c c c c c c v v v c v b c v v s u p u s u s u p u p u p u s u p u p u p u s u p u p u s u p u p u p u p u p u p u p u p u p u p u s u p u s u p u s u p u s u p u p u u p V L L L K L S R O.,.,.@.2.,.,.,.,.@.,.,.2.,.%.,.,.@.,.,.,.2.@.                                                                                                                                                                                                                                                                                                                        ",
"                                                                                                                                                                                                                                                                                                        t.x.x.f.x.z.x.g.z.x.h.z.x.h.z.x.x.x.l.x.z.x.f.[ A K A I K S P L L K I L L K L L L P L L I K S I I K L I S I V b j c c c c c c c c B b B b c b c c c v c c c c c v b c c c k v k c c k B c s u u s u p u p u p u p u p u p u s u s u p u p u s u p u p u p u s u p u p u p u s u p u s u p u p u p u p u p u p u p u p u p u s u u p u V I K I S P L I O.,.2.,.@.,.%.,.,.,.2.@.,.,.,.,.2.,.2.@.2.2.,.                                                                                                                                                                                                                                                                                                                        ",
"                                                                                                                                                                                                                                                                                                        w.b.x.x.h.x.f.x.x.z.x.x.h.l.x.x.h.x.z.h.x.x.h.` A L L L I L L P S I L K S I L P L S P L L I K L L L A I K L V j b B c b c v b c V c c v c B c c c b c c c n c c c c c v c c v c c j c c c u u p u p u p u s u s u p u s u p u p u p u s u p u p u s u p u s u p u p u p u s u p u p u p u s u p u s u p u s u p u p u s u p u p u u p V L L I L L K I -.,.,.%.,.%.,.,.,.@.,.,.%.,.%.,.@.,.@.,.,.2.O.                                                                                                                                                                                                                                                                                                                        ",
"                                                                                                                                                                                                                                                                                                        w.S.x.f.x.x.h.z.h.x.h.z.x.h.x.x.h.x.x.x.x.x.f.[ A K K L A I L L I K L I K I K S I K L L A L I L P L I L L L b b c c c c c c B c v B b B c c c b c B c b c B c c b c c c k c v k c k j c c s u u p u p u p u p u p u s u p u p u s u p u p u p u s u p u s u p u p u s u s u p u s u s u p u s u p u p u s u p u s u p u s u s u p u u V I L K I A I I O.,.2.%.,.,.@.,.,.,.@.2.,.,.,.2.,.@.2.,.@.2.O.                                                                                                                                                                                                                                                                                                                        ",
"                                                                                                                                                                                                                                                                                                        e.N.x.z.h.z.x.h.z.x.f.x.h.z.g.x.f.x.l.x.z.x.f.` D L S I L K L P S I K L S I L L K I L K L L A I L A L K S I V M c b c b B b c c b B c c V c c v c b c c c c c c c c c c B c c c b c b c v u u p u s u s u p u s u p u p u p u p u p u s u s u p u p u p u p u p u s u p u p u p u p u p u p u p u s u p u p u u p t i u u u u u u u u V I L L I L L I O.,.,.%.,.,.,.,.@.,.,.,.@.,.%.,.,.,.,.@.,.2.@.                                                                                                                                                                                                                                                                                                                        ",
"                                                                                                                                                                                                                                                                                                        w.b.x.h.z.h.z.x.x.x.x.x.x.f.x.x.h.x.z.h.x.x.f.[ A K I K L I S P L I L I K K L L L A I L P L I K I L I K L L V c b c c c v c c c B c c B c n B b c c v c c n c c c v b c n c b c c b c c k s u p u p u p u p u p u s u p u s u s u s u p u p u s u p u s u p u s u p u p u p u s u p u s u p u s u p u s u s p u p p u s f u u u u t u V I K L A P L I O.,.2.%.,.%.,.,.,.,.%.,.2.@.,.@.2.@.2.,.@.2.,.                                                                                                                                                                                                                                                                                                                        ",
"                                                                                                                                                                                                                                                                                                        w.S.x.z.h.x.h.d.x.f.h.z.x.g.z.x.h.l.x.x.x.x.f.` D L K L S P L L K L A L L L A I L L L A L L S I L A L L S K V j b c c c b c b c v c V v c B c c c b c c c c B b c c c c c c c c c b c B v s u u p u p u s u s u p u p u s u p u p u p u s u p u p u p u p u p u s u s u s u p u p u s u p u p u p u p u p u p u p q u u s h k k s h k V L I L I L A I -.2.,.%.,.,.%.,.,.,.,.@.,.,.2.,.,.,.@.,.,.2.O.                                                                                                                                                                                                                                                                                                                        ",
"                                                                                                                                                                                                                                                                                                        e.N.x.h.z.x.x.x.x.x.x.x.z.h.l.x.h.x.x.f.x.x.f.[ A K S I K L K L L P L K I K L L K I K I L P L K L I L P L L V c c b c c c c v b B c c c V c b c c B c c B b c v c V c b B b v b c c c c k s u u p u s u p u p u p u s u p u s u p u s u p u s u s u s u s u s u p u p u p u s u s u p u p u s u s u p u p u u u p p u c F K D K K A K L K L K L K I I O.,.,.%.,.@.,.,.,.@.,.2.,.@.,.@.2.,.2.@.,.2.@.                                                                                                                                                                                                                                                                                                                        ",
"                                                                                                                                                                                                                                                                                                        w.b.x.f.x.h.z.f.x.z.h.z.x.h.x.x.h.z.M.z.x.x.f.` A L P L L I L P S L L S I L P S I L S I L K L L K L I A I L b M b c c c b B c c c c B c c c v c b c c n c c c b c c v c c c c c c b B c v u u p u s u p u s u p u s u p u p u p u s u p u p u p u p u p u p u p u p u s u p u p u p u s u p u p u p u s u s p u u p t v L L P L K I K L S I I S I L I O.,.2.@.,.2.@.,.,.,.@.,.2.,.,.2.@.,.,.@.,.2.O.                                                                                                                                                                                                                                                                                                                        ",
"                                                                                                                                                                                                                                                                                                        w.b.x.h.z.x.x.h.x.x.h.x.x.d.x.x.h.x.z.x.h.x.f.[ D K L L K S P L I L P L K L L P L K L K L S I L S I K L L A V c c c c c c v c c B b c V c b c c c c c c c c c c c c c c c c b c c c b c k s u u p u p u p u p u p u p u p u p u p u p u p u p u s u p u p u p u p u s u p u s u p u s u p u s u p u s u p u u i t u i c L P L I K I P L P L K K L K I O.,.,.2.@.,.,.,.@.,.,.@.,.%.,.@.,.%.,.,.@.2.@.                                                                                                                                                                                                                                                                                                                        ",
"                                                                                                                                                                                                                                                                                                        e.N.x.h.x.f.x.z.x.z.x.z.x.h.l.x.h.l.x.h.z.x.f.` A L A I L I L L K L S I L I S K I L S I L P L K I L L K L L V c b c b c b c c b c b c c b c B b c B b c c c c c c c c c b c c c c b c B v u u p u s u p u p u s u p u s u s u s u p u p u s u p u p u s u s u s u p u p u s u p u p u p u p u p u s u p u p u u u i t V U L L L S L S K L S I L A I I -.2.,.,.,.@.,.@.,.,.@.2.,.,.2.,.,.,.%.,.,.2.O.                                                                                                                                                                                                                                                                                                                        ",
"                                                                                                                                                                                                                                                                                                        w.S.x.f.x.x.x.f.x.h.z.h.x.z.x.h.h.x.x.x.x.x.f.[ A K L L K L A I L I P L A I K I L K I K L L L S P L S I A I V c B c B B B c c c c b c b B b c c c c v b c V c b v b B c c c v V c c c c v s u u p u p u s u p u p u p u p u p u s u s u p u s u p u p u p u p u s u p u p u p u p u p u s u p u s u p u p u p u q u t V L L L K L L L L P L K L L A R O.,.,.,.,.@.,.,.,.,.,.@.,.@.,.%.,.,.,.@.,.2.%.                                                                                                                                                                                                                                                                                                                        ",
"                                                                                                                                                                                                                                                                                                        w.b.x.h.z.h.z.g.x.x.x.z.x.h.l.x.h.z.M.f.x.x.h.` D L K S I I I K L L L P L I L L K S I L A I P L K L P I K L V B B B b V V B v c c V c b c c c c c c c c c v c c c c c v c B c c c b c c c s u u p u s u p u p u s u p u s u p u p u p u p u p u s u s u p u s u p u p u s u s u p u s u p u s u p u p u s u u q u u u B K L L L S P L L L I S P L P I -.,.2.,.,.,.,.@.,.,.,.2.,.@.2.,.,.%.,.2.@.2.O.                                                                                                                                                                                                                                                                                                                        ",
"                                                                                                                                                                                                                                                                                                        t.x.x.h.z.x.x.f.x.z.h.x.h.z.h.x.h.x.z.x.x.x.f.[ A K I P L K L L A I K L L K L A I I K L I L K L I A L K I S V B V B B M B V c c b c b j b c b B b c B b c c c V c b c c b c c b c b c c v u t p u s u p u s u p u p u p u p u p u p u s u s u p u p u p u s u p u s u p u p u p u s u p u p u p u p u p u p p i t t t c F L L L K L L S P L I K S I I O.,.,.,.,.@.,.,.,.@.,.%.,.2.,.,.2.,.,.2.<.5.-.                                                                                                                                                                                                                                                                                                                        ",
"                                                                                                                                                                                                                                                                                                        w.b.x.x.h.x.f.x.x.h.z.x.x.d.x.x.h.z.M.f.x.b.d.[ A K L L A I L K I L S I K S I L L K L A I L I A I L I S P L D V Z V V Z Z V c c c c b c V c c c c b c v c b c v c c b c c c c c c b c c v s u u p u p u s u p u s u p u s u s u s u p u p u p u s u p u p u p u s u p u s u p u s u p u p u s u s u p u s u s p p p p V L L K L L L L L I K L L K L I O.<.,.@.2.,.,.@.,.2.,.,.@.2.,.Q h f k k h g                                                                                                                                                                                                                                                                                                                           ",
"                                                                                                                                                                                                                                                                                                        w.b.x.f.x.z.x.h.z.x.x.h.x.x.l.x.h.x.z.x.x.x.f.` D S K I L K L I S P L I L I K L I L I L K L L I L K L L L S L L F L L K I L b b b c j c b c c b c c c c B c b c b B v c c n c c c c b c c s u p u p u p u p u s u p u s u p u p u p u s u p u s u p u s u p u s u p u p u s u p u p u s u p u p u p u s u p u i i t p b K L L S L L K L K S I L S P I -.,.,.%.%.,.,.,.,.@.,.%.,.5.2.s                                                                                                                                                                                                                                                                                                                                       ",
"                                                                                                                                                                                                                                                                                                        t.x.x.x.h.x.f.M.h.x.z.x.z.h.x.h.f.M.z.x.x.x.f.[ A P L K L S I K L L K L A L L A L K S I L A I K L S P L K I L L L L S P L S V c c c b c c c c B c v c c c c c c c c c c B c b B b c c c v u u u p u s u p u p u p u s u p u p u p u s u p u s u p u p u p u s u p u s u p u p u p u p u p u p u p u s u p u p u t u u m K L K I K L S I L P L K L L I O.,.@.,.,.,.,.@.2.2.,.,.,.2.,.f                                                                                                                                                                                                                                                                                                                                       ",
"                                                                                                                                                                                                                                                                                                        w.S.x.f.x.x.x.f.x.z.h.x.h.z.M.z.h.x.x.h.z.x.d.[ D L K S I K L I L L S P L I K I L I K L L I L L P I L S I L K L A I L K I L b c b c c B c b c b c c b c b c c c b c b c b c c c c b c c c s u p u s u p u p u s u p u p u p u s u s u p u s u p u p u p u s u p u p u s u p u s u s u s u s u p u p u p u p u q u q u b K L L L S P I K L L I S P S I @.,.2.,.@.,.2.,.2.@.,.%.,.2.2.k                                                                                                                                                                                                                                                                                                                                       ",
"                                                                                                                                                                                                                                                                                                        w.b.x.h.z.h.z.x.x.h.z.x.x.f.x.x.h.x.l.x.x.b.d.[ A K L K L L L A I P L L K L L L A I L P L K L A I L K I K L I L L L L K L L b c c c c c c c c c c c c B c c C c c v c c c v b c c c b c v s u u p u p u s u s u p u p u p u s u p u p u p u p u p u s u p u p u s u p u p u p u p u p u p u s u s u p u s u p s u u u c L L K I K L L I S P L I K L I O.,.@.,.,.2.@.,.,.,.2.,.@.,.2.h                                                                                                                                                                                                                                                                                                                                       ",
"                                                                                                                                                                                                                                                                                                        t.x.x.f.x.x.x.f.x.x.x.h.z.g.z.h.h.x.x.z.h.x.f.[ A K S I K I I I L K L L S I K I L K L L S I L I L L A I L S P L K S I K L A V c c b c b c c c V c b c n c c c b c V c c c c c b c c c c c f u u u u u u u p u p u p u p u s u p u p u p u s u p u s u p u s u p u p u s u p u s u p u s u p u p u p u s u p u p p t p b K K L L L I L K I L L K L K I -.2.%.,.,.,.2.,.%.,.%.,.2.,.,.s                                                                                                                                                                                                                                                                                                                                       ",
"                                                                                                                                                                                                                                                                                                        w.S.x.h.z.h.x.h.z.h.z.x.x.h.M.z.h.l.x.h.x.x.d.[ A K L K L A L K L S P L K I S K I L A I K K L K S I L K L I K L I K S P L L b b c c c B c b v c c v c B c b c c c c c b c B c c c v c v k f f u u y u u t u s u p u s u s u p u p u s u p u p u s u p u p u s u p u s u p u p u p u s u p u s u p u p u p u p t i i t M K L K I A I K L S K L S P L I O.,.,.@.,.2.@.,.,.,.,.%.,.2.2.h                                                                                                                                                                                                                                                                                                                                       ",
"                                                                                                                                                                                                                                                                                                        w.b.x.x.h.z.x.f.x.x.h.x.z.f.x.x.h.x.x.z.x.x.f.[ D L L L I L L L P L L P L L K I S I L K I L L I K L K L I L L A I L L K L L b c c c b v c c c b c B c b c c v c c c c v c c c v c c c c B s f y u u u u u p u p u s u p u p u p u s u p u s u p u p u s u p u p u p u p u p u s u s u p u s u p u u p p u s i i i e e l S L S I L K L A I L P L L A I O.2.2.,.,.2.,.2.@.2.@.,.,.2.,.k                                                                                                                                                                                                                                                                                                                                       ",
"                                                                                                                                                                                                                                                                                                        e.N.x.z.h.x.x.g.x.z.x.h.x.x.l.h.h.x.l.x.f.x.d.,.( ( ` ( ( ` ( I L K S I L S I L P L L L S I K S L L I S P L I L K S I K L S V c b c c b c V c c c b c c c b c c c c b c b c c c c c v c c k h k k h k k s u s u s u p u p u s u p u p u p u s u p u p u p u s u p u p u s u p u p u p u s u p u s u i s c n c b b b k C K L P L K L I ( _ ` ( _ ` [ [ @.,.@.@.,.,.O.,.%.,.,.2.@.2.,.k                                 P D D D D I j                                                                                                                                                                                                                                                                                         ",
"                                                                                                                                                                                                                                                                                                        w.S.x.h.z.x.f.x.z.h.x.z.x.f.x.x.h.x.x.x.z.x.h.7.@.,.,.,.,.,.O.I K I L K I K L L L K L P L K I L P L K I L K L S I I L K I L b c c c c c c c c c c c v b c v B b c c c B c c c V c c c c B c B c c c c B v u p u p u p u s u p u p u s u s u p u s u p u s u p u s u s u p u p u s u s u p u p u p u u k L L S L K L S L U L L L S K I ` ,.2.,.,.2.,.,.,.%.,.,.,.>.,.,.%.%.,.%.,.2.2.k                               +.S.S.x.x.b.S.=.                                                                                                                                                                                                                                                                                        ",
"                                                                                                                                                                                                                                                                                                        w.b.x.z.h.x.x.f.x.x.x.h.x.g.z.x.h.z.M.f.x.x.d.6.-.,.,.,.2.,.O.I L L L L L L P S P L S I L S I K L S P L L S P I K L S P L K b b c c b v V c b v V c c B c b c c b v b c n c c v c c B c c c c c c n B c c p u s u p u s u p u s u p u p u p u p u p u p u s u p u p u p u s u p u p u p u p u p s s u k L L K L L K I L I L K I K L I ` ,.,.,.@.,.,.,.,.,.%.@.2.@.,.,.2.2.@.,.2.,.2.k                               o.S.S.x.x.x.S.&.                                                                                                                                                                                                                                                                                        ",
"                                                                                                                                                                                                                                                                                                        t.x.x.h.z.h.z.h.x.h.z.x.z.x.M.f.h.x.z.x.l.x.f.6.O.,.,.,.@.,.O.R K L P S P L L I L K I K I K L L P L L S P I L L L K L K L S V c c c c c c c c c c b c c c c b c c c c c c c b c b c n c b c v b c b c c c u s u p u p u p u p u p u s u p u s u s u p u p u p u p u s u p u p u p u p u p u s u p u u k K L I L I L L K L P L S I K L ` ,.@.,.,.@.,.O.,.%.@.,.2.,.,.@.2.,.,.,.2.,.2.k                                .S.x.f.x.x.b.&.                                                                                                                                                                                                                                                                                        ",
"                                                                                                                                                                                                                                                                                                        w.b.x.x.h.x.x.d.x.x.h.x.x.f.z.x.h.M.z.x.f.x.g.5.@.,.,.@.,.2.O.I K L L I L A I K L L K L L K L S I K I K L L K L S I S P I L b c b c c c c c b c c c c b v c c B c c c V c c c B c c c c c b c c B v b c c p u p u s u p u s u s u p u p u p u p u p u s u p u s u p u p u p u s u s u s u p u p p u s k L L K S P L K I L S I P L A I _ ,.2.@.,.2.,.@.,.@.2.,.2.,.2.,.@.,.%.,.,.2.2.                                 .S.z.z.x.z.S.&.                                                                                                                                                                                                                                                                                        ",
"                                                                                                                                                                                                                                                                                                        w.b.x.z.h.z.x.h.x.z.x.z.h.x.g.x.h.z.x.x.l.x.f.6.-.,.O.,.@.,.O.R L I K S P I L L A I L S I L I P L L S I K I S P I K L L L K b c c c b c B c v c c b c c B c c b c c c c v c c b c c B c v c c c b c V c c p u p u p u p u p u p u s u p u s u p u s u p u s u p u p u s u p u p u p u p u p u p u s u k K L L L L A I L K L L K L L I ` 2.,.@.,.@.,.,.,.2.@.,.2.,.@.2.,.,.,.%.,.2.,.                                 .S.x.f.x.z.b.&.                                                                                                                                                                                                                                                                                        ",
"                                                                                                                                                                                                                                                                                                        e.N.x.x.f.x.h.z.x.h.z.x.x.f.x.x.h.x.l.h.z.x.g.5.O.2.,.,.,.,.O.I K L K I L L K I I L P L K S I K S P I L L P L L L S I K I L b c c B c B b c c c c c v c c c c c b v b c b c c c b c n c b B b c c c v c c u s u p u s u p u s u p u p u s u p u p u p u p u p u p u s u p u s u s u p p u u u u s u u k L K I K I I L L I A I L A L I ` ,.2.,.@.2.,.@.,.%.,.%.2.2.,.2.,.%.,.,.,.2.,.                                } S.x.f.x.x.S.&.                                                                                                                                                                                                                                                                                        ",
"                                                                                                                                                                                                                                                                                                        t.b.x.x.h.z.h.z.x.x.h.x.x.d.x.x.h.x.x.x.z.x.d.6.-.@.,.@.,.2.O.I L K L L K L L L A I L L I K L L I L K L A I L P L K L K L A V c V C B V V B b c v c c c c c b c c c c c c B c v c B c c c c c v c b c b c s u s u p u p u p u p u p u s u p u p u s u p u p u s u p u p u s u p u p i p f f h f u s s c L L K S I K L A I I K L L K I _ 2.,.@.,.,.,.-.2.@.2.,.,.1.,.2.@.2.,.@.,.,.2.                              # O.S.x.x.z.x.b.&.                                                                                                                                                                                                                                                                                        ",
"                                                                                                                                                                                                                                                                                                        w.N.x.f.x.x.h.x.f.x.f.x.x.h.l.x.h.l.x.z.M.z.h.4.-.2.,.,.@.,.O.R K L S P L S P L L K L A I L I K L L S I I L L L I S I K I L S S D F D L D A n k c c v c c c v c V c c V c n c b c b c b c b c b B c c c c s u s u p u p u s u p u s u p u p u s u p u s u p u p u p u p u p u p u p u s M D Z D V V V D L L L I L L I I K L L I A L I ` ,.2.,.@.,.@.,.,.%.@.,.2.,.O.,.%.%.,.,.,.,.,.                     .o. .O. .@.a.x.x.f.x.x.S.$.                                                                                                                                                                                                                                                                                        ",
"                                                                                                                                                                                                                                                                                                        w.S.x.f.x.z.x.f.x.x.x.z.x.f.x.x.h.x.z.h.z.x.h.6.O.,.@.,.2.,.O.R L K I L I K L I K L I L L A I L A I K L K L P S P L L K L A I L I L I P I S b c c c c v c c b c c c c v c c c c c c c B v c B c c c b B b s u u p u p u s u p u s u p u p u p u p u p u p u s u p u s u p u s u s u u k L L K L L L L L L A I K L A P L L L A I L K I ` ,.2.@.,.%.-.2.@.2.@.,.@.,.,.2.%.2.%.,.,.2.,.                  D.F.S.S.S.S.S.x.h.x.h.x.x.S.&.                                                                                                                                                                                                                                                                                        ",
"                                                                                                                                                                                                                                                                                                        w.S.x.h.z.h.x.x.x.x.f.x.x.g.z.x.h.x.M.z.x.x.d.5.@.,.,.,.,.2.O.I L L L K L L A L S I K S I K L I L K L I L A I I L K I S I I L S P S P L P A b k k v c k c c c c b v c c c b c B b v c c c c b c n c c c c s u s u p u p u p u s u p u s u s u p u s u p u p u p u p u p u p u p u p u s D L L L K P K L K I K L I L L K S I P L K L L ` ,.2.@.,.,.@.,.,.,.%.,.2.,.@.,.2.2.,.@.,.,.2.                K b.x.x.x.b.x.x.x.h.x.h.x.z.S.$.                                                                                                                                                                                                                                                                                        ",
"                                                                                                                                                                                                                                                                                                        w.S.x.f.x.x.f.g.z.h.x.x.x.f.M.x.h.z.z.x.f.x.g.4.-.2.@.,.@.,.O.I K L P S I K I I K L L P L L K L A I L K I L L K L S I P L K I P L P S P L S V c V c c v B B c c c b c c c c c c c b c b c c c c c c c b B s u s u s u p u s u p u p u p u p u s u p u s u p u s u p u s u s u p u s u s F L K L L L L L L L L S P L L I P L L L S K I ` ,.2.,.@.,.,.-.%.2.@.,.2.2.,.2.2.,.2.,.,.2.,.                K x.x.x.x.h.x.x.h.x.h.x.z.x.S.&.                                                                                                                                                                                                                                                                                        ",
"                                                                                                                                                                                                                                                                                                        w.b.x.h.z.x.x.h.x.x.f.x.x.f.x.z.h.x.M.f.x.z.h.6.O.,.-.,.,.2.O.R L L L L K L L L L P L L L S P L I L S I K L P L I K I K L L L L L L L L L S V b v B c B B c b v c c V c b B c n c B c c b c b v b B c v c u u s u s u s u p u u s u p u p u p u p u p u p u s u p u s u p u p u s u p s K L I S I S L S P L P L L K S P L L K I K L I _ ,.2.@.,.,.%.,.,.,.%.,.,.2.O.2.@.2.@.@.,.2.,.                D B.x.f.x.f.x.f.x.h.x.f.x.x.S.$.                                                                                                                                                                                                                                                                                        ",
"                                                                                                                                                                                                                                                                                                        t.N.b.x.x.x.x.z.x.x.x.f.x.M.z.h.h.x.z.x.l.x.d.5.O.,.2.@.,.,.O.I L S S L S S L P S I L A I K L L K L P L L S I L A I L L I A I K S I K S I F V c V c V b B B c c c b c c c c c c c b c c v c B c c c b c b s t t u p i p u s s u u s p p p p s p u p u s u p u p u p u p u s u p u p u s K L K I K L K L L S I L I K I L K S I L A L I ` 2.,.,.@.,.-.@.2.%.@.2.,.2.,.,.2.2.2.%.%.2.3.                D b.z.z.h.z.h.x.z.x.x.h.x.x.b.&.                                                                                                                                                                                                                                                                                        ",
"                                                                                                                                                                                                                                                                                                        d.D.S.S.b.S.S.b.x.f.x.x.z.h.l.x.h.M.z.x.x.x.h.6.-.@.,.,.,.2.O.L K L K S L L S I K L P L L L L I A I L K I P L I L K I A I I L L L L L L L F b c B b c B B B c k c b c c c v c c c c b B b c c b c c c c c u u s f u i t s u u s f t t t p u p u p u p u p u p u s u s u p u p u s u u s D I L L K S I K I P L A I L L S I I K I L K I ` ,.2.@.,.%.,.,.,.,.%.,.,.,.,.2.5.4.3.6.2.7.7.                N x.z.x.f.z.f.x.h.x.f.z.x.x.S.&.                                                                                                                                                                                                                                                                                        ",
"                                                                                                                                                                                                                                                                                                        o.=.*.&.*.$.*.9.x.x.f.x.x.h.x.x.h.z.x.f.z.x.d.4.-.2.,.@.,.,.O.R I I I R I R I L L S I L K I A I L L L S I L K L I L L L L K L K L L L L I A V V C V V C V V c c c b c c b c b c B c c v c b c c c V v b c s f f s u s u s f i f t s s s p p u p u s u s u p u s u p u p u s u p u s u s K L S P L I L L L L I L K L P L K L L K L A I ..,.2.,.@.,.,.@.,.%.@.,.2.,.,.O.Q W W ) W Q (               ; R b.x.z.z.h.z.x.x.z.x.h.z.x.S.$.                                                                                                                                                                                                                                                                                        ",
"                                                                                                                                                                                                                                                                                                                      l f.x.x.x.z.h.l.x.h.x.M.x.z.x.h.6.@.,.,.2.,.@.2.,.-.O.-.-.>.-._ K I P L L S P L L K I K I K L I A I K S P L L P S I A I K L I S I A I S L F C c c c b c c B c c b c b c b c c c c c c c c B c c k k c c k B l v l v c k k k i p p u p u p u s u p u p u s u p u s u p u s F P I L L K I A I K L K I S P L L I S I K L I ` ,.2.@.,.@.-.2.,.,.%.,.%.2.5.D +               9.w.0.0.q.0.0.u.x.x.z.x.z.h.h.f.x.h.z.h.x.S.&.                                                                                                                                                                                                                                                                                        ",
"                                                                                                                                                                                                                                                                                                                        f.x.h.x.x.f.x.x.h.z.z.h.l.x.d.5.O.,.@.,.,.,.%.,.,.,.,.,.,.,._ L L L K I L L I K L S I K L S I L K I I L K S I L L L L S L A I I L I I I L D b c c c c b c b c c v c c c c c V c n c b c c v c k B v n B c v k l c k C n k u t p u p u s u p u s u p u p u p u p u p u s K L L K I S P L L A I L L P L L A I K I L A I ..,.,.,.@.2.,.@.,.%.,.@.,.2.5.N                 b.S.m.b.b.c.b.b.f.x.l.x.z.x.z.x.x.x.h.x.x.b.&.                                                                                                                                                                                                                                                                                        ",
"                                                                                                                                                                                                                                                                                                                        d.x.x.f.x.M.z.h.h.x.M.z.x.x.h.4.O.,.%.,.-.%.%.,.@.,.,.@.,.2.` L K S I K L K L I L P L L I P L L L L K I L I K L S P L L K I L S L A I A K V b c v b B c c v c b c b c b v c c c c B c b c v k v k c c c c k l v v c b c k u i p u p u p u s u p u p u s u p u s u s u s D L I S I K L I L I K I S I L I L P L L K L I _ 2.2.@.,.,.,.,.,.,.%.,.,.2.5.D                 h.x.x.z.z.f.z.z.x.f.x.f.x.z.x.h.z.x.d.x.x.S.&.                                                                                                                                                                                                                                                                                        ",
"                                                                                                                                                                                                                                                                                                                        f.x.x.x.z.h.l.x.h.z.x.x.f.x.d.7.O.,.,.%.%.,.%.,.@.,.,.,.,.,.` I L K L L I S I K L L A I K L L P S I L A I L L K L L S I A I K I P L P I K F c c c c c c c b B c c b c c b c b B b v c c c c B c c c c c c c c c c k k k k u p u u u s u u u p p s p s p u u u u t u u h K K I K I L K L K L L L P L K S I L L A I K L ` ,.%.,.,.@.,.@.,.@.,.%.,.,.5.H                 f.x.z.x.h.x.x.f.x.z.x.x.f.x.h.x.h.x.z.h.x.b.*.                                                                                                                                                                                                                                                                                        ",
"                                                                                                                                                                                                                                                                                                                        d.b.x.x.h.z.h.x.h.M.z.x.z.x.g.5.O.,.%.,.@.,.@.,.@.,.@.,.@.,.| I L K S P L P L S P L I L L I A I K I L I K I A I L P L K I K I A I K I A K D c c c b c c B c b c c c b c c c c c c c b c b c c c c c c c c c c c c b b l k p u s u u u u p u p p t s p q h u t u t u u h K L L K K I L S I I A I L L I K L A I L L L I ` 2.,.@.,.,.,.,.2.,.,.,.,.,.5.M                 z.x.x.x.z.h.x.x.z.h.x.x.x.x.z.h.z.x.h.x.x.S.$.                                                                                                                                                                                                                                                                                        ",
"                                                                                                                                                                                                                                                                                                                        h.x.x.z.x.h.l.x.h.z.x.h.l.x.f.6.O.,.,.@.,.%.,.@.,.,.,.,.,.,.` I F L I L L S P I L L K L A I L L L K L L L K I L S I L L K I K I K I K I K D c c c c V c c c c v b B c c B b v b c c c c c v c b v b c c V c v b c k k k p u s u u p u u u p u p p p p p u u p t i t u h H P L I K L P I K L I L K S P L I I K L K S I ..,.%.,.,.,.@.,.@.,.%.,.%.4.5.D                 h.x.f.x.h.z.h.x.x.x.f.x.f.x.x.x.x.x.f.x.h.S.&.                                                                                                                                                                                                                                                                                        ",
"                                                                                                                                                                                                                                                                                                                        d.x.x.h.x.z.x.x.h.x.l.x.z.x.g.5.O.,.%.,.@.,.%.,.@.,.%.,.,.,.| I K L K L P I L K L S I K I L K I L A I A I L L P L K I S P S P L P S P P L V V c c c c b c c c c c V c b c c c c c n B c c b c c B c c v c b c c c k k k k u u s u u u u u u p u u u u q u u t i u t u h K L L K L L S I K L A I L I L A K F K S K K L ` 2.,.@.,.,.,.2.,.,.,.@.,.,.4.J                 f.x.x.x.x.x.z.h.z.h.x.x.x.h.x.b.v.b.b.b.b.D.=.                                                                                                                                                                                                                                                                                        ",
"                                                                                                                                                                                                                                                                                                                        f.x.x.x.z.h.M.f.h.x.x.h.z.x.f.6.-.,.@.2.%.,.@.2.@.,.,.,.@.,.` I L A I L S L L L P I L I K L L A I L K I L K S I L S P I L P L K I P L L K A B c c b c c b c c b c b c c c c b B c c b c c B c b c c b c c c B c b b b k k s s u s u s u u u u p u p p u k k k k k l c V K K L K L P L L L K L L K K L R R ( R ( ( ' ( ` 2.@.,.,.,.@.,.%.,.%.2.,.,.,.( r             / d.x.z.h.z.h.x.h.x.x.z.h.z.x.g.[ U J T T T T M                                                                                                                                                                                                                                                                                         ",
"                                                                                                                                                                                                                                                                                                                        g.b.x.x.h.z.x.x.h.l.x.x.z.x.g.4.@.,.@.,.%.,.%.,.%.,.@.,.,.,...L L L L P L K I L S K L L S I L I K I L L A I I K L P L K L L I S P L L K L F c v B b c c c c c B c V c c b c v c b c c c b v c c c v c V c c c c c c b b c c c k b c b k f u u u f t u u C S L L K F F F K K I L K L P S P L A I L S I ( >.,.,.,.,.>.,.O.,.2.@.,.,.,.2.@.2.,.,.,.,.@.4.r.a.f.a.y.u.d.g.x.x.h.x.x.h.x.x.h.z.h.x.h.x.t.                                                                                                                                                                                                                                                                                                        ",
"                                                                                                                                                                                                                                                                                                                        f.x.x.z.x.h.l.x.h.x.z.x.d.x.f.6.-.2.,.@.,.,.@.,.,.,.,.@.,.2.` I K L K L L L A I L P L P I K L A I L K I L L L P L L L S P L P L L K I S L D V c B c b B b c c b c c b c c B b c c B c c c c b c V c c c b c b c c c c c c c c c c b k j f t u s u f t s A L K L L K I L L L K I L S I I L L I K L P L ( @.2.,.@.,.2.,.,.@.,.,.,.,.@.,.,.,.%.%.@.@.%.6.x.b.b.x.x.b.x.x.x.x.x.x.h.M.f.x.x.x.d.x.f.S.w.                                                                                                                                                                                                                                                                                                        ",
"                                                                                                                                                                                                                                                                                                                        d.b.x.h.z.h.M.f.h.x.M.f.x.x.d.7.O.,.@.2.,.,.2.,.@.,.,.2.,.2._ I F K L I A I I K L L A I L L I L L I S I K I L S P L P I L S I K I S I K L S B B n B c c c c v c c B c c b c c c c v b c B c c v c c b c c c c v B b c M b c b c c M c k f t f u u s u u C L K L L K L K L I L A I P L K L A L I A L L ( ,.,.@.,.@.,.O.,.@.2.@.,.,.,.%.,.,.,.%.2.%.%.6.f.x.h.f.x.z.h.x.M.f.x.x.x.x.x.x.h.x.h.z.h.b.w.                                                                                                                                                                                                                                                                                                        ",
"                                                                                                                                                                                                                                                                                                                        f.x.x.x.x.f.z.x.h.z.z.x.z.x.g.5.O.,.,.,.@.2.@.,.2.@.,.@.,.2.` I L L A I P L L I L P L L K S P L K L P L L A I I L S K L K I L L K I L L L Z V c c b c b c c c V c b c c B v b c c c c b v b c b c c B v c B b c c c b c c b k c v c c k s f u u f u s u D L L K F K I L K S I L L L L A I L K L L K I ( @.2.,.@.,.,.,.O.,.%.,.@.,.,.,.%.,.,.@.@.,.@.6.f.x.x.h.x.M.f.x.M.x.f.h.h.x.h.x.x.z.h.M.z.S.w.                                                                                                                                                                                                                                                                                                        ",
"                                                                                                                                                                                                                                                                                                                        g.x.x.z.x.g.x.x.h.x.M.f.x.x.d.6.,.@.,.%.,.,.,.@.,.,.2.,.,.2._ L K L K L L K L K L L I S I K L L A I L K I I K L P I L S I L P S I L K L L A B n B V c c c c c c c c V c b c c B b c B c c c c c V v b c b c c c c c b b j c k c c k c k s f t u t u u s V L K L L K L A I I K L P L P I L K L L K S I ( ,.,.@.,.2.@.,.O.,.@.,.,.,.@.,.,.@.2.,.,.%.-.6.h.x.x.f.h.z.h.x.f.x.x.x.x.h.x.x.h.x.f.z.h.b.w.                                                                                                                                                                                                                                                                                                        ",
"                                                                                                                                                                                                                                                                                                                        f.x.x.h.x.z.M.f.h.x.z.x.l.x.f.6.-.,.,.,.@.2.,.,.%.,.@.,.@.2...I L K S K L S P S I K L P L L L P I L K L S P L L L A I P L K I L K L S P L C V B c b c c c c c b c V c c c c c v c b c b c b v c c c c c c c b c b c c c b c b k c c k k s f u u u u t u S L K L L K I I L K L L A I L L A I L P L L K _ @.2.,.@.,.,.,.@.,.%.,.,.,.,.%.,.,.@.,.,.,.%.7.d.x.z.h.x.x.h.x.x.f.x.x.h.x.g.x.x.z.g.x.h.b.t.                                                                                                                                                                                                                                                                                                        ",
"                                                                                                                                                                                                                                                                                                                        d.b.x.x.z.h.z.x.h.x.M.f.x.x.f.6.O.,.%.,.,.,.@.2.,.,.2.,.,.2.` L L K L L K L L K L S I L L P S L L I S I I L L A I I L L L L A I L P L L L A M M M b B B B v v B c c b c b c b c c c v c c B b c b c b c c B c v c c b M c b k c c c j k s t u u u s u s Z L K L L K L K L I L I I L A I L K L S I K L ( -.2.,.,.@.2.,.@.,.%.,.@.,.,.,.,.@.,.,.,.#.,.6.x.z.x.x.h.x.f.x.M.f.x.h.x.x.x.x.h.x.f.x.z.S.w.                                                                                                                                                                                                                                                                                                        ",
"                                                                                                                                                                                                                                                                                                                        f.x.x.h.x.f.M.x.h.z.z.x.z.x.d.7.O.,.,.@.2.@.,.@.,.@.,.%.,.,.-.( ( ' ( ( ' R R K L P K I A I I K L P I K L K I L L K K L P L I K L L I A I D D V D C D A C C B c b c c c c v c b c b c V c c c c c c c V v b c b c B c c c c b c b c c c b B V c B b B b D L K L D L L S L K S K L P L K I K I P L S I _ @.,.,.@.2.,.,.O.,.@.,.@.,.@.2.6.r.e.7.r.6.7.y.g.x.z.h.z.h.x.f.x.x.M.z.M.z.h.x.z.x.h.z.h.S.w.                                                                                                                                                                                                                                                                                                        ",
"                                                                                                                                                                                                                                                                                                                        d.b.x.z.x.x.z.h.h.x.M.z.h.x.d.6.-.@.2.,.,.,.2.,.2.,.,.,.@.2.,.;.>.>.,.;.>.;.( P S I K I L L K I S I K L I S P L I L S I L A I L I A I L L K L L L L L I L C b c c c b c V c c c v c c c b v b c c C c c c c c c c c b c b c c c B c c B Z L L L K L K L K S L K L A K L L L I L K A I P L P S L P L K ( ,.,.%.,.,.@.,.@.,.%.,.@.%.,.2.f.f.h.k.j.f.h.f.x.z.h.f.x.x.f.x.d.x.f.x.z.x.x.z.x.f.x.g.z.S.e.                                                                                                                                                                                                                                                                                                        ",
"                                                                                                                                                                                                                                                                                                                        h.x.x.x.h.f.M.z.h.z.x.f.M.z.h.4.-.2.,.@.,.@.,.@.,.@.2.%.,.%.,.2.,.2.,.2.2.>.( K K L K L P L L I K L L S P L L K S P I K L I K L L L K I L I L K K A P K L A c c c c c c c c b c c V c c c c c V c c c b c c b c c c c c c b c c c b k b F L L L L L L L L P L S P L L D L K L S I P K L P S T L L A L ( @.,.,.,.2.,.,.@.,.2.@.,.,.%.%.d.z.f.f.x.z.x.x.M.h.z.x.f.x.f.x.f.x.x.M.f.x.h.x.h.x.f.x.h.b.w.                                                                                                                                                                                                                                                                                                        ",
"                                                                                                                                                                                                                                                                                                                        d.x.x.x.z.x.z.x.h.x.M.z.z.x.f.6.O.,.,.,.2.,.@.2.,.,.@.,.,.,.,.,.,.@.2.%.,.,.( K K L P S I K S I L A I P L L I K I L L L A I L A I L L K L A I L L K L A I C V c b c v c c c v b c c b v b B c c c c c v b c c c c b c b k c k b c c c c V L K I K I K I A L K L L K L L K S L K L L P S P I K L I K L ( ,.2.@.,.%.,.,.@.2.%.,.%.,.%.2.f.f.v.f.b.M.f.h.x.x.h.z.h.x.h.x.x.M.f.z.h.x.z.h.l.x.h.z.g.S.e.                                                                                                                                                                                                                                                                                                        ",
"                                                                                                                                                                                                                                                                                                                        h.x.x.h.x.f.M.h.h.z.x.h.z.x.g.5.O.,.%.,.@.2.,.@.,.%.,.,.%.,.,.,.2.,.,.@.2.,.( U K L P L I L P L I I L K L A I L L K I K I L L P L K I S I I L K S K L K L C B c c c c b c c B c c c c c c c b c v b c c c c v c c c c c c b c c b c c V Z L L L L A L L K L I K S I K L L P L L K S P I P I I I K L L ( @.,.@.2.,.@.,.O.,.2.@.,.%.2.2.u.j.z.h.j.x.x.x.z.h.z.h.x.x.x.h.x.f.x.x.x.f.h.x.h.z.h.x.f.S.w.                                                                                                                                                                                                                                                                                                        ",
"                                                                                                                                                                                                                                                                                                                        d.b.x.z.x.h.z.x.h.M.z.x.z.x.d.6.-.,.,.@.,.,.,.,.@.,.,.2.,.,.2.,.,.,.,.,.@.,.( K K L L K L A I L A I K L I I L K S I A I L A I L S P L P L K I L K L A L S Z c c b c c c C c c c b c b c c c c c c c c b c c b B c b c n B c v B B c c B C L K I K I L P L L A I P L S L L L L L L P K L K K K S I L I ( 2.,.2.,.,.2.,.%.,.2.%.,.%.-.2.f.x.x.x.x.f.x.f.x.x.x.x.x.h.h.x.x.h.z.h.x.x.z.h.z.x.g.z.h.S.w.                                                                                                                                                                                                                                                                                                        ",
"                                                                                                                                                                                                                                                                                                                        h.x.x.x.x.f.M.z.h.z.x.x.l.x.h.4.O.,.2.,.2.@.2.,.2.@.,.@.,.@.,.,.,.-.%.,.,.,.( P L K L L I I K I K L L S P L K I I L I K L I K L K L L L I L S P L K S K L C B c c c c c c c b c c v c c c n c c c c c B c c c c c v B c c c c c c B c B D L L L L L S I L P L L L L L L A L K S P L S P L P L K L P A _ ,.2.,.,.2.,.-.@.,.%.,.2.@.,.,.d.x.M.x.h.x.x.x.x.z.x.h.x.h.x.h.x.z.x.z.h.x.z.x.h.x.f.x.h.m.e.                                                                                                                                                                                                                                                                                                        ",
"                                                                                                                                                                                                                                                                                                                        d.b.x.h.z.x.l.h.h.x.l.h.x.x.f.6.,.@.,.@.,.,.@.,.@.,.2.,.2.@.,.<.-.1.,.-.,.@.( P L L L K S P L L L I K I L L I A I K L L L L I L I S I A I K I L A P I S L V c j c n c b c c c c b B c b B c c c b B b v c b c b c c c c v c c b B b c c C G L P S P I K L S I K I A P L P L P I K I S L K L I L S I L ( ,.2.,.@.,.2.,.,.%.,.%.,.@.@.3.i.x.f.h.z.h.z.h.z.h.x.h.x.x.x.x.x.h.h.x.z.h.x.x.z.x.h.l.h.S.w.                                                                                                                                                                                                                                                                                                        ",
"                                                                                                                                                                                                                                                                                                                        h.x.x.x.x.h.x.x.h.x.x.z.z.x.d.7.O.,.,.2.@.,.,.%.,.,.,.@.,.,.,.,.@.,.-.%.%.,.' L L K K L I K L S P S I K L A I L L L P S P L A I K I L K L L K I I K I I S V V M c c c c v c c v c b c c c c b B c c c b c c B v b V b M V S C D F F D F L L L I L L L I L P L L I L P K S P L A I K L R ..` ` ` ` ..` -.2.,.,.2.@.,.2.,.,.@.,.,.,.@.,.d.z.z.x.x.x.x.x.f.x.x.x.h.h.x.h.x.x.z.x.h.x.z.h.h.x.f.x.f.S.w.                                                                                                                                                                                                                                                                                                        ",
"                                                                                                                                                                                                                                                                                                                        d.x.x.z.h.l.h.x.h.z.M.f.x.x.d.6.-.@.,.,.,.2.@.,.,.@.2.,.%.,.@.2.,.%.2.%.2.,.( F K F K L K L L P L I K L I I L K I S P I L K I L L K L I K S I L K I S I L C V M M c b c B c c V c c c c b c c c v c c c c b c c c B M M V L L L L K L L L K L K I K L K S I L A I L K P I K P I K K U _ %.2.%.,.2.,.,.,.,.%.,.2.,.2.@.2.,.,.O.2.O.,.,.f.z.x.M.z.x.f.M.x.z.h.x.x.x.x.x.x.z.h.x.z.h.x.x.f.x.h.h.f.S.e.                                                                                                                                                                                                                                                                                                        ",
"                                                                                                                                                                                                                                                                                                                        h.x.x.x.x.f.M.z.h.x.z.h.l.x.h.4.-.2.,.@.2.@.,.2.,.,.%.,.,.,.2.2.%.%.,.%.%.2.( L K L K L L P S I L K L S P L K S I K L L I L L P S I K L L K L K L L K L K A M M b c c c b c c c c n B c c c v b c b c c c c b c b c M V Z L L K L L L K L L L S P L I L P L I L K L L K S I L K K I K ) %.2.@.-.2.,.,.,.2.,.,.,.,.,.,.,.%.,.2.,.,.,.<.d.x.x.M.x.x.h.z.h.h.z.h.z.h.z.h.x.h.x.x.h.x.f.x.f.h.z.h.h.b.w.                                                                                                                                                                                                                                                                                                        ",
"                                                                                                                                                                                                                                                                                                                        d.b.x.f.x.z.x.x.h.z.M.x.z.x.f.6.@.,.,.,.,.,.,.@.,.,.,.@.2.@.,.%.2.%.,.%.2.,.( L K K I K S I L K L S P I L L L P L L L A I A L I K I L P L L L L K L L S P A M M b c c v c b v c c c b c n B c c c c c V c v c c B b M M V L K L L K L L L K I K L L A I L K L K I A I K L S P K L K T ( %.2.%.@.,.@.,.O.,.,.,.2.@.,.@.2.@.@.%.2.@.@.,.g.x.x.l.x.z.x.x.z.h.x.h.z.x.x.z.x.f.x.f.x.f.x.h.x.h.f.x.f.S.e.                                                                                                                                                                                                                                                                                                        ",
"                                                                                                                                                                                                                                                                                                                        h.x.x.x.x.h.l.h.h.x.z.x.h.x.d.7.O.,.@.2.%.,.2.,.%.,.%.,.,.,.%.,.%.@.@.@.,.>.( P K L K I K L K L I I L K L A I L P S P I L L K L L A I L L K L L L L K S P D M M c V c b B c b c b c c B c b c b c c c v c c B c c V M V V L S L L L L K L L L I L P L L L A I L L I K L S I P S P L T ( %.2.O.,.,.2.,.-.2.-.O.-.1.,.%.,.2.2.%.2.%.2.4.g.M.z.z.M.f.h.f.x.f.x.x.x.h.x.h.x.z.h.x.f.x.h.z.h.z.h.h.x.S.w.                                                                                                                                                                                                                                                                                                        ",
"                                                                                                                                                                                                                                                                                                                        d.b.x.x.f.x.x.x.z.M.x.z.x.z.f.6.,.2.,.,.,.@.,.@.,.,.2.@.,.2.,.@.,.,.,.,.@.,._ K S L L L K I K L K L K L I I K S P I L K P S L S I L L K L S P L K L L I K V B b B c B n B c B v V v V n B v c v c v c c B c v B c B B B Z L P P K L K L L K L K S L K S P L L A I K L K L F L L S L K Q -.2.2.,.@.,.@.2.@.2.2.2.,.,.2.@.,.,.-.2.-.,.,.d.x.h.x.z.x.f.x.f.h.z.f.h.z.x.x.x.x.z.x.z.x.z.x.z.x.z.f.z.x.t.                                                                                                                                                                                                                                                                                                        ",
"                                                                                                                                                                                                                                                                                                                        h.x.x.x.x.f.x.M.z.x.z.M.z.x.d.7.@.,.%.@.2.,.,.2.@.,.,.,.,.@.,.2.,.@.,.,.%.,.( K F L L K L K L K L S I L A I L P L A P S I K D F D D L D K K K A L A D A K V c V b b B b B b V c V B c c c c c c c c c c c B c c c B B B Z K K I A L L K L A I K L K I L L K I K L S K K F L F L K L F ( -.2.,.,.,.2.,.,.,.,.,.,.@.,.,.2.@.#.@.2.@.O.,.d.x.x.z.h.z.h.f.z.h.z.h.x.x.x.x.b.S.b.N.S.b.N.b.S.x.S.N.S.D.d.                                                                                                                                                                                                                                                                                                        ",
"                                                                                                                                                                                                                                                                                                                        d.x.x.f.x.h.z.x.h.x.f.x.h.z.f.6.,.2.,.,.,.%.,.@.,.,.%.,.,.2.@.,.,.@.,.@.2.,._ I I L I I I I L F I K I L I K L L P P I P K I I / / / / / R R ' I ' / / R R A b C V c V b V c V c V b V c B b V b V b V V b V b V b V B M Z L P K I L A I I L L L I S P L I A I L I P L I L L I L I L I ' ,.,.-.@.,.-.@.,.,.@.,.-.,.@.,.,.4.2.2.2.2.2.6.d.x.z.z.f.x.z.h.z.h.z.x.x.f.x.d.t.w.9.w.9.9.w.9.9.9.9.9.w.a.&.                                                                                                                                                                                                                                                                                                        ",
"                                                                                                                                                                                                                                                                                                                        h.x.x.x.x.z.x.f.x.z.x.f.x.x.d.6.,.@.,.@.,.,.@.2.,.@.,.%.,.,.@.2.@.2.2.%.2.@.-.{ ..-.[ [ { [ Q K K L L K L L I A I K P S A ( d.x.M.M.M.M.z.M.l.x.l.g.M.l.M.-.D H D L L L L L L L L K L K L L A L K S K F L D L L K L L L K L P L L I I L K I K S P L L K L I L K S I D T O.-.O.-.O.>.O.-.2.@.2.@.,.@.,.@.,.@.,.%.@.,.%.e.h.h.f.d.f.d.h.x.z.f.x.x.h.x.x.N.x.x.x.x.x.b./                                                                                                                                                                                                                                                                                                                                       ",
"                                                                                                                                                                                                                                                                                                                        d.b.x.x.f.h.x.x.h.h.x.x.f.x.f.6.2.2.,.2.@.,.,.,.@.2.,.,.@.,.2.,.,.%.,.2.%.,.,.;.2.,.,.-.<.,.( K I L P S I K S I K P A I K ' B.L.L.J.J.L.L.L.L.L.J.L.J.L.L.4.Y K I K L A I A I A I S P S I L I L I L I L L L L L L P K L P L A I K L A I L A I I L K I L A I K L I K K Q @.,.,.,.2.,.,.2.,.,.%.,.%.,.%.,.%.,.%.,.%.@.2.t.x.x.x.x.x.x.x.x.z.k.x.x.x.M.M.x.x.d.h.z.x.x.Z                                                                                                                                                                                                                                                                                                                                       ",
"                                                                                                                                                                                                                                                                                                                        h.x.x.x.x.z.x.z.x.z.x.f.x.x.d.7.@.,.@.,.,.2.@.,.2.,.,.,.,.%.,.%.,.,.%.2.2.,.,.,.@.,.2.,.2.,.( L K L L P L I P L A I I L A ' Z.L.A.A.F.A.F.J.L.J.J.J.J.J.A.,.L K L K I P L P I P P I K I S I A I A I S P L I K I L K I P A I P L L I K L I L K L L L S I L K L L K L L R O.,.O.1.,.2.,.@.,.2.,.@.,.@.2.%.,.@.,.@.,.@.,.t.b.x.x.h.x.x.v.v.x.h.x.M.x.M.x.z.f.v.h.x.x.b.V                                                                                                                                                                                                                                                                                                                                       ",
"                                                                                                                                                                                                                                                                                                                        d.b.x.f.x.h.x.h.z.x.h.M.f.h.f.6.,.%.,.,.,.@.2.%.@.,.%.,.@.,.,.,.,.@.2.,.2.@.,.2.,.,.,.%.,.@./ K L I L S P L L P I L A P K ' B.L.F.F.F.F.F.A.L.J.F.L.A.L.F.%.K U K L K L K L K L K L K L L L I K I K L K K L L K L L K I I K L P S P L L K L K K K P K K K L A P L K K R @.,.,.%.,.,.O.,.-.2.,.@.,.2.@.,.,.@.,.2.@.,.2.t.x.x.z.h.z.h.x.x.x.M.z.x.M.M.M.x.z.h.x.x.x.x.D                                                                                                                                                                                                                                                                                                                                       ",
"                                                                                                                                                                                                                                                                                                                        h.x.x.x.x.f.x.x.M.z.x.z.h.x.f.6.,.,.,.-.,.%.@.2.@.,.2.,.2.,.2.%.,.2.%.2.,.2.,.%.,.,.,.,.2.,.( L K L P L L A I S P L I S K ' B.L.A.A.F.F.A.F.J.F.J.F.J.A.A.2.U U K L L L I S I K L K K S I L K L K L K L K L L L S P L S K I L L I L L A I L K S L K L K L K L K K L K R @.,.,.%.2.,.,.-.2.O.,.2.,.@.,.,.,.2.,.@.,.@.,.t.x.z.x.z.x.z.h.l.x.l.x.z.M.M.M.z.z.v.h.x.b.x.V                                                                                                                                                                                                                                                                                                                                       ",
"                                                                                                                                                                                                                                                                                                                        d.x.x.x.z.h.l.x.z.x.l.x.x.x.f.5.-.>.,.@.2.%.%.%.2.@.,.,.@.,.,.@.,.@.2.@.2.@.,.,.@.,.%.,.%.,.R L S K L L P I L P L A I P A ' Z.L.A.L.A.A.F.F.J.F.L.H.F.H.A.2.D U L L A L A I L K K L K I I L L K L L L L L K K K L L K I L K L K L K I L K S P L K S K L S P L L A L K R @.>.,.%.%.,.@.,.2.,.,.,.2.,.2.,.%.,.2.,.@.,.,.t.x.x.x.x.x.x.b.z.x.z.b.x.x.M.M.x.x.x.x.x.x.b.Z                                                                                                                                                                                                                                                                                                                                       ",
"                                                                                                                                                                                                                                                                                                                        h.x.x.h.x.x.z.x.M.z.h.x.f.h.f.4.,.,.@.@.@.@.@.,.@.,.2.,.2.%.,.2.,.,.%.2.2.,.,.,.@.,.,.@.2.,.( K L I L A I L L A I P L P D ' B.J.F.A.F.F.L.A.A.F.H.L.A.J.A.2.D D H D D K D K L K L K K L I D D K K K D D D L L L L L L L L I S I A I L A L L K L K L K L K L A L K K K R @.,.,.@.@.,.,.-.@.O.%.@.@.@.@.2.@.@.@.,.O.#.@.e.x.x.z.h.f.h.h.x.x.h.x.x.M.M.x.x.z.z.h.x.b.x.V                                                                                                                                                                                                                                                                                                                                       ",
"                                                                                                                                                                                                                                                                                                                        d.b.x.z.x.f.M.z.x.x.l.x.x.h.d.r.4.4.6.6.6.6.4.2.@.,.@.,.@.,.,.@.2.@.2.,.2.@.2.,.,.,.,.2.,.@./ K L L P L L K I I K S I A K ' M.A.B.A.B.B.A.F.A.F.A.F.K.A.A.7...-.[ [ [ [ [ R L K K L K K I ' [ ( [ ( [ _ ( L K L K P L P S P I L I L K L R / R R R R R R R R R R / R R ( >.,.%.@.@.,.>.,.6.7.6.6.7.6.6.6.6.7.6.6.6.6.6.d.x.h.x.h.M.x.x.x.x.x.d.x.M.M.M.x.z.x.h.x.x.b.Z                                                                                                                                                                                                                                                                                                                                       ",
"                                                                                                                                                                                                                                                                                                                        h.x.x.h.x.h.z.M.z.M.x.z.h.z.g.j.s.f.f.g.f.f.f.*.%.2.,.2.,.%.,.,.,.2.%.2.,.,.@.,.@.,.@.2.,.,.( L S P L S P L L A I P I K A ' d.x.x.x.x.b.N.A.A.F.K.F.A.J.F.A.A.C.N.B.S.F.x.-.H L K L K S / 0.f.d.d.d.f.f.=.T P K J P L L I L K L K L S I ' ;.-.>.-.>.-.>.-.>.-.>.O.>.-.-.,.,.,.,.-.,.2.6.h.x.h.f.h.f.h.f.h.f.h.h.f.f.h.h.x.x.x.x.h.N.M.x.x.M.x.M.x.M.x.x.h.f.h.x.b.x.D                                                                                                                                                                                                                                                                                                                                       ",
"                                                                                                                                                                                                                                                                                                                        d.b.x.x.z.x.d.h.z.x.z.x.f.x.f.x.f.x.x.x.x.x.f.%.%.,.@.,.,.,.2.@.,.@.2.@.2.2.,.2.@.,.,.,.%.,.R L K L L I L L K L I L S I D ' d.x.x.x.x.h.M.B.F.J.A.F.A.A.F.A.L.L.F.P.L.P.A.-.D K L K L D / f.b.b.b.b.x.b.e.R K L P K L A L K S K L I K I ' ;.>.,.,.,.,.,.,.,.,.,.,.,.,.,.-.%.,.-.%.,.O.7.h.x.x.h.x.h.z.h.x.h.z.h.x.x.z.h.x.x.x.h.x.M.h.x.h.x.g.x.x.x.x.x.x.x.h.x.x.b.V                                                                                                                                                                                                                                                                                                                                       ",
"                                                                                                                                                                                                                                                                                                                        h.x.x.x.h.z.x.h.z.h.x.x.h.x.x.x.z.x.z.h.z.x.d.3.-.2.,.@.,.%.,.,.,.,.%.2.2.,.%.,.,.,.2.@.,.-.' D L S I K L S L L A L K L D ' d.b.h.h.x.h.x.B.A.F.J.F.F.F.J.F.F.A.F.F.F.F.B.-.D K K K K F / d.b.z.f.f.z.b.e.R L L K L L I K I L I K L S L ' >.,.,.>.,.%.,.,.%.,.@.2.,.,.2.O.,.-.2.-.-.@.6.f.x.x.f.l.x.z.x.M.z.z.z.z.f.x.z.x.x.h.h.x.h.M.h.h.x.z.M.h.x.M.f.x.x.x.x.x.x.Z                                                                                                                                                                                                                                                                                                                                       ",
"                                                                                                                                                                                                                                                                                                                        d.x.x.z.x.h.x.f.h.M.z.x.z.h.z.x.h.x.x.z.h.x.d.2.1.2.@.,.,.,.@.2.@.2.%.2.,.,.,.%.,.,.@.,.2.,.R L S I L L L L K L I K L L D ' g.x.x.x.h.x.M.B.B.A.L.F.A.F.F.A.F.A.F.F.F.L.N.,.H I K I K K / t.x.h.z.z.f.x.6.R K L I K I K L L L A I I L S _ ,.%.2.%.2.*.%.,.,.,.,.,.@.%.%.,.,.@.,.@.,.2.6.i.x.h.M.x.x.z.z.f.z.l.z.x.z.h.z.f.x.z.f.x.g.x.x.f.x.M.z.h.z.x.x.x.z.h.x.z.x.V                                                                                                                                                                                                                                                                                                                                       ",
"                                                                                                                                                                                                                                                                                                                        h.x.x.h.x.f.x.x.f.z.x.f.x.x.h.z.h.z.h.x.x.x.f.2.,.-.2.,.@.,.,.@.,.,.%.,.2.@.,.,.@.,.2.,.,.,./ K L L K S L K L L L L S I D ' d.x.x.x.x.h.M.B.F.A.J.F.F.A.F.A.F.L.S.L.F.L.B.>.D K P L P D ^ g.x.z.f.x.f.x.=.I K K L L L L I A I I L K S L ` 2.2.%.2.%.2.%.,.,.,.,.@.,.,.%.,.,.2.@.,.,.,.7.f.x.x.x.x.f.z.z.z.z.M.z.x.z.x.z.x.z.h.f.x.h.M.h.x.f.x.z.h.x.M.f.x.x.h.x.x.x.Z                                                                                                                                                                                                                                                                                                                                       ",
"                                                                                                                                                                                                                                                                                                                        d.b.x.x.z.x.x.d.x.x.x.x.f.g.x.f.x.x.x.z.h.z.d.3.#.2.,.@.,.2.,.2.,.%.2.2.,.,.%.,.,.,.@.,.2.,.R L S L L L L L S K L K I L D ' g.x.x.h.x.x.M.B.B.A.L.F.A.F.A.L.B.F.A.S.L.L.S.-.J L P L P D / g.b.h.z.x.x.x.9.R K L K K K S P I L K L L K I _ ,.,.@.,.,.@.,.,.,.@.,.,.@.@.%.>.,.,.-.O.>.>.5.d.x.M.z.x.x.z.x.z.z.z.z.h.z.h.z.h.z.x.f.x.g.x.h.z.x.h.x.x.z.x.x.x.M.z.x.x.x.V                                                                                                                                                                                                                                                                                                                                       ",
"                                                                                                                                                                                                                                                                                                                        h.x.x.x.h.f.x.h.f.x.f.h.x.z.x.h.z.x.h.z.x.x.d.2.-.2.,.,.,.@.@.,.@.,.@.,.%.,.2.,.@.2.%.,.,.-.) P K L K L K L K L L S L F D [ p.v.b.z.z.v.b.N.J.J.J.A.F.S.S.F.F.A.L.F.S.L.B.O.H K K K K D ^ w.x.x.f.x.x.x.6.T K L L K L K L L K S P L S I ( -.,.,.O.,.,.,.@.,.%.%.%.,.@.,.,.@.*.%.2.%.@.6.x.x.z.z.z.f.M.z.M.x.M.M.z.x.z.x.z.x.f.x.x.h.M.h.x.z.M.z.h.x.g.z.x.z.h.x.x.x.Z                                                                                                                                                                                                                                                                                                                                       ",
"                                                                                                                                                                                                                                                                                                                        d.b.x.z.x.x.x.z.x.x.h.M.z.x.z.x.h.x.z.x.x.x.f.2.2.,.@.,.@.2.,.2.,.,.2.,.,.,.@.,.,.@.%.@.,.,...) ( ( ' ( ( R I L P L L F D R ,.4.2.4.2.4.2.f.C.A.A.C.B.N.B.A.F.F.A.S.A.F.B.r.%.,.@.,.%.-.,.d.N.f.f.f.x.x.t.>.-.-.-.-.-.-.( L L I L K L L -.6.6.6.7.6.6.6.%.,.,.,.,.%.-.,.7.e.e.e.e.6.e.y.x.l.x.z.f.z.x.x.N.N.B.N.N.x.N.x.f.x.z.f.x.g.x.f.h.x.f.x.f.x.x.x.x.h.M.z.x.x.V                                                                                                                                                                                                                                                                                                                                       ",
"                                                                                                                                                                                                                                                                                                                        h.x.x.h.x.f.x.h.x.z.x.f.x.f.h.z.x.x.h.f.h.z.d.3.-.1.,.,.,.,.@.,.@.,.@.,.%.,.,.%.,.2.,.%.,.,.,.,.,.,.@.2.@.@.R K P L A L L L L L I P J P K >.f.z.M.z.M.x.x.A.F.J.A.F.F.L.A.A.A.A.F.A.A.A.A.x.b.x.z.z.z.x.z.f.f.f.k.h.h.f.2.I K L S I A G 2.x.f.z.f.z.h.f.4.@.,.,.,.,.-.2.f.x.h.b.x.h.x.x.x.z.z.M.h.x.x.A.S.F.F.F.F.F.A.x.z.h.x.f.x.h.M.x.f.x.x.M.z.x.g.z.x.x.h.x.x.x.Z                                                                                                                                                                                                                                                                                                                                       ",
"                                                                                                                                                                                                                                                                                                                        d.x.x.x.z.h.x.f.x.h.z.h.x.x.l.h.h.z.x.x.x.x.d.2.1.@.,.@.,.%.,.2.@.,.2.@.,.,.%.,.,.@.,.,.@.2.%.@.2.,.2.2.2.@.( L L L L L K L L L F K S F D -.h.x.f.x.x.M.M.B.A.F.A.F.A.F.F.F.L.F.L.F.F.L.F.b.h.z.x.x.x.x.x.x.x.x.x.x.x.b.4.K L K I K L L 4.S.h.z.f.x.z.z.4.,.,.,.%.,.,.3.d.z.k.z.x.x.h.z.h.x.x.h.h.z.x.A.F.S.A.S.A.F.A.x.h.z.h.f.x.g.x.h.x.z.z.h.h.x.x.h.x.g.z.x.x.x.V                                                                                                                                                                                                                                                                                                                                       ",
"                                                                                                                                                                                                                                                                                                                        h.x.x.x.x.f.x.x.z.x.x.z.M.f.x.x.x.x.x.f.M.f.d.3.,.2.,.@.2.,.@.,.2.@.,.,.2.@.,.,.@.,.,.,.@.,.@.%.,.2.,.%.2.O.R K L K S L S L K L K S L L D ,.h.x.x.M.z.x.M.A.F.A.F.A.F.B.A.F.A.A.A.F.A.F.A.x.f.x.x.z.x.z.x.x.h.x.h.h.x.x.2.L A I K L S L 2.x.x.f.z.x.x.d.4.@.,.,.2.,.O.2.f.f.x.x.x.x.x.x.h.x.x.h.h.x.x.N.F.F.F.F.J.A.F.x.f.z.x.f.x.h.M.f.h.x.x.l.x.x.d.x.x.x.h.x.x.x.Z                                                                                                                                                                                                                                                                                                                                       ",
"                                                                                                                                                                                                                                                                                                                        d.b.x.f.x.x.x.z.h.x.f.x.x.f.x.f.h.x.h.z.x.x.d.2.1.%.,.%.,.@.2.%.2.2.2.2.@.,.@.2.,.,.,.,.@.%.%.%.,.,.,.2.,.,.R K D L K F L F K S P L A L K -.f.x.f.z.M.x.M.A.F.A.F.A.F.A.F.B.F.S.A.F.A.A.A.k.x.x.x.x.x.x.z.f.z.v.g.x.x.x.,.P I K I P K I =.x.x.M.z.M.x.d.=.@.%.@.,.@.,.<.p.j.k.z.h.h.x.h.x.x.x.x.f.x.x.A.F.S.F.S.J.A.A.x.h.z.x.f.x.g.x.x.f.x.h.x.f.x.h.f.g.l.h.l.x.b.V                                                                                                                                                                                                                                                                                                                                       ",
"                                                                                                                                                                                                                                                                                                                        h.x.x.x.x.f.x.h.x.x.x.f.x.x.h.z.x.x.x.f.x.x.d.2.,.%.,.@.,.%.@.,.%.,.2.@.,.,.,.,.@.,.,.@.,.@.,.%.,.%.,.,.%.O.R K K L L L K L L K L K K K K >.f.x.M.x.z.z.x.B.F.A.F.A.F.F.A.F.A.F.F.A.L.F.A.k.x.x.x.f.z.M.x.x.h.x.x.x.x.x.2.I K L S I L L =.M.x.z.x.M.x.d.6.@.,.,.2.,.@.2.f.f.x.x.x.x.x.h.h.x.x.b.x.x.M.S.F.F.A.A.L.J.A.x.f.x.f.h.x.h.M.h.h.z.x.z.x.x.M.z.x.x.x.x.x.x.Z                                                                                                                                                                                                                                                                                                                                       ",
"                                                                                                                                                                                                                                                                                                                        f.x.x.x.x.x.x.z.x.f.x.x.h.f.x.x.x.x.x.x.x.x.f.2.2.%.2.2.,.@.2.,.,.@.,.,.@.2.@.2.,.@.,.@.2.%.,.%.,.,.%.,.%.O.R D L D K F K D L D L A L A P -.f.x.M.h.z.x.x.B.F.A.A.F.A.A.B.F.B.A.B.F.A.A.A.h.z.h.M.f.h.M.h.x.x.x.M.x.z.x.,.L K L K K A L %.x.x.x.x.M.x.g.4.%.@.2.@.,.@.5.h.x.x.x.f.x.h.x.x.g.x.x.h.M.M.A.S.F.A.F.A.F.A.x.h.x.z.x.x.M.x.f.x.x.z.g.h.x.x.x.x.x.x.b.N.b.A                                                                                                                                                                                                                                                                                                                                       ",
"                                                                                                                                                                                                                                                                                                                        d.x.f.d.f.f.h.x.x.x.x.f.h.z.g.f.f.f.f.f.f.f.i.&.@.@.@.@.@.@.,.@.2.,.@.2.,.@.,.,.,.2.%.,.,.,.,.,.@.,.2.,.,.-.W U U I L I L I L I L P P T J O.j.x.h.h.z.f.z.B.J.K.A.A.H.F.A.F.F.A.F.A.A.F.A.N.M.M.M.M.x.x.x.M.x.x.M.x.x.z.=.W L K P P P Q 4.j.x.x.f.M.x.f.6.,.2.,.2.,.%.q.f.x.h.x.x.x.x.M.x.M.V.M.V.x.C.S.F.A.F.F.J.J.J.C.M.M.M.x.M.x.M.z.x.f.x.z.h.h.d.j.f.f.f.d.f.f.                                                                                                                                                                                                                                                                                                                                        ",
"                                                                                                                                                                                                                                                                                                                          k s s g s k -.z.h.z.x.M.b.u.G p p s s s s                 n O.2.,.,.,.@.,.2.@.,.@.,.2.,.%.,.2.,.,.%.,.@.,.` [ _ _ ( _ ( _ ( ( _ _ _ _ | ,.6.6.6.6.6.7.e.f.F.A.F.F.A.A.F.B.x.N.N.N.S.N.N.B.B.N.A.A.A.A.F.B.S.B.S.B.M.B.x.6.6.6.7.6.6.e.f.S.B.x.b.N.c.B.f.u.f.f.f.f.g.g.A.S.B.S.B.B.A.B.F.A.C.A.A.A.C.F.F.F.A.F.A.F.F.B.M.x.f.M.z.x.N.z.z.z.z.h.x.x.=.l s a                                                                                                                                                                                                                                                                                                                                                 ",
"                                                                                                                                                                                                                                                                                                                                    X D x.x.x.f.x.x.t.                              ; ..2.,.@.2.,.,.@.,.2.,.@.,.,.,.,.@.2.,.,.@.,.,.,.-.,.,.,.,.,.,.2.,.,.2.2.,.,.-.2.,.,.,.,.@.,.i.F.F.A.L.A.L.F.N.x.x.x.x.h.x.x.F.A.A.F.A.F.F.F.F.F.F.F.A.J.J.L.F.F.L.F.L.L.F.J.F.S.F.S.S.S.F.S.F.F.A.L.F.A.F.L.A.L.A.F.F.F.F.F.A.J.J.A.K.A.F.F.A.L.A.F.L.A.x.x.f.f.x.x.x.x.l.x.l.z.l.x.S.} @                                                                                                                                                                                                                                                                                                                                                     ",
"                                                                                                                                                                                                                                                                                                                                    . Z b.x.x.x.x.S.t.                                O.5.,.2.%.,.,.%.,.@.,.2.,.@.,.%.,.,.@.2.,.%.@.2.,.2.,.2.2.2.,.2.,.2.,.,.2.%.%.%.,.-.,.>.-.,.u.S.J.F.F.A.J.A.x.h.x.x.x.M.x.x.A.F.A.F.A.F.H.F.A.F.F.F.F.J.A.J.J.J.F.A.A.A.F.F.F.F.A.A.F.A.A.F.A.F.A.F.J.F.A.A.F.A.L.A.A.A.A.A.L.B.F.F.F.A.F.A.A.S.A.A.A.F.x.f.h.z.f.f.z.h.x.z.M.x.f.b.n.)                                                                                                                                                                                                                                                                                                                                                       ",
"                                                                                                                                                                                                                                                                                                                                    X Z x.x.x.z.M.m.a.                                O.4.,.@.,.,.%.,.,.,.@.,.2.%.,.,.2.@.,.%.,.,.@.,.,.2.,.,.,.@.,.,.@.,.,.,.,.%.2.,.,.-.,.,.@.,.i.F.F.B.F.A.L.A.x.M.x.x.x.x.g.x.F.A.F.A.F.A.F.A.F.A.F.F.A.F.J.F.J.A.F.H.A.A.F.A.A.F.J.L.A.L.J.F.B.F.A.A.A.J.F.A.L.A.A.F.J.F.J.F.J.F.A.A.F.A.F.L.J.J.F.J.L.A.b.f.x.z.b.x.x.z.x.x.f.M.z.x.S.)                                                                                                                                                                                                                                                                                                                                                       ",
"                                                                                                                                                                                                                                                                                                                                      A b.x.x.f.z.S.w.                                ..5.,.2.@.,.,.@.,.2.,.@.,.,.@.,.,.,.2.,.,.,.,.2.@.,.@.2.,.,.2.@.,.2.@.,.,.,.,.@.,.2.-.,.O.2.f.F.F.F.F.A.J.F.x.h.h.h.h.h.h.x.A.J.A.L.A.J.A.J.A.F.A.F.A.F.F.A.J.F.A.A.J.A.F.F.F.J.A.A.F.A.J.F.F.F.A.J.F.A.L.A.F.A.F.A.F.A.J.J.J.J.J.J.J.J.A.J.J.A.A.A.J.F.x.h.z.z.f.z.f.x.x.l.x.d.x.x.n.)                                                                                                                                                                                                                                                                                                                                                       ",
"                                                                                                                                                                                                                                                                                                                                      D x.b.h.x.x.b.a.                                O.4.,.%.,.,.@.2.,.@.2.,.2.,.2.,.%.,.@.,.%.,.@.,.,.2.,.,.%.,.,.,.2.,.,.%.,.%.,.,.2.@.2.%.@.,.t.S.S.S.A.F.A.F.N.M.x.x.x.x.h.x.F.J.A.J.A.L.A.L.A.A.F.A.A.H.A.A.F.J.F.F.A.F.A.A.F.A.A.A.A.A.F.F.A.L.F.A.F.A.F.A.F.A.L.A.L.A.F.A.L.F.F.F.F.F.A.F.J.L.B.F.F.B.N.M.z.x.x.f.x.x.h.h.h.z.z.x.S.}                                                                                                                                                                                                                                                                                                                                                       ",
"                                                                                                                                                                                                                                                                                                                                      D b.x.x.h.z.S.a.                                O.2.,.,.,.,.,.@.,.,.@.,.@.,.@.,.,.,.2.,.,.2.,.2.@.,.@.,.,.@.2.@.,.@.,.,.,.,.2.%.,.2.,.@.@.,.f.F.F.F.F.F.F.A.B.x.x.h.x.b.x.S.A.L.H.L.J.F.J.A.L.J.F.F.J.A.F.A.A.A.A.F.H.J.F.K.A.F.A.A.F.A.F.A.F.A.F.F.A.F.A.F.A.F.A.F.A.F.J.L.A.J.F.A.L.A.L.F.B.L.F.J.L.B.N.g.f.f.z.h.z.g.b.x.b.N.b.m.D.|                                                                                                                                                                                                                                                                                                                                                       ",
"                                                                                                                                                                                                                                                                                                                                      A x.x.x.z.x.x.a.w                               O.3.,.%.,.%.,.2.@.2.,.@.2.,.2.%.,.@.,.@.,.@.,.,.,.@.2.,.2.,.@.,.,.2.%.,.%.,.%.,.-.2.2.@.@.,.u.F.B.B.A.B.A.A.M.g.h.f.h.h.d.h.A.H.A.A.A.A.A.A.A.F.A.A.F.A.F.F.F.F.A.F.F.L.K.L.H.A.L.J.F.F.F.F.F.F.F.F.J.F.A.F.F.A.F.A.F.H.J.A.A.F.A.F.A.B.S.A.S.A.B.S.A.B.x.M.f.x.f.z.M.x.t.a.6.w.a.t.d.                                                                                                                                                                                                                                                                                                                                                        ",
"                                                                                                                                                                                                                                                                                                                                      D b.x.h.x.f.x.f.%.}  .} ) } ..E                 O.,.2.,.,.@.,.,.%.,.,.,.,.@.,.,.,.2.@.,.2.,.%.,.@.,.,.@.,.@.2.,.@.,.,.,.,.%.,.2.2.%.,.%.,.%.4.6.7.7.7.7.7.6.7.6.6.6.6.7.6.7.x.N.x.x.C.N.x.C.N.N.N.N.N.M.C.C.A.A.F.F.A.A.F.A.F.A.A.J.H.A.A.F.A.F.F.A.F.F.A.A.F.A.F.A.F.A.F.C.x.x.b.x.x.N.N.x.x.x.N.x.x.N.x.x.f.z.g.x.b.w.r                                                                                                                                                                                                                                                                                                                                                                     ",
"                                                                                                                                                                                                                                                                                                                                      A b.x.x.h.x.h.x.b.S.S.b.B.m.P.0.                O.3.,.@.,.2.@.,.,.2.@.,.%.,.,.%.,.@.,.,.%.,.,.2.,.2.,.,.2.,.@.,.2.@.2.%.,.,.2.@.2.,.2.@.%.,.@.@.O.O.,.@.-.O.O.,.-.,.O.>.O.,.h.x.h.x.x.M.x.M.x.M.x.M.x.M.M.C.A.A.A.F.F.H.F.F.F.A.A.A.A.A.A.F.A.S.F.F.F.A.F.A.F.A.F.A.A.F.A.x.h.x.h.x.x.x.x.x.M.M.x.M.x.M.z.M.z.x.z.x.m.w.                                                                                                                                                                                                                                                                                                                                                                      ",
"                                                                                                                                                                                                                                                                                                                                      D x.b.x.f.x.f.z.x.z.x.z.x.x.m.9.                O.,.2.,.,.,.,.%.,.@.,.,.@.,.,.,.,.2.,.,.,.2.@.,.@.,.@.%.,.,.,.%.,.,.,.,.,.%.,.2.,.@.2.,.%.@.@.,.@.%.2.2.%.%.,.@.O.,.-.,.,.2.x.g.x.x.M.x.M.x.M.z.M.f.x.z.x.N.J.A.A.A.A.F.A.F.A.F.J.F.J.A.F.A.A.A.F.A.A.F.J.F.J.F.H.F.J.F.A.N.x.h.x.h.x.h.x.f.x.l.z.x.l.x.f.z.h.z.x.z.N.9.                                                                                                                                                                                                                                                                                                                                                                      ",
"                                                                                                                                                                                                                                                                                                                                      D x.x.x.x.f.h.h.z.x.h.z.x.x.b.8.                O.,.,.-.2.%.,.,.,.2.,.%.,.2.%.,.@.,.%.,.@.,.,.,.@.2.,.,.2.@.,.,.,.@.2.%.,.,.,.@.2.,.@.,.,.2.,.%.,.,.@.,.2.,.@.2.,.,.@.,.@.2.g.x.x.M.x.M.x.M.z.x.f.z.x.M.x.B.F.J.L.J.F.K.A.F.A.J.J.J.L.J.J.J.L.J.F.A.F.J.A.L.A.J.L.A.J.A.A.x.V.g.k.x.z.h.f.x.z.x.f.x.f.x.M.x.f.h.f.x.b.9.                                                                                                                                                                                                                                                                                                                                                                      ",
"                                                                                                                                                                                                                                                                                                                                      V x.b.x.x.z.h.f.x.x.h.x.f.x.x.&.                ..5.,.:.,.2.@.2.@.,.,.,.,.,.,.@.2.,.,.@.2.,.@.2.,.,.@.,.%.,.,.%.,.,.,.,.,.%.,.,.,.,.2.@.,.@.,.,.%.,.,.,.@.,.2.@.,.2.@.,.,.2.g.x.x.V.M.M.x.x.x.z.x.z.x.x.M.C.J.A.J.A.J.F.A.F.H.F.A.A.A.J.A.J.A.J.A.F.A.A.A.A.F.A.A.A.F.A.A.M.g.V.f.x.z.x.z.f.x.x.f.z.h.x.x.h.z.x.f.x.S.0.                                                                                                                                                                                                                                                                                                                                                                      ",
"                                                                                                                                                                                                                                                                                                                                      Z x.b.x.f.h.x.h.f.x.f.x.x.z.N.&.                ..3.>.-.2.2.,.,.2.2.2.4.2.2.4.,.,.@.2.,.,.@.,.,.@.2.,.,.,.,.%.,.2.%.,.@.2.,.,.%.,.@.,.,.%.,.2.@.,.,.%.,.@.,.,.,.@.,.,.%.,.,.d.N.x.x.x.M.M.M.l.x.h.x.h.x.M.N.F.L.A.L.A.A.F.F.A.L.J.L.F.L.F.L.A.L.S.F.L.F.L.F.J.F.L.F.J.F.A.x.x.x.x.M.z.M.z.x.h.z.h.z.h.z.x.x.x.x.x.x.S.w.                                                                                                                                                                                                                                                                                                                                                                      ",
"                                                                                                                                                                                                                                                                                                                                      A x.x.x.x.f.h.z.h.x.x.z.h.x.m.=.                -.5.,.3.,.2.5.4.5.2.5.4.5.4.5.2.,.,.@.,.2.,.%.,.,.@.,.%.,.,.,.,.,.,.2.,.,.@.2.,.@.2.@.,.,.2.@.,.2.,.,.,.2.@.2.,.2.,.@.,.@.2.x.x.x.x.x.x.x.x.h.z.h.x.x.V.x.A.J.S.J.A.L.J.F.J.F.L.F.A.J.A.B.L.S.J.F.F.L.F.A.F.F.J.F.A.F.L.F.M.C.M.h.M.z.x.z.M.z.g.z.h.z.x.b.b.b.x.b.b.D.t.                                                                                                                                                                                                                                                                                                                                                                      ",
"                                                                                                                                                                                                                                                                                                                                      D x.b.x.z.x.f.h.z.x.f.x.z.M.b.=.                W _ W T ) } ) ) ) ) ) ) ) ) ) ..2.,.2.@.,.,.,.%.,.,.,.,.@.2.@.,.%.,.%.,.,.,.@.,.,.,.,.%.,.@.,.,.,.@.2.@.,.,.@.,.%.,.,.2.,.,.d.g.d.g.d.g.f.f.f.h.f.x.h.M.x.C.A.A.B.A.A.A.F.A.A.A.A.A.A.A.B.A.B.F.B.B.B.A.F.A.F.A.A.S.A.S.A.x.x.x.x.x.M.M.z.h.l.x.d.x.h.x.6.2.&.=.&.9.0.                                                                                                                                                                                                                                                                                                                                                                        ",
"                                                                                                                                                                                                                                                                                                                                      V x.x.x.h.x.h.f.h.x.x.f.h.z.x.&.                                              V 4.,.,.,.2.2.,.,.2.,.%.,.,.,.%.,.,.,.,.@.2.@.2.,.@.,.2.,.,.,.2.@.,.,.,.,.2.,.2.,.,.%.,.@.,.@.3.3.<.3.3.<.2.6.j.v.x.x.x.h.h.x.z.x.x.x.x.x.h.x.x.x.b.x.x.x.x.x.x.x.x.x.x.x.x.b.x.x.x.x.x.x.x.h.g.x.x.x.x.l.x.l.x.x.x.f.x.a.r o                                                                                                                                                                                                                                                                                                                                                                                   ",
"                                                                                                                                                                                                                                                                                                                                      D b.x.x.z.h.f.x.h.z.h.h.z.x.b.&.                                              h 2.2.,.@.2.,.2.,.2.,.,.%.,.2.,.,.@.2.,.,.,.,.,.2.@.,.%.,.@.2.,.,.2.%.,.@.,.@.,.@.,.,.,.,.2.,.,.-.2.-.,.-.O.6.j.z.h.f.x.h.x.x.z.M.x.x.x.x.x.x.h.x.x.h.x.x.x.x.M.x.M.x.x.x.x.h.x.x.x.x.x.M.x.x.x.x.h.x.x.x.M.x.x.M.z.h.b.w.6                                                                                                                                                                                                                                                                                                                                                                                     ",
"                                                                                                                                                                                                                                                                                                                                      A x.b.x.x.x.h.f.x.x.z.h.x.M.b.&.                                              b 5.,.,.,.2.,.2.,.,.@.,.2.,.@.,.@.,.,.%.,.%.,.@.,.,.,.,.2.,.@.,.@.,.@.,.2.%.,.2.,.%.,.%.,.@.,.2.,.,.%.,.2.,.4.f.h.x.h.x.x.f.x.z.z.M.x.M.M.h.M.x.x.h.z.x.x.l.x.z.M.z.z.h.x.z.h.x.x.l.x.l.x.l.M.z.M.z.x.x.d.x.x.x.x.l.x.N.a.                                                                                                                                                                                                                                                                                                                                                                                      ",
"                                                                                                                                                                                                                                                                                                                                      Z x.x.x.f.h.f.h.f.x.x.f.h.x.m.8.                                              j 2.2.,.@.,.2.,.%.,.2.,.%.,.,.2.,.2.,.,.,.,.2.,.2.@.2.@.,.,.2.,.,.2.,.,.,.,.@.,.@.,.,.,.,.2.,.@.2.@.,.2.@.@.6.h.x.x.x.z.h.z.f.f.z.f.f.x.x.f.h.x.f.x.f.x.f.f.h.z.h.f.f.z.h.z.f.z.M.z.f.x.f.x.f.f.h.x.z.x.x.x.j.f.x.z.x.b.w.                                                                                                                                                                                                                                                                                                                                                                                      ",
"                                                                                                                                                                                                                                                                                                                                      D x.b.x.x.x.h.z.h.x.f.M.z.x.S.=.                                              j 3.,.2.,.2.,.2.,.@.,.@.,.,.@.,.@.,.@.2.@.@.,.@.,.,.,.,.2.@.,.%.,.@.,.%.,.,.,.@.,.,.2.@.,.@.2.,.%.2.@.2.,.@.6.f.x.l.x.x.f.x.z.x.z.x.h.x.h.x.f.b.f.x.h.z.x.z.h.z.h.v.h.v.h.x.x.x.z.x.z.h.x.z.f.x.z.z.x.x.x.z.f.z.z.x.z.b.a.                                                                                                                                                                                                                                                                                                                                                                                      ",
"                                                                                                                                                                                                                                                                                                                                      F b.x.x.x.b.x.x.x.x.x.f.h.x.m.&.                                              b ,.2.,.,.2.,.2.,.,.2.,.,.%.,.2.,.,.,.,.,.2.,.@.2.@.,.%.,.,.,.,.2.,.@.,.,.%.2.,.2.@.,.,.2.,.,.%.,.2.,.2.@.@.6.d.x.z.f.h.x.x.h.x.z.x.z.x.x.h.x.h.x.x.h.x.x.z.x.b.x.x.b.x.x.x.x.M.z.M.z.z.x.h.x.b.x.v.x.x.x.x.f.z.x.x.z.S.a.                                                                                                                                                                                                                                                                                                                                                                                      ",
"                                                                                                                                                                                                                                                                                                                                      K D.S.S.S.S.S.b.x.f.x.h.z.x.b.&.                                                5.5.4.,.4.3.4.,.2.@.,.%.,.,.@.,.%.2.%.,.@.,.,.,.2.,.,.@.2.@.,.@.,.2.,.%.,.,.@.,.,.%.,.@.,.@.2.,.%.%.2.,.%.6.f.x.x.b.k.z.h.h.h.z.x.h.h.M.f.x.h.x.h.h.M.x.h.m.S.S.m.S.n.S.N.x.g.x.x.M.f.M.z.S.m.S.m.S.b.B.b.b.b.b.m.b.D.f.                                                                                                                                                                                                                                                                                                                                                                                      ",
"                                                                                                                                                                                                                                                                                                                                        ) ) ) ) T W W t.x.x.z.h.M.b.e.                                                  M V M V M A ..,.,.@.,.,.,.2.,.,.@.,.,.2.,.%.,.@.,.@.,.,.2.@.2.,.@.,.,.,.@.,.2.,.@.2.,.@.2.,.@.,.2.%.,.@.=.7.e.r.r.t.f.i.f.x.x.x.M.z.x.x.f.h.h.h.x.x.z.d.| W ) W W ) ) ..d.x.l.x.l.x.z.e.) W W W W W W T W W W W W ( E                                                                                                                                                                                                                                                                                                                                                                                       ",
"                                                                                                                                                                                                                                                                                                                                                       .S.x.x.f.x.z.f.i.e.e.i.t.d.f.J                                               T 4.2.,.@.2.@.,.@.2.,.,.2.@.,.,.@.2.,.2.,.@.,.,.,.,.2.,.@.2.,.,.@.,.2.,.,.,.@.,.2.,.,.,.2.,.,.2.2.2.2.2.,.2.r.f.h.j.h.f.z.z.f.f.z.x.z.f.b.e.                9.b.x.h.x.x.x.T                                                                                                                                                                                                                                                                                                                                                                                                                     ",
"                                                                                                                                                                                                                                                                                                                                                      } S.b.h.x.z.h.z.x.v.x.b.x.m.D.(                                               J 5.,.,.@.,.,.2.,.@.2.@.,.,.2.,.,.,.@.,.2.,.@.2.%.,.@.2.,.@.2.,.2.@.,.@.2.,.2.,.%.,.@.,.@.,.@.,.@.@.,.@.@.,.6.z.f.z.f.f.f.f.f.f.x.f.h.z.x.w.                0.S.h.M.x.h.b.U                                                                                                                                                                                                                                                                                                                                                                                                                     ",
"                                                                                                                                                                                                                                                                                                                                                      } S.x.f.x.M.z.h.z.h.z.h.z.x.S.W                                               J 5.,.@.,.2.@.,.@.,.,.,.@.,.@.2.@.,.2.@.,.@.,.,.,.,.,.@.,.,.@.,.@.,.2.,.@.,.@.,.,.,.%.2.,.2.,.2.,.,.@.,.@.@.e.f.z.h.f.z.z.f.f.x.z.x.z.x.b.w.                9.b.x.g.x.x.S.U                                                                                                                                                                                                                                                                                                                                                                                                                     ",
"                                                                                                                                                                                                                                                                                                                                                      } S.x.h.z.f.x.v.x.f.f.h.h.x.S.W                                               P 4.,.2.O.,.,.2.,.2.%.,.2.@.,.,.2.,.,.,.@.2.,.@.,.%.,.2.,.2.,.2.,.,.@.,.2.,.,.@.2.@.,.,.,.@.,.@.,.%.,.@.,.@.r.f.h.f.h.f.z.z.x.x.f.f.f.z.b.e.                w.b.x.x.h.b.N.U                                                                                                                                                                                                                                                                                                                                                                                                                     ",
"                                                                                                                                                                                                                                                                                                                                                       .m.b.x.h.x.z.x.h.z.f.x.f.x.S.E                                               T ,.2.,.@.,.%.,.@.,.,.@.,.2.,.@.,.@.2.@.,.,.,.2.@.,.,.@.,.@.,.%.,.@.2.,.@.,.2.,.,.,.2.@.,.2.,.2.,.,.,.@.,.@.e.f.z.h.x.f.l.z.x.z.x.z.x.x.b.w.                0.b.x.x.h.x.S.U                                                                                                                                                                                                                                                                                                                                                                                                                     ",
"                                                                                                                                                                                                                                                                                                                                                      } S.x.x.z.x.x.x.z.x.x.h.z.x.x.W                                               T 2.,.,.@.,.,.%.,.,.2.,.,.@.2.,.,.2.,.,.%.2.@.,.,.2.@.,.2.,.@.,.2.,.@.,.,.%.,.@.2.@.,.,.,.@.,.@.,.%.,.2.@.@.r.f.h.f.h.z.f.f.x.x.M.x.x.x.S.w.                w.S.h.b.x.b.S.U                                                                                                                                                                                                                                                                                                                                                                                                                     ",
"                                                                                                                                                                                                                                                                                                                                                      } S.b.x.h.x.z.h.x.h.z.x.x.x.m.R                                               P 4.,.,.O.2.,.,.,.@.,.%.,.,.,.%.,.@.,.,.,.@.,.2.@.,.,.@.,.%.,.2.@.,.,.2.,.@.,.,.@.,.2.@.,.2.,.2.@.,.,.@.,.,.6.f.f.f.z.j.f.f.M.x.f.z.f.z.b.e.                e.b.x.z.f.k.b.                                                                                                                                                                                                                                                                                                                                                                                                                      ",
"                                                                                                                                                                                                                                                                                                                                                       .m.x.x.z.x.x.x.f.x.x.f.x.x.S.W                                               T ,.2.,.@.,.@.2.,.2.,.,.@.2.@.,.,.2.@.,.%.,.,.,.,.@.,.2.,.,.,.,.@.,.%.,.@.,.2.,.2.,.%.,.,.%.,.,.,.@.2.,.,.@.4.6.e.e.e.7.7.e.Q b c V V b C k                 h C V V V V                                                                                                                                                                                                                                                                                                                                                                                                                         ",
"                                                                                                                                                                                                                                                                                                                                                      } S.b.x.x.x.f.x.h.x.z.x.x.x.S.)                                               T 4.,.2.@.2.,.,.@.,.@.2.,.,.,.@.,.,.2.,.,.,.%.,.%.,.,.@.,.%.,.2.,.,.,.,.2.,.%.,.@.,.,.2.,.,.%.,.,.,.@.,.@.,.2.%.2.%.2.2.3.O.8                                                                                                                                                                                                                                                                                                                                                                                                                                                                   ",
"                                                                                                                                                                                                                                                                                                                                                      } S.x.z.h.x.x.x.z.h.g.z.h.v.m.W                                               P 4.,.,.@.,.,.%.,.2.,.,.@.2.,.2.,.@.,.@.2.@.,.,.,.,.2.@.,.,.@.,.%.,.%.,.%.,.,.,.2.,.%.,.%.,.,.%.,.2.,.,.,.,.@.>.,.,.%.2.2.O.                                                                                                                                                                                                                                                                                                                                                                                                                                                                    ",
"                                                                                                                                                                                                                                                                                                                                                       .m.b.x.x.x.f.h.x.z.x.h.z.x.D.T                                               T ,.2.,.@.,.2.,.,.%.,.%.,.,.@.,.%.,.2.,.,.,.%.,.@.,.@.,.@.2.,.,.,.,.,.,.,.@.2.@.,.,.,.,.,.%.,.,.@.,.@.,.%.,.,.@.,.,.%.2.2.-.                                                                                                                                                                                                                                                                                                                                                                                                                                                                    ",
"                                                                                                                                                                                                                                                                                                                                                      } S.x.x.f.x.x.z.h.x.z.h.x.x.n.W                                               T 4.,.,.O.,.@.,.,.,.,.,.@.,.2.@.,.,.@.,.%.,.,.,.2.,.@.,.,.,.%.2.@.,.%.,.%.,.,.,.%.,.%.2.,.,.,.,.2.@.2.,.,.@.,.2.%.%.,.%.6.#.                                                                                                                                                                                                                                                                                                                                                                                                                                                                    ",
"                                                                                                                                                                                                                                                                                                                                                      } S.b.x.x.x.x.x.z.x.x.x.f.x.S.W                                               J 4.,.%.2.,.2.@.2.%.,.2.,.2.,.,.2.,.2.,.,.%.,.%.,.2.@.,.,.,.2.%.@.,.,.,.,.%.,.2.,.2.,.@.2.@.2.@.,.,.,.%.,.2.%.,.%.,.%.,.2.O.                                                                                                                                                                                                                                                                                                                                                                                                                                                                    ",
"                                                                                                                                                                                                                                                                                                                                                      O.D.S.b.x.b.b.x.S.x.b.x.S.S.D.)                                               T 5.2.2.,.2.2.2.2.,.2.2.2.2.2.2.2.2.2.2.2.2.2.,.2.2.,.2.,.3.4.4.,.,.@.2.,.,.@.2.2.,.2.2.2.2.2.2.2.2.2.2.2.2.2.2.2.2.2.2.5.,.                                                                                                                                                                                                                                                                                                                                                                                                                                                                    ",
"                                                                                                                                                                                                                                                                                                                                                      ) x.d.d.d.a.d.a.d.d.d.d.d.d.h.E                                               H ,...............O...O.............O...O.` O...O...O.[ ..O.-.@.%.,.,.,.@.2.,.............O...O...O...O...O...O...O...O.@.|                                                                                                                                                                                                                                                                                                                                                                                                                                                                     ",
"                                                                                                                                                                                                                                                                                                                                                                                    l J P T T T U P                                                                                               T <.%.,.,.2.,...                                                                                                                                                                                                                                                                                                                                                                                                                                                                                                                  ",
"                                                                                                                                                                                                                                                                                                                                                                                      f.S.b.x.b.S.m.                                                                                              M <.,.,.@.2.4.}                                                                                                                                                                                                                                                                                                                                                                                                                                                                                                                   ",
"                                                                                                                                                                                                                                                                                                                                                                                      u.S.x.z.b.b.x.                                                                                              M <.,.@.,.2.5.)                                                                                                                                                                                                                                                                                                                                                                                                                                                                                                                   ",
"                                                                                                                                                                                                                                                                                                                                                                                      d.b.z.x.z.x.x.                                                                                              V ,.,.%.,.,.4.}                                                                                                                                                                                                                                                                                                                                                                                                                                                                                                                   ",
"                                                                                                                                                                                                                                                                                                                                                                                      u.c.z.x.x.h.x.                                                                                              N 3.@.,.%.2.4.}                                                                                                                                                                                                                                                                                                                                                                                                                                                                                                                   ",
"                                                                                                                                                                                                                                                                                                                                                                                      t.S.x.h.x.x.x.                                                                                              N 6.,.%.,.2.4.}                                                                                                                                                                                                                                                                                                                                                                                                                                                                                                                   ",
"                                                                                                                                                                                                                                                                                                                                                                                      t.b.z.f.h.x.z.                                                                                              D 7.4.4.4.4.7.O.                                                                                                                                                                                                                                                                                                                                                                                                                                                                                                                  ",
"                                                                                                                                                                                                                                                                                                                                                                                      t.c.x.j.x.x.z.                                                                                              m .. . . .` O.E                                                                                                                                                                                                                                                                                                                                                                                                                                                                                                                   ",
"                                                                                                                                                                                                                                                                                                                                                                                      t.b.x.f.h.x.f.                                                                                                                                                                                                                                                                                                                                                                                                                                                                                                                                                                                                                                ",
"                                                                                                                                                                                                                                                                                                                                                                                      t.m.x.x.f.x.z.                                                                                                                                                                                                                                                                                                                                                                                                                                                                                                                                                                                                                                ",
"                                                                                                                                                                                                                                                                                                                                                                                      a.b.h.f.x.b.z.                                                                                                                                                                                                                                                                                                                                                                                                                                                                                                                                                                                                                                ",
"                                                                                                                                                                                                                                                                                                                                                                                      t.S.x.h.x.x.z.                                                                                                                                                                                                                                                                                                                                                                                                                                                                                                                                                                                                                                ",
"                                                                                                                                                                                                                                                                                                                                                                                      a.b.h.f.x.b.f.                                                                                                                                                                                                                                                                                                                                                                                                                                                                                                                                                                                                                                ",
"                                                                                                                                                                                                                                                                                                                                                                                      d.b.x.x.b.x.b.                                                                                                                                                                                                                                                                                                                                                                                                                                                                                                                                                                                                                                ",
"                                                                                                                                                                                                                                                                                                                                                                                      f.G.S.b.S.S.m.                                                                                                                                                                                                                                                                                                                                                                                                                                                                                                                                                                                                                                ",
"                                                                                                                                                                                                                                                                                                                                                                                      } %.o. .#.O.@.                                                                                                                                                                                                                                                                                                                                                                                                                                                                                                                                                                                                                                ",
"                                                                                                                                                                                                                                                                                                                                                                                                                                                                                                                                                                                                                                                                                                                                                                                                                                                                                                                                                                                                                                    ",
"                                                                                                                                                                                                                                                                                                                                                                                                                                                                                                                                                                                                                                                                                                                                                                                                                                                                                                                                                                                                                                    ",
"                                                                                                                                                                                                                                                                                                                                                                                                                                                                                                                                                                                                                                                                                                                                                                                                                                                                                                                                                                                                                                    ",
"                                                                                                                                                                                                                                                                                                                                                                                                                                                                                                                                                                                                                                                                                                                                                                                                                                                                                                                                                                                                                                    ",
"                                                                                                                                                                                                                                                                                                                                                                                                                                                                                                                                                                                                                                                                                                                                                                                                                                                                                                                                                                                                                                    ",
"                                                                                                                                                                                                                                                                                                                                                                                                                                                                                                                                                                                                                                                                                                                                                                                                                                                                                                                                                                                                                                    ",
"                                                                                                                                                                                                                                                                                                                                                                                                                                                                                                                                                                                                                                                                                                                                                                                                                                                                                                                                                                                                                                    ",
"                                                                                                                                                                                                                                                                                                                                                                                                                                                                                                                                                                                                                                                                                                                                                                                                                                                                                                                                                                                                                                    ",
"                                                                                                                                                                                                                                                                                                                                                                                                                                                                                                                                                                                                                                                                                                                                                                                                                                                                                                                                                                                                                                    ",
"                                                                                                                                                                                                                                                                                                                                                                                                                                                                                                                                                                                                                                                                                                                                                                                                                                                                                                                                                                                                                                    ",
"                                                                                                                                                                                                                                                                                                                                                                                                                                                                                                                                                                                                                                                                                                                                                                                                                                                                                                                                                                                                                                    ",
"                                                                                                                                                                                                                                                                                                                                                                                                                                                                                                                                                                                                                                                                                                                                                                                                                                                                                                                                                                                                                                    ",
"                                                                                                                                                                                                                                                                                                                                                                                                                                                                                                                                                                                                                                                                                                                                                                                                                                                                                                                                                                                                                                    ",
"                                                                                                                                                                                                                                                                                                                                                                                                                                                                                                                                                                                                                                                                                                                                                                                                                                                                                                                                                                                                                                    ",
"                                                                                                                                                                                                                                                                                                                                                                                                                                                                                                                                                                                                                                                                                                                                                                                                                                                                                                                                                                                                                                    ",
"                                                                                                                                                                                                                                                                                                                                                                                                                                                                                                                                                                                                                                                                                                                                                                                                                                                                                                                                                                                                                                    ",
"                                                                                                                                                                                                                                                                                                                                                                                                                                                                                                                                                                                                                                                                                                                                                                                                                                                                                                                                                                                                                                    ",
"                                                                                                                                                                                                                                                                                                                                                                                                                                                                                                                                                                                                                                                                                                                                                                                                                                                                                                                                                                                                                                    ",
"                                                                                                                                                                                                                                                                                                                                                                                                                                                                                                                                                                                                                                                                                                                                                                                                                                                                                                                                                                                                                                    ",
"                                                                                                                                                                                                                                                                                                                                                                                                                                                                                                                                                                                                                                                                                                                                                                                                                                                                                                                                                                                                                                    ",
"                                                                                                                                                                                                                                                                                                                                                                                                                                                                                                                                                                                                                                                                                                                                                                                                                                                                                                                                                                                                                                    ",
"                                                                                                                                                                                                                                                                                                                                                                                                                                                                                                                                                                                                                                                                                                                                                                                                                                                                                                                                                                                                                                    ",
"                                                                                                                                                                                                                                                                                                                                                                                                                                                                                                                                                                                                                                                                                                                                                                                                                                                                                                                                                                                                                                    ",
"                                                                                                                                                                                                                                                                                                                                                                                                                                                                                                                                                                                                                                                                                                                                                                                                                                                                                                                                                                                                                                    ",
"                                                                                                                                                                                                                                                                                                                                                                                                                                                                                                                                                                                                                                                                                                                                                                                                                                                                                                                                                                                                                                    ",
"                                                                                                                                                                                                                                                                                                                                                                                                                                                                                                                                                                                                                                                                                                                                                                                                                                                                                                                                                                                                                                    ",
"                                                                                                                                                                                                                                                                                                                                                                                                                                                                                                                                                                                                                                                                                                                                                                                                                                                                                                                                                                                                                                    ",
"                                                                                                                                                                                                                                                                                                                                                                                                                                                                                                                                                                                                                                                                                                                                                                                                                                                                                                                                                                                                                                    ",
"                                                                                                                                                                                                                                                                                                                                                                                                                                                                                                                                                                                                                                                                                                                                                                                                                                                                                                                                                                                                                                    ",
"                                                                                                                                                                                                                                                                                                                                                                                                                                                                                                                                                                                                                                                                                                                                                                                                                                                                                                                                                                                                                                    ",
"                                                                                                                                                                                                                                                                                                                                                                                                                                                                                                                                                                                                                                                                                                                                                                                                                                                                                                                                                                                                                                    "
};
