/* XPM */
static char *out[] = {
/* columns rows colors chars-per-pixel */
"498 498 162 2 ",
"   c None",
".  c #0C161B",
"X  c #16181B",
"o  c #04162B",
"O  c #041C2B",
"+  c #0C1D2C",
"@  c #141A24",
"#  c #151B2C",
"$  c #041F34",
"%  c #0C1B34",
"&  c #15242C",
"*  c #0C2533",
"=  c #04273C",
"-  c #0C263A",
";  c #0C2A3C",
":  c #142433",
">  c #1C2632",
",  c #142A34",
"<  c #14253C",
"1  c #142A3D",
"2  c #1D2F3C",
"3  c #042B43",
"4  c #0C2B44",
"5  c #042F4B",
"6  c #142C43",
"7  c #0C3244",
"8  c #0C344C",
"9  c #153244",
"0  c #14354D",
"q  c #1C364C",
"w  c #0C3654",
"e  c #043A5C",
"r  c #0C3B59",
"t  c #143654",
"y  c #143B54",
"u  c #1D3C53",
"i  c #143A5C",
"p  c #023965",
"a  c #0C3E64",
"s  c #143E63",
"d  c #0C425C",
"f  c #14425C",
"g  c #0C4365",
"h  c #0C466A",
"j  c #0C4A6C",
"k  c #144265",
"l  c #1C4565",
"z  c #14466C",
"x  c #1C466C",
"c  c #144A6C",
"v  c #1C4A6B",
"b  c #0C4A74",
"n  c #0C4D7C",
"m  c #144674",
"M  c #144A74",
"N  c #1C4B74",
"B  c #144C7C",
"V  c #1C4E7C",
"C  c #14557C",
"Z  c #1C567C",
"A  c #24557C",
"S  c #0C5383",
"D  c #0C578B",
"F  c #145683",
"G  c #1C5684",
"H  c #145A84",
"J  c #1C5A84",
"K  c #14568C",
"L  c #145B8C",
"P  c #1C5D8C",
"I  c #0C5B94",
"U  c #145C95",
"Y  c #1C5D94",
"T  c #125E99",
"R  c #255584",
"E  c #245B84",
"W  c #245E8B",
"Q  c #245D94",
"!  c #1C628C",
"~  c #146294",
"^  c #1C6394",
"/  c #14639B",
"(  c #1C669B",
")  c #1C6A9C",
"_  c #246494",
"`  c #256B94",
"'  c #246A9C",
"]  c #2C6C9C",
"[  c #1466A3",
"{  c #146AA4",
"}  c #1C6BA4",
"|  c #146DAC",
" . c #1C6EAB",
".. c #1472AD",
"X. c #1C72AC",
"o. c #1473B4",
"O. c #1C74B4",
"+. c #1C7AB4",
"@. c #1476BC",
"#. c #1C76BC",
"$. c #1C7ABD",
"%. c #246DA4",
"&. c #2C6FA4",
"*. c #246EAA",
"=. c #2C6EAC",
"-. c #2473AC",
";. c #2C74AB",
":. c #2474B4",
">. c #2C76B4",
",. c #247AB4",
"<. c #2C7AB4",
"1. c #2476BC",
"2. c #247DBC",
"3. c #2C7DBB",
"4. c #147BC2",
"5. c #1C7EC3",
"6. c #1C7ECA",
"7. c #247EC4",
"8. c #2C7EC4",
"9. c #2482BC",
"0. c #2C82BB",
"q. c #1C81C3",
"w. c #1C83CC",
"e. c #1C8ACA",
"r. c #1C8AD4",
"t. c #2482C5",
"y. c #2C82C4",
"u. c #2486CB",
"i. c #2C86CB",
"p. c #248ACC",
"a. c #2C8ACC",
"s. c #2386D4",
"d. c #248CD4",
"f. c #2C8ED4",
"g. c #248EDC",
"h. c #2C8EDB",
"j. c #348ED2",
"k. c #348EDC",
"l. c #2C92D4",
"z. c #2492DC",
"x. c #2C92DC",
"c. c #2C9ADB",
"v. c #3494DB",
"b. c #3C96DB",
"n. c #359ADC",
"m. c #228EE4",
"M. c #2494E2",
"N. c #2C95E5",
"B. c #2496EC",
"V. c #249AEB",
"C. c #2C9DEC",
"Z. c #3496E3",
"A. c #349AE4",
"S. c #3C9DE4",
"D. c #349EED",
"F. c #2C9EF4",
"G. c #349EF3",
"H. c #2CA2EC",
"J. c #34A2EC",
"K. c #2CA1F3",
"L. c #34A2F3",
"P. c #3CA6F5",
/* pixels */
"                                                                                                                                                                                                                                                                                                                                                                                                                                                                                                                                                                                                                                                                                                                                                                                                                                                                                                                                                                                                                                    ",
"                                                                                                                                                                                                                                                                                                                                                                                                                                                                                                                                                                                                                                                                                                                                                                                                                                                                                                                                                                                                                                    ",
"                                                                                                                                                                                                                                                                                                                                                                                                                                                                                                                                                                                                                                                                                                                                                                                                                                                                                                                                                                                                                                    ",
"                                                                                                                                                                                                                                                                                                                                                                                                                                                                                                                                                                                                                                                                                                                                                                                                                                                                                                                                                                                                                                    ",
"                                                                                                                                                                                                                                                                                                                                                                                                                                                                                                                                                                                                                                                                                                                                                                                                                                                                                                                                                                                                                                    ",
"                                                                                                                                                                                                                                                                                                                                                                                                                                                                                                                                                                                                                                                                                                                                                                                                                                                                                                                                                                                                                                    ",
"                                                                                                                                                                                                                                                                                                                                                                                                                                                                                                                                                                                                                                                                                                                                                                                                                                                                                                                                                                                                                                    ",
"                                                                                                                                                                                                                                                                                                                                                                                                                                                                                                                                                                                                                                                                                                                                                                                                                                                                                                                                                                                                                                    ",
"                                                                                                                                                                                                                                                                                                                                                                                                                                                                                                                                                                                                                                                                                                                                                                                                                                                                                                                                                                                                                                    ",
"                                                                                                                                                                                                                                                                                                                                                                                                                                                                                                                                                                                                                                                                                                                                                                                                                                                                                                                                                                                                                                    ",
"                                                                                                                                                                                                                                                                                                                                                                                                                                                                                                                                                                                                                                                                                                                                                                                                                                                                                                                                                                                                                                    ",
"                                                                                                                                                                                                                                                                                                                                                                                                                                                                                                                                                                                                                                                                                                                                                                                                                                                                                                                                                                                                                                    ",
"                                                                                                                                                                                                                                                                                                                                                                                                                                                                                                                                                                                                                                                                                                                                                                                                                                                                                                                                                                                                                                    ",
"                                                                                                                                                                                                                                                                                                                                                                                                                                                                                                                                                                                                                                                                                                                                                                                                                                                                                                                                                                                                                                    ",
"                                                                                                                                                                                                                                                                                                                                                                                                                                                                                                                                                                                                                                                                                                                                                                                                                                                                                                                                                                                                                                    ",
"                                                                                                                                                                                                                                                                                                                                                                                                                                                                                                                                                                                                                                                                                                                                                                                                                                                                                                                                                                                                                                    ",
"                                                                                                                                                                                                                                                                                                                                                                                                                                                                                                                                                                                                                                                                                                                                                                                                                                                                                                                                                                                                                                    ",
"                                                                                                                                                                                                                                                                                                                                                                                                                                                                                                                                                                                                                                                                                                                                                                                                                                                                                                                                                                                                                                    ",
"                                                                                                                                                                                                                                                                                                                                                                                                                                                                                                                                                                                                                                                                                                                                                                                                                                                                                                                                                                                                                                    ",
"                                                                                                                                                                                                                                                                                                                                                                                                                                                                                                                                                                                                                                                                                                                                                                                                                                                                                                                                                                                                                                    ",
"                                                                                                                                                                                                                                                                                                                                                                                                                                                                                                                                                                                                                                                                                                                                                                                                                                                                                                                                                                                                                                    ",
"                                                                                                                                                                                                                                                                                                                                                                                                                                                                                                                                                                                                                                                                                                                                                                                                                                                                                                                                                                                                                                    ",
"                                                                                                                                                                                                                                                                                                                                                                                                                                                                                                                                                                                                                                                                                                                                                                                                                                                                                                                                                                                                                                    ",
"                                                                                                                                                                                                                                                                                                                                                                                                                                                                                                                                                                                                                                                                                                                                                                                                                                                                                                                                                                                                                                    ",
"                                                                                                                                                                                                                                                                                                                                                                                                                                                                                                                                                                                                                                                                                                                                                                                                                                                                                                                                                                                                                                    ",
"                                                                                                                                                                                                                                                                                                                                                                                                                                                                                                                                                                                                                                                                                                                                                                                                                                                                                                                                                                                                                                    ",
"                                                                                                                                                                                                                                                                                                                                                                                                                                                                                                                                                                                                                                                                                                                                                                                                                                                                                                                                                                                                                                    ",
"                                                                                                                                                                                                                                                                                                                                                                                                                                                                                                                                                                                                                                                                                                                                                                                                                                                                                                                                                                                                                                    ",
"                                                                                                                                                                                                                                                                                                                                                                                                                                                                                                                                                                                                                                                                                                                                                                                                                                                                                                                                                                                                                                    ",
"                                                                                                                                                                                                                                                                                                                                                                                                                                                                                                                                                                                                                                                                                                                                                                                                                                                                                                                                                                                                                                    ",
"                                                                                                                                                                                                                                                                                                                                                                                                                                                                                                                                                                                                                                                                                                                                                                                                                                                                                                                                                                                                                                    ",
"                                                                                                                                                                                                                                                                                                                                                                                                                                                                                                                                                                                                                                                                                                                                                                                                                                                                                                                                                                                                                                    ",
"                                                                                                                                                                                                                                                                                                                                                                                                                                                                                                                                                                                                                                                                                                                                                                                                                                                                                                                                                                                                                                    ",
"                                                                                                                                                                                                                                                                                                                                                                                                                                                                                                                                                                                                                                                                                                                                                                                                                                                                                                                                                                                                                                    ",
"                                                                                                                                                                                                                                                                                                                                                                                                                                                                                                                                                                                                                                                                                                                                                                                                                                                                                                                                                                                                                                    ",
"                                                                                                                                                                                                                                                                                                                                                                                                                                                                                                                                                                                                                                                                                                                                                                                                                                                                                                                                                                                                                                    ",
"                                                                                                                                                                                                                                                                                                                                                                                                                                                                                                                                                                                                                                                                                                                                                                                                                                                                                                                                                                                                                                    ",
"                                                                                                                                                                                                                                                                                                                                                                                                                                                                                                                                                                                                                                                                                                                                                                                                                                                                                                                                                                                                                                    ",
"                                                                                                                                                                                                                                                                                                                                                                                                                                                                                                                                                                                                                                                                                                                                                                                                                                                                                                                                                                                                                                    ",
"                                                                                                                                                                                                                                                                                                                                                                                                      +.9.5.w.w.6.w.6.w.6.w.6.w.6.w.6.w.q.w.w.w.w.w.w.w.w.w.w.q.                                                                                                                                                                                                                                                                                                                                                                                                                                                                                                                                                                    ",
"                                                                                                                                                                                                                                                                                                                                                                                                      n.n.n.n.v.n.v.A.n.v.A.n.v.A.n.v.A.n.v.v.v.v.v.v.v.v.v.v.n.n.J                                                                                                                                                                                                                                                                                                                                                                                                                                                                                                                                                                 ",
"                                                                                                                                                                                                                                                                                                                                                                                                      v.x.v.v.x.x.x.l.x.x.l.x.x.l.x.x.l.x.l.l.l.l.l.l.l.l.l.l.v.v.F                                                                                                                                                                                                                                                                                                                                                                                                                                                                                                                                                                 ",
"                                                                                                                                                                                                                                                                                                                                                                                                      l.x.x.x.h.x.h.x.h.x.h.x.h.x.h.x.x.f.x.h.x.h.x.h.x.l.h.h.x.v.F                                                                                                                                                                                                                                                                                                                                                                                                                                                                                                                                                                 ",
"                                                                                                                                                                                                                                                                                                                                                                                                      h.l.x.x.h.x.h.x.h.x.h.x.h.x.h.x.h.x.h.l.h.l.h.l.h.h.f.x.x.v.C                                                                                                                                                                                                                                                                                                                                                                                                                                                                                                                                                                 ",
"                                                                                                                                                                                                                                                                                                                                                                                                      x.x.x.v.h.x.h.x.h.x.h.x.h.x.h.x.h.l.h.x.h.x.h.x.f.x.f.h.x.v.F                                                                                                                                                                                                                                                                                                                                                                                                                                                                                                                                                                 ",
"                                                                                                                                                                                                                                                                                                                                                                                                      g.v.x.N.x.x.x.x.x.x.x.x.x.x.x.x.x.x.x.x.x.l.x.x.x.x.g.x.x.v.C                                                                                                                                                                                                                                                                                                                                                                                                                                                                                                                                                                 ",
"                                                                                                                                                                                                                                                                                                                                                                                                    P x.x.h.x.N.h.x.h.x.h.x.h.x.h.x.h.x.x.x.x.x.x.x.x.x.x.x.x.x.l.'                                                                                                                                                                                                                                                                                                                                                                                                                                                                                                                                                                 ",
"                                                                                                                                                                                                                                                                                                                                                                      +.f.a.p.a.p.a.u.u.i.d.d.u.u.i.a.z.f.v.f.x.h.x.h.x.h.x.h.x.h.x.h.x.h.f.h.f.h.f.g.l.h.l.h.l.x.g.d.d.d.d.p.a.i.2. . . . .*. . . . .*. . .*. . .*. . .*. . .*. . .*. .}  .X.} X. .X.} }  .X.}                                                                                                                                                                                                                                                                                                                                                                                                                                                                     ",
"                                                                                                                                                                                                                                                                                                                                                                      q.S.v.v.v.v.v.v.A.A.A.v.A.v.v.l.h.l.f.x.f.l.g.l.h.z.f.x.d.x.f.z.l.l.z.l.l.z.l.l.l.l.z.l.l.x.l.N.v.v.l.A.v.v.y.:.:.-.:.-.:.-.>.-.:.-.:.-.:.-.:.-.:.-.:.-.:.-.:.-.:.>.,.,.,.,.,.,.:.:.,.2.-.                                                                                                                                                                                                                                                                                                                                                                                                                                                                    ",
"                                                                                                                                                                                                                                                                                                                                                                      +.v.l.l.v.f.j.h.h.x.z.x.d.h.z.l.l.h.x.x.x.x.l.x.l.x.l.x.x.l.x.h.x.l.l.x.l.l.x.l.x.l.l.x.l.z.l.g.f.h.z.l.f.f.9.X.-.-.-.-.-.-.O.-.-.-.-.-.-.-.-.-.-.-.-.-.-.-.-.-.-.X.-.-.X.-.-.X.-.-.-.-.-.                                                                                                                                                                                                                                                                                                                                                                                                                                                                    ",
"                                                                                                                                                                                                                                                                                                                                                                      w.v.j.x.x.x.v.l.x.h.h.l.h.l.l.x.x.x.f.x.f.x.h.x.f.x.h.x.f.x.x.f.x.N.h.x.h.f.x.l.h.x.z.z.x.h.x.x.l.x.f.l.l.f.t.:.O.:.O.O.-.O.-.O.-.O.O.-.O.O.-.-.O.-.-.O.-.-.O.-.:.X.-.X.-.-.-.-.-.:.-.:.}                                                                                                                                                                                                                                                                                                                                                                                                                                                                     ",
"                                                                                                                                                                                                                                                                                                                                                                      5.v.f.l.x.x.x.h.x.l.h.x.x.h.x.f.h.l.x.x.x.f.x.f.x.x.l.x.x.f.x.h.x.x.h.l.v.d.l.h.x.N.x.x.z.l.x.f.x.x.l.z.x.h.9.-.:.-.-.-.O.-.-.O.-.-.-.O.-.-.-.O.-.-.:.X.-.O.-.-.X.-.-.-.-.X.-.-.X.-.-.:.}                                                                                                                                                                                                                                                                                                                                                                                                                                                                     ",
"                                                                                                                                                                                                                                                                                                                                                                      5.v.f.x.x.x.x.z.h.l.h.l.h.l.h.x.x.x.h.l.h.x.x.x.l.h.x.f.x.x.x.f.x.x.h.f.x.f.l.h.x.z.h.x.h.h.l.h.l.h.x.h.l.d.t.-.-.-.X.-.-.-.X.-.-.O.-.-.-.O.-.-.-.O.-.-.-.-.-.:.X.-.X.-.X.-.-.-.-.O.-.-.}                                                                                                                                                                                                                                                                                                                                                                                                                                                                     ",
"                                                                                                                                                                                                                                                                                                                                                                    X $.v.j.x.x.x.l.l.h.x.x.d.x.x.f.x.f.x.l.h.x.f.x.x.x.l.x.h.x.f.x.x.x.x.k.x.h.l.h.z.x.N.h.h.x.f.z.h.x.x.l.d.l.x.7.O.X.-.-.-.-.-.-.-.-.-.-.-.-.-.-.O.-.-.-.O.-.O.-.X.-.X.-.X.-.-.-.:.-.-.-.:.} 6                                                                                                                                                                                                                                                                                                                                                                                                                                                                   ",
"                                                                                                                                                                                                                                                                                                                                                                  z Z u.v.f.x.x.z.f.l.h.l.x.x.f.x.h.z.l.h.x.x.x.l.x.f.x.h.l.x.l.x.x.f.x.h.f.x.h.f.f.N.N.N.l.N.A.N.v.l.g.l.x.x.x.x.a.t.t.y.t.t.t.y.t.t.y.t.t.7.y.t.-.-.X.-.-.X.-.-.-.:.-.X.-.-.-.X.-.-.X.-.X.:.X.Z w                                                                                                                                                                                                                                                                                                                                                                                                                                                                 ",
"                                                                                                                                                                                                                                                                                                                                                      [ n.l.l.v.l.v.v.l.l.M.l.l.M.z.l.x.x.h.x.h.l.x.h.x.l.x.f.x.h.l.x.x.x.l.h.x.f.x.x.x.x.h.f.x.f.h.C.D.D.D.D.D.S.A.h.l.h.x.f.l.z.x.j.h.N.N.N.N.N.N.N.N.N.N.N.N.h.:.X.:.-.:.-.-.O.-.X.-.X.-.X.-.:.-.X.-.-.-.-.:.:.:.-.-.:.X.,.                                                                                                                                                                                                                                                                                                                                                                                                                                                      ",
"                                                                                                                                                                                                                                                                                                                                                      / S.j.l.v.v.l.v.x.v.v.h.x.l.x.l.h.f.x.l.h.x.l.h.x.x.h.x.l.h.x.f.x.f.h.x.h.z.f.x.h.x.x.x.x.x.N.F.G.D.G.G.G.C.C.z.f.x.z.x.l.h.l.h.x.l.x.x.x.x.x.x.h.x.h.x.x.h.:.-.X.-.X.:.X.-.-.-.X.-.-.-.O.-.X.-.:.X.-.O.-.:.-.-.-.-.-.<.[                                                                                                                                                                                                                                                                                                                                                                                                                                                     ",
"                                                                                                                                                                                                                                                                                                                                                      ( n.v.l.x.h.h.N.h.x.h.l.x.l.x.l.x.x.f.x.x.f.h.l.x.l.x.h.x.l.x.z.x.h.l.x.l.h.x.f.x.l.x.x.f.h.N.C.C.F.C.C.G.D.N.x.f.x.f.h.z.f.x.x.h.x.f.h.f.x.f.x.l.f.x.l.x.f.-.X.-.-.-.X.-.-.-.O.-.X.-.O.-.-.-.-.-.X.-.-.-.-.-.-.-.:.-.:.)                                                                                                                                                                                                                                                                                                                                                                                                                                                     ",
"                                                                                                                                                                                                                                                                                                                                                      [ n.v.x.x.x.h.h.x.h.h.f.h.f.h.f.h.x.x.h.l.x.x.x.h.x.f.x.f.g.l.h.l.x.x.h.x.l.x.h.x.h.x.h.x.h.l.G.D.F.F.L.C.J.N.z.h.l.x.z.f.x.f.h.l.x.l.x.x.l.x.x.x.x.x.h.x.d.:.-.X.-.O.-.-.O.-.-.-.X.-.-.X.:.X.-.-.:.-.O.-.-.-.:.-.-.:.,.}                                                                                                                                                                                                                                                                                                                                                                                                                                                     ",
"                                                                                                                                                                                                                                                                                                                                                      / n.l.h.g.N.l.N.x.h.l.h.f.x.v.x.h.l.h.l.x.h.z.f.d.x.x.x.x.x.x.x.f.h.l.h.f.h.d.f.h.l.h.v.h.h.N.C.D.C.F.C.G.C.C.x.x.x.x.x.h.l.x.x.h.x.h.l.h.x.f.x.f.x.l.x.x.f.:.-.X.-.-.-.-.-.-.O.-.X.-.-.-.X.:.-.X.-.-.-.X.:.X.-.X.-.-.-.[                                                                                                                                                                                                                                                                                                                                                                                                                                                     ",
"                                                                                                                                                                                                                                                                                                                                                      ( v.v.h.h.x.z.h.d.x.x.f.x.x.f.h.x.f.x.x.x.f.f.x.x.v.A.v.A.n.A.x.x.f.x.z.l.x.x.x.x.x.h.x.h.f.N.C.G.L.K.G.F.D.N.x.f.f.z.x.f.x.h.x.l.x.f.x.x.x.h.l.h.x.h.x.x.f.:.X.-.-.O.-.O.-.-.-.X.-.X.:.X.-.-.-.-.O.-.O.-.-.-.:.-.-.O.-.[                                                                                                                                                                                                                                                                                                                                                                                                                                                     ",
"                                                                                                                                                                                                                                                                                                                                                      [ v.v.f.f.h.f.l.f.h.z.x.v.x.k.x.l.x.x.h.l.x.g.d.d.u.r.u.d.d.p.d.f.g.f.f.g.f.f.h.f.x.v.h.h.h.v.C.F.C.G.F.C.D.C.z.x.x.x.x.l.x.x.x.x.x.x.l.h.l.x.x.f.x.l.x.x.f.-.*.X.-.-.-.-.X.:.X.-.-.X.-.-.-.O.-.-.X.-.-.-.X.:.-.X.-.-.:.} #                                                                                                                                                                                                                                                                                                                                                                                                                                                   ",
"                                                                                                                                                                                                                                                                                                                                                      ( v.f.f.x.f.x.x.z.l.x.l.x.l.x.x.x.h.z.x.x.x.x.W 9 6       1 q Y u.t.7.7.2.7.t.f.x.x.x.x.x.x.x.N.l.N.N.N.l.N.N.N.N.N.A.N.N.N.N.N.N.N.N.c.C.C.l.f.l.l.l.l.f.h.:.X.-.X.-.O.-.-.-.-.O.-.-.O.-.X.-.O.-.X.-.X.-.-.-.-.X.-.O.-.X.G b                                                                                           D / I / U T                                                                                                                                                                                                                                                                                                                                           ",
"                                                                                                                                                                                                                                                                                                                                                      ^ n.v.f.f.h.f.l.h.l.x.f.x.x.x.l.N.x.x.z.x.l.x.M               n -.O.X.O.X. .O.p.x.x.x.z.x.x.z.h.z.h.z.h.z.h.A.D.G.G.G.F.G.F.K.G.J.D.D.D.J.H.v.l.f.l.f.f.l.f.:.-.X.-.-.-.X.-.O.-.-.-.X.-.X.-.X.-.X.-.X.-.O.-.X.-.-.X.-.-.:.,.<.<.,.<.<.<.L                                                                               f.D.v.n.A.n.n.                                                                                                                                                                                                                                                                                                                                        ",
"                                                                                                                                                                                                                                                                                                                                                      [ n.h.x.x.l.h.f.x.f.x.f.v.f.h.N.z.l.g.l.x.N.x.                  >.X.-.-.-.-.-.a.l.h.h.f.h.f.x.f.f.f.f.f.h.x.C.C.H.H.C.H.H.H.H.H.C.D.C.J.C.H.x.x.h.x.h.x.x.d.:.-.-.X.:.-.-.-.-.X.-.-.-.O.-.-.-.-.:.-.-.-.-.-.-.O.-.-.-.-.:.-.:.:.:.:.:.<.L                                                                               u.A.x.A.x.l.v.                                                                                                                                                                                                                                                                                                                                        ",
"                                                                                                                                                                                                                                                                                                                                                      [ A.l.x.x.l.z.x.f.x.f.x.h.f.h.x.x.x.x.h.x.l.x.                  :.-.:.-.-.X.,.p.v.x.l.x.x.h.l.h.x.x.x.x.x.x.c.C.G.K.D.L.K.L.K.K.D.D.D.D.D.C.N.h.x.h.x.h.x.h.-.X.-.-.X.-.O.-.-.O.-.O.-.-.-.O.:.X.-.X.-.O.-.X.-.-.-.O.-.-.-.:.-.-.-.-.-.>.G                                                                               w.A.x.x.x.x.x.                                                                                                                                                                                                                                                                                                                                        ",
"                                                                                                                                                                                                                                                                                                                                                      [ D.l.x.f.l.x.z.l.x.x.h.x.f.x.x.l.x.f.d.x.x.x.                  ;.O.X.-.-.X.:.a.l.h.h.k.x.h.v.h.x.k.h.h.x.x.N.D.F.F.G.C.F.H.G.H.D.D.D.C.D.D.x.h.h.h.h.f.v.h.:.-.X.-.:.X.-.X.-.-.-.-.O.-.-.X.-.-.O.-.O.-.-.:.X.-.-.O.-.O.-.X.-.-.O.-.X.;.G                                                                               w.l.x.z.x.x.l.                                                                                                                                                                                                                                                                                                                                        ",
"                                                                                                                                                                                                                                                                                                                                                      / A.x.f.z.f.z.l.f.x.v.f.v.h.f.v.h.l.x.f.x.v.v.                  -.,.X.O.:.X.:.d.x.x.x.l.x.l.x.x.x.x.x.l.x.h.N.D.F.D.J.F.J.F.H.F.D.C.D.D.F.D.N.f.x.x.x.x.x.g.-.-.X.-.-.-.:.-.O.-.O.-.-. .-.-.O.O.-.O.-.X.-.-.:.X.-.-.-.-.:.-.-.O.-.-.-.2.I                                                                               w.A.g.x.x.x.l.                                                                                                                                                                                                                                                                                                                                        ",
"                                                                                                                                                                                                                                                                                                                                                      [ b.l.f.l.f.l.x.v.A.v.A.v.N.v.v.v.A.v.v.A.v.v.                  <.-.X.-.:.X.,.a.v.x.x.x.x.x.x.x.x.x.x.x.x.x.A.C.G.F.J.K.K.C.K.C.L.L.K.L.L.F.N.l.z.l.x.x.x.l.-. .-. .-.O. .-.*.X.*.X.*.-.O.O.-.-.O.-.X.-.X.-.X.-.:.O.-.X.-.O.-.-.-.:.X.,.I                                                                               d.D.v.n.l.A.A.                                                                                                                                                                                                                                                                                                                                        ",
"                                                                                                                                                                                                                                                                                                                                                      } n.x.l.z.x.z.d.3.$.6.$.6.5.6.5.6.5.5.6.5.6.w.                  ,.,.-.X.-.-.:.u.f.d.f.g.f.d.h.d.f.d.f.g.f.f.N.C.F.C.H.C.H.C.C.C.F.F.D.F.C.G.c.z.x.l.z.x.z.x.:.>.1.>.-.>.:.:.:.>.:.>.:.-.1.-.-.-.*.-.O.-.-.:.-.:.-.X.-.-.-.O.-.X.-.-.-.,.T                                                                               o.u.5.w.6.6.                                                                                                                                                                                                                                                                                                                                          ",
"                                                                                                                                                                                                                                                                                                                                          +.$.$.@.@.5.u.h.z.h.f.h.v.w.                                ~ ^ ^ T / / !  .-.-.-.-.-. .:.2.2.,.,.,.,.,.,.,.,.,.,.,.,.1.y.l.v.x.l.N.N.x.N.D.D.C.C.D.C.C.D.C.D.C.D.C.C.D.d.d.p.d.d.d.f.d.a.d.d.d.f.d.i.7.-.-.-.O.-.O.-.X.-.X.-.-.O.-.O.-.-.-.O.-.X.>.L                                                                                                                                                                                                                                                                                                                                                                                                                                     ",
"                                                                                                                                                                                                                                                                                                                                        n.n.A.N.v.N.N.N.h.x.l.l.x.v.$.                                -.3.>.:.<.-.;.-.-.-.-.-.-.-.X.O.O.*.X.*.X.*.X.-. .-. .-.X.O.7.f.l.h.h.z.f.x.l.D.C.D.C.F.D.C.D.C.D.C.D.C.G.C.x.x.v.x.x.l.x.l.x.x.l.x.x.x.j.y.O.-.*.-.O.-.X.-.-.O.-.X.-.-.-.-.O.-.-.-.-.,.L                                                                                                                                                                                                                                                                                                                                                                                                                                     ",
"                                                                                                                                                                                                                                                                                                                                        v.N.x.x.N.x.h.z.x.f.h.v.h.v.$.                                &.1.-.X.X.X.-.-.-.-.O.-. .-.%.-.*.X.-.*.-.*.X.*.-.-.-.*.*.O.7.f.h.f.x.x.z.x.N.D.D.F.D.F.D.F.D.F.D.C.G.D.C.G.h.l.h.f.x.h.l.h.h.f.h.h.l.x.h.t.-.-.-.O.X.X.-.O.-.-.-.-.-.O.-.-.-.X.-.O.-.:.L                                                                                                                                                                                                                                                                                                                                                                                                                                     ",
"                                                                                                                                                                                                                                                                                                                                        l.A.x.l.l.f.x.f.x.x.l.l.l.n.$.                                -.-.-.-.-.-.X.-.O.*.-.X.-.-.-.-.-.*.X.-.X.-.-.X.*.X.*.X.-.O.t.d.x.z.x.f.h.x.N.D.C.D.C.J.F.J.C.D.C.G.C.D.F.D.x.x.x.x.x.x.x.x.x.x.x.x.x.l.h.y.:.-.-.-.X.-.X.-.:.X.-.O.-.-.O.-.-.:.-.-.X.,.L                                                                                                                                                                                                                                                                                                                                                                                                                                     ",
"                                                                                                                                                                                                                                                                                                                                        Z.x.x.f.v.f.v.h.x.h.x.x.l.v.@.                                -.;.-.-.-.-.-.-.-.-.X.-.-.X.-.*.-.O.-.-.O.*.X.-.-.O.-.X.-.O.7.l.x.x.f.x.x.x.N.D.D.F.D.F.D.C.F.D.C.D.C.D.C.F.x.h.x.h.x.h.x.h.x.x.x.h.l.h.l.y.-.-.X.-.X.X.:.X.-.-.-.-.-.O.-.X.-.X.-.X.:.<.L                                                                                                                                                                                                                                                                                                                                                                                                                                     ",
"                                                                                                                                                                                                                                                                                                                                      C x.x.l.f.l.x.x.x.v.x.x.x.v.A.6.                                X.:.-.-.O.-.O.-.O.-.-.X.-.-.-.-.-.-.O.-.-.-.-.-.O.-.-.-.-.X.0.f.v.l.f.x.z.l.C.D.C.G.F.L.C.F.H.F.H.F.K.C.D.C.x.x.x.x.h.v.f.f.h.f.h.l.x.f.x.t.-.X.-.-.X.X.-.-.-.O.-.O.-.-.-.-.O.-.-.-.-.:.D                                                                                                                                                                                                                                                                                                                                                                                                                                     ",
"                                                                                                                                                                                                                                                                                                                                      b v.l.x.l.h.h.h.v.n.C.n.A.A.J.7.                                -.-.-.-.O.-.-.-.-.X.-.-.-.-.O.-.X.-.-.-.O.-.O.-.-.-.O.-.O.O.9.l.l.v.l.l.x.x.C.D.F.D.G.C.G.H.D.C.C.D.C.D.C.D.x.z.x.z.x.l.x.x.f.f.f.x.l.h.x.y.-.-.X.-.O.X.:.O.-.O.-.-.X.-.O.-.-.-.X.-.O.-.L                                                                                                                                                                                                                                                                                                                                                                                                                                     ",
"                                                                                                                                                                                                                                                                                                                                    6 ! v.z.l.x.z.x.f.X.[ | [ / [ }                                   -.-.-.-.*.O.-.O.-.:.X.-.*.O.*.-.-.O.-.-.X.-.-.O.-.-.-.-.-.X.2.u.a.u.p.i.u.d.x.C.C.N.C.C.C.C.C.D.C.D.C.C.D.C.N.l.N.l.N.l.N.x.x.x.x.f.x.x.h.t.1. .-.-.X.O.-.O.-.-.-.-.-.O.-.-.X.-.:.X.-.:.^                                                                                                                                                                                                                                                                                                                                                                                                                                     ",
"                                                                                                                                                                                                                                                                                                                          p.e.t.w.u.e.r.g.l.h.l.l.l.u.9                                               -.:.-.O.-.-.-.-.X.-.-.-.-.-.-.-.-.-.O.-.-.-.-.-.O.-.X.-.O.-.-.O.,.-.:.:.;.:.u.j.z.x.x.x.x.N.A.D.D.D.D.L.F.D.F.F.G.F.C.F.F.C.x.h.x.x.l.h.x.t.-.-.X.-.O.X.-.-.O.-.O.-.O.-.-.X.:.-.-.-.-.-.O.%.} } [  .| | ) | ( (  .| | )                                                                                                                                                                                                                                                                                                                                                                                                       ",
"                                                                                                                                                                                                                                                                                                                        x.A.c.Z.l.A.x.x.x.x.l.f.x.v.u.                                                X.-.-.-.O.-.O.-.:.X.-.-.O.-.-.-.O.-.-.-.O.-.O.-.-.-.O.-.-.-.X.X.-.X.X.-.*.O.t.h.h.x.g.l.g.x.C.D.D.G.C.G.C.G.C.D.C.D.F.G.D.C.N.x.x.f.x.h.x.y.-.O.-.-.X.O.-.O.-.-.-.-.-.-.O.-.-.O.-.O.-.-.:.>.,.>.1.:.:.,.,.,.-.-.:.,.-.-.                                                                                                                                                                                                                                                                                                                                                                                                      ",
"                                                                                                                                                                                                                                                                                                                        f.l.x.x.x.x.h.x.f.h.z.f.x.N.u.                                                -.:.-.-. .-.-.X.-.-.O.-.-.-.O.*.-.-.O.-.-.:.-.X.-.-.-.-.X.-.-.-.X.-.-.-.X.-.t.h.f.x.f.x.f.x.C.G.C.C.L.C.G.C.G.C.G.F.D.F.F.C.N.x.x.x.l.h.x.t.-.-.X.-.X.-.O.-.-.O.-.O.-.X.-.-.-.-.-.-.O.-.O.-.:.:.-.*.*.-.-.X.-.-.-.-.-.-.                                                                                                                                                                                                                                                                                                                                                                                                      ",
"                                                                                                                                                                                                                                                                                                                        g.l.N.z.x.h.h.x.h.h.l.l.x.N.s.                                                -.-.-.-.-.O.-.-.-.-.-.O.-.-.-.-.O.-.-.-.O.-.-.-.-.X.-.-.-.-.O.-.-.-.O.-.-.-.y.x.h.x.l.l.h.x.C.K.D.F.D.C.L.C.G.C.F.D.F.C.G.C.z.z.N.l.f.l.f.y.-. .*.-.*.-.-.X.-.-.-.-.-.-.-.O.-.O.-.X.-.-.-.-.-.-.-.-.-.O.X.-.-.-.-.:.-.-.                                                                                                                                                                                                                                                                                                                                                                                                      ",
"                                                                                                                                                                                                                                                                                                                        d.N.x.x.z.x.h.l.l.h.v.l.x.N.p.                                                -.-.-.O.-.-.-.O.-.O.-.-.-.O.-.-.-.O.-.-.-.X.-.X.-.-.-.X.-.X.-.X.-.O.-.X.O.-.t.x.h.x.x.x.l.x.D.C.G.C.G.C.G.C.F.C.C.F.C.C.C.D.l.M.x.x.f.x.h.t.-.X.%.-.-.X.-.X.-.O.-.O.-.O.-.-.-.-.-.-.:.X.-.-.O.-.-.-.-.O.X.-.-.-.-.-.:.X.                                                                                                                                                                                                                                                                                                                                                                                                      ",
"                                                                                                                                                                                                                                                                                                                        h.c.x.x.x.x.h.x.l.Z.x.Z.N.C.e.                                                X.:.-.-.O.-.-.O.-.-.-.O.-.-.O.-.-.-.O.-.X.-.:.-.-.O.-.-.O.-.X.-.X.-.X.-.O.O.u.x.x.x.l.x.x.l.G.D.G.C.D.F.D.F.C.F.C.C.G.C.D.C.N.x.x.z.l.h.h.t.-.*.X.-. .X.:.X.:.-.-.X.-.-.-.O.-.X.-.X.-.-.O.-.-.-.-.O.-.X.O.-.-.-.O.-.-. .                                                                                                                                                                                                                                                                                                                                                                                                      ",
"                                                                                                                                                                                                                                                                                                                        l.l.l.l.l.l.l.l.v.v.v.v.N.A.p.                                                -.-.-.-.O.-.O.-.-.O.-.-.-.-.-.X.-.O.-.-.-.:.X.:.X.-.:.:.-.-.X.-.X.-.X.O.X.-.t.v.h.x.x.f.x.x.C.L.G.C.G.C.D.G.C.D.C.D.C.C.D.C.z.x.x.l.x.f.x.7.-.O.-.X.O.X.-.-.-.X.-.-.:.X.:.-.X.-.-.-.O.-.-.O.-.-. .-.-.*.-.-.-. .-.-.-.X.t                                                                                                                                                                                                                                                                                                                                                                                                     ",
"                                                                                                                                                                                                                                                                                                                        C C C B C C C C Z B B C C                                                     -.-.-.-.*.-.-.-.-.-.-.X.:.X.-.-.O.-.-.X.:.-.-.( ( ( ) ( ) ( ) ( ) ( ) ( ( | X.:.,.:.:.2.O.2.h.C.A.D.A.C.C.C.D.D.C.D.C.L.C.C.C.N.C.l.C.N.N.h.7.3.7.2.7.7.0.,.X.-.-.O.-.-.X.-.-.-.O.-.-.O.-.-.-.-.-.-.-.-.-.O.-. .-.O.-.-.Z 4                                                                                                                                                                                                                                                                                                                                                                                                   ",
"                                                                                                                                                                                                                                                                                                                                                                                                      -.-.-.O.-.O.-.O.-.O.-.-.-.-.O.-.-.-.-.X.-.:.} J G J G G G L J L J L J L H F J H J L G G K / 2.v.x.l.x.N.N.z.D.D.D.D.D.F.G.D.D.D.D.D.H.K.L.N.j.f.f.h.f.l.f.2.O.O.-.-.X.-.:.-.O.-.-.-.-.-.X.-.O.-.-.-.O.X.-.-.1.O.-.-.-.:.-.X.-.X.-.X.,.                                                                                                                                                                                                                                                                                                                                                                                        ",
"                                                                                                                                                                                                                                                                                                                                                                                                      -.:.-.-.-.X.-.-.-.X.-.O.-.-.-.X.-.O.-.-.O.-. .J F G F F G J F G G G F G G F J G F Z C G C G 2.v.l.j.f.h.l.x.C.H.G.H.G.C.C.G.C.D.C.C.G.C.F.C.l.x.l.h.x.x.f.7.O.-.-.O.-.O.-.-.-.O.-.O.-.-.O.-.-.-.O.-.-.-.O.-.-.-.-.X.:.X.:.1.>.-.,.:.3.}                                                                                                                                                                                                                                                                                                                                                                                       ",
"                                                                                                                                                                                                                                                                                                                                                                                                      X.;.-.-.O.-.-.O.-.-.O.-.-.O.-.-.-.-.-.O.-.:.%.J G F J G J C G J C J G J C J G C G G G G C E 5.v.x.l.x.f.x.x.F.J.F.C.K.H.L.C.L.F.L.C.H.G.F.N.x.f.x.l.x.h.f.7.*.O.*.-.-.-.O.-.-.-.-.-.O.-.-.O.-.O.-.-.O.-.-.-.O.-.-.-.X.-.-.-.*.-.X.-.-.}                                                                                                                                                                                                                                                                                                                                                                                       ",
"                                                                                                                                                                                                                                                                                                                                                                                                      -.:.-.-.-.X.-.-.-.-.-.-.X.-.-.O.-.O.-.-.-.:.} J G Z G C G J G G F Z F Z G G F J Z F J G F J 7.l.N.x.h.h.x.x.C.F.H.L.C.F.H.F.H.C.K.D.C.D.K.N.l.l.z.f.x.x.f.7.O.*.-.O.*.-.-.O.-.#.-.-.-.O.-.-.:.-.-.O.-.-.O.-.-.O.-.O.-.-.-.O.-.O.X.-.:.}                                                                                                                                                                                                                                                                                                                                                                                       ",
"                                                                                                                                                                                                                                                                                                                                                                                                      X.-.-.-.-.-.-.O.-.O.-.X.-.-.O.-.-.-.O.-.-.:.} J F J Z G G C G J C J G G H Z G G J G F H Z J 7.A.h.f.z.f.h.x.C.G.C.C.G.C.G.D.F.D.C.C.G.F.F.N.x.l.h.x.l.x.f.2. .:.-.-.1.-.1.*.-.-.#.-. .-.-.:.X.-.X.-.-.O.-.-.X.-.-.-.-.-.-.-.*.X.X.-.>.(                                                                                                                                                                                                                                                                                                                                                                                       ",
"                                                                                                                                                                                                                                                                                                                                                                                                      *.-.-.-.X.-.O.-.-.-.-.-.:.X.-.-.O.-.-.-.O.-.} J Z G F J C J G C G G H Z G G H Z F Z F G C J 7.v.x.f.h.x.f.x.G.H.L.G.H.G.H.F.J.F.L.C.C.D.K.N.x.l.l.h.x.x.x.8.#.-.-.1. .-.-.#.-.-.-.1.-.1.X.-.-.O.-.-.O.-.-.X.:.-.O.-.X.-.*.-.-.O.X.-.1.}                                                                                                                                                                                                                                                                                                                                                                                       ",
"                                                                                                                                                                                                                                                                                                                                                                                                      -.:.X.:.X.-.-.O.-.X.-.O.-.-.:.X.-.-.X.-.-.:.%.J F G J C G G G G H Z G F Z F Z J G J Z F F J 2.j.f.j.j.f.a.j.C.G.C.C.C.D.F.H.F.H.C.K.C.G.F.N.x.f.z.f.x.f.h.7.-.O.*.O.*.O.*.-.O.-.#.-.-.O.-.O.X.-.O.-.-.X.:.X.X.-.-.-.-.-.O.-.-.-.*.-.:.} -                                                                                                                                                                                                                                                                                                                                                                                     ",
"                                                                                                                                                                                                                                                                                                                                                                                                    L -.:.-.-.-.O.-.-.-.-.:.-.X.-.X.-.-.-.-.O.-.:.} G G Z F J Z F Z F Z G J G J Z F G C G H Z G G _ &.%.%.%.} ) &.x.A.N.A.N.C.C.C.H.F.K.D.C.D.K.N.x.l.x.x.h.x.l.:.^ ^ ^ ^ _ ^ ^ ^ ^ ^ ^ ^ ^ ^ (  .-.O.-.O.-.O.-.X.-.O.-.O.-.-.-.-.-.-.X.-.O. .C g                                                                                                                                                                                                                                                                                                                                                                                   ",
"                                                                                                                                                                                                                                                                                                                                                                                        3.1.,.-.-.-.:.-.X.-.X.-.-.-.O.-.O.-.-.-.-.-.:.O.-.O.-.-.:.} J G H Z G G J G J G Z F J C G J G J G G C G Z Z G F Z G C C J d.x.l.f.x.z.z.N.C.F.H.F.K.F.G.N.l.x.d.x.f.x.d.} C G G C G F G G F G Z G C K J O.-.#.-.-.X.-.X.-.O.-.-.-.-.O.-.-.O.-.X.-.-.-.-.:.,.:.-.,.<.[                                                                                                                                                                                                                                                                                                                                                                       ",
"                                                                                                                                                                                                                                                                                                                                                                                       .,.X.-.X.O.X.X.X.-.-.O.-.O.-.-.-.X.-.O.-.O.-.X.-.-.-.-.:.-.} J Z G G H Z F Z F J G Z G Z F Z F Z F J G Z H Z Z Z Z Z F F P u.v.l.l.f.x.x.l.D.D.D.H.D.G.K.N.x.l.x.h.x.f.d.%.F G C G C G C Z G C G F Z F J  .-.O. .-.-.O.-.-.*.O.-.O.-.-.-.O.-.-.-.-.O.-.1.:.-.-.:.,.<./                                                                                                                                                                                                                                                                                                                                                                       ",
"                                                                                                                                                                                                                                                                                                                                                                                      } ,.:.X.-.X.X.X.-.X.-.-.X.-.-.X.:.-.-.-.X.-.-.-.-.O.-.X.-.:.} J G F J Z G G J Z F Z F J F G Z J F J Z F G Z G F Z G F F C P d.l.x.x.x.f.z.N.D.C.D.F.H.C.F.N.x.f.z.h.h.x.x.%.F G G F Z G G F Z G C G G F P O.-.O.-.O.-.-.-.-.-.-.-.-.O.-.-.-.-.O.-.O.-.-.-.-.*.O.X.-.-.(                                                                                                                                                                                                                                                                                                                                                                       ",
"                                                                                                                                                                                                                                                                                                                                                                                       .2.O.-.X.-.O.-.-.-.X.*.-.-.-.:.X.-.X.-.-.O.-.O.-.-.X.-.:.-.} J G Z F G H Z F G J C J Z G J F Z G Z G G Z Z G G F G G F C P d.N.x.z.z.l.x.l.D.J.C.K.D.G.F.N.l.x.l.h.x.l.g.-.G C G Z F G C G F G G Z F G J  .O. .O.*.X.-.X.*.-.O.-.-.-.-.O.-.O.-.-.-.O.-.O.-.-.O.X.-.>.[                                                                                                                                                                                                                                                                                                                                                                       ",
"                                                                                                                                                                                                                                                                                                                                                                                      } :.-.-.-.-.X.-.X.-.:.X.-.O.-.-.-.:.-.O.-.-.-.-.:.-.:.-.X.:.%.J F J Z G Z G J C G G G F Z F J G Z H G C G F Z F G F Z F Z J d.x.x.f.h.z.x.N.C.D.D.C.C.D.K.N.x.l.z.h.x.f.f.} G J G G J Z J Z G Z H G Z F P X.-.:.-.X.-.-.-.O.-.-.O.-.O.-.-.-.-.:.X.-.-.-.-.-.-.X.X.-.>./                                                                                                                                                                                                                                                                                                                                                                       ",
"                                                                                                                                                                                                                                                                                                                                                                                      } ,.:.-.-.-.O.-.X.:.-.-.O.-.O.-.:.-.-.-.:.-.-.-.-.O.-.-.-.;.} J G G F F G F G G Z F J Z F J Z G F G Z G J Z G G Z J F Z C W g.v.x.x.l.N.x.N.C.C.F.D.G.C.G.C.g.l.x.h.x.x.d.*.F F C F C F C G F G G F G C P *.-.:.X.-.O.-.X.-.X.-.-.-.-.O.-.O.-.-.-.-.O.-.O.-.-.O.-.:.:.[                                                                                                                                                                                                                                                                                                                                                                       ",
"                                                                                                                                                                                                                                                                                                                                                                                    2  .<.:.-.O.-.-.O.-.-.X.-.O.#.O.O. .-. . .X.X.O.*.*.X.X.-.%.%.%.G G G F G F G G F G J Z F Z G C G J C G F G F J F J G C G C P g.g.h.g.g.d.g.l.H.K.H.G.C.D.C.C.z.z.x.l.M.l.h.O.T J J E Y J Y G G G G F G G J X.-.-.-.X.-.X.-.-.-.-.O.-.X.-.-.-.X.-.O.-.-.-.-.O.-.-.-.:.,.[                                                                                                                                                                                                                                                                                                                                                                       ",
"                                                                                                                                                                                                                                                                                                                                                                        L K S S I S / -.:.X.-.-.-.-.-.-.-.-.-.-.:.-._ Y P W Y J P J J P W P Y P P J G G G F J G F G G Z F G J G G G Z G G G Z G C G Z F G G F G J _ _ _ _ _ _ ^ >.C.D.G.D.G.C.J.D.C.C.C.C.C.C.C.f.t.t.t.u.t.t.$.Y C C G G F G P X.-.O.-.O.-.-.O.-.O.-.X.:.-.-.O.-.-.:.-.X.-.O.-.-.-.O.-.:.:.[                                 [ | | | | | [                                                                                                                                                                                                                                                                                                                         ",
"                                                                                                                                                                                                                                                                                                                                                                      } 3.,.:.,.:.,.:.-.-.-.-.O.-.O.-.O.-.O.-.-.-.-.Y F Z C G G F G F G C H F F F F G G G F G G G F G F Z F Z F J C G F J C J G J G J Z F Z G Z F Z C N C C C n %.n.L.C.F.C.C.C.G.F.G.G.F.D.D.C.A.l.v.l.l.v.A.f._ C K G G F Z J O.-.:.O.*.O.*.-.-.-.-.-.-.X.-.-.-.O.-.-.-.X.-.-.O.-.-.-.:.<.[                                 v.A.D.n.A.D.v.                                                                                                                                                                                                                                                                                                                        ",
"                                                                                                                                                                                                                                                                                                                                                                      [ ,.O.-.X.-.-.O.-.O.-.X.-.-.-.X.-.X.-.-.:.:.-.^ H G G F G Z H H Z Z H H H C J G G G G G F G G F Z J Z G Z F G Z J C G G C G C G G Z F J Z J Z Z Z F G C Z &.C.K.K.G.G.L.C.G.D.G.D.C.D.C.F.N.h.h.l.l.l.x.d._ C K G F G F P  .-.:.-.X.-.-.-.:.:.X.-.:.X.-.O.-.-.X.-.O.-.-.O.-.-.X.:.-.:.[                                 f.l.N.x.x.N.d.                                                                                                                                                                                                                                                                                                                        ",
"                                                                                                                                                                                                                                                                                                                                                                      { ,.-.O.-.O.-.O.-.-.-.-.-.O.-.-.-.-.:.O.-.X.*.^ F H H C J F Z H F Z F Z G G C G Z F G G F G G G F Z H G J Z G F G G G Z G F G Z H G Z G F G F G F Z G F C %.A.J.H.C.C.F.D.L.D.F.D.D.H.D.K.N.f.h.x.z.x.x.d._ C G G G G Z J X.-.-.X.-.X.-.X.-.-.X.-.-.-.-.-.X.-.-.-.-.-.-.-.X.-.-.-.:.,.[                                 h.x.x.x.l.l.f.                                                                                                                                                                                                                                                                                                                        ",
"                                                                                                                                                                                                                                                                                                                                                                      [ ;.O.-.O.-.O.-.X.-.O.-.-.X.-.O.-.O.-.-.X.X.} ^ C F C F J Z G H Z C G C J F Z G F G G F G G F G G G G C G F J Z G H Z F J Z J F G C J G J Z F J F Z G G C &.C.J.H.C.C.C.C.D.C.C.C.D.G.C.H.A.h.x.x.N.x.N.f._ C G G F G F P -.O.-.-.-.O.-.-.X.-.-.O.-.X.-.-.-.-.O.-.O.-.O.-.-.-.O.-.-.>.[                                 d.x.x.x.h.N.d.                                                                                                                                                                                                                                                                                                                        ",
"                                                                                                                                                                                                                                                                                                                                                                      / ,.-.X.-.X.-.X.-.-.-.O.-.-.O.-.O.X.O.X.-.-.&.Q G G Z Z F J G Z F G G G Z G H G J Z F G G C G F Z H Z G G Z F G Z G J G F G Z G Z G F Z F J G G G G G G C %.V.L.G.K.G.K.K.F.K.F.G.D.F.G.D.n.x.x.l.f.x.l.g._ C G F H F F J  .:.:.O.-.-.O.-.:.-.-.-.-.O.-.O.-.O.-.-.:.-.-.O.-.-.-.-.:.,./                                 f.l.x.x.l.l.f.                                                                                                                                                                                                                                                                                                                        ",
"                                                                                                                                                                                                                                                                                                                                                                      | <.X.-.X.-.X.-.X.-.-.-.X.-.O.:.X.:.-.:.-.&.-.W G G G F J Z F G G G J F G C G Z F G G F G G G G G G F Z F J G H Z F Z J Z F G H G J C J G F G G G F G G S %.F.L.L.L.L.L.L.L.F.L.C.D.F.C.D.N.d.h.x.f.x.N.d._ G G J G J G P -.:.:.-.O.:.-.-.X.:.X.-.O.-.-.-.-.-.O.-.X.-.-.X.:.X.-.O.-.<.[                                 p.x.x.l.h.N.f.                                                                                                                                                                                                                                                                                                                        ",
"                                                                                                                                                                                                                                                                                                                                                                      / ,.-.X.-.X.-.X.:.-.O.-.-.O.X.X.-. .} X.' ' ' J G G F J Z G F J Z F J Z J G J F J Z G G F G F G F J Z F J Z G Z J G H G C J Z G C G G C G Z G G G G F Z C } m.M.N.N.N.M.N.N.G.F.K.C.F.F.C.N.l.f.f.x.x.l.g._ C C G C G C J }  .}  .%. .} *.-.:.-.-.-.X.-.O.-.-.-.O.-.:.-.-.X.-.-.-.:.,.[                                 f.x.x.x.l.l.d.                                                                                                                                                                                                                                                                                                                        ",
"                                                                                                                                                                                                                                                                                                                                                                      [ 2.-.X.-.X.-.-.-.-.-.O.-.-.-.( J J J P H J L G Z G G C G F Z G C G H C G C G Z G F G F J G G G Z G G Z F J F G F J Z G G G F J G C J G J F G G C G G G C G E P P Y Y P T 2.C.D.G.D.G.D.D.N.h.x.x.x.x.N.g._ C G Z Z Z G G J J J J J J J ^ X.-.X.-.X.-.-.-.O.-.-.-.-.X.:.-.:.-.:.X.*.X.-.) [ ( / ( ( }                   p.x.x.l.x.l.h.                                                                                                                                                                                                                                                                                                                        ",
"                                                                                                                                                                                                                                                                                                                                                                      | <.X.-.X.-.X.X.-.X.-.-.-.-.-.( F Z H F H C F G Z G F G G J G C G C Z Z H G G C G Z G G C G F G F J C J G Z G Z G C G F J Z G C G G G C G Z G G G F G G Z C F F C K F C F :.D.K.D.D.C.C.D.N.x.z.h.g.x.l.d._ N G Z A Z Z G Z G G G G Z F P -.-.X.-.-.-.O.-.-.O.-.O.-.-.X.-.X.-.-.X.-.X.-.;.-.>.:.:.3.<.                  f.l.x.x.h.l.g.                                                                                                                                                                                                                                                                                                                        ",
"                                                                                                                                                                                                                                                                                                                                                                      ~ ,.-.X.-.X.-.X.-.-.-.O.-.-.-.( J C G H C H Z C G G Z G C G J G C Z J C G Z G F J F Z J G G J Z G Z F G F G H Z J G J Z F G H G G H Z G J F G G G G C G F J J F J F G K H ,.D.K.H.D.C.C.C.C.l.x.z.h.z.x.e._ Z Z Z Z A Z F Z C Z C Z G Z ^ -.X.:.-.O.-.-.-.-.O.-.-.X.:.-.X.:.-.X.-.X.*.X.:.-.:.-.:.:.<.                  d.x.x.l.x.l.f.                                                                                                                                                                                                                                                                                                                        ",
"                                                                                                                                                                                                                                                                                                                                                                      / :.-.-.X.-.-.-.X.-.-.-.X.:.X.^ J Z F Z G G F G Z G F G G F Z F G C G Z G F J Z G Z H G C G C G C G J Z J Z G F G C G F J Z G Z G Z Z Z Z C Z C G C G G Z G G C G G C G Z :.D.G.G.J.C.G.D.C.x.g.x.N.h.l.g._ C Z Z G Z G G F G G G G C G ! -.-.:.-.X.-.O.-.X.-.-.-.-.-.-.-.-.-.-.O.-.-.-.-.-.X.-.-.:.>.S                 f.l.x.x.x.N.d.                                                                                                                                                                                                                                                                                                                        ",
"                                                                                                                                                                                                                                                                                                                                                                      [ ;.X.-.-.-.X.-.-.:.O.-.-.:.-.^ G C G Z F J Z J F G G F G G G G G G F J Z J Z F J G Z F J G G Z G F G F G C G Z G J Z G Z F J F Z Z Z C Z Z G G G G G C G C G G G F G C Z :.G.C.G.C.G.F.G.N.x.h.x.g.x.N.d._ C G Z G F Z F Z G C G C G C ^ -.X.-.-.-.:.-.-.-.-.O.-.O.-.X.-.O.-.O.-.-.O.-.O.-.:.-.-.:.,.C                 p.N.x.h.z.v.d.                                                                                                                                                                                                                                                                                                                        ",
"                                                                                                                                                                                                                                                                                                                                                                      [ :.-.-.O.-.-.O.-.X.-.-.O.-.O.( G G F J Z G F Z G H Z G F G F G F Z G F J F G Z F Z H G Z F J F Z G J Z J G H G C G F J F Z Z J F Z G Z Z Z G G C G G G G G G G G G Z C Z :.D.G.J.C.D.F.H.N.x.x.h.x.h.l.d._ C G F G G Z G G J G G G G C ^ -.-.-.O.-.X.-.O.-.-.X.-.-.X.-.:.X.-.-.-.-.-.-.-.X.-.X.-.:.>.S                 f.l.x.x.x.l.f.                                                                                                                                                                                                                                                                                                                        ",
"                                                                                                                                                                                                                                                                                                                                                                      / >.-.-.O.-.-.X.-.-.-.-.-.:.X.( G F G G J F Z J Z F G G G G G G G F J Z G Z G H G G G Z J G C G G C G F G C G G J F Z G J G F Z G Z Z Z G Z F G G G G G G G G C G Z G G C :.C.G.C.L.F.G.G.N.g.x.g.x.x.l.r._ C Z G Z G F G C G C G H Z G P -.O.:.-.-.X.-.-.O.-.-.-.-.:.X.-.-.-.O.-.X.-.O.-.-.-.-.-.:.<.S                 d.N.h.x.x.N.d.                                                                                                                                                                                                                                                                                                                        ",
"                                                                                                                                                                                                                                                                                                                                                                       .:.X.-.-.X.-.-.-.-.-.-.-.:.-.( H G Z F J Z F G G J F G F G F G G J Z F G F J Z G H Z F G G G H Z J G J C G J C G G J C G Z C Z C Z C N Z B Z C Z C C C M C N C Z C C B C -.D.G.C.J.G.C.F.A.N.N.N.N.N.C.g._ C G C G G Z G J G G C G F Z ^ -.-.-.-.-.-.:.-.-.X.-.O.-.-.-.-.O.-.-.-.-.-.-.X.-.O.-.O.:.>.S                 f.l.x.x.l.l.h.                                                                                                                                                                                                                                                                                                                        ",
"                                                                                                                                                                                                                                                                                                                                                        -.} }  . .} *.X.-.-.O.-.-.:.X.-.-.X.-.-.X.-.( J C F J C G G C G C G G G G G F Z F G J Z Z F Z G Z G J C G C G G F Z G G Z G G C G C G J C N z z z z z z z c c z c z c c c c c c c M b j *.F.L.D.G.H.G.F.D.D.D.G.F.D.G.M._ C G G Z G F Z F J C G G G C Y *.-.-.O.-.X.-.O.-.-.-.O.-.O.-.O.-.-.X.-.O.-.O.-.-.-.-.-.:.<.S                 a.N.h.x.x.N.d.                                                                                                                                                                                                                                                                                                                        ",
"                                                                                                                                                                                                                                                                                                                                                        3.-.-.-.:.-.-.:.O.-.-.-.O.-.-.X.-.-. .-.-.-.^ J C Z C J Z F J Z J G C G F J Z G H Z F J F Z F J F Z F J G Z H Z J F Z F J F Z G F G Z G G M z z c z c z z z z z z z z z z z z z z z z z  .C.G.C.G.F.F.H.D.C.D.F.G.C.L.C._ B Z G F Z G J C G G Z F G F Y %.-.*.-.-.-.-.-.X.-.O.-.-.-.-.X.-.X.-.-.-.-.-.O.-.:.O.-.:.>.S                 d.l.x.x.z.v.d.                                                                                                                                                                                                                                                                                                                        ",
"                                                                                                                                                                                                                                                                                                                                                      S 3.-.-.-.-.-.O.-.-.X.-.-.-.X.-.O.-.-.O.-.O.-.^ J C Z Z F J Z G F Z F G J Z F G G Z J G Z G J G Z F J G C G G G F Z J F J Z G F J Z J F G C N z z z z x z z z z z z z z z z z z z z z M z -.C.G.F.L.D.F.L.F.C.D.C.G.J.J.M._ C G Z G G Z F G G H Z F G Z ^ *.-.-.X.-.O.-.-.-.-.-.-.O.-.-.-.-.-.:.X.-.O.-.-.-.X.-.-.:.<.S                 f.x.x.x.l.N.f.                                                                                                                                                                                                                                                                                                                        ",
"                                                                                                                                                                                                                                                                                                                                                      S ,.-.X.-.O.-.-.X.-.-.O.-.-.:.X.X.-.-.*.-.-.-.^ J Z F J Z F G H Z J G J C G J C J F G C F G C G F J Z F G Z F Z J F G Z F J G Z F G Z J G G M c z z z z z x z x z x z x z x z x z z z k z -.F.J.C.G.K.F.H.G.C.C.G.F.D.L.C._ C G F Z G G Z F J Z G G F G Y -.*.-.-.-.-.O.-.O.-.O.-.-.X.-.O.-.O.-.-.-.X.-.:.X.-.-.-.:.:.C                 d.l.x.h.x.l.d.                                                                                                                                                                                                                                                                                                                        ",
"                                                                                                                                                                                                                                                                                                                                                      S ,.-.-.X.-.-.-.-.-.O.-.-.X.-.-.X.-.-.-.1.-.1.^ J F G Z G G Z G F G C G G C G G Z G C G J G H Z G Z G J C J G H G Z G J G Z H G Z H F F G Z M z z z z z z c z z c z z z z z z z z z M z z -.C.G.F.G.C.G.K.C.C.D.D.G.H.J.M._ C Z G G Z F J F Z G Z C G C ^ -.-.-.-.:.X.-.-.-.X.-.-.-.O.-.-.-.-.X.-.:.-.O.-.-.-.O.-.:.<.S                 f.N.x.x.x.N.f.                                                                                                                                                                                                                                                                                                                        ",
"                                                                                                                                                                                                                                                                                                                                                      S <.X.-.-.:.X.-.O.-.-.-.O.-.-.O.X.-.:.:.-.O.O.^ K G G F J C G G Z J F Z G G Z F G F G Z F Z G G C G F Z G G Z G Z F G C G F Z J F G H H G G M z z c M z z M z z z M c z c z M z M z z M z -.G.L.L.L.L.F.L.J.C.D.F.F.D.L.C._ B G C G G C J F G G Z Z G F W %.-.-.-.-.-.-.O.-.:.-.X.-.-.-.O.-.-.O.-.X.-.-.X.:.-.-.-.:.>.S                 f.l.x.x.l.l.g.                                                                                                                                                                                                                                                                                                                        ",
"                                                                                                                                                                                                                                                                                                                                                      S ,.-.X.-.X.-.-.-.:.X.-.-.O.-.-.-.X.-.-.-.:.-.( G G G Z G J F Z F Z J G C G F J Z J G G Z H G G J C G J F J C G H G Z J F J G Z J Z Z Z G C N z z z M z z z M c M z z M z z M z z z M z z -.F.L.C.F.C.C.F.L.C.D.G.D.L.J.M._ C G Z G G Z Z G Z G Z F G F P -.-.%.X.-.O.-.-.X.-.-.O.-.O.-.-.O.-.-.-.-.O.-.-.X.-.O.-.:.<.S                 p.N.x.h.z.A.d.                                                                                                                                                                                                                                                                                                                        ",
"                                                                                                                                                                                                                                                                                                                                                      S <.-.-.-.-.:.X.-.X.-.:.-.-.-.} ( ( ( ( _ ( ' Y F G F F J C J G J G F J G J Z G F J C J G G C G F J Z G Z F J G Z G F J Z Z C M B M M M M M c z c x z M c z z z z c M z z z z c M z z z N P -.:.-.:.-.-.:.d.C.C.N.N.N.D.z._ C F J G F Z C G G F Z G G J P ! ( ^ _ ( _ ( %.-.-.-.-.-.-.O.-.-.-.O.-.-.-.O.-.-.-.-.-.:.:.C                 f.x.x.x.x.l.h.                                                                                                                                                                                                                                                                                                                        ",
"                                                                                                                                                                                                                                                                                                                                                      b <.X.-.X.-.-.-.:.-.:.X.-.O.:.} H G F G G J F Z F G G J Z G C G C G Z C G C G J C G G Z F Z G C J G F G J Z F Z F J Z G F Z M z z c z z z z z x z z z z z x z z z z z z z c z z z x c z k z z z M z M M M X.v.f.x.h.x.x.f.^ C K C Z Z F Z G F G F F Z F G F Z G J F G F ^ *.-.*.-.-.X.X.-.X.-.-.:.X.-.-.-.O.-.O.-.:.<.S                 p.l.x.x.x.l.g.                                                                                                                                                                                                                                                                                                                        ",
"                                                                                                                                                                                                                                                                                                                                                      n 3.-.-.-.O.-.O.-.X.-.-.:.-.-.} J Z Z Z G Z Z G F G C G F Z J G F J F G Z G C G G Z H G G G G G G Z G C G F Z G G C G C J G N z z x z M x z z z z z z z z z z z x z z x z z x z z z z z z z z z z k z k c X.x.x.h.h.l.x.d._ C Z G C G Z H Z F F J G H Z Z Z G C G F G G ^ *.-.*.%.X.-.X.-.-.O.-.-.X.-.O.-.-.-.-.-.:.>.S                 f.N.x.h.x.N.f.                                                                                                                                                                                                                                                                                                                        ",
"                                                                                                                                                                                                                                                                                                                                                      S <.:.X.-.-.-.X.-.-.O.-.X.-.:.) G F G F J G G G J C J G J G C G J Z G Z F J G G H Z G G F G F G F G J F J Z J F Z J G G G Z B z c z z z z z z z z z x z z z c z M z z z z M z z c M z z x z z z z z z z c -.x.x.x.h.x.l.w._ C C Z Z C G Z J G F G F Z G F Z G Z G F Z F _ -.-.-.*.-.-.-.X.-.-.X.-.-.O.-.X.-.O.-.O.-.3.S                 f.x.x.l.x.l.d.                                                                                                                                                                                                                                                                                                                        ",
"                                                                                                                                                                                                                                                                                                                                                      n 3.-.-.O.-.:.-.:.X.-.-.-.:.-.} J G F J Z G J C G G C G C G G C G F Z H G G H Z G F G Z G G G G G C G Z G F Z G H G C G C G N z z z z x z z z x z z z z x z z z z z c z z z c z x z z z z z z z z z z z N X.l.h.x.h.x.x.w._ C Z C G Z C G F J F J F G F Z F G F Z G F G ( -.*.-.-.-.*.-.-.O.-.:.-.:.-.-.:.-.-.-.-.:.>.S                 d.l.x.x.z.A.d.                                                                                                                                                                                                                                                                                                                        ",
"                                                                                                                                                                                                                                                                                                                                                      S ,.:.X.-.-.X.O.*.-.X.-.*.-.-.( J F G Z J J G J G Z J G G Z F G Z J G G Z F Z G C G Z F G G F G G G J C J Z H F C H F H G G M z z z z z z z z M z z z z z z z z z x z c x z z z z z z l z z z z z z z z c -.x.x.h.x.h.x.d._ C Z C G Z Z Z Z C Z Z Z J Z G G Z G Z G C J ^ *.-.-.*.1.*.*.-.-.X.-.X.-.X.-.X.-.O.-.-.:.,.C                 a.N.h.x.l.l.f.                                                                                                                                                                                                                                                                                                                        ",
"                                                                                                                                                                                                                                                                                                                                                      S 2.:.-.-.-.:.:.-.%.-.-.-.-.-.( J G G G G G G Z H G F J C G G Z G F Z F J G F J G G J G G F G G F Z Z G C G Z H J G H G H G N z c z M M z M z z M z M M c M z c z z z z z z z c z N z z x z z x z z z k M -.l.x.x.N.l.l.d._ C Z C Z F Z Z C Z Z J Z F J F Z H G Z G C J ^ -.-.-.>.*.*.-.-.-.-.-.-.:.-.-.O.-.-.-.O.;.1.C                 d.l.x.h.x.N.d.                                                                                                                                                                                                                                                                                                                        ",
"                                                                                                                                                                                                                                                                                                                                                      C 3.:.-.-.-.X.X.-.*.-.-.-.-.-.( J F G H G H G F Z G Z F G J C G H G G J C G Z Z F J C G G G G G G H Z J Z G J Z G C Z G Z B M c M z z z M z M z z M z z z z z z x z z c z z x z z z z z z z z z z z z z c  .h.f.g.f.g.h.p._ C Z Z C G Z C Z Z C Z Z G Z F G G C Z G G K ^ -.%.*.*.-.*.-.-.O.:.X.-.X.-.X.-.-.X.-.-.:.>.S                 f.x.x.x.x.l.f.                                                                                                                                                                                                                                                                                                                        ",
"                                                                                                                                                                                                                                                                                                                                                    M [ :.-.:.:.-.:.X.P P ! P P P P P J F G G J Z J G C J F Z G C G G Z G C G Z F G G J Z G F G F G K G Z F Z F J C M M M M M M N M c x z z z z z z z z z z z z M z z z z M x z z M z c z z z x z z z z z z z z G ! Q ^ Q W ^ P J Z C G Z G Z G Z G G F G F J Z H G J C Z F J J ! ^ P W ^ P ^ %.:.-.-.O.-.-.-.O.-.-.O.-.:.,.C                 f.l.N.f.x.N.d.                                                                                                                                                                                                                                                                                                                        ",
"                                                                                                                                                                                                                                                                                                                                        3.,.,.,.,.#.,.:.X.-.-.X.X.-. .J F G G Z Z G G J F J G C G G C G G J C G J F Z F J G C G Z H Z F G Z F G G G G F Z G Z Z C C c c c c c M M M z z z z z z c z z c z z c z z z z c x z z z z c x z z x z z z c z z z z z z k k g k g k M k Z C G C G C G C G F G G G C G F G Z F J C G H C Z F G Z G F J } -.O.-.-.-.O.-.-.-.-.-.-.:.>.S                 d.l.N.x.z.v.d.                                                                                                                                                                                                                                                                                                                        ",
"                                                                                                                                                                                                                                                                                                                                        ,.:.:.-.-.-.:.:.-.-.-.-.-.:.} J Z G Z G G Z G F J F J G J C J G C G J Z F G J Z F Z G H G G Z F J G Z G F G C G Z G H G G C j z z z z z M z M z M x c z x z z x z z z z z z z z z z z c z z z z z z c z z x z z c z z z z z M z M z M z C G Z Z Z G G G G G G F G G Z J G Z J Z G F J Z C Z Z G F F L } -.-.-.O.-.-.-.X.-.O.-.O.-.3.S                 f.N.h.l.x.l.f.                                                                                                                                                                                                                                                                                                                        ",
"                                                                                                                                                                                                                                                                                                                                        :.:.-.-.-.:.-.-.O.-.-.-.O.-. .J G G G G F G G H G J Z F Z G G J G Z F J Z G F G G F J Z G F Z G Z F G C G Z J G F G G Z C C M c c z c z z c z z z z z z z c M z z z N z c x z z c z z z x z z z z z z x z z z z z z z z z z z z k M k M Z Z Z Z G Z Z G G F G G F J F Z F G F Z F Z H Z C Z F J Z C J } -.-.:.-.X.-.O.-.:.-.-.-.:.>.S                 p.l.x.x.x.N.d.                                                                                                                                                                                                                                                                                                                        ",
"                                                                                                                                                                                                                                                                                                                                        :.X.:.-.#.-.-.O.:.O.-.-.-.-. .J G C G F G G G J C Z F J G H Z F J F Z G F J Z J C G Z F J Z H G F J G Z F G F Z G G F G Z B c z z z z c z z x c z z z M z z z z c z z z z z M z z M z z c z z z z x z z z z z x z z x z z z z z z z x k Z Z Z Z Z C G F G G G G G G F J F J Z H Z J C Z C H H F Z C J ) :.-.X.-.-.O.-.-.X.-.-.:.-.,.C                 f.N.h.x.x.l.f.                                                                                                                                                                                                                                                                                                                        ",
"                                                                                                                                                                                                                                                                                                                                        -.:.X.-.-.-.-.-.O.-.O.-.O.-.*.J F J Z G Z H Z F G Z G Z Z G J Z G J C G J Z F J G J F Z F G G J Z F J G Z G J F Z G Z F Z B c z c z x z z z z z c x z z N z c x z z c z M c z M c c z M z M M c M z z z z z z z z z z z z z l z z x k M Z G Z G Z G C G F G F Z G F Z J F H G G C Z G J Z Z Z G C Z G ) :.-.:.X.-.-.-.:.-.-.X.-.:.<.S                 d.l.h.x.f.x.h.                                                                                                                                                                                                                                                                                                                        ",
"                                                                                                                                                                                                                                                                                                                                        -.O.-.-.-.O.-.:.X.-.-.-.-.-.} J G C G F G G J Z F J C J C G C G C G G Z F J Z G C G J G Z J C G G Z G C G F Z G G F G G Z B c z z z z z z N z z z z c z z z z z c z z x z M z c M z M z z c z M z z c z c x z c N z z z z z z l z x l x Z G Z G Z G J J C G G Z Z F G F H J K J G G C G F Z F J Z C J } -.-.-.:.-.X.:.X.-.:.X.:.:.,.C                 d.x.h.l.h.v.d.                                                                                                                                                                                                                                                                                                                        ",
"                                                                                                                                                                                                                                                                                                                                        :.,.X.-.-.-.O.-.-.O.-.X.-.-. .J F Z G J Z C G C Z Z G Z J F G G F Z H G Z G F J G C G F G G G G G C G G Z G G Z G Z G G C B c h z c z z z z z c z z z z c z z z z x z z z z M z z z z M z M z z M z z z z z z z c z z z z z k k k l M l C C C C C C Z Z Z G G Z G G F J K L K Z F J Z G C G Z Z F C J ) :.-.X.-.-.-.-.X.-.-.-.-.:.<.S                 p.x.x.x.l.x.f.                                                                                                                                                                                                                                                                                                                        ",
"                                                                                                                                                                                                                                                          #.#...#.o.$.|                                                                 -.O.-.-.1.O.-.-.O.-.-.-.X.-.} J G Z F Z F J G Z H G C G C Z F J Z J Z F J G Z G F J Z G C G H Z G G G G G C G F G G C G Z B c z z z c l z z z z N z c x z z N z c z z z z z z z z z z z z z z z z z c z z d r d r r y y r y a s a i a i k s y a y a d h C G G C F G F G F J F G Z F J G G C G Z G C Z } -.-.-.O.-.O.-.-.O.-.O.-.:.,.C                 a.x.x.f.h.l.h.t.#.$.$.@.$.$.o.                                                                                                                                                                                                                                                                                                        ",
"                                                                                                                                                                                                                                                          v.A.A.v.A.S.f.                                                                :.,.X.-.-.*.O.-.-.O.-.O.-.-.*.J F J Z J G C J Z G C G J Z J Z G F G G G C J F J Z G F Z G G C G Z F Z G G Z G Z G G G C G M M z c z z z c z x z z z z z z z z z z z c M z c z c z z c M z c z z z z z z f a r r r r r r r w r r r a r r a r r r r 8 r g Z F G F G G H Z G C G F J G C G C Z J C Z C J ' -.-.-.-.-.X.:.X.-.-.-.-.:.<.S                 a.x.h.x.l.h.x.x.v.v.A.A.A.S.g.                                                                                                                                                                                                                                                                                                        ",
"                                                                                                                                                                                                                                                          h.v.f.x.v.v.u.                                                                -.O.-.-.-.-.-.-.O.-.-.-.-.-.} J Z C G F J G Z F J Z C Z F J F Z J Z H G G F Z G F Z J G C G G F G G C G F Z F J C G G F Z C z z z z c z z z c z z c z z c z c z c x z z x z z x z z x z z x z c z N z z k y r y r r r w r r r r r i r r r r r 8 r r r k C G H G G G F J C G G Z F Z G G G C G G C Z G } :.O.:.X.-.:.-.-.-.O.-.X.:.<.S                 p.l.x.x.f.l.h.x.x.h.x.l.N.A.w.                                                                                                                                                                                                                                                                                                        ",
"                                                                                                                                                                                                                                                          f.v.h.h.x.x.u.                                                                :.,.X.-.1.O.-.O.-.O.-.X.-.-. .J F G J Z C G J Z C J G Z G Z J F G G C G J Z H G J G C J G H Z J Z J G H Z G J C G G F J Z B c z c z l z z z z z z z x z z x z z z z z z z z z M z z z z z z z M z z z c k y r y r y r r r r r a r a r r r r r a r r r k C H C G F Z G C G F G C G J F Z F J C F J C J } -.-.-.-.O.-.X.-.O.-.-.-.:.,.C                 f.x.x.x.f.h.x.h.x.x.x.x.h.l.w.                                                                                                                                                                                                                                                                                                        ",
"                                                                                                                                                                                                                                                          h.x.x.f.h.v.u.                                                                -.O.:.-.-.-.-.-.O.-.-.-.-.-.} P Z Z F J G G C J Z G C G C G G J C J G C G G Z G C G G Z F G Z F J C G G F Z Z G G G G C G M M z z z z z z N z c x z z z c z z z z z M z c M z z z z c M z z z x z z z z k s r y r r r y r r y r a y r y r a r r r r r s C J H Z Z G F G Z F G J F Z J G Z F J C F C J ) :.-.O.-.-.-.-.X.-.-.X.-.:.<.S                 d.l.h.x.l.h.l.h.l.h.l.x.x.l.t.                                                                                                                                                                                                                                                                                                        ",
"                                                                                                                                                                                                                                                          f.v.h.f.x.v.u.                                                                :.,.X.-.-.O.-.-.O.-.X.-.X.-.*.J F J Z G H Z G C G Z H Z G C G Z G F Z J C G C G J C G F J Z G G F G C G Z H G C G G F G Z C h z z z z c z z z z z z z z z z z x z z x z z x z z x z z x z x z z z z z z k y r y r y r r r y r y r y r y r y y y y y r f C Z Z C C Z Z G Z G C G G Z F J C H Z H G C J } -.-.-.X.-.O.-.-.-.:.-.:.-.,.C                 d.N.x.x.h.l.x.x.x.h.z.f.x.N.t.                                                                                                                                                                                                                                                                                                        ",
"                                                                                                                                                                                                                                                          h.v.x.h.h.l.u.                                                                -.X.-.-.-.-.O.-.-.O.-.-.-.-.} J Z C G C G C J Z H Z G C J G H G C G J C G G J Z G F Z G Z F G Z G G J G F Z G Z Z G Z Z G C M c z c z z z z z z z c z x M z z z c z z z z z z z z z z z z c x z N x c x k y r y y r y r y r y r y y r y y r y r r y r k Z G G J Z G G Z F Z G G C G G Z G F J C F C J } -.O.-.-.-.X.-.-.O.-.X.-.:.<.S                 f.v.x.x.f.x.h.x.x.l.x.x.l.x.u.                                                                                                                                                                                                                                                                                                        ",
"                                                                                                                                                                                                                                                          f.N.f.x.h.Z.u.                                                                :.,.O.-.1.O.*.-.O.-.-.X.-.-. .J F J Z J G G F Z G Z F J Z C G J Z G G G C G F G H Z G G G G G F G Z F Z J F Z C Z Z Z Z G C z z z z z l z c x z z x z z z c x M z z z z z z z c z c z c z k k z k z z k s r y i y r y r y r y i y i y i r y i y i y y s N C M M M B Z Z G C G G J Z H G C J C J F C J } -.-.:.X.-.-.O.-.-.-.-.O.-.:.L                 h.x.x.x.x.x.x.h.z.h.x.f.x.v.w.                                                                                                                                                                                                                                                                                                        ",
"                                                                                                                                                                                                                                                          h.v.h.f.x.v.d.                                                                -.O.-.-.-.-.O.-.-.O.-.-.X.-. .J G Z F G H Z J G H G J C G G C G F Z H G G Z H Z G G C G C G Z G G Z F G G C b M M c M c b M j z c z z z z z z c z z c z z z z z z c z c z z x z z x z z z r r i r r a r r i y r i r y r i r y i r y r y i y r y r i r 8 y i r a r y p j C Z Z F Z F G G G C J F J C G } :.-.X.:.-.O.-.-.X.-.O.-.*.X.*.) ( ( [ ( / ( $.M.x.x.h.x.f.x.x.x.x.x.x.x.l.t.                                                                                                                                                                                                                                                                                                        ",
"                                                                                                                                                                                                                                                          l.l.h.x.x.l.u.                                                                ,.:.-.:.-.-.-.-.-.-.-.-.-.-. .J F J Z Z Z F Z F Z G Z G G C G Z F J G Z F G G G C G G G G Z F G Z F G J C Z M c c c z M c z z z z c l c z z z z c z z c x z c z z z x z z M z z c z z z z r w r r r r r r i r i r y r y r y r r y r y r r i r i r y r y r i r r r r r z C Z G J G G J C G F G J C F J ) -.-.:.-.-.-.X.:.-.-.-.X.-.X.-.-.-.-.-.-.:.:.y.x.x.x.x.x.x.h.x.h.l.h.l.h.l.u.                                                                                                                                                                                                                                                                                                        ",
"                                                                                                                                                                                                                                                          h.A.h.l.x.v.u.                                                                :.:.-.-.-.-.-.-.-.-.-.O.-.-. .J G C G F J Z J G C G F J C G G F J Z F G J C G H Z J C J C J G C G G G C G C M z M z z z z c z c z z z z z c x z z x z z z z z c x z z z c x z z z z N z k y r y y r y s r i a y r y r i r y r y r s r y r y r y r y r i r i r y r r r z Z C G C G C G Z F Z G C G C J } :.-.X.-.X.-.-.X.-.O.-.-.X.-.-.O.-.-.-.-.-.-.t.g.x.x.h.l.x.x.x.z.x.z.l.x.A.w.                                                                                                                                                                                                                                                                                                        ",
"                                                                                                                                                                                                                                                          x.v.x.h.x.l.u.                                                                >.-.-.-.-.-.-.-.#.:.-.-.X.:. .J G J Z Z C G C J G J Z F J Z F Z F G J Z F Z G Z G G G G G G C G J F G G Z C c z z z z c z z z z z z z z z z z z z c z M z c z z z M z z z z z x z z z z z y i y r y r y a y r y r s r y r i r y r y r y r i r y r y r y r y r i y r y f G Z Z G J F G Z G F Z J G C G ) :.-.-.-.:.X.-.-.O.-.-.X.-.-.O.-.X.-.X.-.O.-.7.x.x.h.x.h.x.z.x.h.l.x.h.l.v.w.                                                                                                                                                                                                                                                                                                        ",
"                                                                                                                                                                                                                                                          h.l.h.l.x.Z.p.                                                                :.,.X.-.-.-.-.-.:.-.-.-.:.-.} J F Z F G Z F Z G C G C G Z F G J Z G F J G C J F J C G C J Z J G G G G F Z Z z z z z z z z z x z z z z N z z c z z M z z z z z z z z z z z x z z z z c z k i y r y i r i r y r s r y r y r y r i r y r y r y r i r y r i r y a y r y r k G Z G G C G C J F Z F G C G J ) :.-.O.-.X.-.-.O.-.-.-.-.O.-.-.O.-.-.X.-.-.-.t.l.x.x.x.l.x.h.x.x.z.l.x.f.l.u.                                                                                                                                                                                                                                                                                                        ",
"                                                                                                                                                                                                                                                          x.A.x.x.v.l.d.                                                                -.-.X.:.:.1.O.-.-.:.-.-.-.-. .J G F J Z H Z G F Z G G C G Z F J J C J Z G G G Z G G J C G F G C G F G F G C c z c z x z c z c z z x z z c z z z x z z N z z x c z N z z z z z z z z z c k i r y i r i r y r i r y r y r y r y r y r y a y r y r y r i r y r y r y r r k G G Z G G G G G Z F J G Z C G } -.-.-.-.:.X.:.-.-.-.X.-.-.X.-.O.-.-.-.-.O.-.7.x.h.x.h.l.x.x.x.l.x.h.l.x.A.w.                                                                                                                                                                                                                                                                                                        ",
"                                                                                                                                                                                                                                                          v.A.x.x.A.A.f.                                                                :.:.-.X.-.-.-.1.-.-.:.-.:.:. .P C Z Z G Z H Z C C C C C F Z G C G G J G H Z F G H Z F G G Z H G G G G F J Z z z z z z z M z z x z z z z z z z c z z z z z z z z z z z c z x z l z x k x k i y i r y r s r s r y r y r y r y i y r y y y r y i r y i r y r y r y r i e g G G C G C G C J F Z G C G C J } -.-.O.-.X.-.-.X.-.-.O.-.X.-.-.O.-.O.-.-.O.-.7.x.x.x.l.h.x.z.x.h.z.l.x.f.v.w.                                                                                                                                                                                                                                                                                                        ",
"                                                                                                                                                                                                                                                          C F C C C G                                                                 G -.:.X.:.X.:.O.' ( } ( ( ) ( ( J G G H Z F Z P %.-.%.%.-.%.%.^ G J Z F Z G G J Z G G Z J F J Z F G F G G F Z c z x z M z x z z z z z z c z N z z z z z z c z z z c z z z z k s k s s k s s i r y y r y r y r y r y r y a y r y i y i r i y i y y r y r y r y r i y r r k G Z Z G G J Z G Z F J G F Z G } :.-.-.-.-.O.-.-.-.O.-.-.-.O.-.O.-.-.X.-.-.-.t.z.h.x.x.f.x.x.x.l.x.x.x.x.l.u.                                                                                                                                                                                                                                                                                                        ",
"                                                                                                                                                                                                                                                                                                                         .+.o...@.#.*.1.O.-.X.X.O.+.X.P Z H J G J G G C G Z G C G C _ d.x.h.h.f.z.h.X.J C Z G Z H Z F G H Z F J Z G G Z G G G F G C z z z c z z z z c z c z z z z z z z z N z z x z z x z z N z z s r i s a i s r y y i y r i r y r y r y a y r y r y r y i y r y r y i y i r y r i r y r y r k Z Z Z F J C G H G Z F J Z C J ) :.-.O.-.-.-.-.O.-.-.X.-.X.-.-.O.-.-.X.-.O.-.7.l.x.h.x.x.x.g.x.h.z.l.f.x.A.w.                                                                                                                                                                                                                                                                                                        ",
"                                                                                                                                                                                                                                                                                                                        -.2.:.:.>.-.-.-.-.-.-.-.X.-.X.P C K G G G C G G C J F G C G ' h.x.x.x.x.x.x.-.F Z Z F G G J Z G Z F G Z F G C G F G F G G Z c z z z x z c z z z z c z z N z c z z z c z z c z c z z z z z a r r y r y r y r y r i r y r y r y a y r y r y r y r y r r y r i r r r y r i r y r i r i r k G Z G Z F J G Z F G J Z F G G } -.-.-.X.-.O.-.-.X.-.-.X.-.*.O.*.-.X.-.-.-.-.7.x.h.x.f.x.f.x.h.x.l.x.x.f.l.u.                                                                                                                                                                                                                                                                                                        ",
"                                                                                                                                                                                                                                                                                                                         .;.-.-.-.-.-.-.-.-.-.-.O.-.O.T F H J F J J J Z G G J Z C C ' d.v.x.l.h.l.x.-.J Z Z Z H Z F G F J Z J G J C G G Z Z G C G Z M z z z z z z z x z z z x z z z z c z z z z z z z M z z z z c s r i r y r i r y i y r y r y r i r y r y r y r y r i r i r i r y r y i r y a y a y r i r i z Z G F G G Z F G Z F Z F G C J ) :.-.:.-.-.-.X.-.-.-.-.-.-.-.-.-.O.-.-.-.*.-.7.x.h.x.h.l.h.x.x.h.z.x.l.x.A.u.                                                                                                                                                                                                                                                                                                        ",
"                                                                                                                                                                                                                                                                                                                        *.:.-.-.-.O.-.-.X.-.-.-.-.O.-.Y F F J J Z F G H G C G F G C ' d.x.h.l.h.h.x.-.F Z F Z G F J Z J C G F Z G G G C G C G Z G Z c z c z z c x z z c z c z z c z x z z N z c z x z z x z c x z a r i r i r i r i r y i r y a y r y r y r y a y r y r y r y r y r y r y r y r i r s r y r y k G G Z H G F J G C G G Z F Z G } -.-.X.-.O.-.-.O.-.O.-.O.-.O.-.-.-.-.*.-.-.-.7.l.h.l.h.l.h.l.f.x.l.z.x.x.l.u.                                                                                                                                                                                                                                                                                                        ",
"                                                                                                                                                                                                                                                                                                                        X.:.-.O.-.-.*.-.-.-.-.X.:.-.O.Y L H G J G J Z G G F Z G C C ' f.x.x.d.h.l.x.X.J Z Z F J Z G F G G G Z H G C J Z C G Z Z G N c z z z M z z M z z z M z z z z z z z z z z z z c z z z z z z s r i r i r i r y i y r y r y r y r y r i r y r y a y r y r i r y r y a y r s r y r y r i r k G Z G Z J Z G H G C J F Z F J ) :.-.:.-.-.O.-.-.-.-.-.-.-.-.-.O.*.-.O.-.-.-.7.x.h.x.f.x.f.x.x.f.z.l.x.x.l.u.                                                                                                                                                                                                                                                                                                        ",
"                                                                                                                                                                                                                                                                                                                        X.:.-.-.O.-.:.-.X.-.-.-.O.-.O.P F H G F J G F C G G F Z C C _ g.x.f.x.x.f.x.-.H Z G Z F J Z G J C G G Z J F G G G Z G G Z Z M z z z z z z z c z z z z z N z c z c z c z c z z z c z M z z a r y r y r r y y r y i r y a y r y r y r y r y r y r y r y r y r y a y r y r y a y r i r w m Z Z G G F G Z G Z G Z G F Z G } -.-.-.O.-.-.-.-.O.-.O.-.-.O.*.-.O.-.-.O.-.-.2.x.f.v.h.l.h.x.h.x.x.z.l.x.N.u.                                                                                                                                                                                                                                                                                                        ",
"                                                                                                                                                                                                                                                                                                                         .:.-.-.-.O.X.-.O.O.O.-.-.:. .P H G Z G H Z Z L L J J G G K ' f.x.x.x.l.x.x.-.L Z C G Z F G C G J F J F G Z H Z F G F G G C z z c z z x M z z z z N z z z z z z z c z z c z c M z z z x z i r y i y y r r i r r y r y r y r y r i r y r y a y r y a y r y r y r y r y r y r y a y i a g N A Z C Z C G Z F G F J Z F J ) *.-.X.-.-.-.&.-.-.-.-.-.-.-.O.-.-.O.*.-.X.-.t.l.h.x.f.x.f.x.l.h.l.x.x.l.x.t.                                                                                                                                                                                                                                                                                                        ",
"                                                                                                                                                                                                                                                                                                                        -.:.-.O.-.-.-.O.-.X.-.-.X.:.*.P H J F G C F E O.:.:.:.O.-.O.7.h.x.l.h.x.h.x.O.G G C G F J Z G C G Z G Z H G G F G G G F G C N z z z z z z z x M z z z c z z x z z c c z c z c z z z M z z r y y r i r y r r y r y r y r y r i r y r y r y r y r y r y r y r i r y r y r y r y r y r r s z f z z z z M C C G Z F Z F J P ( _ ^ ^ ^ W ( } -.%.-.-.O.-.-.O.-.-.-.-.O.-.2.x.h.x.f.f.x.x.f.x.x.h.l.x.l.t.                                                                                                                                                                                                                                                                                                        ",
"                                                                                                                                                                                                                                                                                                                         .:.-.-.-.O.*.-.O.-.X.-.-.:.X.P C J C G Z C Q a.v.f.x.h.x.h.l.x.x.f.x.x.l.x.-.H Z G C G Z H G G F J C G Z F J Z G G F G G C z z z z z z M z c z z c z x z z z c z z z j z c z c z c z z z s r y r y y r r y r y a y r y r y r y r i r y r y r y r y r y a y r y r i r y r y r y r y r r y r 8 r r r p M G Z G G C G J G Z G Z Z F F J } -.-.-.-.-.O.-.O.-.X.-.X.-.-.2.x.f.x.f.x.f.x.h.l.z.x.h.l.N.u.                                                                                                                                                                                                                                                                                                        ",
"                                                                                                                                                                                                                                                                                                                        -.-.-.O.-.-.-.-.X.-.O.-.-.:.%.P C J F F G Z Q d.l.x.l.l.x.l.x.x.l.h.x.h.x.x.:.J G C G J G F J Z G Z F G G Z G F G G G F G C N z c z z x z z z N z z z z z z z z z c z z c z j z c z M x k r r y i y r y r y r y r y a y r y r s r y r y a y r y r y a y r y r y r y r i r y r i r y y y y y y r y r y c Z F Z F G C G J G J F G G G J  .-.-.X.O.-.-.X.-.O.-.-.-.-.-.9.z.h.x.f.h.l.x.h.x.f.x.x.l.x.t.                                                                                                                                                                                                                                                                                                        ",
"                                                                                                                                                                                                                                                                                                                        X.:.-.-.-.O.-.-.O.-.O.O.-.:. .P H Z H G C C W p.x.x.z.l.z.f.l.x.x.x.l.x.h.x.:.H G Z G C G Z F J F J G H F F Z Z G C F G Z C c z z z c z z M z z z z z z z z x z z c c z j z c z h z z M k s r y r i y r r y r y r y r y r s 8 y r y r y r y a y a y r y r y r s r y r y r s r y r i r r r y r y r y i z Z G Z G Z G J G F J G C J F J %.-.-.O.:.X.-.-.O.-.-.X.-.O.-.t.l.h.x.f.x.f.x.f.x.x.l.g.l.v.w.                                                                                                                                                                                                                                                                                                        ",
"                                                                                                                                                                                                                                                                                                                        *.-.:.X.-.-.:.X.-.O.-.O.-.-.*.P H Z F J F G W i.v.l.f.f.x.l.x.h.l.h.x.h.l.x.:.J G C G G F J C J C H C J F C Z Z C G C Z G Z c z z z z z N z z c x z c x z z c z z c z c z c h c z M M z z y r y y i r r r y r i r y r y r y a y r y r y r y r y r y r y r y r y r y r y r y r y r y r r i r r i r y r c Z G C J F C G J F G F F G F J %.-.-.O.X.-.-.O.-.O.-.-.-.-.-.9.x.h.x.f.x.f.x.h.l.x.h.l.x.x.u.                                                                                                                                                                                                                                                                                                        ",
"                                                                                                                                                                                                                                                                                                                        X.:.-.-.:.X.-.-.O.-.O.-.-.:. .P H J F H G C W d.v.x.h.x.f.h.f.x.f.x.f.x.l.N.:.G F G Z F J C G C G G G H F Z Z Z Z C G C G N j z z c z z z z z z z z z z z z z z z z z z z z z z z z z M l r y y r y y r r y r y r y r y r y r y r y r s r y r y r y r y r y r y r y r s r y r y a y r y r r y r y r i z Z Z G G Z G J G Z H Z G H Z J  .-.X.-.-.-.O.-.O.*.-.X.-.O.-.9.x.f.x.f.v.h.x.f.x.z.l.x.x.v.w.                                                                                                                                                                                                                                                                                                        ",
"                                                                                                                                                                                                                                                                                                                        -.-.-.X.-.:.X.-.-.X.-.O.-.:. .P Z H F G F Z W f.x.l.x.f.h.d.x.x.l.h.x.f.x.x.:.J G F Z G Z G J G Z H G H F F J Z G Z Z G Z Z c z z z x z z z x z z c z z z x z c x z z z z z l z z z M l k s r y i r y r y r i r y r s r y r y r y a y r y r y a y r y a y a y r y r y r y r y r y r y r y r y r r y r z G Z Z G F Z G F J G F Z G F J X.-.-.-.X.-.-.-.O.-.-.X.-.-.-.t.z.h.x.f.h.l.x.h.l.h.x.h.l.l.t.                                                                                                                                                                                                                                                                                                        ",
"                                                                                                                                                                                                                                                                                                                        -.:.-.-.O.-.-.-.O.O.-.O.-.-.*.P H Z H F J F W p.x.l.z.l.z.l.l.x.x.x.z.x.z.x.:.G F G Z F G C G H G Z F F J C Z C Z Z G Z G N M z z z z c M z z z z x z z c z M z z z z l z z z z z z x m k s r y r y y r r y r y r y r y r y r s r y r y r y r y r y r y r y r y r i r y r y r y r y r y r y r r y r i z G Z G H Z F G Z F J Z F J G J  .-.O.-.-.:.X.-.O.-.-.-.X.-.X.9.l.h.x.f.l.h.l.h.x.l.x.l.h.l.t.                                                                                                                                                                                                                                                                                                        ",
"                                                                                                                                                                                                                                                                                                                         .-.:.X.-.-.O.-.-. .-.O.-.:.X.P C C J Z G C W h.C.N.C.N.C.l.C.C.C.C.C.C.C.D.,.G C G C G J Z G Z F G J H F C M M M B M M B N z z z c z z z x z c z M z z z z z z z x z z k k r a a a a s r r r y i i r r r y r s r y r y r y r y r y r y r y r y r y r y r y r s r y r y a y r y r s r y r y a r y i r c Z G Z F J G G G Z G F Z G F J  .-.-.X.-.-.-.-.O.-.X.-.-.:.-.9.x.h.l.h.f.x.x.f.x.g.l.x.x.N.t.                                                                                                                                                                                                                                                                                                        ",
"                                                                                                                                                                                                                                                                                                                        X.:.-.-.-.-.X.-.O.-.O.-.-.:.-.P C Z F G F Z W N.J.J.C.J.J.L.C.G.D.C.J.G.J.D.<.G F G Z C G F G G Z F Z F J C M j b h M M k M z z z z z x M z z z z z z z x M z z z z l z k a a r r d r r r y r y r y y r y r y r y r y a y r y r y r y r y r y r y r y r y r y r y r y r y r y r y r y r y r y r r y r z G Z G H Z G Z F G H Z G F Z J  .-.X.-.-.X.:.X.-.-.-.-.X.-.-.t.l.h.x.l.k.f.x.h.l.x.h.l.x.v.w.                                                                                                                                                                                                                                                                                                        ",
"                                                                                                                                                                                                                                                                                                                        *.-.-.O.-.O.-.-.X.-.O.-.:.:. .P C H Z J F C W B.K.F.K.F.K.F.C.F.K.F.F.C.F.D.<.G F C Z G G J C G J G F J C Z c z z M z M M z z z x c z z z M z z N z z c z z z x z z z z z s a r d r r r 8 a y y y r y r r y r y r y r y r y r y a y r y r i r y r i r y r s r y r y r y r y r i r y r y r y a r y r y c C G Z F J F Z G C G G C G F J  .-.-.X.-.-.-.O.:.X.-.X.-.-.X.9.x.h.x.f.h.l.h.x.h.l.x.h.l.x.u.                                                                                                                                                                                                                                                                                                        ",
"                                                                                                                                                                                                                                                                                                                        X.:.-.-.-.-.X.-.-.O.-.O.-.-.-.P F G F G G C W M.L.F.D.L.C.G.K.D.G.C.G.G.D.D.2.F G F Z Z F Z J F Z G H Z J C N z z z z z z z c z z z z z z z c z z z z z z x z z z z z x k a r r r r r r r y r r y r y r y r i r y r y a y r y r y r y r y r y y y r y y y r y y y r y a y r y r y r r y y r y r r y r z G Z Z H Z G G C G J C G J F J  .-.X.-.-.X.-.-.X.-.O.-.-.O.-.9.x.z.l.x.x.l.z.f.x.g.l.f.x.v.w.                                                                                                                                                                                                                                                                                                        ",
"                                                                                                                                                                                                                                                                                                                        *.:.-.X.-.-.-.-.-.-.-.-.-.O.*.P F H G C G C _ N.L.G.C.G.C.G.D.G.G.D.G.L.G.D.2.Z F G Z G G J G Z H Z G H Z C c z c l z z c z z c z z N z c M z z z z x z z z c z c z z z z s 8 y r y r y y r y r y r i r y r y r i r y r y a y r y r y r i r y r y y y r y y y r y y r y r y r y r r r r y y y r y r y c Z G C G F Z G G C G G C G C J  .-.-.-.-.O.-.O.:.X.-.-.-.-.-.9.h.z.x.g.x.z.x.l.h.l.h.l.x.v.w.                                                                                                                                                                                                                                                                                                        ",
"                                                                                                                                                                                                                                                                                                                        -.:.-.O.-.O.-.O.-.O.-.O.-.-.X.P G Z F H G G W N.L.F.D.F.J.F.H.C.C.D.C.D.H.D.2.F H F K F J C G F Z F G H Z Z c z z z c z z l c z l z z z z x z z z z z z c z z z z c z z l s r r y 8 y r y r y r s r y r y r i r y r y a y r y r y a y a y r y i r i r i i r y i r i y r y r y r y r r r s r y r r y r z F Z G H G G C G G Z F G G F J  .-.O.-.-.-.-.-.X.:.-.X.-.X.-.t.l.z.l.h.l.l.z.x.h.l.g.l.x.v.w.                                                                                                                                                                                                                                                                                                        ",
"                                                                                                                                                                                                                                                                                                                         .-.-.-.-.-.-.:.X.-.-.-.O.:.-.P S Z C C Z C ! M.L.D.F.D.F.D.L.D.D.G.L.J.L.D.3.F G G H Z Z F J Z G G C J C Z c z l z z z z z c z z z z z z M z z N z c z z z M z z z z z z y r r y r y r y r y r y r y r y r y r y a y r y r y a y r y r y y r y r y i r y r y r y r r r r y r r r y r r r r r r y y r z G Z Z H Z G G C G H Z G Z F J  .-.-.X.-.X.:.X.:.X.-.-.-.-.-.9.h.l.z.h.z.x.l.x.l.z.f.l.h.v.w.                                                                                                                                                                                                                                                                                                        ",
"                                                                                                                                                                                                                                                                                                                        X.:.-.X.-.O.-.-.-.O.-.O.X.-.%.( J E W J E J ' N.D.K.D.C.G.K.C.M.z.z.M.M.x.f.O.F Z Z F J F J Z G H G G F J C N z z c z c l z z c z c z c z z x z z z z x M z x z c c z z l a r y r y r y r y r y r y r y r i r y r y r y r y r y r y r y r r w r w w 8 w w w w r 8 r 8 r w r w r w w 8 r r r r r r y r c Z G Z F J F Z G C G G C J F J  .-.X.-.-.-.-.-.O.-.-.X.-.O.-.9.z.x.x.h.l.z.x.x.h.l.h.l.x.v.w.                                                                                                                                                                                                                                                                                                        ",
"                                                                                                                                                                                                                                                                                                        L [ [ [ [ [ [ ) -.-.:.-.-.-.O.-.X.-.-.-.-.X.-.t.d.u.d.p.u.p.d.F.K.C.G.K.D.L.f.W J W W E W Y J G L F K G J Z F J Z F J C G Z c z z z z z z c z l z z x z M z z z c z c z z z z z z z c M k s 8 r y r y r s r y r y r y r s r y r i r y r y r y r y r y r 8 5 4 4 4 4 4 4 4 4 ; 4 4 6 4 4 4 4 4 4 4 4 4 9 0 0 0 d y r y z G Z J F J Z G F G Z F G G F J  .-.-.-.X.-.O.-.X.-.-.-.-.-.X.y.f.h.x.h.x.x.h.h.f.z.f.x.f.v.w.                                                                                                                                                                                                                                                                                                        ",
"                                                                                                                                                                                                                                                                                                        } >.;.,.;.-.<.-.-.:.-.O.-.O.-.-.-.-.-.O.*.*.:.u.Z.x.l.x.x.x.l.F.L.C.D.F.D.L.u.J B C C C C C F G F H G C G G J C G G C G F Z c z z c x c z z z c z z z z z M z z z z z z z z c z c z z z x a r y r y a y r y r i r s r y r y r y r y r y r s r y r s r y 5 5 ; 4 ; 4 ; 4 ; 4 4 ; 4 ; 4 ; ; ; ; ; ; ; 4 4 8 y y 8 r y r z G C Z F Z F G Z F J Z F Z F J  .-.O.-.-.-.-.X.-.O.-.X.-.X.-.9.z.x.x.h.x.x.x.x.f.x.f.l.x.v.w.                                                                                                                                                                                                                                                                                                        ",
"                                                                                                                                                                                                                                                                                                        ) :.-.-.X.-.-.X.-.:.-.-.-.-.-.O.-.-.-.-.*.-.-.u.x.h.x.l.f.x.x.D.D.F.D.C.G.L.u.J C G G G G G G F J G G G H Z F G Z G G F G C N z z z z z z z z z z z z c x z z N z z x z z x z z z c z z l s 8 r y r y r y r y r y r y r y r y r y r y a y r y r y r y r w 5 4 ; 4 1 4 ; 1 4 ; 1 4 4 ; 4 4 4 4 4 ; ; 4 6 w r y r y y r c Z G Z H G G Z F Z G F Z J F J  .-.-.-.X.-.-.:.O.-.-.X.-.-.-.t.l.h.x.x.x.x.h.x.j.z.f.x.h.l.t.                                                                                                                                                                                                                                                                                                        ",
"                                                                                                                                                                                                                                                                                                        ) :.-.X.-.-.X.-.X.:.X.X.O.X.-.-.-.O.*.-.O.*.1.u.x.h.l.x.f.h.x.C.G.C.G.C.G.L.u.G C G G G F Z J Z G C J C G G Z J F J C J G C c z c z z c x z c x c z x z M z z z z c z c z z z c z z M z z s r r y r y r y r y r y r y r y a y a y r y r y r y r y r y r 5 5 4 4 4 ; 4 4 ; 4 4 4 ; 4 4 ; 4 4 ; 4 4 ; 4 4 w y r r r y r z G Z G F J C G G F J Z F G G J  .-.X.-.-.O.-.X.-.O.-.-.:.X.-.9.x.x.x.x.x.x.N.x.f.x.d.l.x.A.w.                                                                                                                                                                                                                                                                                                        ",
"                                                                                                                                                                                                                                                                                                        ) :.-.-.X.-.-.O.-.O.-.-.-.X.-.-.O.-.-.O.*.-.-.u.x.x.x.g.l.l.x.C.J.D.F.D.C.L.u.J G F J Z J F Z F G Z G G Z F G F Z G G F G C N z z z x z z z z z z c z z z z z z z z z M z c x z z c z z l a 8 y r y r y a y a y r y r s r y r y r y r y r y r y r y a r 8 5 ; 1 4 ; 4 4 ; 4 4 ; 4 ; 4 4 ; ; 4 ; ; ; 4 4 w y r r y r y c G Z H Z F G G Z G Z F G Z F J  .-.-.-.-.-.-.-.O.-.X.-.-.-.-.t.f.x.l.x.x.x.h.x.x.z.f.x.f.v.w.                                                                                                                                                                                                                                                                                                        ",
"                                                                                                                                                                                                                                                                                                        ) :.:.-.-.O.-.X.-.-.O.-.O.-.O.-.-.-.O.-.*.-.1.u.x.h.l.x.f.h.x.C.G.C.D.F.G.L.u.J C G Z F J Z J F Z H Z F J Z F J G H Z F G C N z c z z z c z c z z z c z c x c z N z z x z z z z z c z z z s r r y r s r y r y r y r y r y r y r y r y r y r i r y a y 8 w 5 4 ; 4 ; 4 ; 1 4 ; 1 4 4 ; 4 4 ; 4 ; 4 ; 4 6 w r w r r t r z G Z Z F J Z G C G H Z G F G J  .-.X.-.X.-.O.-.O.-.-.-.X.-.X.9.x.x.x.x.l.h.z.h.f.l.h.l.x.v.w.                                                                                                                                                                                                                                                                                                        ",
"                                                                                                                                                                                                                                                                                                        ) :.-.X.-.-.X.-.O.-.-.X.-.X.-.-.O.-.-.-.O.*.-.u.x.h.x.f.x.d.x.C.D.G.G.C.D.L.u.J C G J C G F Z J G G F J G F J Z Z G F J F Z c z z c z z x z z z c x z z M z M z z z z z c z z z z c z z l a 8 y r y r y r y r y r s r y r y r y r i r y r y r y r y r r 8 5 4 ; 4 4 ; 4 4 ; 4 4 4 ; 4 ; 6 ; 4 4 1 ; 4 4 w t w r w w r z G Z J H Z G G F Z G F J Z F J  .-.-.-.-.X.-.-.O.-.-.X.-.-.-.t.f.x.x.x.x.f.f.z.x.z.f.l.x.v.w.                                                                                                                                                                                                                                                                                                        ",
"                                                                                                                                                                                                                                                                                                        ) :.:.-.X.-.-.X.-.O.:.X.:.X.:.X.-.X.-.O.*.-.1.u.x.h.z.x.f.x.x.C.J.C.D.F.G.L.u.J G F G G C G G F Z G Z F Z J Z F G F Z F G C N z z z x z z c z x z z z z x z z z z z c z z z M z z z M z z s r y a y r y r y r y r y r y r y r y a y r y r y w t w y 8 t 5 4 4 4 ; 4 1 4 ; 4 4 ; 4 6 ; 4 4 ; 4 ; 4 ; 4 0 k k k k f k k M Z G C G F Z G Z F J Z F J C J  .-.O.-.-.-.-.O.-.O.-.-.-.O.-.9.z.x.l.x.l.h.l.x.l.x.g.l.h.v.w.                                                                                                                                                                                                                                                                                                        ",
"                                                                                                                                                                                                                                                                                                        ) :.-.-.-.O.-.X.:.-.X.-.X.-.X.-.O.-.O.-.O.*.:.d.x.l.x.x.x.l.x.C.D.F.D.C.D.L.u.J G C G J Z J C J G C J G F Z G F J Z J F G Z c z z M z M z M z z M z M z M z z x z z x z c x z z z c z z z y r y r y r y a y r i r y r y r y r y r y r r 8 4 4 4 ; ; 4 ; 4 ; ; 4 ; 4 ; 4 4 ; 4 1 ; 4 4 ; 4 4 ; 4 4 4 3 y C F C C G C G Z G C G Z G F J F Z G F Z G F J  .-.X.-.X.-.O.-.-.-.-.X.-.-.-.7.l.h.x.x.f.f.x.x.x.z.h.x.x.v.w.                                                                                                                                                                                                                                                                                                        ",
"                                                                                                                                                                                                                                                                                                        ) :.-.O.-.-.X.-.X.:.-.O.-.X.-.X.-.X.-.X.*.O.:.u.z.x.z.x.l.x.x.C.G.C.G.C.F.L.u.J F Z F Z F J G G H G G H Z J F J Z F G F J C c z M z M z x z z z z z z z z z c z z c z z M z z c x z z c z s r y r y a y r y r y r y r y r y r y r y y r 8 1 4 4 4 ; 4 4 ; 4 4 4 ; 4 ; 4 ; 1 4 4 4 ; ; 4 ; 4 ; 4 4 ; ; r C J G G G G J C G Z G F J Z G Z F J Z F Z F J  .-.-.-.-.-.-.O.X.-.O.-.-.O.-.9.x.x.x.l.g.f.f.z.x.x.f.x.h.v.w.                                                                                                                                                                                                                                                                                                        ",
"                                                                                                                                                                                                                                                                                                        ) :.-.-.X.-.-.X.:.X.:.X.-.O.-.O.-.X.:.X.-.O.-.u.x.l.x.x.h.x.x.C.D.K.C.C.G.L.u.J C G G G J Z F Z G C G Z G F J Z G J C G C Z N z c x z z M z z x M z x M z x M z z z z z z z z z z z z z z y r y r y r y r y r y r y r s r y a y r s r 8 8 4 4 1 4 ; 4 ; 4 1 4 ; 6 4 4 1 4 4 ; 4 4 ; 4 4 ; 6 4 4 ; 4 3 y F J G C J C G Z G Z G Z F G H G Z G F G J F J  .-.X.-.X.-.-.-.O.-.-.-.-.X.-.7.l.h.x.l.f.f.x.x.x.z.h.l.x.v.w.                                                                                                                                                                                                                                                                                                        ",
"                                                                                                                                                                                                                                                                                                        ) :.:.-.-.X.-.X.-.:.X.-.X.-.X.-.X.:.X.-.-.O.-.d.x.z.x.x.l.x.x.C.D.C.G.C.C.L.u.G F Z F J C G J C J Z J F J Z G C G F J F G C M z z M z M z z M z M z M z M z z z c x z c z x z z z c z c z s r y r y r y r y a y r i r y r y r y r y r r 8 1 4 4 4 ; 4 4 ; 4 ; 4 ; 4 ; 4 ; 4 ; 4 ; 1 4 ; 4 ; 4 4 4 ; ; y C G J G G F G Z G Z F G J Z G C G H Z G Z F J  .-.-.-.-.O.-.O.-.O.-.X.-.-.-.2.z.x.x.x.h.f.l.x.z.x.h.x.h.v.w.                                                                                                                                                                                                                                                                                                        ",
"                                                                                                                                                                                                                                                                                                        ) :.-.X.-.-.O.-.X.-.:.X.-.O.-.O.-.X.-.O.*.O.-.d.l.z.x.x.x.x.x.C.G.C.G.C.G.L.u.J C G C G Z G F G G F Z J Z F G G G Z F J Z C N z z z c z x z z z z M z z z z z x z z z z z z z z z z z z z y w y a y r y r y r y r y r y r y r y r y y r 8 4 4 4 4 ; ; 4 1 4 ; 4 4 ; 4 ; 4 ; 4 1 4 4 4 ; 4 4 ; 4 4 ; 3 y F J J G C Z J C G Z Z G C G G F Z G F Z F G J  .-.X.-.-.-.-.-.O.-.-.-.-.O.-.t.l.x.x.z.f.f.g.l.x.x.z.l.x.A.u.                                                                                                                                                                                                                                                                                                        ",
"                                                                                                                                                                                                                                                                                                        ) :.-.-.O.-.-.X.-.O.-.X.-.X.-.X.-.X.-.X.-. .:.p.x.l.z.x.l.h.l.C.L.C.G.C.C.L.u.G F Z G F J Z G J Z G H G C G Z F J F J C G C N z z x z z z z c x z z N z M x z M z z c z c z c x z z c z z s r y r y r i r y r y r y r y r y r y r s r 8 8 1 4 4 ; 4 4 4 ; 4 4 ; ; 1 4 4 4 ; 4 4 ; ; 4 ; 4 4 1 4 ; 4 3 y C J G J G F G Z Z G Z G F G Z G F J Z F Z F J  .-.-.-.X.-.O.-.X.-.X.-.-.X.-.2.x.f.x.l.h.f.l.x.x.z.x.x.v.v.w.                                                                                                                                                                                                                                                                                                        ",
"                                                                                                                                                                                                                                                                                                        ) :.-.-.-.X.-.-.-.:.-.-.-.-.-.-.O.X.O.-.O.-.1.u.x.f.x.x.z.h.x.D.D.C.F.C.G.L.u.J C F J Z F G C G C G Z G G C G J Z G C J C Z c z z c z z c z z z M z z M z z z z z z z x M z z z z z M z z s 8 y r y r y r i r y r y r y r i r i r y r r 8 4 4 4 4 ; ; 4 4 ; ; 1 4 4 ; 4 ; 1 4 ; 4 4 ; 4 1 ; 4 4 4 - ; i G G H G H J F C G Z G H Z G F Z G Z F G J F J  .-.X.-.-.X.-.-.O.-.-.X.-.:.-.9.x.x.x.x.f.f.x.h.z.x.l.h.x.v.t.                                                                                                                                                                                                                                                                                                        ",
"                                                                                                                                                                                                                                                                                                        ) :.-.X.-.-.X.-.X.:.-.O.-.-.-.2.t.y.9.t.7.7.y.x.C.A.N.N.C.N.C.D.D.J.G.C.C.L.u.J C G Z G H Z J G F Z H G H G Z F Z J F J Z C N z z z z x z z c z z M z z M z z c z z c z z z z c z z z z z y r y r y a y r y r s r y r i r y r y r y y r 8 1 4 4 4 ; 4 1 4 ; 4 4 4 4 4 ; 4 4 ; 4 ; 4 ; 4 4 4 ; 4 4 ; 3 w a k k k k k k M Z G J C G F J C G H Z G Z F J  .-.-.X.-.-.-.O.-.O.-.-.-.X.-.9.h.x.x.z.f.f.z.l.x.x.x.x.h.x.d.E                                                                                                                                                                                                                                                                                                       ",
"                                                                                                                                                                                                                                                                                                        ) -.-.-.X.-.X.-.-.:.-.-.O.X.O.u.v.f.l.h.j.h.v.C.H.G.J.J.D.C.D.H.D.F.C.C.G.L.u.J C G F G Z G F J Z G F Z Z G H G G F J C G C c z c z z z M z x z M x c M x z z x z z M z z z x M z c z c z s r y r y r y r y r y r y r y r y r y r y r r 8 4 4 1 4 ; 4 ; 4 4 ; 4 ; ; 1 4 ; 4 ; 4 4 ; 1 4 4 ; 4 4 4 ; - 4 5 4 4 4 ; ; 4 k Z Z C J F Z G G C G G C G F J  .-.O.-.-.O.-.-.O.-.-.X.-.-.-.t.z.l.x.l.h.f.f.x.x.z.x.f.x.h.x.f.f.a.l.f.d.Z.O.                                                                                                                                                                                                                                                                                        ",
"                                                                                                                                                                                                                                                                                                        ) :.-.-.-.X.-.-.X.-.:.-.-.-.:.t.l.f.h.x.f.h.l.C.K.D.F.C.F.C.F.K.F.J.G.C.C.L.u.J C G J C G H Z G F J Z F G F Z J C J Z H Z Z c z z z z z c z z z c M z z M z z z z c z z x z z z z x z z z s 8 s r y r y r i r y r y r i r y r i r y r 8 8 1 4 4 4 ; 4 4 ; 1 4 4 ; 4 4 4 ; 1 4 ; 1 4 4 ; 4 ; 4 ; ; 4 4 1 - ; 4 4 4 - 4 k G G Z F J G Z F G Z F G J C J  .-.-.-.-.-.O.-.O.-.-.X.-.X.-.9.f.x.x.x.f.f.x.x.z.x.x.x.f.x.x.v.l.v.v.l.v.J.2.                                                                                                                                                                                                                                                                                        ",
"                                                                                                                                                                                                                                                                                                        ) :.-.X.-.-.X.-.-.:.-.X.-.X.-.t.v.f.z.z.h.f.v.C.K.F.C.C.C.F.C.J.G.C.C.G.C.L.u.J C G F J Z G G C J Z J G Z J G Z G G F J C Z c z z N z z z z c z z z M z z M z c x z z z z z z z z c z c z s 8 y r y r s r y r y r i r y r y r y r i r r 8 4 4 4 4 ; 4 ; 4 ; 4 ; 1 4 ; 4 4 4 4 4 4 ; 4 4 ; 4 4 ; - 4 4 4 ; 4 4 4 4 4 4 k G J Z H Z F G Z F J Z F G F J  .-.X.-.X.-.-.-.O.-.X.-.-.:.-.9.x.h.x.z.f.f.d.x.x.h.x.l.x.g.l.f.f.f.f.f.l.Z.#.                                                                                                                                                                                                                                                                                        ",
"                                                                                                                                                                                                                                                                                                        ) -.-.-.X.-.-.X.-.-.-.-.-.O.-.t.x.g.x.z.h.h.h.C.K.K.C.C.C.D.C.D.C.G.C.C.G.L.u.J C G Z G F J Z G F G C J F Z F J F J Z F J C N z z z z z c x z z x M z x M z x z z z z z z c z c z z z z z s r y r y r y r y r y r y r y r s r y r y y r 8 1 4 4 4 ; 4 4 1 4 ; 4 4 4 4 ; 4 ; ; 4 4 ; 4 ; 4 1 ; 4 4 - 4 4 4 4 4 1 4 - 4 k G C Z F J G Z F Z G F Z J F J  .-.-.-.-.X.-.O.-.X.-.-.X.-.X.t.l.x.l.x.f.h.l.x.x.f.x.h.l.x.h.l.l.l.l.f.k.v.O.                                                                                                                                                                                                                                                                                        ",
"                                                                                                                                                                                                                                                                                                        ( :.:.-.-.X.-.-.X.-.O.:.-.X.-.u.x.l.x.h.h.h.x.C.K.C.D.D.F.C.G.J.G.H.G.G.C.L.u.J C G F J Z F J C G Z G G Z G G C G Z H Z Z C c z z c z z z z z z z z z z z z z z z c z x z z x z z c M z k s 8 r y r y r y r s r y r y r y r y r y r r r 8 4 4 4 4 ; ; 4 ; 4 4 ; 4 ; ; 4 ; 4 4 ; ; 4 4 ; 4 4 4 ; 4 ; 4 ; 4 4 4 4 4 4 4 k G Z G H Z G F Z G F Z G C Z E } -.O.O.X.-.-.-.-.-.-.-.-.-.-.2.h.x.x.f.x.f.x.h.x.z.l.h.x.l.z.l.l.f.f.f.v.v.@.                                                                                                                                                                                                                                                                                        ",
"                                                                                                                                                                                                                                                                                                        ) :.-.X.-.-.X.-.-.-.-.X.:.-.O.t.x.x.h.x.x.f.x.V.F.G.C.J.F.J.C.L.H.L.L.H.G.L.u.J C G G G Z F Z G J F J C J F J Z J F G H Z C N z z z z x M z c z z z c z z z z z z x M z z z z z z c M z x a r y r i r y r y r y r y r i r y r y r y y r 8 4 4 1 4 4 ; 4 4 ; 1 4 4 ; 4 ; 4 ; 1 4 4 ; 1 4 ; ; 4 4 ; 4 ; ; ; ; ; 4 4 4 4 k C J Z F J Z G G C G G H F C J *.,.:.:.O.-.-.-.O.*.-.X.-.-.-.7.l.h.h.l.h.l.h.l.f.x.x.l.x.f.x.x.x.h.l.x.x.v.#.                                                                                                                                                                                                                                                                                        ",
"                                                                                                                                                                                                                                                                                                        ) :.-.-.X.-.-.-.O.-.X.-.-.O.-.u.h.x.x.h.h.h.h.C.H.G.K.F.J.F.C.C.F.C.C.C.C.F.t.J C G C J G Z J F Z G F J G Z F J Z G C J F Z c z c x M z z z M z c z M z N z c x z z z z z z z z c c c x k r 8 s r y r y r y r y r i r y r y r i r y r r 8 1 4 4 4 ; 4 1 ; 4 4 ; 4 ; 1 4 4 4 ; 4 4 4 4 ; 4 4 1 ; 4 4 < < - < - ; - ; 4 s G Z Z H G F G G G C G Z H F J } -.-.X.-.-.%.&.-.-.-.-.-.-.-.7.x.f.x.f.x.f.x.h.x.x.f.h.l.x.z.x.l.h.f.f.v.v.@.                                                                                                                                                                                                                                                                                        ",
"                                                                                                                                                                                                                                                                                                        ) :.:.X.-.X.-.-.-.-.-.-.-.-.O.y.x.x.z.x.l.h.l.C.F.D.K.G.J.K.M.,.-.-.-.-.-.&.) G G J F G C G G J F J Z G F J Z F G J F J Z C N z z z z M z M z z x z z z z z z M z c z c z k g a g k g k a r 8 y r y r i r s r y r y r y r s r y r i r r 8 4 4 4 4 ; 4 4 ; 4 4 ; 6 4 4 ; 4 ; 4 ; ; ; ; 4 ; 4 4 ; 4 ; 1 - * * + $ * $ * s Z Z F J C G Z F Z G F G G F J T ! W ^ ^ ^ Y _  .-.-.-.-.-.-.2.x.h.x.f.h.l.h.l.h.z.x.x.l.x.x.x.x.h.x.l.x.A.O.                                                                                                                                                                                                                                                                                        ",
"                                                                                                                                                                                                                                                                                                        ) :.-.-. .-.-.O.-.O.-.O.-.O.-.u.l.x.h.h.x.f.x.C.K.C.L.F.C.L.M.^ C C Z C C G C G F J G Z J F Z G Z G F Z G C J G C G Z H Z C c z z z M z z z x z z z z z z z z z z z z z z a a r e a a a r r r y r y r y r y r y r y r i r y r y r y r 8 8 4 4 4 ; ; ; 4 ; 4 ; 4 ; 4 ; 4 ; 4 ; 4 1 4 4 4 4 4 ; 4 4 ; 1 * + O O O O O O y G Z Z F Z G G G F J C G H Z H F Z C Z C Z F Y } -.*.-.O.-.-.7.l.h.x.f.x.f.x.h.x.l.x.h.l.g.x.x.l.h.l.h.v.v.@.                                                                                                                                                                                                                                                                                        ",
"                                                                                                                                                                                                                                                                                                        ) :.-.-.X.-.X.-.-.X.-.-.-.X.-.t.x.z.x.x.h.h.x.V.G.C.G.K.D.L.M.W C G C G Z F G G G Z H G G G F J F J Z H G G G G J C G H Z Z c z z z z z x M z z z c M x z z c z z z z x z s r r i r r r y r r y r y r y r y r y r i r y r y r y r y s 8 8 1 4 4 4 4 ; 4 1 4 ; 4 4 4 ; 4 4 6 4 ; 4 ; 4 4 ; 4 4 ; 4 4 ; = O O O + O O O s G Z F J F Z G Z F Z G C J F J H F Z F J G F P %.-.X.O.-.-.-.7.l.h.x.j.x.f.x.h.l.x.l.x.l.x.x.x.x.h.l.f.x.v.#.                                                                                                                                                                                                                                                                                        ",
"                                                                                                                                                                                                                                                                                                        ) :.:.X.-.-.-.-.-.:.-.O.-.-.O.t.x.x.l.x.l.z.l.N.K.D.F.G.H.L.M.W C F Z F G Z G C G F Z G H Z J Z G F G G Z H Z F Z G F G H Z c z z M x M M z z c z z z z z z x z M z c z z s r i r r y r r r y r y r y r y r y r y r y r y r y r y r r r 8 4 4 4 4 ; 4 ; 4 4 4 1 ; 4 ; 1 4 ; 4 4 4 ; 4 4 3 4 4 3 4 3 4 $ O O + O O O + y Z Z H C J F G G Z F G G H Z H Z F H C F J C P *.-.-.O.-.O.-.2.x.h.l.h.l.h.x.f.x.x.g.h.l.h.z.x.l.h.x.f.v.A...                                                                                                                                                                                                                                                                                        ",
"                                                                                                                                                                                                                                                                                                        ) :.-.-.X.-.O.-.O.-.X.-.X.-.-.y.x.h.x.d.x.x.z.C.G.C.L.F.J.L.M.W C G F Z F G H G Z H G C G G F G J Z F Z G F J G H Z J C Z C N z z z z z z z z z z z c z M z z z z z z z z s r a y r r r y r r y r y r y r y r i r y a y r y r y r y y r 8 1 4 4 ; ; 4 4 ; 1 ; 4 4 ; 4 4 ; 4 ; ; 4 ; 4 ; 4 3 ; 4 ; 4 4 = O O O O + O + y Z G C H G F G F J Z F Z H Z F J C G H G F G P %.-.X.O.-.-.-.2.x.h.x.f.x.f.x.h.x.z.l.x.l.x.x.x.x.f.x.f.x.A.#.                                                                                                                                                                                                                                                                                        ",
"                                                                                                                                                                                                                                                                                                        [ -.-.-.-.-.-.-.-.-.:.-.:.-.-.y.l.l.l.l.x.d.x.C.F.D.F.J.F.L.M.W C G C G Z F Z G G Z G J Z F J Z F J Z H G Z G Z G G F J G C c z c M z M z M z c z x M z x z z z z x z z z k r y a r y r r r 8 y r y r y r y r y a y r y r i r y r i r r 8 4 4 4 4 ; 4 1 4 4 ; 4 4 ; 4 ; 4 4 ; 4 6 4 4 5 ; 4 4 3 4 3 ; - O O + O O + O i L J C H H H J C G J C G F J H Z H C G C J F P X.-.-.-.-.-.-.7.l.h.v.f.h.l.x.h.l.x.x.h.l.h.x.x.x.h.l.h.v.v...                                                                                                                                                                                                                                                                                        ",
"                                                                                                                                                                                                                                                                                                        ( :.-.X.:.X.-.O.-.O.-.X.-.X.-.y.h.h.f.h.z.l.z.C.G.D.F.G.K.G.M.W C G G C G Z F J F J C G F J Z G Z F J G G H Z H G C J C Z C N z z z x M z x z z z z z c z z c M z c M z x a r i r r r r y r r y r y 8 y r y r y r y r y r y r s r y r 8 8 1 4 4 4 ; 4 4 ; 4 ; ; 4 ; 6 4 ; 1 4 4 ; ; 4 ; 5 ; 3 4 ; 4 ; = O + O O + o + y J J J H J Z J F Z G G C J C J F Z F H Z G F ! -.-.O.-.-.O.-.3.x.h.x.l.h.l.h.x.h.l.x.f.x.l.z.x.l.h.l.f.x.A.#.                                                                                                                                                                                                                                                                                        ",
"                                                                                                                                                                                                                                                                                                        ( :.-.-.-.:.X.-.-.-.-.:.-.-.-.t.x.l.z.x.l.x.l.G.G.C.G.J.G.L.M.W C G C G F G Z F Z G G C G Z H G H G Z F Z G G F J Z G H G C N z z M z M z M z c x M z z z z x z z z z z z s r i r y r r r y r y r y r y r y r i r y r y r r w 8 r w r 8 w 4 4 4 ; 4 ; 4 ; 4 4 4 6 4 ; 4 4 4 ; 4 ; 4 4 ; 4 4 ; 3 4 3 4 * O O + O O + + w M M C C M C B C G F Z G H G H J C F Z F J C Y  .-.-.-.-.-.-.7.l.h.x.f.l.h.l.h.x.x.x.x.l.x.x.x.x.h.x.f.v.v.@.                                                                                                                                                                                                                                                                                        ",
"                                                                                                                                                                                                                                                                                                        [ -.-.O.-.-.-.-.O.-.X.-.X.O.O.i.D.C.C.C.C.c.A.C.G.D.F.F.C.L.M.W C G F Z C G F J Z F G Z G G Z F Z G F Z J F J Z G H G C Z C c z z z z z z z z z z z c x z c z z c x z z z s r y r y r y r r y r y r y r y r y r y r y r w 8 5 8 5 8 5 5 4 4 4 4 4 ; 4 ; 4 ; 1 4 ; 4 4 4 ; ; 4 ; 4 ; 4 ; O O O O O + O + O + O . O O . - 3 1 ; ; - - 1 M J Z F Z G C G C G G H Z G F ! -.X.-.X.-.-.-.2.x.h.l.h.f.x.h.l.h.l.g.l.h.l.x.x.l.h.l.h.x.v.#.                                                                                                                                                                                                                                                                                        ",
"                                                                                                                                                                                                                                                                                                        ( :.:.-.X.-.O.-.-.-.O.-.-.-.O.f.L.D.H.J.D.D.D.C.G.F.J.G.H.L.M.W C C G G F Z G Z F J Z F J F J Z G H Z G G Z F G C G G H Z Z c z z z M z N z c M z z z z M z z z M z z z x s r i r r y r y r r y r y r y r y r y a y r y w 5 5 5 5 5 4 5 3 4 4 4 ; 4 4 6 4 4 4 ; 4 ; ; ; 1 4 ; 4 6 ; ; ; O + O O + O O + O + O + + O + O O O O o o o O z G Z G F J Z G G C G Z F G Z P  .-.-.-.*.-.*.7.l.h.x.l.h.l.x.h.x.l.h.x.f.x.z.h.x.f.x.f.v.v.@.                                                                                                                                                                                                                                                                                        ",
"                                                                                                                                                                                                                                                                                                        ( ,.:.-.X.-.-.-.O.-.-.-.O.-.X.f.F.K.C.C.C.H.D.C.D.F.C.G.C.L.M.E C G C G Z G F J G Z F J Z G G F J Z G G F G G G G G F G F Z c z N z M z z M z x z c x z z z c z z z z z z s r r i r r r r r y r y r y r y r y r y r y y 8 4 ; ; 4 4 ; 4 4 4 4 ; 4 6 4 4 ; 4 ; 4 ; 4 4 4 4 ; 4 ; 4 4 ; < O O O % O O + O + O + O O + O + + O + O O O + k J Z G H Z F Z F Z F G G G F P -.-.X.*.-.-.-.8.h.x.x.h.x.x.f.x.h.h.x.f.x.x.x.h.f.f.h.f.x.v.#.                                                                                                                                                                                                                                                                                        ",
"                                                                                                                                                                                                                                                                                                        [ >.-.-.-.O.-.:.-.X.-.-.-.X.-.d.G.F.G.C.D.D.K.F.K.G.C.G.C.L.M.W C G G F J G C G G J G Z F J Z J G F J G G F G F G F G F G C N z z M z z M z z z z z z z c M x z z z c z z s r i r r r r y r r y r y r y r y r y r i r y w 4 ; 1 4 3 ; 4 3 ; 4 ; 4 4 ; 4 4 4 ; 4 1 4 ; 4 4 1 4 4 4 ; 4 ; O + O O O O + O + O + O . O + O + O + + O O + z J Z Z F J G G G C G J C G C Q  .:.-. .1. .-.7.f.x.l.x.f.x.x.f.x.f.x.h.h.x.g.f.f.x.f.h.l.A...                                                                                                                                                                                                                                                                                        ",
"                                                                                                                                                                                                                                                                                                        ( :.:.-.X.-.-.X.-.-.O.-.X.-.X.f.C.G.F.J.C.F.F.G.F.L.C.G.C.L.M.W C C G Z G C G J C G C J G F J C G Z G F G G C G C G G C G Z M z z z M z z N z z z z z M z z z c M z x z z s r r y r y r r r r y r y r y r y r y a y r y 8 4 1 - 4 4 4 ; 4 ; 4 4 4 4 4 4 4 4 1 4 ; 4 ; 4 ; 4 ; ; 4 1 ; - + $ O O + O O + O + O + O + O + O + O + O O + k J Z F J Z G C G G C G G F Z P -.-.#.-.O.-.#.t.f.x.h.x.x.f.x.x.f.x.f.x.h.x.x.h.f.f.h.f.x.v.#.                                                                                                                                                                                                                                                                                        ",
"                                                                                                                                                                                                                                                                                                        [ >.-.-.O.-.-.O.-.X.-.X.-.X.-.f.G.F.D.C.G.F.G.D.F.D.K.D.F.L.N.J C G F G J G F Z G G G F J Z G F Z H G G F Z Z C Z C Z Z Z Z M h M z z M z z c z z c z z x z z z z z z z z s r s r r r r r y r y r y 8 y r y r y r y r i 8 4 4 4 4 ; 3 ; 4 3 4 ; 4 4 4 4 ; 4 4 ; 4 4 ; 6 4 4 ; 4 ; 4 4 ; O O + O $ O + O + O + O + O . O + O + O . O + z J Z Z F G G G C G Z F Z F Z E -.:.O.-.#.#.-.t.h.l.x.f.x.x.x.h.h.x.h.l.h.x.h.x.h.l.x.x.v.v.$.                                                                                                                                                                                                                                                                                        ",
"                                                                                                                                                                                                                                                                                                        [ :.:.-.-.X.-.-.X.-.X.-.X.*.-.f.C.L.F.K.C.G.F.L.L.L.L.L.L.L.N.W C C G Z F Z G G C J Z J Z F G J G G J G G F Z Z C Z Z Z Z Z M c z M z x M z z z z x z z z c z z z z z z x a r y r y r y r r r y 8 y r y r y r i r y r y w 4 1 ; 4 4 4 4 ; 4 ; 4 4 ; 4 4 4 ; 4 ; 4 ; 4 ; 4 ; 4 6 4 4 ; - % O O O + O + O + O + O . O + O + O + O O O + k J Z F J C G Z G F G Z F Z C Y *.>.-.:.:.:.-.y.f.h.x.x.x.f.x.l.h.v.h.h.v.x.z.l.A.v.A.n.v.J.$.                                                                                                                                                                                                                                                                                        ",
"                                                                                                                                                                                                                                                                                                        } <.-.X.-.-.O.:.,.1.,.:.,.:.:.f.D.F.F.K.D.K.C.M.g.g.g.g.d.g.w.J C G G H Z H G J G F G F G Z F Z C G C G F Z Z C Z Z Z Z Z Z M z M z z M z z z z M z z c z M z x z z c z z s r y r r r r r y r r y r y r y r y r y r y i 8 4 - 1 4 ; 4 ; 3 4 ; 4 4 4 ; 4 4 4 ; 4 6 ; 4 ; 4 ; 4 ; ; 4 ; ; O O O + O O + O + O . O + O + O + O . O + O + h J Z Z F J G G C Z F J G F G P } %.%. .%.%.) 2.v.x.l.h.l.x.h.x.f.x.l.h.l.x.h.$.o.| | |  .O.I                                                                                                                                                                                                                                                                                         ",
"                                                                                                                                                                                                                                                                                        S } } ( ( ( (  . .-.-.-.O.-.-.2.f.f.f.f.h.f.f.C.C.J.C.H.J.L.V.-.J J E E P E J J G F J Z G G C G C G J Z H G J G H Z G F J C M z z z z M z z z z z M z z M z z z z c z z z z z z z M x z z s r i r y y r y r y r y r y r y r y r y r s r 8 1 4 4 4 4 ; 4 ; 4 4 ; 4 ; 4 ; ; 4 ; 4 ; 4 ; 4 ; 4 4 ; 4 ; 1 ; O + O O O O + O + O + O + O + O + O + O + O + k J Z G H Z G G F G Z F Z G H G H J R J J F J -.f.h.x.h.x.x.l.x.x.f.x.x.h.l.r.                                                                                                                                                                                                                                                                                                        ",
"                                                                                                                                                                                                                                                                                        ^ 3.:.>.:.;.:.-.-.-.O.-.-.:.-.7.l.x.x.l.x.l.d.N.C.L.C.L.C.L.C.' C C C G C G Z G F J Z F G Z G Z G C G Z G Z F Z G F J F G Z M z z M z z M c z z c z M z M z z c x z z z z c z z z z z z x s r r i r y a y r y r y r y a y r y r s r y y w 4 4 1 4 ; 4 4 4 ; 4 ; 4 ; 4 1 4 ; 4 4 4 ; 4 1 4 ; 1 4 4 4 ; 4 O O O % O O + O + O + O + O + O . O + O O O + k J Z Z F G C G Z C G G G G G G F Z Z F G C G %.h.l.x.l.x.h.x.f.x.x.h.l.x.A.w.                                                                                                                                                                                                                                                                                                        ",
"                                                                                                                                                                                                                                                                                        T ,.:.-.-.-.-.-.*.-.-.O.-.-.-.t.f.l.x.l.x.f.h.C.D.C.D.H.J.L.M.%.C Z G C G C G G Z G G J C G F J F J G F G J G F J Z J F G C N z z z M z z M z z M z x M z x z M z z M c x M z x c z z z z s r i r y r y r y r y a y r y r y r y r y r y 8 4 ; - 4 4 ; 4 ; 4 4 4 ; 1 4 4 4 4 ; 1 4 4 ; 4 4 4 4 ; 4 ; 4 1 O + O O O O + O + O + O . O + O + O + O . O + g J Z G H Z G G F Z F J C J C G J F G G G G C -.h.x.x.h.l.x.x.x.h.l.x.x.h.v.w.                                                                                                                                                                                                                                                                                                        ",
"                                                                                                                                                                                                                                                                                        L >.-.-.O.-.X.-.*.1.*.-.-.O.-.2.f.h.f.h.l.x.f.N.J.H.C.L.C.L.C.%.C Z F G Z G F Z H G C G G G J C G Z F J C G C G Z F Z H Z Z M z z z z z z z c x z M z z M z c z z z z z z z z z z M z z z s r y r i r y r y r y r y r y a y r s r y r y w 4 1 4 4 4 ; 4 4 ; 1 4 4 ; 4 ; 4 ; 4 ; 4 ; 4 ; 4 ; 4 4 ; 6 ; - O O O O + O + O + O . O + O + O + O . O + O + k G Z G F G G Z G J Z J Z G G F Z G C Z F Z G %.f.x.l.x.x.f.x.l.h.x.f.x.x.l.r.                                                                                                                                                                                                                                                                                                        ",
"                                                                                                                                                                                                                                                                                        T 1.-.1.-.O.-.:.*.*.O.-.-.:.-.t.f.l.x.l.x.f.h.C.D.F.D.H.L.J.M.%.C Z Z F G C G G F J G C J C G G F G Z G G J G J Z G J F J C N z z c z c x z z z M z M z z z z x z c z z z z z M z z x z z s r r i r y r y r i r y r y r y r y r y r y i 8 4 4 1 ; 4 4 4 ; 4 4 ; 4 4 ; 4 ; 4 ; 4 ; 1 4 4 1 4 ; 4 4 ; 4 - O + O $ O O + O + O + O + O + O + O + O O O + g G G Z F G G Z Z C G J C G J C J G F J G G C -.h.x.h.h.x.x.h.x.l.h.x.l.x.A.w.                                                                                                                                                                                                                                                                                                        ",
"                                                                                                                                                                                                                                                                                        T >.-.-.O.-.-.-.*.-.-.O.-.-.-.2.f.x.d.h.l.h.f.N.L.D.F.D.C.L.C.' C Z F Z F G Z F J Z G G G G H Z G J F J C G C G F J Z F Z C N z z z x z z c z c x z z M x M z z z z x M c x z z z z z z z s r i r y r y r y r y r i r y r y r y r y r y w 4 1 - 4 4 ; ; 4 1 4 ; 4 ; 4 ; 1 4 4 1 4 4 ; 4 ; 4 4 ; ; 4 ; ; O O % O O O + O + O + O + O . O + O + O . O + k J Z H G G G J G J C Z G F Z G G C G Z F Z G %.f.x.l.x.l.x.f.x.h.l.x.h.x.l.r.                                                                                                                                                                                                                                                                                                        ",
"                                                                                                                                                                                                                                                                                        T :.-.1.*.X.:.-.*.O.-.O.X.O. .9.z.x.x.l.x.x.l.D.F.D.C.L.K.L.M.%.Z C G C Z G F J Z F J C G C G Z F J Z F G J Z F J Z F G G Z M j z c M z M z z M z M z z z z z z z M z z z z z z c z z x z s r i r y a y r i r y a y r y r s r y r y r i 8 4 4 ; 4 4 ; 4 ; 4 ; 4 ; 4 ; 4 4 ; 4 4 4 ; 4 4 , 1 , 1 , 1 , : + O O + O + O + O + O + O + O + O + O + O O + g G Z G F G C G C Z G F J Z H G J Z F G G G G -.f.x.x.h.h.l.x.x.l.x.x.f.x.Z.w.                                                                                                                                                                                                                                                                                                        ",
"                                                                                                                                                                                                                                                                                        T >.-.-.O.-.X.:.*.-.O.-.-.-.*.9.l.x.h.h.x.z.x.N.D.D.L.F.D.L.C.%.C G C G F Z Z G C G Z G F J Z G J Z G Z F Z G G Z F J Z F Z M z c z z M z z M z z z x M z M z z z z z c z z z M z x z z z s r r i r y r y r y r y r y r y r y r y r i y w 4 1 4 4 ; 4 1 4 ; 1 4 4 ; 6 4 4 ; 4 ; ; 4 ; 4 & * & * & * & * + O + O + O + O + O + O . O + O . O + O . O + k G Z C G C G G G C G Z G F G Z F G Z J G Z F %.h.x.f.x.l.h.x.h.h.h.x.x.x.l.w.                                                                                                                                                                                                                                                                                                        ",
"                                                                                                                                                                                                                                                                                        T :.1.-.-.O.-.-.*.-.O.-.O.O.%.3.z.z.x.x.z.l.x.N.D.C.D.L.F.L.N.%.C G F Z C G F G G J F Z G Z F G C G H G J G F J G C G G Z G M j z M z z M x z M x M z z M z z c x c z z M z z z z c M z z s r i r y r y r i r y a y r y r y r y r s r y 8 4 ; < 4 4 4 ; 4 4 4 ; 4 4 ; 4 ; 4 ; 4 4 ; 4 4 + O + O + O + O + O + O + O + O + O + O + O + O + O + O O O + z Z Z F J G Z G C G F G H Z J F J Z F J F G Z -.f.x.x.x.h.x.l.x.l.z.l.h.x.v.w.                                                                                                                                                                                                                                                                                                        ",
"                                                                                                                                                                                                                                                                                        T >.-.-.O.-.-.:.*.-.O.-.O.-.*.2.x.x.f.x.z.z.x.C.C.D.H.G.J.K.N.%.C Z F Z F G C G C Z G F Z G J G G G Z G C G Z C G G C G F Z M z c z M z z M z z M z M z z z z z z z M z z x z z z z z z z s r y a y r i r y r y r y r y r y r y r y r y w 4 1 4 4 ; 4 1 4 1 ; 4 4 ; 4 ; 4 ; 1 4 ; 4 1 ; O + O O + O O + O + O + O + O + O . O + O + O + O + O . O o + h J Z Z F J F G G C G Z G C G Z G J C G Z G G %.h.x.f.x.l.h.h.x.f.x.x.f.x.l.t.                                                                                                                                                                                                                                                                                                        ",
"                                                                                                                                                                                                                                                                                        T :.-.1.*.O.-.-.*.O.-.O.*.O.*.2.f.x.x.f.z.l.x.N.C.J.F.G.H.L.N.%.C G F Z F Z G G J F Z J F G C G C J F J G G F G G C G G Z G M h M z z M z z M z z M z z M z z c M z z z z z z z c x z z l a r y r y r y r y r y r y r i r y r i r y r y w 4 ; - 4 4 ; 4 ; 4 4 ; 1 4 4 ; 4 4 4 4 ; 4 4 4 + O + O + O + O + O + O + O + O + O + O . O . O + O + O + O + k J Z H G C G Z F G C G F G G H G G G G F Z F -.f.x.x.x.h.l.x.d.x.x.h.x.x.N.w.                                                                                                                                                                                                                                                                                                        ",
"                                                                                                                                                                                                                                                                                        T >.-.-.O.-.X.:.*.*.O.-.O.-.-.2.g.x.h.l.z.z.h.C.C.C.L.C.G.F.C.' C G Z F Z G F J Z G G G J Z G J F G Z G C Z G Z H G J C G Z M M z c z z x M z z M z z M x z M z z z z N z z c x z z z z z s r i a y r y r y r i r i r y r i r y r y a y 8 4 1 4 4 ; 1 4 1 4 1 4 4 ; 4 ; 4 ; 4 ; 4 ; 4 ; O + O + O . O + O + O . O + O + O + O + O + O + O . O + O O + k J Z Z F J Z G G Z G G Z F J Z G C G H Z G Z -.h.x.l.h.x.x.f.x.x.l.x.l.x.v.w.                                                                                                                                                                                                                                                                                                        ",
"                                                                                                                                                                                                                                                                                        T :.-.1.*.X.-.-.*.-.-.-.-.O.*.y.g.x.g.h.z.z.h.C.G.F.L.F.D.K.N.%.C G J G F J Z F G C J C F G F G J Z F G J F J G Z F Z G F G M j z M z M z M z M x z z z M z z z x z z z z z z M z z M z x a r s r y r y r i r y r y r y r y r y r y r y w 4 4 1 4 4 4 4 4 ; 4 ; 4 ; 4 4 1 4 ; 6 4 ; 4 ; + O + O + O + O + O + O + O + O + O . O + O + O + O + O . O + h J Z G C G G G C F Z F J Z G G F G C G F G C -.h.x.x.f.x.x.x.x.h.f.x.h.x.l.t.                                                                                                                                                                                                                                                                                                        ",
"                                                                                                                                                                                                                                                                                        T >.-.-.O.-.-.-.*.*.O.-.-.-.-.7.z.N.x.z.x.z.h.N.F.G.H.G.C.L.M.%.C G F Z Z J G J C G G G Z J Z F Z G C G C G Z F G J G H Z Z M z c z M z M z x z M z M x z z z z c z c z c z z z c z x z z s r y r y r s r y r y r y r i r y r i r y r y 8 4 1 ; 4 ; 4 1 4 ; 1 4 4 ; 4 ; 4 ; 4 4 4 ; 4 4 + O + O + O + O + O . O + O . O + O + O + O + O + O + O + O + k J Z J F J Z G G Z F J Z G G G F F F F F G G %.x.x.x.x.l.h.l.x.x.x.h.l.x.Z.w.                                                                                                                                                                                                                                                                                                        ",
"                                                                                                                                                                                                                                                                                        T :.1.-.-.O.-.:.-.*.-.*.O.-. .t.M.N.M.N.z.M.N.C.L.F.G.F.D.K.C.%.Z G H G F J C G G F Z F J F G Z F J G Z J F J Z J C G Z G G M h M z z z z z M z z z c M z M z z z x z z x M z z x z z z z s r s r y r y r y r y r s r y r y r y r y r i w 4 ; 4 4 4 ; 4 1 4 4 ; 4 1 4 ; 4 4 ; 4 ; 4 1 4 O + O + O . O + O + O + O + O + O . O + O . O . O + O + O O + k J Z Z F G F Z F Z F G G G F Z G F G Z G Z F -.h.x.f.h.x.x.f.x.l.x.x.h.x.l.w.                                                                                                                                                                                                                                                                                                        ",
"                                                                                                                                                                                                                                                                                        T >.-.-.O.-.X.-.*.-.-.-.*.-.O.y.F.D.C.C.C.A.N.C.G.F.C.G.F.G.C.' C G Z F Z G G G Z J F J Z G C J G Z F J G Z G F G G C G G Z M M j z M c M z M z M z M z z x z c M z z c z z z z M z z z x s r r y r y r y r y a y r y r y a y r y r i y 8 4 1 ; 4 ; 4 4 ; 4 1 4 4 4 ; 4 ; 1 4 ; 4 ; 4 ; + O + O . O + O . O + O . O + O + O + O . O + O + O + O . O O z J Z F J Z G G G C G Z F G C ^ -.,.-.:.:.:.:.t.h.x.x.l.h.l.h.h.x.f.x.l.x.A.w.                                                                                                                                                                                                                                                                                                        ",
"                                                                                                                                                                                                                                                                                        T :.-.1.*.O.-.:.*.-.-.O.-.-. .i.F.G.D.D.D.D.D.D.F.D.K.D.F.L.M.%.C J F Z G H Z H G C G Z F G G G C G G C G H Z G H Z G G C G M j z z z x M z z N z z x M z M z z z z z M z z N z z z z z z s r y a y r y r y r y r y r y r y r y r y r y w 4 4 1 4 4 ; 1 4 4 ; 4 ; 4 ; 4 4 4 ; 4 4 ; 4 4 + O + O + O + O + O + O + O + O . O + O + O + O + O . O O O + f J Z Z F J C G Z G C G G G C ' f.x.x.x.x.h.f.h.x.f.x.h.x.x.x.l.x.h.x.f.x.x.t.                                                                                                                                                                                                                                                                                                        ",
"                                                                                                                                                                                                                                                                                        T >.-.-.O.-.-.-.*.1.*.-.-.-.#.i.D.J.D.C.D.C.D.G.F.F.G.C.D.G.C.%.Z G G F Z G G Z G G G G G Z F J G C G J Z G G C G G J F G Z M c z M z M z z z z z M z z M z z z z x z z z z z z z z z z z s r s r y r y r s r y r y r y r y r y r y r i 8 4 1 ; 4 4 4 4 1 4 1 4 ; 4 4 ; 4 4 ; 4 1 4 ; ; + O + O + O + O + O + O + O . O + O + O + O + O + O + + O O + k J Z G H Z G G F Z G G C F C ' d.v.l.j.j.x.x.h.f.x.x.l.x.f.x.x.d.x.x.x.x.A.w.                                                                                                                                                                                                                                                                                                        ",
"                                                                                                                                                                                                                                                                                        T :.:.-.O.X.:.-.*.*.O.-.O.*. .i.F.G.C.G.C.D.D.C.G.C.F.C.C.G.C.' C F Z G C J G H G C J C G F J Z G J G F G H Z J G C G J Z G M h c z M z M z M z M z M z z z z z M z z z z z c z z c z x z f r r y r y r y r y r y r y r y r y r i r y i 8 4 4 - 4 ; ; 4 ; 4 ; 4 ; 1 4 ; 1 4 ; 4 ; 4 4 ; + O + O + O + O . O + O + O + O + O . O + O + O + O + O + O + g J Z Z F G G Z F G C G G C C _ f.x.f.j.l.f.j.x.x.x.x.l.h.d.x.x.x.f.x.f.x.x.r.                                                                                                                                                                                                                                                                                                        ",
"                                                                                                                                                                                                                                                                                        T :.:.O.-.X.X.:. .-.-.*.-.-.X.i.C.K.G.C.D.C.D.C.G.F.D.C.D.K.C.' C C G G G C G Z F G G F J Z G C G C J Z F Z G F J Z G C G C M M z z z z z z N z z z z M z M x z z z z x M z z x z z M z z s r i r y r y a y r y r s r y r i r y r y r y w 4 1 4 4 4 1 4 1 4 1 4 4 4 ; 4 4 ; 4 4 4 ; 4 4 + O + O + O . O + O + O . O + O + O + O + O + O . O + O O O + k J Z G H Z F G Z F Z H Z C F ( f.v.x.f.v.l.j.f.M.f.x.z.f.f.f.x.x.h.x.x.x.l.t.                                                                                                                                                                                                                                                                                                        ",
"                                                                                                                                                                                                                                                                                        T :.:.-.O.X.:.-.-.-.-.X.-.-. .i.F.G.C.F.C.F.D.F.D.F.H.K.H.J.C.' C J C J G G J F J Z J Z G H Z J G G F J G C J G C G G J Z G M j c M z M z M z z M z M x z z c z c x M z z z z z M z z z z s r a y r y r y r y r y r y r y r y r i r y r 0 4 ; 1 4 4 4 ; 4 ; 4 ; 4 ; 4 ; 4 4 6 ; ; 4 1 ; O + O . O + O + O + O + O + O + O . O + O + O + O + O . + O + d E G C G H Z G F Z G G F G C ( f.x.x.j.x.h.j.h.h.x.x.x.f.x.x.z.z.f.l.h.l.N.g.                                                                                                                                                                                                                                                                                                        ",
"                                                                                                                                                                                                                                                                                        / <.:.-.-.:.-.:.O.*.-.-.-.-.*.i.C.G.C.F.F.D.C.D.C.G.C.C.J.L.C.' C C G C J C G Z F G C G Z G G F C J Z F Z G F Z G H Z F G C M M z z z z z z M z z z z M z M z z z z z z z z c z z z z x z s r y r y r i r y r y a y r y r y r y r y r y w 4 4 - 4 ; 4 ; 1 4 4 ; 4 ; 6 4 ; 4 ; 4 4 ; 4 4 + O + O + O + O + O . O + O + O + O + O . O + O + O + O O O + k J Z J C G G Z G F Z H Z C K ( f.v.x.x.v.h.h.h.x.h.l.x.f.h.x.x.M.x.x.f.x.x.w.                                                                                                                                                                                                                                                                                                        ",
"                                                                                                                                                                                                                                                                                        H %.} } }  .| } O.-.-.X.-.-.X.i.C.L.F.C.K.F.D.C.F.D.F.H.C.L.C.%.C C J G C G G F J Z J F G C G J G F G Z J G G H G G F Z G G M z j M z M z N z z M z x M z z z N z c z c z x z z N z z z z s r s r y r y r y a y r y r y r i r y r i r i 8 4 1 4 4 4 ; 4 - 4 1 4 ; 4 ; 4 4 ; 4 ; 6 4 4 ; + O + O + O + O + O + O . O . O + O + O + O + O + O + O . O + g J Z G F J Z F G C G G F G C ( u.f.d.f.d.p.f.f.z.h.x.x.f.l.x.z.M.h.z.x.z.A.w.                                                                                                                                                                                                                                                                                                        ",
"                                                                                                                                                                                                                                                                                                         .:.-.-.-.-. .y.C.G.C.F.F.C.G.C.D.F.J.C.C.J.C.' C Z F Z G F J Z F G C G G J C G C G J F G C G Z G C G J Z Z M j z z M z z M z z x M z z M z z z z z z z z M z z z z z z z f r r y r i r y r y r y r y a y r y r y r y y w 4 ; 1 4 ; 4 1 4 4 ; 4 1 4 4 ; 1 4 ; 4 ; 4 ; 4 O + O + O + O + O + O + O + O + O . O + O + O . O . O + O O + k J Z Z H Z G G C G C G C H G J } ' %.) ' _ ' ,.l.x.x.x.h.f.x.N.C.C.A.C.C.D.g.                                                                                                                                                                                                                                                                                                        ",
"                                                                                                                                                                                                                                                                                                        ( :.-.-.X.-.} i.C.K.F.D.K.F.D.C.G.C.F.H.J.K.C.' C H Z J F J C G J G G C G C G J G C G Z F J G H G J Z F G G M z z c z z M z M z M z z M z z c z c z z N z z c z z c z z z s r i r y r y r y r y r y r y r y r y a y a y 8 4 4 ; 4 4 4 4 < 4 1 4 4 ; 4 4 4 ; 4 4 4 ; 4 ; + O + O + O + O + O + O + O + O + O + O + O + O + O + O . O + g J Z G C G F G G C G G H F G F C C C K C C C %.f.h.x.h.g.f.x.N.D.C.L.D.C.J.g.                                                                                                                                                                                                                                                                                                        ",
"                                                                                                                                                                                                                                                                                                         .-.-.-.-.-.*.u.C.L.C.F.F.F.D.C.G.F.D.C.C.L.C.%.C C G G H Z G G C G G Z J G F Z G G J C G Z F J Z F G Z F Z M h M z M z z x z M z z M z x M z z z x z z c z z z z z c x z s r s r y r i r y r i r y a y r y r y r y r y w 4 1 - 4 4 ; 4 ; 4 4 ; 4 ; 4 ; 4 4 1 ; ; 4 1 4 + O + O . O + O . O . O + O . O + O + O . O + O + O + O + O + f J Z G F J Z G C G F Z G J C J F H F J F G C } h.x.x.h.l.h.x.N.C.F.K.K.K.L.M.                                                                                                                                                                                                                                                                                                        ",
"                                                                                                                                                                                                                                                                                                        ( :.-.X.-.X.X.i.C.F.G.C.C.J.F.D.C.F.F.H.J.J.C.' C Z C G Z G F J Z F J F Z F J Z F J Z G J G Z F J Z F J Z G M M c z z N z M z z z M x z M z z x M z z z z z c x z z z z z f r r y r y r y r i r y r y r y r y r y r y i 8 4 4 1 4 4 1 4 1 4 ; 1 4 4 ; 4 1 4 ; 4 4 4 ; 4 O + O + O + O + O + O + O + O + O + O + O + O . O + O + O O + g E G H Z G F G G Z G J C J G G C G F J H G C %.h.l.x.x.h.f.x.N.D.C.D.C.F.L.g.                                                                                                                                                                                                                                                                                                        ",
"                                                                                                                                                                                                                                                                                                        } :.-.O.-.X.O.u.F.L.C.G.C.H.D.C.G.C.L.C.C.L.C.%.C C J G F Z J C G Z G J F G Z G J C G F Z F G Z F J G G C G M h c M z z M z M z N z z z z z M z z z z M z z M z z M z z z s r i r s r y r y r y r y r y r y r i r y r y w 4 1 ; 4 4 ; 4 ; 1 4 4 ; 4 ; 4 ; 4 4 ; 4 ; 4 ; + O + O + O + O + O . O + O . O + O . O + O + O + O . O . O + k J Z Z F J Z G C F Z F G H C J F H Z C G F C } x.x.h.x.h.l.x.N.C.C.G.F.C.L.z.                                                                                                                                                                                                                                                                                                        ",
"                                                                                                                                                                                                                                                                                                        } -.-.*.-.-. .i.F.K.L.C.G.C.D.F.D.G.H.K.J.L.C.' C C Z G Z J G G G F Z F Z G F G C G F J G Z F J Z F Z G G Z M M z z M z z z z z z z M z M z z z z z z c x z z z z x z z x a r s r y r y r i r y r i r y r i r y a y r i 8 4 4 ; 4 4 ; 1 4 4 ; 4 ; 4 ; 4 4 ; 4 ; 4 1 4 4 + O + O + O . O + O + O + O + O + O + O + O + O . O + O O O + g J Z G H Z G G G Z F J Z F G G H Z H F C F C -.l.x.x.x.h.f.x.N.D.C.G.J.C.L.g.                                                                                                                                                                                                                                                                                                        ",
"                                                                                                                                                                                                                                                                                                        ) -.1. .1. .#.u.F.F.L.C.C.G.D.L.L.L.L.L.L.L.C.' C C G F G F Z F Z J G G J C G J G G J Z F J C G G Z F Z F Z M j z c z M z M M z M z M z z M z z z c z z z z z z z z z z z s r y r y r y r y r y r y r y r y r y r y r y w 4 1 ; 4 ; 4 4 ; - 1 4 4 1 4 ; 4 1 4 4 4 ; 4 ; O + O . O + O + O . O + O . O + O + O . O + O + O + O + O O + k J Z Z F G C G C G Z G F J C G C C F Z F Z C } f.x.h.x.h.f.x.N.C.D.F.C.K.L.z.                                                                                                                                                                                                                                                                                                        ",
"                                                                                                                                                                                                                                                                                                        } :.>.-.1.:.:.u.C.K.L.C.C.C.C.N.M.N.V.M.C.C.z.' C Z F J Z F J G F Z F Z G J C G C G C G Z G G F J F G J G Z M z c M z z M x z M x M z x M z z z z z x M z z c z z c z z x a r s r y r y r y r s r y r i r y r y r y r i 8 4 ; 1 4 4 4 1 4 4 4 4 ; 4 ; 4 ; 4 ; 4 ; 4 ; 4 + O + O + O + O + O + O + O + O . O + O + O + O + O + O + O + g J Z J F J G G Z F G C J F J J J J J P E J J -.d.x.x.x.h.f.x.N.D.C.L.C.D.L.g.                                                                                                                                                                                                                                                                                                        ",
"                                                                                                                                                                                                                                                                                                        w.v.h.d.f.f.a.v.G.D.K.D.F.J.D.,.Y E Y P W W P Z Z G J C G G Z G H G Z H G Z G G J G C J F Z H Z G Z F Z F G M b z z M z z M z z M z M z z z N z z c z z z z x z M x z z z s r y r y r y r s 8 y r y r y r y r i r y r y w 4 1 4 4 ; 4 ; 1 4 1 4 4 ; 4 6 ; 4 4 6 ; 4 4 ; + O + O + O + O . O + O + O + O + O + O + O + O + O + O . O + k J Z G H Z G Z F G C G G Z C _ u.g.f.d.d.u.d.l.x.h.x.h.l.h.l.N.C.F.D.F.H.L.M.                                                                                                                                                                                                                                                                                                        ",
"                                                                                                                                                                                                                                                                                                        t.v.x.x.x.x.j.A.C.G.L.D.C.H.D.-.C B G F Z C F G Z F G G Z H G C G J G Z F G F G C G G G Z F G G H G J G Z Z M z z z z M z z M z z z z M z z z z z z z z c M z z z z z z z s r y r s r y r y r y a y r y r y r y r i r i 8 4 4 ; 4 4 ; 4 4 ; 4 ; 1 4 ; 4 ; 4 ; 4 4 ; 4 ; + O + O + O . O + O + O + O . O + O + O + O . O + O . O O O + g E Z Z F Z G G C G G Z F C C ' h.v.N.l.l.v.x.x.x.x.x.x.g.x.x.N.D.F.J.G.C.L.g.                                                                                                                                                                                                                                                                                                        ",
"                                                                                                                                                                                                                                                                                                        w.v.x.l.x.z.l.N.G.C.G.C.D.F.C.:.G G F G G J G C G G C G G C G G Z F G F J Z F Z G F Z F J G C G Z F Z F G G M j c M z M z N z M x M z x M z c z z x z M z z z z z c z x z s r i r y r y r y a y r y r y r i r y r y r y w 4 1 - 4 4 1 4 1 4 1 4 4 4 ; 4 4 ; 4 ; 4 ; 4 4 + O + O . O + O + O + O + O + O + O . O + O + O + O + + O O + k J Z H Z J F G G C G H G G C _ h.l.A.x.x.h.x.l.x.x.x.x.z.x.x.C.D.F.G.C.G.L.g.                                                                                                                                                                                                                                                                                                        ",
"                                                                                                                                                                                                                                                                                                        t.v.x.z.l.l.z.A.C.G.G.H.G.J.C.:.F G G G F Z F J G Z G H Z G J C J G J Z F G J G H Z J G C G J G J Z J Z F Z M z z z z z z z z M z z M z z M z x z M z z x z z c z x z z z s r a y r y r y r y r y r y r i r y r i r y i 8 4 ; 1 4 4 ; 4 4 ; 4 ; ; 4 4 4 ; 1 4 ; 1 4 ; 4 + O + O + O + O + O + O . O + O . O + O + O . O + O + O + O + d J Z G F G Z G C G Z G C G C ' d.x.x.x.h.f.l.x.z.x.x.N.x.z.x.C.D.F.D.F.F.L.z.                                                                                                                                                                                                                                                                                                        ",
"                                                                                                                                                                                                                                                                                                        t.N.l.x.x.l.z.A.F.G.D.C.F.G.C.:.G F G C J G G Z F G C G G C G G F Z F J Z G C G G Z F G J F Z F J F F J Z G M j M z M c M z M z z M z z M z z z z z z z c z z x M z z z z f r y r y r i r y a y r y r y r y r y r y r y w 4 1 - 4 4 - 1 4 1 - 4 4 ; 1 ; 4 4 4 4 4 ; 4 ; + O + O + O + O . O + O + O + O + O + O . O + O + O . O O O + k J Z Z H G F G G C G F G C C _ f.x.x.x.l.f.h.x.x.x.x.x.z.x.x.C.D.F.G.D.F.L.g.                                                                                                                                                                                                                                                                                                        ",
"                                                                                                                                                                                                                                                                                                        t.v.x.l.z.x.x.C.D.F.L.D.H.G.C.:.G G G G C G C G F Z G G C G H Z G Z G F J G C G F J G C G Z F J Z G Z G F Z M z c z M z z M z z M z x M z N z z c z c z z M z z z z c z z s r i a y r y r y r y r y r s r y a y r y r i 8 4 4 4 4 4 4 4 4 4 4 ; 1 4 4 4 ; ; 4 ; 4 1 4 4 + O + O . O + O + O + O . O + O + O + O + O + O . O + + O O + f J G Z F Z G Z F G Z G G G C _ g.x.v.z.f.h.l.z.M.x.x.N.z.l.x.C.F.F.C.C.F.L.g.                                                                                                                                                                                                                                                                                                        ",
"                                                                                                                                                                                                                                                                                                        t.N.l.x.x.z.l.N.D.G.C.D.F.D.C.:.C G F G Z G G J G F Z J G F G G F J Z G C G G J Z F J G F J G Z F G H Z G Z M b z z z M z x M z N z z M z z c z z x M z x z c z c M z z x a r i r y r y a y r y r i r y r y r y r i r y w 4 1 ; 4 ; 4 1 ; 4 1 4 4 ; 4 ; 4 4 1 4 ; 4 ; 4 + O + O + O + O + O . O + O + O + O + O + O + O + O + O . O + g J Z G H G G G Z F G H Z F C _ d.k.x.x.h.l.x.x.M.x.x.x.g.x.x.C.D.D.G.G.J.L.h.                                                                                                                                                                                                                                                                                                        ",
"                                                                                                                                                                                                                                                                                                        t.v.x.h.l.x.z.N.C.G.C.G.C.L.C.:.Z F G J F J C G Z J G F J Z J Z G F J C G J C G F J Z J Z G H Z J G G F Z G M c z c M z M z z z z M z z M z z z M z z z z z z M z z z z z s r i r y r y r y r y r y r y r y r y r y r y w 4 ; 1 4 4 ; 4 1 4 ; 4 ; 4 ; 4 1 4 ; 4 4 ; 4 ; + O + O + O + O . O + O + O + O + O + O + O + O + O + O O O + k J Z Z F Z F Z F Z C G G G C _ g.x.h.x.f.h.x.x.M.N.N.N.x.z.N.N.C.F.C.C.C.L.g.                                                                                                                                                                                                                                                                                                        ",
"                                                                                                                                                                                                                                                                                                        t.N.x.h.x.x.x.C.G.F.D.C.J.C.D.:.C G C Z G G G F J C G Z G F G H Z J G G C G G Z G Z F G H Z G G F J Z G G Z M h M z z z z M z M z z N z z z M z x z z c z M z x z z x z z s r y r s r y r y r s r y r y r y r y r y r i 8 4 1 4 4 ; 4 ; 4 4 1 4 ; 6 4 4 ; 4 4 4 ; 6 4 ; + O + O + O . O + O + O + O + O + O + O . O . O + O + . O O + f J Z G H G Z G G F G H Z F C _ f.x.x.x.h.l.h.N.C.H.C.C.D.C.C.N.x.N.N.x.N.A.w.                                                                                                                                                                                                                                                                                                        ",
"                                                                                                                                                                                                                                                                                                        t.v.h.h.h.x.z.C.J.F.F.D.K.J.C.:.Z F G G C J Z G Z G H G J Z J G F Z F J G Z F G H G J Z G F Z H Z G H Z F Z M M z z M z x M z x M z z z M z N z z z z x z c z z c z z z z s r s r y r y r y r y r y r y r i r y a y a y 8 4 4 - 4 4 ; < 4 ; 4 4 4 ; 4 4 ; 4 ; 4 ; 4 4 ; + O + O + O + O + O + O + O . O + O + O + O + O + O . O + O + g J Z G C G G G C Z G Z G G C _ d.x.k.z.h.f.l.N.D.H.C.D.C.D.F.N.x.g.x.h.f.A.t.                                                                                                                                                                                                                                                                                                        ",
"                                                                                                                                                                                                                                                                                                        t.A.x.h.x.x.x.C.D.L.C.F.D.K.D.-.F Z F J G G H G H G Z F J F Z J G J Z F J C G J Z G C G G Z G G J Z G J G F M j c z M z M z M z z M z M z z z z z z c M z z z z z c z z z f r y r y r y r y r y r y r s r y r y r y r y w 4 1 ; 4 4 4 4 1 4 1 ; 4 ; 4 ; 4 1 4 4 ; 4 ; 4 O + O + O . O + O + O + O + O + O + O + O + O + O + O + O O + k J Z J F J C G G F Z H G F C _ d.v.x.x.h.f.x.l.C.C.C.F.D.C.C.N.x.h.x.f.x.A.g.                                                                                                                                                                                                                                                                                                        ",
"                                                                                                                                                                                                                                                                                                        t.N.x.h.x.h.x.C.F.G.C.C.J.J.C.:.Z F Z G C G Z G Z F J Z G C G F Z F J Z G J G C G G G H Z F J C G F Z F Z Z M z z z M z z z z M z z z z z z z c z z z z x z c x M z z x z s r r s r y r y r y r i r y r y r y r y r y i 8 4 - 1 4 ; 1 4 ; 4 4 4 ; 4 4 1 4 ; 4 ; 4 ; 4 4 + O + O + O + O + O + O + O + O . O + O + O + O + O + O + O + g E Z C G Z G G C G G G Z G C _ d.x.x.h.h.f.z.N.D.H.J.C.G.C.H.N.x.h.x.f.l.v.u.                                                                                                                                                                                                                                                                                                        ",
"                                                                                                                                                                                                                                                                                                        w.v.x.h.x.l.z.C.J.F.F.C.F.H.J.:.C G F G J C G H G G C G G G C G J Z F J F Z F G J C G Z J G G G J G F G G G M h M z z M z M z x M z M z M z x z z z N z c z z z z z z z z s r i r y r y r i r y r y r y r y r i r y r y w 1 4 4 4 4 4 4 ; 4 ; 4 ; 1 4 ; 4 4 4 ; 6 ; 4 ; + O + O . O + O + O . O + O . O + O + . O . O O O . O O O O + k J Z G H G F Z G C G F G F C _ d.v.x.z.x.f.x.N.C.J.F.F.D.F.C.N.x.l.h.h.x.A.w.                                                                                                                                                                                                                                                                                                        ",
"                                                                                                                                                                                                                                                                                                        w.N.h.g.z.x.z.C.K.C.F.C.J.K.C.-.G C G Z G J G Z J F J G H Z J G F G Z G J C J Z G G F J F J C G C J Z J C Z M M c z c M z x z M z z M x M z z M z z z z z z z z z c M z z k r i r y r i r y r s r y a y r y a y r y r i 8 4 4 ; 4 4 ; 4 ; 1 4 4 4 4 4 ; 4 ; 1 4 ; 4 ; 4 + O + O + O + O + O + O . O + O + O + O + O O + O O + O O o + g J F J Z G Z F G H Z G F G C _ d.x.x.x.h.l.x.C.C.J.C.L.F.D.F.c.x.z.l.h.f.A.w.                                                                                                                                                                                                                                                                                                        ",
"                                                                                                                                                                                                                                                                                                        w.N.x.M.h.M.z.C.C.J.C.C.H.J.D.:.C G C J F Z F G C G Z G Z G F J Z G H G Z G G F Z F J Z F G J G G G C G G G M j z M z z z M z z z z z z M z z z z z z z c z M z z z z x z s r a y r y r y r y r y r y r y r y r y r y r w < 4 ; 4 ; 4 1 4 4 ; 4 1 ; 4 ; 4 4 ; 4 4 ; 4 4 + O + O + O + O + O + O + O + O + O O O O O O O O O O $ O O % k J J C G F G Z G Z H G G F C ( p.x.x.x.g.l.x.l.F.H.F.D.F.G.C.N.l.h.x.f.x.v.w.                                                                                                                                                                                                                                                                                                        ",
"                                                                                                                                                                                                                                                                                                        r.A.C.N.N.C.N.C.L.H.C.H.K.J.C.:.C G G Z G G H G J G F J F J Z F J Z G F J F Z J G J Z G J Z F Z H Z J G C Z M z c z M z M z M z M z M z z z z c z c z z z x z z z x z z z s r y r i r y r i r y r y r y r y r y r i r y w 4 ; 4 4 1 4 ; 4 ; 4 ; 4 ; 4 ; 4 4 ; 4 4 ; 1 4 + O + O + O + O + O . O + O . O + . O O O O O ; y w t w w w r c J Z F Z G Z F G F G G F C C _ d.v.x.x.h.l.z.N.J.J.C.G.C.G.C.N.z.l.h.h.l.N.u.                                                                                                                                                                                                                                                                                                        ",
"                                                                                                                                                                                                                                                                                                        z.J.D.C.G.D.D.D.K.C.K.C.J.K.C.-.G C F G C G Z G C Z G C G Z G G C G F Z G G F J C G F Z F G Z G G F Z F G G M h M z z M z z z M z x z M z M z x z z z N z z z z M z c z z s r s r y r s r y r y r y r y r i r y r y r y w 1 - 6 4 ; 4 4 ; 4 4 4 ; 4 ; 6 ; 4 1 4 ; 4 4 ; O + O . O + O . O + O + O + O + O + O . + O O y Z Z J G G C G Z Z H G Z G G C G J Z G G F C _ d.x.x.z.h.l.x.N.C.H.K.G.F.D.F.c.x.z.l.h.h.v.w.                                                                                                                                                                                                                                                                                                        ",
"                                                                                                                                                                                                                                                                                                        z.J.J.G.D.D.C.D.C.H.C.H.H.L.D.:.C G Z G G F J C G J F G J F J F J G J F J C G G G C G J G H G C G J F J Z Z M M c z c z M x M z z M z z M z z z z z z z z c z z z z z z x a r y r y r y r y r y r y a y r y r i r y r i 8 4 4 ; 4 4 ; 4 4 1 4 4 1 4 4 4 4 ; 4 ; 4 ; 4 4 + O + O + O . O + O + O . O + O + O + + O O O y J J G J G H K G C G C G G F Z G C J F G F C ( d.l.x.x.h.l.x.c.D.H.D.F.C.G.C.N.z.f.x.f.x.l.u.                                                                                                                                                                                                                                                                                                        ",
"                                                                                                                                                                                                                                                                                                        z.J.D.D.D.D.C.C.C.C.H.C.L.H.C.-.Z F G C J Z G G G C G Z F Z G Z G C Z G Z G J C J G F Z F Z J G C G Z G F G M j z z M z z M z z M z z M x z z z z x z z z z M x z c x z z f r s r y r y r y r y r y r y r y r y r s r y w 1 - 4 4 ; 4 1 4 ; ; ; 4 ; ; ; 4 ; 4 ; 1 4 ; 4 + O + O + O + O + O . O + O + O + O + O + O O s G G Z G F J F Z Z H G G C G G C G G G F G C _ d.v.x.z.h.l.x.N.C.K.C.G.F.C.F.l.x.x.f.h.x.A.w.                                                                                                                                                                                                                                                                                                        ",
"                                                                                                                                                                                                                                                                                                        r.L.D.G.D.C.D.D.C.F.C.H.H.L.C.:.C G C G G F Z F G G Z F J Z F G H G G F G C G G F J Z F J Z F Z J F G Z G Z M c c z M z z z M z z z M z M z z z z M z c z z z c z z z z z s r y r i r y r i r i r y r y r y a y r y r y 8 4 4 ; 1 4 4 4 ; 4 4 4 ; 4 4 4 ; 4 4 4 4 ; 4 4 + O + O + O + O + O + O + O + O . O + O O O O y G Z C Z F H J Z Z H Z G G Z F G J F G G G C _ d.x.x.x.l.h.x.N.D.H.J.F.D.G.C.N.l.h.x.f.h.A.w.                                                                                                                                                                                                                                                                                                        ",
"                                                                                                                                                                                                                                                                                                        z.J.D.F.H.C.C.K.C.J.C.D.C.H.D.-.G F G Z F G J G C G H G Z G G C G Z H Z G J F Z G C G J G G F J C G G H Z G M h M z z M z M x z M x z z z M x z z z z x z z z z z M z z x a r i a y r y a y r y r y r i r y r y r y r y w 1 4 4 4 ; 4 ; 4 ; 4 4 ; 4 ; 4 1 4 ; ; 4 ; ; ; + . + . . + O + O O O + O + O + O + O O O O O i F Z Z F Z C Z Z C G F G G G Z F Z J G F Z C _ d.l.x.l.h.l.h.l.D.H.F.G.F.C.F.N.l.z.l.h.l.A.w.                                                                                                                                                                                                                                                                                                        ",
"                                                                                                                                                                                                                                                                                                        z.L.H.F.L.C.D.H.K.H.D.F.J.H.C.:.C Z F J G Z F J G Z G J G H Z G J F G G C G J Z J G G C G H Z G G G C G G C M M z z z M z z M z z M z M z z z z M z c z M z x M z z z z z k r i r y r y r y r y r i r y r y r y r y r y w 4 - ; 4 4 4 ; 4 ; ; 4 ; 4 1 4 4 ; 4 1 4 4 1 4 + + + . + . O O O + O O + O . O + O + O O O O y G J F Z F G Z G Z F J C G F Z G G C G G C C _ d.x.x.l.f.l.h.l.D.H.D.F.D.G.C.C.l.x.x.h.x.v.w.                                                                                                                                                                                                                                                                                                        ",
"                                                                                                                                                                                                                                                                                                        z.J.D.K.H.H.C.L.H.G.C.D.C.K.C.-.G F Z G F J Z F G F G C G G J C G J Z G J C G F G C G J Z G F Z F G J G Z G M j c M z z M z z M z z z x M z M z N z z z z z z z z z z x z s r y r y r y r y a y r y r y r y r y r i r y w 1 4 4 1 4 ; 1 4 4 ; 1 4 ; 4 ; ; 4 ; 4 ; 4 ; 4 + O . O + O + O O O O + O + O + O . O O + O O a F J H Z H H Z C Z F J Z G G F Z H G G F G G ' d.l.x.z.h.h.h.N.C.J.H.F.G.F.C.l.g.x.f.h.l.A.u.                                                                                                                                                                                                                                                                                                        ",
"                                                                                                                                                                                                                                                                                          J C C F C C ' N.J.C.L.C.H.D.H.F.H.C.D.H.H.C.-.C G F Z J G C G J Z J G H Z G G C G H Z F G Z G J Z F G F Z J G H Z F J C G M z z z M z z x M z x M z M z z z z z z z z z c z z z x z z z s r i r i r y r y r y r y a y r y r i r y a y 8 - 4 ; 4 4 4 ; 4 ; 4 4 4 4 4 ; 4 4 4 4 4 ; 4 ; * * - * * * * * O O + O + O + O + O + O O O O y G H Z F H F J Z Z F Z G F Z G F Z G G G G C ' l.A.C.N.l.N.N.C.C.H.F.G.J.G.C.d.9.t.9.3.t.i.@.                                                                                                                                                                                                                                                                                                        ",
"                                                                                                                                                                                                                                                                                          S.v.l.l.v.v.v.D.D.C.K.F.H.C.L.H.D.C.D.C.L.C.-.G Z G F Z G J Z F J C G Z F J Z J G Z F J Z H G C G J Z J F Z G G J Z G G Z M h c z M z M z M z M z M z x M z x c z z c z x z c z z z z z f r i r y r s r y r i r y r y r s r y r y r y w 1 4 4 4 ; 4 4 ; 4 ; 4 ; ; 4 ; 4 ; 1 ; 4 4 ; 4 ; ; ; ; ; ; - * + O O O + O + O + O + O O O O r G J C J C J C Z G H G F Z G C G J C G F G C ] l.J.D.D.D.D.D.J.F.H.J.F.F.G.H.u.X.-.X.-.X.,.o.                                                                                                                                                                                                                                                                                                        ",
"                                                                                                                                                                                                                                                                                          A.l.v.h.x.f.v.C.D.F.D.D.G.C.G.C.F.G.C.L.C.C.-.F Z F Z H G F J Z G J F J Z F G F J G G G F Z G G G C G G G H G C G H Z F Z M M c z M z z M z z z z x M z z c z z z z x z z M z z M z z x a r i r i r y r y r y r y r s r y r y r y a y w 4 - 1 4 4 1 ; 4 1 4 ; 4 6 4 ; 6 4 4 ; ; 4 4 ; 4 4 4 4 ; 4 4 = O + + O O + O + O . O O O O + r H Z G G F G F G Z G J Z H G G Z F J G C F C ' C.L.C.H.F.J.F.F.G.H.F.D.F.G.C.i.X.X.-.-.-.2.|                                                                                                                                                                                                                                                                                                         ",
"                                                                                                                                                                                                                                                                                        $.A.x.x.h.x.x.A.C.D.K.D.K.C.L.C.L.C.J.F.D.F.C.-.G C G G G Z G F J C G Z G F J Z G C G H Z G J C J Z F J C G Z J G G G G Z G M j z z z z M x M z M z z z M z z z z z z z M z z z x z c z z s r i r y r y r s r y r i r y r y r y a y r y 8 1 4 4 ; 4 ; 4 4 4 4 4 ; 4 4 ; 4 ; 4 4 4 1 ; 4 ; ; 4 ; 4 ; 4 - O O + O O + O + O + O + O O O r J Z H G J F Z F G C G G G J C G J C G G C Z ' C.L.D.F.C.C.J.G.F.J.F.G.C.L.C.u.X.-.X.:.-.,.|                                                                                                                                                                                                                                                                                                         ",
"                                                                                                                                                                                                                                                                                        ..A.x.h.f.x.f.N.D.C.G.C.G.C.G.C.D.F.D.F.D.G.C.-.C G F Z F J Z J G G G H Z J Z F J G Z G C G F J G F G G J Z F J C G H Z F Z M c z M z M z z z z M z M z z M z c z c M z z z z z z z z z x a r s r y r i r y r y r y r y r y r y r y r y w - 4 ; 4 4 4 ; 4 ; ; 4 4 ; 4 ; 4 ; 4 1 4 ; 4 ; 4 4 4 ; 4 4 ; = + O + O O + O . O + O O O O O y H Z G C G F Z J G C J C G G F J Z G G H Z C ' C.L.C.L.C.J.F.L.F.H.C.L.F.G.C.i.X.X.-.-.:.,.}                                                                                                                                                                                                                                                                                                         ",
"                                                                                                                                                                                                                                                                                        #.A.x.x.h.x.x.v.C.K.D.F.D.F.D.F.L.C.G.H.F.D.C.:.Z F Z J G F G C G C G Z G F G G C G F J Z J Z F J Z J C G G J F J Z G G Z G M b z z M z z M z M x z M x M z z z z z x z c x z z z z z z z s r y r y r y r y r y r y r y a y r y r y r s 8 1 4 4 4 ; 4 ; 4 1 4 ; ; 1 4 ; 4 4 4 ; 4 4 4 ; 4 1 ; 4 ; 1 4 = + O + O O + O + O + O + O O O 8 J F G J G F G C J G G G H Z J C G F Z G C C ' C.L.C.K.C.D.H.G.F.J.F.G.C.G.H.u.-.X.-.-.-.,.[                                                                                                                                                                                                                                                                                                         ",
"                                                                                                                                                                                                                                                                                        @.A.v.x.f.x.f.N.D.C.G.C.G.C.L.C.D.F.C.G.C.L.C.-.C G F Z F J Z G G J Z H G J C J G Z J C G F G Z G C G G H Z F J Z F J C G Z M z c z z M z z M z z z M z z z z N z c z z z M z c M z z x z s r s r y a y r y r s r y r y r y r y r i r y w 3 4 4 4 4 4 ; 4 ; 4 ; 4 4 4 4 1 ; 4 ; 4 ; 4 1 4 ; 4 4 4 4 4 - O O + O O + O . O + O O O O O r J Z G C J F G G C G C G Z F G G Z G H Z F C ' C.L.D.C.K.D.F.G.F.J.H.G.F.G.C.u.X.-.O.-.-.2.}                                                                                                                                                                                                                                                                                                         ",
"                                                                                                                                                                                                                                                                                        #.A.x.x.h.x.x.v.C.C.G.H.C.D.F.D.F.J.F.D.F.D.C.-.C G G C J G F J C G F G Z G G C G F G G C J Z F G G F Z G G J Z G G G G F Z M b z M z z M z x z M z z M x M z z z z z M z z x z z z z z z s r y r y r y r y r y r y r y r y r i r y r y w 5 5 5 5 4 4 6 4 ; 4 ; 4 4 4 4 4 4 ; 4 ; 4 4 ; 4 4 4 1 ; 4 4 = + O + O O + O + O + O O . O O y C J G G F G C G G J G C G J Z H G F J C G C ' C.K.G.H.C.D.H.G.F.H.F.L.C.L.C.i.X.X.-.-.:.,.|                                                                                                                                                                                                                                                                                                         ",
"                                                                                                                                                                                                                                                                                        #.A.x.x.f.x.f.N.D.H.D.F.G.H.G.H.G.C.G.C.J.F.C.-.G C G G C G Z G G Z J C J F Z J G J C J G G F G Z H G G H Z F G F Z F J Z G M c z c z M z z M z M z N z z z c z c x z z c z z c z c z z z s r a y r y r y r y a y r s r y r y r y r y r r r w w w w w 8 7 4 ; 1 4 ; 1 4 4 4 ; 4 6 ; 4 ; ; 4 ; 4 ; 4 ; ; ; ; ; - ; - ; - ; - - * ; = * f F G H Z J F G J C G C J G C G G C J Z G C C ' C.J.G.C.K.C.G.F.G.J.C.F.G.G.H.u.-.X.-.-.-.<.|                                                                                                                                                                                                                                                                                                         ",
"                                                                                                                                                                                                                                                                                        @.A.v.x.h.x.l.A.C.F.D.K.D.F.D.F.D.F.C.G.C.G.C.-.C G C G G Z F Z F G Z F Z G G C G Z G G C G J C G G Z F Z G Z J G C J Z F Z M h M z M z x M z z c z z M z M z z z z z z x z z z z x z z x d r y r y r y r i r y r y r y r i r y r i r y i y r i r r r y 8 4 4 4 4 4 4 4 4 ; 6 ; 4 ; 4 1 4 ; 4 ; 4 ; 6 4 4 ; ; ; ; ; ; ; ; ; ; 4 ; 4 ; f H Z G G F G C G Z J G F G G H Z G G F G F C ' C.L.C.K.D.C.J.F.G.H.K.D.F.G.C.u.X.-.O.-.-.,.|                                                                                                                                                                                                                                                                                                         ",
"                                                                                                                                                                                                                                                                                        #.A.x.l.h.x.f.N.D.H.G.C.G.C.D.F.C.G.D.C.L.C.C.:.Z F G G H G G J Z F G G G C G G J F Z J G C G G Z H G J G F G C J G G G G Z M M c z z M z z z M z M z z M z x c z c z c z z z z z M z z z s r i a y a y a y r y r y r y r y r y r y r y r a y r y r y 8 0 4 ; ; 4 4 4 4 1 4 4 4 ; 4 4 ; 4 4 6 4 ; 4 4 ; 4 4 4 ; 4 4 ; 4 4 4 ; ; ; ; ; f F G J C J F G G F G J Z F J Z G H Z G H Z C ' C.L.D.F.H.D.K.G.F.J.F.G.C.L.C.i.X.X.-.-.:.,.}                                                                                                                                                                                                                                                                                                         ",
"                                                                                                                                                                                                                                                                                        #.n.x.x.h.l.x.v.C.C.G.C.D.F.D.K.D.H.G.F.D.F.C.-.C G C G Z F Z F G Z F J C G F J Z G F Z G G H G F G Z F J Z J G F Z H Z F G M j z M z z M x M z x z M z x z z z z M x z M z c x z z c z z s r y r y r y r y r y r y r y r i r y r y r i r y r y r y r y 8 5 ; 4 4 1 4 4 4 4 ; 4 ; 4 ; 4 4 ; ; 4 4 ; 4 1 4 ; 4 ; 4 ; 4 ; 4 ; ; ; ; = ; f H Z G G G F Z J Z H Z J Z G F J G G Z C F C ' C.H.G.H.C.C.J.F.G.H.C.F.G.F.H.u.X.-.-.-.-.2.[                                                                                                                                                                                                                                                                                                         ",
"                                                                                                                                                                                                                                                                                        #.A.x.x.h.x.h.v.C.L.C.L.F.J.F.D.F.G.H.D.F.J.C.-.G Z G F J G F J Z H G Z G J Z F G C J G H Z G J Z J G Z F Z F J G G G J Z Z M z c z M z M z z M z M z M z M z z c z z z z z z z M z z x z s r r i r y r y r y r y r y a y r y r i r y r y r y r y a r r 8 5 ; 4 ; 4 4 4 ; 4 ; 4 ; 1 4 ; 4 4 ; 4 ; 1 4 4 ; 4 ; 4 ; 4 ; 4 ; 4 ; ; ; 3 ; f F J C J F J F G Z G F G F J Z C G F G J C Z ' C.L.D.F.J.F.D.F.G.K.J.F.D.G.C.i.X.X.-.-.-.,.}                                                                                                                                                                                                                                                                                                         ",
"                                                                                                                                                                                                                                                                                        @.A.v.x.f.x.l.A.C.D.F.D.C.G.C.G.H.D.F.D.F.D.C.-.C F Z G C G Z F G G Z F G F J Z J G G C G J C G F Z H G Z G G Z H Z F Z F G M h M z z M z z M z z z z z M z c z z z z z z z M z z z z z z s r i r y r y r y r i r y r y r y r y r y r i r y r y r y r y 8 4 4 4 ; ; ; ; 4 ; 4 4 4 4 4 ; 4 ; 6 ; 4 4 ; 4 ; 4 ; 4 ; 4 ; 4 4 ; 4 ; ; - ; k C G G G J F Z G H G Z J Z F G G C J Z F C C ' C.L.C.K.C.D.K.G.F.J.C.L.F.L.C.u.X.-.O.-.:.,.|                                                                                                                                                                                                                                                                                                         ",
"                                                                                                                                                                                                                                                                                        #.n.x.h.x.x.h.x.C.D.C.L.C.C.D.C.F.D.C.D.H.G.C.:.Z F G G G C G G C J F Z J Z F G C G J G F G G Z G J G G H Z H G G G J G Z G M z c z M z z M z M z M z N z z z z z x z z c x z z c x z z z k r i r y r i r i r y r y r y r i r y r s r y r y r i r y r r 8 4 4 1 4 4 1 4 ; 1 4 ; ; 4 ; 6 ; 4 ; 4 4 ; 4 4 1 4 ; 4 ; 4 ; 4 ; 4 ; ; ; - 4 f F J Z C J C G G Z G F G G Z Z F F C C G C B ' V.L.K.K.F.H.L.C.D.C.G.C.D.C.F.i.X.-.-.-.-.:.[                                                                                                                                                                                                                                                                                                         ",
"                                                                                                                                                                                                                                                                                        @.A.x.f.x.f.h.x.C.D.C.G.F.J.C.L.H.G.C.D.C.J.C.-.C G C J C G H G Z G G G C G G J Z F Z F J Z G H Z F Z F G G Z F Z F Z F G Z M j z M z c M z z x M z M z z M z z z M z z M z z z z z c z x a r s r y r y r y r y r i r s r y r y r y r y r y r y r y a y 0 4 1 4 4 ; 4 ; 4 ; ; 4 1 4 ; 4 4 ; 4 4 ; 4 6 ; 4 4 ; 4 4 4 ; 4 4 4 ; 1 4 - 3 k Z G H Z G F Z G G Z G G C G A ^ _ _ _ _ _ J &.C.K.J.K.F.K.F.D.A.C.C.C.C.C.C.y.X.-.O.-.O.:.[                                                                                                                                                                                                                                                                                                         ",
"                                                                                                                                                                                                                                                                                        O.A.x.h.x.x.f.v.C.F.D.F.D.C.D.F.H.D.C.D.G.C.C.-.G C G G G G Z F J C G H G G C G F J G Z G F J C G J F J Z F G J F J G J C G M z j z M z z x M z z M z z z z c x z z c z z z z z c z z z z s r y r y a y r y r y r y r y r y r i r y r y r y r y r y r y w 1 4 4 ; 4 ; ; 4 ; 4 4 ; 4 4 ; 4 1 4 ; 4 ; 4 4 ; 4 4 ; 1 4 ; 4 1 ; 4 ; ; ; 4 k C Z G H J C Z G G Z G G G C P u.d.d.g.f.g.d.l.J.H.H.C.F.D.F.C.l.N.l.l.l.l.N.9.-.X.-.-.-.:.[                                                                                                                                                                                                                                                                                                         ",
"                                                                                                                                                                                                                                                                                        @.A.x.f.x.x.h.x.C.D.C.L.K.C.D.J.F.D.C.D.H.D.C.-.C G C G H Z J G F Z G Z G Z G F Z G C G J C G G F Z G Z H Z G Z J C G Z G Z M b z z z M z M z M z z x M z M z z c z z z z c z x z M x z x s r s r y r y a y r i r y r y r y r y r y r y r s r y r i r y w 4 4 4 ; ; ; ; ; ; ; 4 ; 4 ; 4 ; 4 4 ; 6 ; 4 ; 4 6 ; 4 4 ; 4 4 ; 4 ; 4 ; - 3 k G H Z Z G H Z G G G G F G G W d.l.l.x.l.N.l.A.F.C.C.D.K.K.F.C.x.h.N.h.N.x.x.2.-.-.O.*.-.1.[                                                                                                                                                                                                                                                                                                         ",
"                                                                                                                                                                                                                                                                                        #.v.x.h.l.h.f.N.C.D.C.G.C.J.C.F.H.G.C.D.C.L.C.:.C G G Z G F G J Z F G H G F J Z G J G C G G Z F J Z F J G G J F Z G G F Z G M c z c M z M z z z x M z z M z z z M z z z x M z z z z z z z s r r y a y r y r y r y a y r y r y r s r y r y r y r y r y y w 1 1 < 4 1 1 4 1 1 4 4 1 4 4 ; 4 ; 4 4 4 ; 4 4 ; 4 4 4 ; 4 1 4 4 4 ; ; 4 - 4 f F Z G H Z F Z G G Z G G G Z E p.l.N.x.h.N.N.N.D.C.D.C.H.C.K.C.z.f.x.h.l.f.h.3.*.-.-.-.#.-.[                                                                                                                                                                                                                                                                                                         ",
"                                                                                                                                                                                                                                                                                        @.A.x.f.x.x.h.l.C.G.C.G.F.C.D.L.C.D.D.C.D.H.C.-.G C G F J Z F Z G C J Z G C G F Z F J G C J G Z F J Z F Z F Z G J F J Z F Z M j z z z z z M z M z M z M z z z z z N z z z z z c z z c z z s r y r y r y r y r y r y r y r i r y r y r y r y r s r y r t w 5 4 4 4 4 4 4 4 ; 4 ; 4 ; 4 1 4 ; 1 4 ; 4 1 4 ; 4 ; 1 4 ; 4 4 ; 4 4 ; ; - 4 g Z J C Z J F Z C G G G G G F P g.Z.x.l.l.x.z.N.D.D.C.L.C.K.K.C.l.z.x.h.x.x.h.7.-.O.*.-.-.:.[                                                                                                                                                                                                                                                                                                         ",
"                                                                                                                                                                                                                                                                                        O.A.x.h.x.l.h.v.C.C.D.K.D.H.C.K.G.K.D.K.C.L.C.-.F Z F Z G H G G C G G F J Z G Z F J Z F G G F G Z F G G G C J F Z G C J G G M c z M z M z x z M z z M z M z x z z z z c z z z M z z z z z s r i r y r y r y r i r y r y r y r y r y a y r i r y r y i r w 5 4 4 4 4 4 4 ; 4 4 ; 4 4 ; 4 4 4 4 ; 4 ; 4 ; 4 ; 4 4 ; 4 ; 4 ; 1 4 ; 4 ; ; k C G Z F J C G G Z G G G F Z W u.N.h.l.x.x.x.x.C.G.C.K.C.D.H.C.l.z.x.h.x.x.h.t.*.O.O.-.#.:.[                                                                                                                                                                                                                                                                                                         ",
"                                                                                                                                                                                                                                                                                        @.A.x.f.x.h.h.x.C.D.C.G.K.D.K.K.F.G.C.F.H.D.C.-.C G G G C G J C J G J Z F J F J G Z F J Z G J C J G Z F Z G G G H G G G C Z M b z z z M z M z z z x M z z M z c z z z z z M z z z z z x z s r a y r y a y a y r y a y r i r y r y r y r y r y r y y r y w 5 4 ; ; 4 4 ; 4 ; ; 4 ; ; 4 ; ; ; 4 4 ; 4 4 ; 1 4 ; 4 ; 4 ; 6 4 4 ; ; ; - 4 k Z G J C J F Z C Z Z Z F G C E u.N.v.x.z.x.z.l.G.D.G.C.H.G.C.C.l.x.x.h.N.x.N.y.X.:.O.,.:.,.}                                                                                                                                                                                                                                                                                                         ",
"                                                                                                                                                                                                                                                                                        #.v.x.h.x.l.h.l.F.D.C.G.H.D.C.L.J.L.J.H.G.H.C.:.C G C J G C G G Z F Z H G Z J C G J G C J C G G G H G J G C J C G Z H G G G M c h M z z z z M z M z z z z z z M z z N z z z x z z z z z z s r y a y r y r y r y r y r y r y r i r y a y r y r y a y i w w 5 - - 4 ; ; 4 < 4 1 4 4 4 ; 4 4 4 ; 4 6 ; 4 4 4 ; 4 4 4 ; 4 ; 4 ; 4 ; 4 - ; g Z F Z G J C G Z C C G C G B Q r.l.x.x.x.x.z.N.H.F.C.L.C.J.K.C.z.x.z.x.l.N.h.y.-.+.,.,.,.<.%.                                                                                                                                                                                                                                                                                                        ",
"                                                                                                                                                                                                                                                                                        @.A.x.f.x.x.h.x.C.D.C.G.F.J.C.D.C.C.D.C.C.C.C.-.C G C G G J Z F J G J Z F J G G G C J G G G H Z G Z G C G G G G G G Z H Z Z M j z z M z M z M z M z M z M x z z z z z c z z z z z N z z z f r i r y r y r y r y r y r y r y r y r y r y r y r y r y y i 8 5 4 4 6 4 6 4 4 4 4 ; ; 4 1 4 ; 4 1 4 ; 4 ; 4 ; 4 4 4 ; 1 4 4 ; 4 ; 4 ; ; 4 k C J Z C J C G ^ %.' %.%.%.' &.z.D.N.l.N.N.C.N.J.F.G.H.C.D.F.l.u.u.a.i.i.i.t.^                                                                                                                                                                                                                                                                                                                       ",
"                                                                                                                                                                                                                                                                                        O.A.x.h.x.f.h.v.C.F.D.K.D.C.J.A.l.N.x.z.l.M.M.-.C G C G F G H Z G C G J G C G C G F Z F Z F Z F G F J G C J C G H Z G G G C M M c z z M z x M z x z z x z M z c z c z z z z z c z z z z x a r i r y r y r y a y r y r i r s r y r i r y r i r y r i r y w w i t w t w w 4 3 4 1 4 ; 4 4 ; 4 4 ; 4 4 4 6 4 ; 1 ; 4 4 ; 4 4 ; 4 ; ; - 4 g Z G J Z F C J ,.l.f.f.f.d.f.f.C.K.F.F.F.D.C.C.K.H.H.G.C.D.K.f.-.-.-.1.-.1.O.                                                                                                                                                                                                                                                                                                                        ",
"                                                                                                                                                                                                                                                                                        @.A.x.f.x.x.h.l.F.D.C.G.H.D.D.C.x.z.x.x.N.x.z.*.C F Z J C G G J C J G C G G Z G J Z G J G Z J G J Z F J Z G G C G G H Z F G M c z M z z M z z z M z M M z z z z z x z z z z M x z z c z z s r s r y r y a y r y r i r y r y r y r y r y r y r y a y y i i y y i i i y i w 5 4 4 4 ; 4 ; 6 ; 4 ; 4 ; ; 4 4 ; 4 4 ; 4 ; 4 1 4 ; 1 4 - ; k C Z F Z F Z J 2.l.l.f.l.l.f.v.C.K.G.L.F.D.F.D.K.H.F.H.D.L.K.f.%.*.-.O. .-. .                                                                                                                                                                                                                                                                                                                        ",
"                                                                                                                                                                                                                                                                                        #.v.x.h.l.x.h.x.C.D.C.G.K.C.G.C.x.x.x.f.x.x.h.-.Z F G Z G F Z F G G G C G H G F J F J C G F J C G G J C G F J Z J C G G Z Z M h c z M z z M z z M z z z z M z z z z z z z c z z z z z z x s r y r y r y r y r y r y r y r y r y r i r y r i r y r y r r y r y r r y r w 8 4 4 ; ; 4 ; 4 4 ; 4 4 1 4 4 ; ; 4 ; 4 4 ; 4 4 ; 4 4 4 ; ; 3 k G J Z J C F J 2.v.l.l.l.l.f.f.C.G.F.F.D.F.F.K.H.G.C.J.C.D.K.f.-. .*.-.-.1.-.                                                                                                                                                                                                                                                                                                                        ",
"                                                                                                                                                                                                                                                                                        @.A.x.f.x.h.f.N.C.D.C.G.C.J.C.C.l.z.x.x.x.x.h.-.C G Z A F H F G C J Z G G Z G Z G J Z G G C G G H Z G G Z G C G G G Z H G G M M z z M z x M z M z z M z M z z N z c z M x z z z z x M z z k r y r y r y r y r y r y r i r y r s r y r i r y r y r y r y r y r y r y r r w 5 4 4 4 4 4 4 ; 4 1 4 ; 4 ; 1 4 4 6 ; 4 4 ; 4 ; 4 ; 1 4 4 4 k F Z F G F Z J 2.l.h.x.h.x.h.x.C.F.G.C.G.C.D.K.F.L.C.D.D.D.H.i.-.-.O.-.O.-. .                                                                                                                                                                                                                                                                                                                        ",
"                                                                                                                                                                                                                                                                                        O.A.x.h.x.x.f.v.C.C.D.K.G.C.G.C.x.x.x.f.x.h.x.%.F G G Z G C G G G F G H G F J F Z F J C J G H Z G F Z F G H G J C J F Z G Z M j z c z M z z M x z M z x z z z z z z z c z z M z z z z M z k w y i r y a y r y r i r y r y r y r y r y r y r y r y r y r y i i r y r y r 5 5 ; 3 ; 3 ; 4 ; 4 ; 4 1 4 4 4 ; 4 ; 4 ; 1 4 4 1 4 4 4 ; ; 4 k G G J Z F F J 7.v.x.h.v.x.f.f.C.F.F.D.C.G.C.J.C.L.D.L.C.H.J.p.%.-.-.X.-.:. .                                                                                                                                                                                                                                                                                                                        ",
"                                                                                                                                                                                                                                                                                        @.A.x.f.x.l.h.x.C.D.C.G.H.D.C.D.z.x.z.x.x.v.h.X.C G G G Z Z C G J Z F J Z G Z F J Z G G C G Z F Z J G C G Z F Z G G G F Z F M c z M z M z z z z M z z M z M z c z z z z z z x z z x z c z k r y r y r y r y r y r y r y r y r y r y r y r y r i r y r y r y r y r i r r 8 5 4 ; 3 4 ; ; 4 ; 1 4 ; 4 ; 4 ; 4 4 ; 4 4 ; 4 ; 4 ; 1 4 4 ; g G C G H G G J 2.x.x.f.h.x.h.x.C.F.G.C.F.D.C.G.D.C.D.J.C.H.C.a.-.-.-.-.-.:.X.                                                                                                                                                                                                                                                                                                                        ",
"                                                                                                                                                                                                                                                                                        #.v.x.h.x.h.h.x.C.G.C.G.F.C.G.C.l.x.x.f.x.x.f.%.F F F F F H G F C J Z G F J C J G G F J Z F G J F G C J G F J G C J C J G Z M z c z z z M z M z z M z z z z z x z c z M z z c z z M z M z k w i y r i r y r y a y r i r y r i r y a y r i r y r y r y r y y r y r y r r 8 5 4 ; ; ; 4 4 ; 4 4 4 4 1 4 ; 4 ; 4 ; 4 4 ; 4 4 1 4 4 1 4 4 k C G G Z F F J 2.v.h.x.x.x.f.f.C.F.F.D.C.D.D.F.D.D.A.D.D.D.D.a.} -.X.-.X.:.X.                                                                                                                                                                                                                                                                                                                        ",
"                                                                                                                                                                                                                                                                                        @.A.x.f.x.l.h.l.C.D.C.L.H.D.D.C.l.z.x.x.h.x.x.,.^ ( _ ( ^ ( ^ J G C G Z F Z G G C J Z F G G H Z G C G G J Z G C G G G Z F Z M b z M z M z z z M x z z M M x z c M z z x z z M z z z z c z k r y r i r y r i r y r y r y r y a y r y r y r y r s r y r y r r y r i r y r w w 7 8 8 8 8 8 4 4 4 1 ; 4 4 ; 4 6 ; 4 1 4 ; 1 4 ; 4 4 4 ; 4 k G G H G G C J 2.N.h.v.f.x.h.x.C.F.G.C.D.C.D.C.C.l.N.l.A.v.N.i.X.-.-.O.-.:.X.                                                                                                                                                                                                                                                                                                                        ",
"                                                                                                                                                                                                                                                                                        O.A.x.f.x.x.h.Z.C.C.D.F.D.H.G.C.x.x.x.h.x.x.N.2.-.-.-.&. .-.-.P C G G J G F J G C G G Z F J Z G G J F Z F G H G J C G F J Z M c z z z M z M z z M z z x z M z z z z z z z z z z x z M z M s r i y r y r y r y r y a y r s r y r y r y r y r y r y r y r y i r y r y r y r r r r r 8 y r 5 3 4 4 1 4 ; 1 4 ; 4 ; 4 ; 4 4 4 ; 4 1 4 ; 4 g G C G Z F G J 2.v.x.h.x.h.f.f.C.F.F.G.C.D.D.C.N.x.x.x.x.x.x.t.O.-.-.-.-.:. .                                                                                                                                                                                                                                                                                                                        ",
"                                                                                                                                                                                                                                                                                        @.A.x.h.x.f.h.x.C.D.C.G.F.C.D.C.l.z.x.l.x.h.x.t.X.*.-.-.-.O.*.! G Z F Z H Z C G G F Z H G Z F G C G Z F J Z G C G G H Z G Z M b z z M z z M z z z x M z M z z z z z c M z c x z z z z c z f w r i r y r y r y r y r y r y r y r y a y r s r y r y a y r y r y r i r y r y y y y y r r r 8 4 4 4 ; 1 4 4 4 ; 4 4 ; 4 4 ; 4 ; 4 4 ; 4 4 k C J G J F G J 2.x.x.f.x.x.h.x.C.G.F.C.D.C.C.C.N.x.z.x.x.l.x.u.-.X.-.X.-.:.X.                                                                                                                                                                                                                                                                                                                        ",
"                                                                                                                                                                                                                                                                                        #.v.x.f.x.x.f.l.F.D.C.L.C.J.F.D.z.x.h.h.x.x.x.9.-.-. .-.O.-.X.P Z G Z G Z G G Z F Z J G Z F J G J F G Z F J C G Z G Z G F Z M c z c z M z x M z M z M z z z c z z z x z z z M z z z z c z k r i r y r i r y r i r y r y r y r y r y r y r y r y r y r y r s r y r y a y r r r r y y r r 5 4 4 4 4 4 4 ; 4 ; 4 ; 6 4 ; 1 4 ; 4 6 4 ; 4 k G G C G F C J 7.v.x.h.h.x.f.l.C.F.G.C.C.D.G.C.x.x.h.x.x.l.x.t.-.-.-.O.-.:.X.                                                                                                                                                                                                                                                                                                                        ",
"                                                                                                                                                                                                                                                                                        @.A.x.h.l.x.h.N.C.D.C.G.K.D.C.A.x.x.z.l.x.h.x.7.X.-.*.-.O.-. .P G C G F J F Z F J G G F J G Z F Z G C J G G J G F J F Z G G M j z M z z M z z M z z M z M z M z z M z z z z z c z c z M c s r y r i r y r y r y r i r y r y r i r y r y r y r y r y r i r y r y r y r y r y y a y a y w 5 4 4 1 ; 1 4 4 ; 4 1 4 4 ; 4 4 4 4 ; 4 1 4 ; g G H G J G F J 2.x.h.l.x.x.h.x.C.F.F.D.F.C.C.C.x.x.l.x.l.x.x.t.X.-.O.-.X.:. .                                                                                                                                                                                                                                                                                                                        ",
"                                                                                                                                                                                                                                                                                        O.A.x.f.x.h.f.v.C.C.D.F.J.C.G.C.z.x.x.h.x.x.x.9.X.-. .1. .-.X.W F Z G C G G J G Z F J Z G F G J F J G G C G C J Z F J F Z Z M c j z M z z M z z z M x z c z z x z z c z z c z z x z z c z f r i r y r y a y r y r y r y r y a y r y r y a y r i r y r y r y r y r i r y r i r y r y r r 5 4 4 4 4 ; 4 ; 1 4 ; 4 ; 4 ; 4 ; ; 4 4 4 ; 4 k F Z G C F Z J 7.v.x.v.x.v.h.f.C.G.F.D.C.D.D.N.x.f.z.l.x.z.v.u.-.-.-.X.-.:.X.                                                                                                                                                                                                                                                                                                                        ",
"                                                                                                                                                                                                                                                                                        @.A.x.h.x.x.h.l.F.D.C.G.K.C.G.C.l.x.x.l.h.x.h.t.-.-.*.-.O.-.X.P G Z F J Z F Z F J Z F G H Z G C G Z F J G J G F J Z G J G G M h M z z M x z M z M z z M z x z z c z z M z x z c z z z c z k w i r y a y r y r y r y r i r y r y r y r y r y r y r s r y r y r s r y r y r y r y r y r w w 5 4 ; 4 1 4 4 4 4 ; 4 4 4 ; 4 1 4 ; 1 4 ; 4 a C C C Z C C G $.x.h.f.h.x.f.x.C.F.F.D.F.D.D.C.v.x.l.z.l.l.l.i.X.X.-.-.-.:.X.                                                                                                                                                                                                                                                                                                                        ",
"                                                                                                                                                                                                                                                                                        #.v.x.f.x.l.h.N.C.D.C.G.H.D.C.D.z.x.g.x.x.x.x.9.X.-. .1. .-.O.W C G Z G J G J G C G G Z G F J Z J G J Z F Z F Z G G C G C Z M M z z z M z M z z x z z M z M z z z z z z z z z z z c z M c s r i r y r y r y a y r i r y r y r y r s r y r y r y r y r y r y r y r y r i r y r y r y r r 5 4 4 1 4 - 4 ; ; 4 4 ; 1 4 ; 4 4 ; 4 4 4 4 ; k J J J J J F J 2.v.x.x.h.x.f.h.C.F.G.C.C.F.D.C.f.g.z.z.f.x.h.t.:.-.O.-.X.:. .                                                                                                                                                                                                                                                                                                                        ",
"                                                                                                                                                                                                                                                                                        ..A.x.x.h.x.h.v.C.F.D.F.G.C.G.C.C.C.A.C.D.C.C.i.X.-.-.O.-.-.X.P G Z F Z F J C G F J F J Z Z G F G C G J G J Z J F J Z G G G M j z c z z z x z M z M z M z z z z z N z z z z M z z z z c z f r y r i r y r y r y a y r y r i r y r y r y r y r i r y r y r i r y r y r y r y r s r y r r w w t w t w t w t 8 y w r 0 w y 8 t w 8 8 8 8 L 2.2.2.7.2.2.7.x.C.D.C.A.C.C.C.C.D.D.F.L.C.H.N.2.,.3.2.2.2.5.:.X.-.-.X.-.:.X.                                                                                                                                                                                                                                                                                                                        ",
"                                                                                                                                                                                                                                                                                        #.A.x.x.h.x.h.N.D.F.J.C.L.C.G.C.G.J.F.D.C.G.C.u.-.O.-.-.O.:.X.W F Z G G J Z G F J Z G G F J F J Z G F J C G F Z G C G F Z Z M z c M z z z z z z z z M z z N z c z z z z z z z c z z z c z k r i a y r y r y r y r y r y r y r i r y r y r i r y r y r i r y r y r i r y r i r y r y r y s r y r y r y r y r y r y r y r y r y r y y r ) x.v.v.x.x.l.v.C.G.H.D.K.K.C.C.D.F.D.K.F.K.L.z.-.*.-.-.-.-.O.-.-.-.O.-.-.:.X.                                                                                                                                                                                                                                                                                                                        ",
"                                                                                                                                                                                                                                                                                        O.A.v.f.x.x.h.A.C.G.C.G.C.G.C.D.F.C.D.F.J.C.C.p.-.-.X.-.-.O.-.P G Z F Z F G F Z G F Z J Z F Z G H G Z G F J Z F G G J Z F G M h M z z z M z c z M x z M z z z z z z z c z N z z x z z M c s r y r y r y r i r y r y r i r y r y r y r y r y r y r s r y r y r i r y r y a y r y r y r y r y r y r y r y r i r y r y r i r y r r r w r ) v.x.x.x.l.h.l.C.F.D.C.D.K.H.H.C.D.D.K.C.H.L.M.#.X.-.-.-.-.-.:.-.X.-.-.X.:. .                                                                                                                                                                                                                                                                                                                        ",
"                                                                                                                                                                                                                                                                                        o.n.x.h.h.h.x.v.F.C.G.H.G.C.G.H.G.K.D.F.F.H.C.i.-.-.-.X.:.-.X.P Z F Z G Z J Z F J Z F G J G J Z G C J C G Z F J Z F Z J G Z M M z z z z x z z z M z z z M z c x z c M x z z z z z c z c z f r i r y r i r y r y r s r y r y a y r y a y a y r s r y r y r y r y r y a y r y r y r i r y r y r y r y r s r y r r y i y r y r i r y y r ( x.x.l.h.l.h.x.C.D.K.D.C.K.C.D.F.J.D.K.D.F.L.x.:.X.-.-.-.-.X.:.-.-.-.O.-.:.X.                                                                                                                                                                                                                                                                                                                        ",
"                                                                                                                                                                                                                                                                                        @.v.x.x.h.x.h.N.D.H.D.F.C.L.C.G.C.D.K.D.D.C.C.u.-.X.-.-.O.-.X.P G Z G F G C G J C G G C G C G F Z G G G J F J G C J G F Z G M h c z c z z c M z z M z N z z z M z z z z z z z c z z z c z k w s r y r y a y r y r y r y r y r y r y r y r y r y r y r y r y r i r y r y r y r y r y r y r y a y r y r y r y i r r r t r s r r y w t r ( x.f.x.f.h.f.x.D.H.D.F.D.K.C.H.C.D.D.C.K.D.G.x.-.*.-.X.-.-.-.X.-.O.-.-.X.:.X.                                                                                                                                                                                                                                                                                                                        ",
"                                                                                                                                                                                                                                                                                        $.A.v.x.x.x.x.v.F.G.C.G.C.D.F.J.F.D.F.C.G.C.C.i.-.X.-.-.O.-.-.P G C G J C J G F G J Z G G G C G F J C G Z G C G G F J Z F Z M M z z z c z z z x z z M z z M z z z z z z c z z z c z z M c s r y r y r y r y r y r y r y r y r y r s r y r y r y r y r y r y r y r y r y r y r i r i r y r y r y r y r y r y r r y y r y r r r r r r r ( x.x.x.x.x.x.x.C.D.F.D.C.K.F.G.F.K.F.G.C.F.L.M.-.X.:.-.X.-.:.X.-.:.-.X.-.:.X.                                                                                                                                                                                                                                                                                                                        ",
"                                                                                                                                                                                                                                                                                        $.S.n.v.A.v.v.A.F.H.L.H.L.K.C.F.J.F.J.F.J.F.C.p.-.-.X.-.:.O.-.P G Z Z F G Z F Z G F J C J F Z J G G G H Z G G J Z G Z G G G M j c z z M z x z M z M z z z z N z c x M z x M z z x z c z c s r i r s r y r y r s r y r y r i r y r y r y r y r y r y r i r i r y r s r y r y a y r y r y a y r y r i r y r y r y r r y w e w w 5 w 8 w ^ h.h.x.l.h.d.x.C.D.D.C.C.K.K.G.C.G.L.C.G.D.J.h.-.-.-.-.:.X.-.:.-.X.-.-.X.:.-.                                                                                                                                                                                                                                                                                                                        ",
"                                                                                                                                                                                                                                                                                        | u.6.4.5.5.6.d.C.F.C.F.C.F.C.F.D.L.F.J.G.H.C.i.X.-.X.-.X.-.X.! G C G Z J F J G C G G Z G Z J F Z F Z G F J C G F G F J C Z M z c z z z z c z z z z M z N z z z z z z z z z c z z z z c z f r y r y r y r s r y r y r s r y r i r y r y r s r y r s r y r y r i r y r y a y r y r y a y r y r y r y r i r s r y r 8 i s z f z l f z l %.v.x.x.l.x.x.l.A.J.D.C.G.K.D.J.C.C.D.C.D.A.D.h.-.-.X.-.X.:.-.X.-.-.O.-.-.:.X.                                                                                                                                                                                                                                                                                                                        ",
"                                                                                                                                                                                                                                                                                                        u.N.v.x.v.x.v.C.D.C.D.C.D.D.C.u.-.X.-.-.:.:.X.P Z G C G G Z G Z G J C G F J G C G J G C J Z F G J C Z G G G M h M z c z z M z c M z x M z z z c z c z z z z z z z c z M c s r i r y a y r y r y r y r y r y r y r y r y r y r y r y r y r y r y r y r y r y r y r y r y r y r s r y r y r y r y r r w Z +.u.9.w.5.w.t.g.C.C.C.C.C.C.C.F.C.F.D.C.D.D.A.N.N.Z.x.v.v.A.i.&.*.-.O.-.-.-.-.:.-.-.X.-.:.O.                                                                                                                                                                                                                                                                                                                        ",
"                                                                                                                                                                                                                                                                                                        w.v.x.h.x.x.h.N.D.J.G.J.F.J.C.u.-.-.-.X.-.O.*.P G Z G F G C J F G C G G J C G G G C G G G F Z G Z G F G C Z M M h z z c z z z z x M z z M z z z x M z z M z x z z z z c z f r i r y r y r y r y r y r y r y r y r y r s r y r y r y r y a y r y r y r y r y r y r y r y r y r y r y r y r y r r 8 0 w J l.n.l.v.v.l.v.C.G.J.C.L.C.J.H.L.C.G.F.J.C.D.A.x.x.f.f.l.l.x.u.&.X.-.-.-.O.-.X.-.X.-.-.O.:. .                                                                                                                                                                                                                                                                                                                        ",
"                                                                                                                                                                                                                                                                                                        w.v.x.x.x.h.x.A.J.G.J.D.J.D.C.u.-.X.-.-.-.:.X.P Z F Z J G G C J G Z H Z G Z G C J G J C G J G H G F J Z G G M j z c z M z x z z M z M z z N z c z z z N z z z z z c z c z k w s r y r y r y r y r s r y r y a y r s r y r y r y r y r y r y r y r i r y r i r i r i r y a y r y r y r y r y y r y w w J d.l.l.z.l.v.l.C.G.C.L.H.F.G.C.K.F.G.H.G.C.A.A.l.f.k.l.l.l.x.d.-.-.-.O.-.-.-.-.-.O.-.O.-.-. .                                                                                                                                                                                                                                                                                                                        ",
"                                                                                                                                                                                                                                                                                                        w.N.x.h.x.x.g.N.G.K.G.F.L.F.C.i.-.X.-.X.-.O.-.P G Z F Z H Z G C J G G F G F J G F Z F G Z F Z G Z G C G F Z M z c M z z z z c z z M z z M z z z z z z z z z z c z z z M c s r y r y r y r y r i r y r y r y r y r y r y r y a y r y a y r y r i r y r y r y r y r y r y r y a y r i r y r i r r r 8 r J f.l.x.l.x.x.v.A.D.F.D.F.D.K.D.C.J.F.C.L.F.D.n.x.x.f.x.l.z.v.u.-. .-.-.-.O.-.O.-.-.-.-.-.:.X.                                                                                                                                                                                                                                                                                                                        ",
"                                                                                                                                                                                                                                                                                                        u.N.x.h.z.h.x.N.D.C.G.C.G.H.C.p.-.X.-.-.O.-.-.! C Z G G G F J F G C J Z G J C G Z J G G J G F J F G J G Z G M h z z z z z z z M z z x M z z z z c z c z z c z z z z z c z f r y a y r i r i r y r y r y r i r y r y r y r y r y a y r y r i r y r y r i r y r y r y r i r y r y r y r i r y r r 8 r 8 J f.v.l.x.h.h.l.A.D.C.G.H.D.F.C.G.F.H.G.C.D.C.A.x.l.x.l.l.l.x.u.-.-.X.-.-.-.O.-.-.O.-.X.-.:.X.                                                                                                                                                                                                                                                                                                                        ",
"                                                                                                                                                                                                                                                                                                        w.v.x.h.x.h.h.N.H.D.C.D.C.D.C.u.X.-.-.-.-.-.-.P Z Z C F C F G H F J G C F Z G F J F Z C F Z Z G J C Z G F Z M M c z z c z M z z M z M z z M z x z M z z x z z z z z z c c s r y r y r y r y r y r y a y r y r y r y r y a y r y r y r y r y r y r s r y r y r s r y a y r y r y r i r y r y r y r 8 r E a.l.l.l.x.x.x.l.D.D.L.F.G.J.G.K.D.G.D.G.C.J.C.l.x.l.v.x.x.x.i.:.-.-.O.-.X.-.-.-.-.O.-.X.:.X.                                                                                                                                                                                                                                                                                                                        ",
"                                                                                                                                                                                                                                                                                                        w.Z.l.h.f.x.h.v.D.D.J.J.D.L.D.i.X.-.X.-.X.-.-.P F C G F G F G C G Z G J G F Z J Z F G G G J F Z G G F Z G Z M j z c z z z N z z z z z M x z c z z z x z z z M z N z z z z s w r r r r r r y r y a y r y r y r s r y a y r y r y r y r i r y r i r y r y r y r y r y r y r y r i r y r y a y r r y r 8 J f.v.v.l.v.l.N.A.S.L.L.J.L.L.L.D.D.C.D.D.J.F.D.v.l.v.v.v.v.A.i.:.-.-.X.:.-.-.O.-.X.-.-.-.:.X.                                                                                                                                                                                                                                                                                                                        ",
"                                                                                                                                                                                                                                                                                                        t.N.x.x.h.f.h.x.x.l.h.h.x.x.f.7.X.-.X.-.:.X.-.^ P P P P P P J G F G C G C J G C G Z G C G Z G H Z G Z F G C M M c z z z z z z z x M z M z M z z M z z c z z z z z z z x z k a s a a s s y y r y r y r y r y r y r y r y r y r y r i r y r y r y r y r y r y r y r y r y r y a y r y r y r y y r r 0 w Z 2.0.9.t.t.7.2.u.i.d.u.d.u.d.d.N.D.D.D.C.C.D.V.t.2.t.2.t.7.w.2.-.X.-.:.X.-.-.-.-.:.-.O.-.:.X.                                                                                                                                                                                                                                                                                                                        ",
"                                                                                                                                                                                                                                                                                                        w.v.x.f.x.x.k.t.,.-.-.:.:.:.O.O.X.-.O.-.X.-.-.-.-.-.%.-.X.*.} J H G G C G G Z G F J C G G C G G F J G J Z G M z h M z z z c z c M z z x M z z N z z z z z x z c z z z z x z k x z l z z z y r y r y r y r y r y r y r y r y r i r y r y r i r y a y r y r i r y r i r y r y r y r y r y r i r r 8 r r z J J J E J J E J J J J J J J E t.N.z.x.N.x.l.d._ G G J J J J ^ X.:.-.-.-.-.O.-.O.-.-.X.-.:. .                                                                                                                                                                                                                                                                                                                        ",
"                                                                                                                                                                                                                                                                                                        w.v.x.h.f.x.f.t.-. . . .} X. .-.O.-.O.-.-.-.X.-.X.-.-.-.-.-.} J G Z G G Z F J C G G G J F J Z G C G C G F Z M c z z z c z x z z z z M z z z z z z c z x M z z z z N z z z x l x z z z x k s r r y r i r y a y r y a y r y r y r y r i r y r y r y r y r y r y r y r y r i r y r i r i r y r y w y 8 r z C Z C C G C F G C Z F Z F C F 5.x.x.N.x.x.l.g.E B G C C C C P X.-.X.-.O.-.-.-.X.-.-.-.X.:.X.                                                                                                                                                                                                                                                                                                                        ",
"                                                                                                                                                                                                                                                                                                        t.N.x.h.l.x.h.t.-.-.-.-.-.-.-.-.:.O.-.O.-.X.-.:.-.O.-.-.X.-.%.J F G C G F J Z G G J C G Z G F J Z J G G Z G M j z c z z z z z M z z z M z M z z z z z z z z z c z z z z z k x k z h k M l a r y r y r y r y r y r y r y r y r i r y r y r y r y r y r y r i r y r i r y r y r y r y r y r y r t 8 r 8 z Z J J G G G G G G F Z F Z C J 7.N.x.x.x.h.A.g.P B G Z G F F ! X.-.-.-.-.:.X.-.-.O.-.O.-.:.X.                                                                                                                                                                                                                                                                                                                        ",
"                                                                                                                                                                                                                                                                                                        w.v.x.f.x.f.x.y.X.-.-.-.X.-.X.-.-.-.X.-.-.-.-.X.-.-.-.%.-.-.} J G G J C G Z F G C G Z F G J C G G F Z F G Z M M z z z z M z z z z c z z c z c z z z M z z c z z z z z z x k x k z z h z z f r r y r y r y r y r y r y r i r y r y r y r i r i r y r i r y a y r y r y r i r s r y r i r y r y i y y r z C G G G J G J Z J G G G G Z J 2.l.h.h.l.l.x.d.! C Z C G Z Z ! -.:.X.:.X.-.-.O.-.-.X.-.-.:. .                                                                                                                                                                                                                                                                                                                        ",
"                                                                                                                                                                                                                                                                                                        w.v.x.h.l.x.x.t.-.X.X.-.X.-.-.X.-.-.-.-.X.-.-.-.-.-.-.-.-.-.} J G C G J F J G J G C G J Z F G Z F Z J Z H Z M b z M M M z M x z c M c z c z z z z c x z z z M z x z z z z z x z z z z z z a 8 s r y r i r y r y a y r y r y a y r y r y r y r y r y r y r y r y a y r y r y r y r y r y r i r t r t w z C G Z G G Z G G G Z G Z F Z J 7.N.x.v.x.l.l.g.P Z Z Z F Z F P X.-.-.X.-.-.O.-.-.-.-.O.-.:.X.                                                                                                                                                                                                                                                                                                                        ",
"                                                                                                                                                                                                                                                                                                        t.N.l.h.h.l.h.u.-.X.-.-.X.X.-.-.X.-.X.-.-.-.-.-.-. .-.*.-.X.%.J G J G Z G Z F Z G G C G F J Z F Z F G C G J M M M l M M M M l z z c z c M z z z M z z z z c x z z c z x z z z z z c z z l s 8 r y a y r y r y r y r y r s r y r y r i r y r y r s r y r y r y r y r y a y r y r y r s r y r y w t r 8 z F G G G G J G J Z G F G Z C J 7.x.x.x.x.z.l.f.E Z G H Z G F ^ X.O.-.-.O.-.-.-.O.-.-.-.X.:.X.                                                                                                                                                                                                                                                                                                                        ",
"                                                                                                                                                                                                                                                                                                        w.v.x.x.f.x.v.t.-.X.-.X.-.X.-.-.X.-.-.-.X.-.O.-.-.-.-.-.-.-.} J F Z F G F J G C J F Z G J C G J G J Z H C G M M M M M b M M z z c z c z c z z z z z z c z z z z z z z z z z z c z z z z k s r r y r y r y r s r y r i r y r y r y r y r i r s r y r y r i r y r y r y r y r y a y r y r y r y w r 8 r k F G Z J F Z F C G F Z G F G J 7.l.N.x.N.v.v.f.Q C Z Z C G G P *.-.-.-.:.-.O.-.-.O.-.X.-.:.X.                                                                                                                                                                                                                                                                                                                        ",
"                                                                                                                                                                                                                                                                                                        w.v.x.f.x.l.h.t.X.-.-.-.X.-.X.-.-.-.X.-.-.-.-.-.-.-.-.*.-.*.} J G F Z J C G Z G G J F Z F J G C G C G G Z G C B M B M B B M c z z h M h c z c z c z z x M z c z c z c z c z z z z c z z z s 8 r y r y r s r y r y r y r y r y r s r y r y r y r y r y r y r i r y r y r y r y r y r y r y r i y y r w k F Z F J J G C G G Z F J Z C J  .$.,.$.,.,.1.O._ ^ Y ^ ^ ^ _ _ O.O.-.O.-.X.-.-.-.O.-.-.-.:.O.                                                                                                                                                                                                                                                                                                                        ",
"                                                                                                                                                                                                                                                                                                        t.N.x.h.f.x.x.t.-. .-.-.X.-.-.-.X.-.-.-.X.-.-.-.O.-.-.-.-.X. .J G Z G G G F Z H Z G J C G Z G J F G J C G Z Z G Z Z Z F J Z c z c c z z M z z z M z z z z z x M z z x z M x z c z z c z l a r y r y r y r y r y r y r y r y a y r y r s r y r y r y r y r y r y r i r y r s r y r y r y r s r t r t r z Z G J G G J F Z F G J G F G F H L H G L J L Y %.-.X.-.-.-.*.-.#.O.-.-.-.-.:.X.-.-.-.O.-.:. .                                                                                                                                                                                                                                                                                                                        ",
"                                                                                                                                                                                                                                                                                                        w.v.x.l.x.l.x.t.-.-.O.-.-.O.-.X.-.-.X.-.-.-.O.-.*.-.-.*.X.-.*.J F G C G Z F G Z F G Z G G F Z G Z G C G Z F G G G G Z F G Z M c z z z c z c z c z x z z z c z z z c z z z c z M z c z z z s 8 r y r y a y r y r y a y r y r y r y r y r y r y r y a y r s r y r i r y r y r y r y r y r y r y y y r 8 z C G F J C G Z F Z F Z F Z J Z G G F G F Z F J  .-.-.O.-.-.-.-.-.-.-.O.-.X.-.-.:.X.-.-.X.:.X.                                                                                                                                                                                                                                                                                                                        ",
"                                                                                                                                                                                                                                                                                                        w.l.x.h.x.z.x.t.-. .-.-.-.X.-.:.-.-.-.-.O.-.-.-.O.-.O.-.-.-. .J F G G F J Z F J G Z H G Z J F J F J G F J G Z F Z C G H G Z c z z z z z z z M z z z c z M z z z z z M z z z z z z z z z l a r y r i r y r y r y a y r y r y r y r y r y r y r y r y r y r y r y r y r i r y r y a y r s r y a y t y r z Z G C G G Z H G J Z G Z F G G C G Z J Z F Z J  .:.-.:.X.:.O.-.O.-.X.-.-.-.O.-.X.-.-.O.-.:.X.                                                                                                                                                                                                                                                                                                                        ",
"                                                                                                                                                                                                                                                                                                        t.N.x.x.f.l.x.t.-.-.-.-.X.-.-.X.:.X.-.O.-.-.O.-.-.-.-.-.X.:. .J G H Z J C G J Z F G Z F G C G Z F Z G Z G H G J G Z G C G C M c z c M z c z z z z z z z x z z c M x z z z N z c z c z M l s 8 r y r y r y r y r y r y r y a y r y r i r y r i r y r y r y r y r y a y r y r y r y r y r y r y y r y w z C J G C J G C G Z H G H G J Z F G F G C Z F J %.:.-.-.-.X.-.-.-.X.-.-.-.O.-.-.-.:.-.-.-.:.X.                                                                                                                                                                                                                                                                                                                        ",
"                                                                                                                                                                                                                                                                                                        w.v.z.x.x.l.N.u.-.X.-.-.-.:.-.-.X.-.:.-.-.X.-.-.O.-.X.-.-.-.*.J F Z G F G Z F G Z H G J G J G F J Z F J C G Z C G C G F G Z M z z z z z z z z z M z c M z z z z z z c z z z z z z z z z k a a r r r a r r y r y r y r y r y r y r y r y r y r y r i r y r y r i r y r y r i r y r y r y r y r i t y r z Z G G G Z F J G G G Z G Z F J Z J Z J G Z F J } :.-.-.-.-.X.-.-.-.:.O.-.-.-.O.-.X.:.X.-.:.X.                                                                                                                                                                                                                                                                                                                        ",
"                                                                                                                                                                                                                                                                                                        u.l.x.l.x.z.x.t.-.-.-.X.-.O.-.X.-.-.X.-.-.-.-.O.-.-.-.-.X.:. .J F G C G Z J Z F J G C Z F Z H Z G G C G G G H G G Z G F J Z M c z z c z z M x z z x z z z c z N z z z c z z z c z x z x z a a r d r r r r r y r i r y r i r y r i r y r i r y r y r y r i r y r y r y a y r y r i r y r i r y i r y w z Z F J C J G C G H Z F J C G G F Z F G C G H J %.:.-.-.X.-.-.O.-.O.-.-.:.X.-.-.-.:.-.X.-.:.X.                                                                                                                                                                                                                                                                                                                        ",
"                                                                                                                                                                                                                                                                                                        r.A.x.h.l.l.x.t.-.X.-.-.-.-.-.-.O.-.-.O.-.X.-.-.-.X.-.-.X.-.X.J F Z G H G F G Z F Z G G J G Z G C G G C J Z G C G C G G G C c z z z z N z z c z c z z z x z z z z z z z x z z z z z z k M s r p r d r a 8 y r y r y r y r y a y r y r i r y r s r y r y r y r i r y r y r y r i r y r i r y r y i y r z Z J G G F G G Z G J Z F J C J G J G J C Z Z J  .-.-.-.-.-.-.O.-.-.X.-.-.-.:.X.:.X.-.-.X.:.X.                                                                                                                                                                                                                                                                                                                        ",
"                                                                                                                                                                                                                                                                                                        w.l.x.x.h.x.x.t.-.-.-.X.-.O.-.-.-.X.-.-.-.-.O.-.O.-.-.X.-.-.*.J F G G Z G Z F G J G C G C G F G G C J G G F G G G Z Z F G Z M c z c z z c z z z z M z z M z c z z z c z M z z x M x M k z k k k h d k k s r s r y r i r y r y r y r i r y r y r y r y r s r y r y r y r y r y r y r y r y r s y w y w z C G H Z Z J C J F G F J G G G C G C G G F Z J } ;.-.O.O.-.-.-.-.-.:.-.O.-.X.-.-.-.-.O.-.:.X.                                                                                                                                                                                                                                                                                                                        ",
"                                                                                                                                                                                                                                                                                                        u.N.x.x.z.l.x.t.-.X.-.-.-.-.O.-.-.-.:.X.:.X.-.-.-.X.-.-.-.:. .J F J G F J Z J Z F J G G G C G Z F J G C G Z J C J F Z H G Z M c z z z z z z c z z z z c z z z c z z z z z z z z z z z z M z z z z z z z k y r y r y r y r i r y r y r y r s r y r y r y r y r y r s r y r i r y r i r y r y r y i y r z Z G C G F J G G J Z Z G C G J G J G H Z G F J %.-.-.O.X.-.O.-.O.-.X.-.-.:.-.:.X.:.-.X.-.:.X.                                                                                                                                                                                                                                                                                                                        ",
"                                                                                                                                                                                                                                                                                                        w.v.z.f.l.x.x.t.-.-.-.-.O.-.-.-.O.-.-.-.-.-.-.O.-.-.-.X.-.:. .J G C G Z G F G F Z G C J G Z J F J Z G J F G G G Z G G F G Z M z z z z N z z M x z c x z z c M z x z M N z c z M z z z z z z M z z c x z z s r y r y r i r y r y a y a y r y r y r i r y r y a y r y r y r y a y a y r i r y s y r y w z C G G J Z F J C G F J G J C G C G Z G G Z F J  .:.X.-.-.-.-.-.-.:.-.O.-.X.-.-.-.X.-.-.-.:.X.                                                                                                                                                                                                                                                                                                                        ",
"                                                                                                                                                                                                                                                                                                        u.N.l.x.h.l.x.t.-.X.-.-.-.-.O.-.-.O.-.O.-.O.-.-.O.-.-.-.O.-. .J F G J F Z G J Z F J G C G F G Z G F Z G C J C J F Z Z H G Z M c z z z z z z z z z z M z z x z z z c z z z z x z z z x z M z x z z c M z z r y r y r s r y r y r y r y r y r y r y a y r i r y r y r y r i r y r y r y r y r y r t y r z Z J C G G Z G G J C G C G J G J C J F Z H Z J *.-.-.-.-.O.-.O.-.X.-.-.-.-.O.-.-.-.O.-.X.:.X.                                                                                                                                                                                                                                                                                                                        ",
"                                                                                                                                                                                                                                                                                                        w.v.x.h.l.z.x.u.-.*.-.X.-.O.-.-.X.-.-.-.-.-.X.-.-.X.-.-.-.:. .J G G C J G C G J G Z F G J C G J C J G F J G G Z J F Z F J F c z c z z z z z c z z c z z c M z c z z z z c z z c z c M z z z z c z x z z z y r y r y r y r y a y r y r y r y r y a y r y r y r y r y r y r y r y r y a y r i a y i y w z C G G C J F Z F Z G J G C G C G G G J G Z F J  .:.O.-.X.-.-.-.-.:.X.-.O.-.-.O.-.O.-.-.-.:.X.                                                                                                                                                                                                                                                                                                                        ",
"                                                                                                                                                                                                                                                                                                        w.N.l.x.x.l.x.t.-.X.-.-.-.-.X.-.:.-.O.-.X.-.-.:.-.-.O.-.X.-.*.J F J G C G J F Z F G Z G Z J Z F G G H Z Z F Z F J Z G F G Z M c z z z c M z x z M z z z z z z z z z z z x z z z M z z z c z z z z M c z z y r y r y r y r y r y r i r y r y a y r y r y r y r i r y r i r y r y r y r y r y y t r t r z Z G H Z G F J Z H G C G G C J C G C G C G C E  .-.X.-.-.-.O.-.X.-.-.-.-.X.-.-.-.-.X.-.X.:.O.                                                                                                                                                                                                                                                                                                                        ",
"                                                                                                                                                                                                                                                                                                        t.N.x.l.x.x.x.t.-.-.-.-.O.-.-.O.-.-.X.-.-.O.-.X.-.O.-.-.-.:.} L C Z F Z G C Z G J F J C G F G G C Z G G G J G J C G Z H G Z c z z z M z z z z z z z x z z x z z M z z z z z z z z z z x z z N z z x z z z r y a r r r y r y r y r r y r i r y r y r y r y r y r y r s r y r y r i r y r y r r t t r 8 k C G Z G G J Z F G Z G F Z G G G C G Z F G C J  .-.-.-.O.-.X.-.-.X.-.O.-.-.-.:.:.:.:.:.,.<.*.                                                                                                                                                                                                                                                                                                                        ",
"                                                                                                                                                                                                                                                                                                        r.v.x.h.l.h.x.t.-.-.-.-.-.-.-.-.X.-.-.:.-.X.-.-.:.-.-.-.X.-. .J G G J G Z J G G C G G G J Z J G J F Z F Z F J C G Z F G F Z M c M M N M M M c z x z z x M z z c z x c z z c z z c x z c z z z c z z z z z a r r r y r r r i r r a y r y r y r y r y r s r y a y a y r y r y r i r y r y r i y i y r w z Z G G F J C G J G H G J C G J J J G J G J G W  .:.:.X.-.X.-.-.-.-.-.-.O.:.-. .} [ } } ) ) ^                                                                                                                                                                                                                                                                                                                         ",
"                                                                                                                                                                                                                                                                                                        t.l.x.h.x.l.x.t.-.-.-. .-.O.-.X.-.:.X.-.X.-.:.-.X.-.X.-.-.X.*.*.} } ' } %.} ^ G G H Z F Z F G C G Z G J G Z G G F Z G F J C Z Z C Z C C Z C z z z z M k z z z z z z z z M z x M z z z M z c z z z z M c z l k l k k z z f r y y r r y r i r y r y r y r y r y r y r y r y a y r y r y r i r r t t t t z C G G Z G G C G Z G Z G F Z J ^ } ) } ) %.) %.-.X.-.-.X.-.-.-.O.-.O.-.-.:.:.                                                                                                                                                                                                                                                                                                                                        ",
"                                                                                                                                                                                                                                                                                                        r.Z.x.l.x.x.x.t.:.-.-.-.-.-.-.-.-.O.-.-.-.:.X.-.-.-.O.-.-.-.O.-.-.-.-.-.-.:.) G C G G Z J G C J G F Z F J F J C J G Z H G Z Z Z J Z J Z J Z c z k z x M z z M z c M z N z z z z z z c z z x z c z x z z z k l x k M z N z r w y a y r y r y r y r i r y r y r y r y r y r y r y r y r i r y y w r 0 w z C F G H Z H G H G H Z F Z F J } :.;.-.-.-.-.-.X.-.-.O.-.-.O.-.-.-.-.O.-.,.-.                                                                                                                                                                                                                                                                                                                                        ",
"                                                                                                                                                                                                                                                                                                        w.v.x.h.f.x.x.t.-.-.-.O.-.-.O.-.O.-.-.O.-.-.-.X.:.-.X.-.*.O.-.-.-.-.-.-.-.-.' J G C G F G C G G Z F J G C Z G G Z J G G G H Z J C Z C H C C z z z x k M z z z z z x z z z z z z c z z z z M z z M z z c x k k l z k M c k r y y r r y r s r y r i r y r y r y r y r y r y r y r y r s r y r y r 8 r r g F J C G G Z G Z G G F J G C J } O.-.-.X.O.-.O.X.:.X.-.-.O.-.-.O.-.-.-.-.:.:.                                                                                                                                                                                                                                                                                                                                        ",
"                                                                                                                                                                                                                                                                                                        u.x.x.l.x.l.x.t.-.:.-.-.-.-.-.-.-.-.-.-.X.-.-.-.-.O.-.O.-.X.O.X.-.X.-.-.-.:.) G C G C J Z G F J C G Z G G H G H G F Z H Z G G C J C J Z Z Z c z M M M l z z x z c z z z z c z x z M x z z z z x z z z z M z M z z z z z f r r r r r i r y r y r y r y a y r i r y r i r y r y r i r y r y r y w r 8 5 z C G G Z F J F J C G J C G Z G } :.-.-.-.-.O.*.:.X.-.:.-.-.-.-.-.X.-.O.-.:.-.                                                                                                                                                                                                                                                                                                                                        ",
"                                                                                                                                                                                                                                                                                                        w.A.x.x.h.x.x.t.-.-.-. .-.O.-.O.-.X.-.-.-.O.-.O.-.-.X.-.X.-.-.X.-.-.X.-.-.-.} J G Z G G F G Z G G G F Z G Z G C G Z G F J Z H Z Z Z Z C Z Z c M l M m M z z z z M z c z z z z c z z z c z c z c z c x z z z z z z c c f z r t i r a y r y r y r i r y r y r y r i r y r y r i r y r y r y r i y y a y z N G F G Z G Z F J Z G G C G J ) :.-.O.-.O.-.O.-.-.-.X.-.O.-.O.-.-.O.-.:.-.:.                                                                                                                                                                                                                                                                                                                                        ",
"                                                                                                                                                                                                                                                                                                        w.v.x.x.x.l.x.y.-.-.-.-.-.-.*.-.-.-.-.-.-.X.-.-.X.-.O.-.O.-.X.-.X.-.-.-.X.-.) G C G F Z G G F J C G J C J F J G C J G Z F J G F G F G G G Z c z z z z c z z M z z z z z c x z z z c M z z z M z z M z z c z z z z z f l s i w i i r y r y r s r y r y r y r y r y r y r i r y r y r y r i r r y w t w z S J Z J F G H Z G F J Z F Z J ) :.X.X.O.-.X.-.X.-.-.:.-.-.-.X.-.:.-.X.-.:.-.                                                                                                                                                                                                                                                                                                                                        ",
"                                                                                                                                                                                                                                                                                                        t.N.x.l.x.x.x.u.-.O.-.O.-.-.-.-.-.-.-.*.X.-.-.-.:.-.X.-.X.-.O.-.X.-.X.-.-.:.) J G C G J C J Z G G C G G G J C G G F J F J Z G G F G G G H C z z k M z z z x z c x z c z z z z z z z x z c z x z z x z z z z x z l z f c k y i r r y r y r y r y r y r i r i r y a y r y r y a y r i r y r y r 0 t 0 8 f C Z F G J Z G F J Z F J Z F J } -.-.:.X.-.-.-.-.X.-.O.-.O.-.-.:.X.-.-.:.:.:.                                                                                                                                                                                                                                                                                                                                        ",
"                                                                                                                                                                                                                                                                                                        w.v.x.x.x.h.v.u.<.:.:.,.1.,.:.-.-.-.-.-.-.O.-.O.-.-.X.-.X.-.X.:.X.-.-.-.-.-.} G G G F G G F G C G J Z F Z G J G J Z G Z G F G Z G G F G J C N z M c x x z z z z z z z x z z z M z z z z z z z c z z c M z z z z z z c l s a y y r r y r s r y r y r y r y r y r y r y r i r y r y r y y f f y i y y y l Z Z J C G F J Z G G Z F G C G ) :.X.-.X.-.X.-.-.-.-.X.-.-.:.X.-.-.O.-.-.:.-.                                                                                                                                                                                                                                                                                                                                        ",
"                                                                                                                                                                                                                                                                                                        w.v.x.v.x.l.x.f.d.f.d.f.d.f.j.2.X.-.-.-.X.-.-.-.X.-.O.-.O.-.X.-.X.-.X.-.X.-.) J C G Z J Z F Z J F G F J G C G C G F J C G Z H G F G G F G C j c c j j M z c z z M z z z M z c x z c z c x c M z z z z z z z z l z z z z k r r r a r y r y r y r s r y r i r y a y r y r y r y r y r y s M Z N C G C N C G F G G Z F Z F J C J G G G J ( :.-.:.X.-.-.X.-.X.-.:.X.-.X.-.X.-.-.X.-.:.:.                                                                                                                                                                                                                                                                                                                                        ",
"                                                                                                                                                                                                                                                                                                        u.A.x.x.x.h.x.f.x.x.l.l.x.l.f.8.-.-.-.X.-.-.O.-.-.-.-.X.-.-.O.-.-.-.-.-.-.:.( J G C G F J G G G Z H Z Z F J G J C J Z G H G Z G F Z G G H Z b M b M b M z z z x z c z c z x z z z z z M z z z z c x z c x z z z z l z z g a r r r r r y r y r y r y r y r y r y r y r i r y a y r y r s Z Z G G G C Z G G F J F J G J Z F G G C J C G } :.-.X.-.:.-.-.-.-.O.-.-.-.-.-.-.O.-.-.:.-.:.                                                                                                                                                                                                                                                                                                                                        ",
"                                                                                                                                                                                                                                                                                                        w.v.x.x.x.f.x.x.z.l.d.x.d.x.f.2.X.-.-.-.O.-.-.-.O.-.-.:.-.-.-.-.O.-.O.-.-.:.} J Z F G Z G H Z H G G G G J Z F J G G F J Z G F J Z H G C G C M M j M b j z z M z z z x M z z z c z c z z z z z z M z z z z z x z z z z c k a r d e r y r s r y r y r y r i r y r y r i r y r y r y r r s C G J C J G J F J G G J Z F G J Z H G G C G J ) :.-.-.X.-.X.-.X.-.-.-.O.-.O.-.O.-.-.O.-.:.-.                                                                                                                                                                                                                                                                                                                                        ",
"                                                                                                                                                                                                                                                                                                        w.A.x.f.x.x.l.h.f.x.x.l.x.l.h.7.-.%.X.-.X.-.O.X.-.X.-.X.-.O.-.:.-.-.-.O.-.-.} G F Z G H Z G Z G C G C F G J Z G C J Z G F J Z G G G H G J C M z M c z z c z z z c M z z z c z M z z z N z c z N z z c M z z z z z z z l k a r r a r a r r r r y i y r i y i r i r y r y r y a y r y r s Z Z G G G C G J Z F J C G J C G G Z G C J G G ) :.-.O.-.-.-.-.-.-.X.-.-.-.-.-.-.-.X.-.-.:.-.                                                                                                                                                                                                                                                                                                                                        ",
"                                                                                                                                                                                                                                                                                                        t.l.x.x.x.f.z.x.h.x.x.h.z.l.x.2.X.-.-.O.-.X.-.X.-.-.-.:.X.-.-.X.-.X.-.-.:.-.} J Z F G Z G H G F J G J Z H G C J G F G J Z F G H Z F J Z G Z M M z z M z z z c z z c z z z M x z z c z z z z z z c z z x z z x z z z z z s r r r r i r y y r r r y r y y r y r y r i r y a y r y r y r s C G H Z J F J C G J Z G F G Z F J C G G G C J ) :.-.X.X.-.O.-.X.-.-.-.O.-.X.:.X.:.-.X.-.:.-.                                                                                                                                                                                                                                                                                                                                        ",
"                                                                                                                                                                                                                                                                                                        w.A.x.x.h.l.h.x.h.l.z.l.l.x.h.t.-.-.X.-.X.-.O.-.X.-.X.-.:.X.:.-.:.X.-.X.-.:.( J G Z F J G Z G Z G C G G Z G G C G Z Z F G Z J C G J Z F J Z M c x M z z c M x z M z M z z z z z z M z c z z c z z x z z z c z z z c z l s s r i a w y r y r y i y i i i y r y r y r y r y r y r y r t f C G G F J Z G G C G F J Z G J Z F G G C G G G ) :.-.-.O.-.-.-.-.-.O.-.-.-.:.-.-.X.-.X.-.:.-.                                                                                                                                                                                                                                                                                                                                        ",
"                                                                                                                                                                                                                                                                                                        t.A.x.x.l.h.z.l.h.x.x.h.l.z.h.9. .-.-.O.-.X.-.O.-.-.-.X.-.-.-.X.-.-.-.-.-.:.} J C G Z F J F J F G Z H G F G H G G H G Z H G G G Z F J Z G C b b b z c b z z x z z M z z z c z z c z z z c z x z z z c z z z z N z z z x s r a w i r r w r y r r y r y r y i r s r y r y r y r i r y r s C J Z G F J C G G G Z F J C G G J Z F G J C J } -.-.O.-.-.X.-.X.-.-.X.-.O.-.X.-.-.-.-.X.:.-.                                                                                                                                                                                                                                                                                                                                        ",
"                                                                                                                                                                                                                                                                                                        w.A.x.h.x.l.x.h.h.x.l.x.f.x.x.2.-.-.X.-.X.:.X.-.X.-.X.-.:.X.-.:.X.-.O.:.X.:.) G G C G J Z G C G F J G Z J Z G C Z G C G G Z H G H Z G H Z C B M B M M N N N M k z z c z z x z z z M c z z z M z z M z z c z z z z z z z k s s s s a s s y r y y r y r i r y r y r y r s r y r y r s r s C G G C G Z G J C G H Z G G F J C J G C G G G ) -.-.-.X.:.-.-.-.-.-.:.X.-.-.-.O.-.O.-.-.:.-.                                                                                                                                                                                                                                                                                                                                        ",
"                                                                                                                                                                                                                                                                                                        t.l.x.x.x.f.z.x.h.l.z.x.z.l.h.t.X.*.-.O.-.X.-.X.-.X.-.-.-.-.O.-.-.-.-.-.-.:.) J Z F G F G F J Z J C G F G F Z G J G G J C G Z G Z G C G G C G F Z Z G C G N z z c z z z z z c z c z z z z z z z z z z z x M z z c z z x x k k k l z z c f r y r i i y y t i r y r s r y r y r y r y r s C J Z J G H Z F G Z G G H Z G C G G Z J F Z J } :.X.:.X.-.X.-.X.-.X.-.:.-.O.-.-.-.X.X.-.:.-.                                                                                                                                                                                                                                                                                                                                        ",
"                                                                                                                                                                                                                                                                                                        w.A.x.h.l.h.l.x.h.x.l.h.l.z.h.2.-.-.X.-.-.X.-.-.O.-.-.O.-.O.-.-.O.-.O.-.X.:.) G G Z J Z F J Z G G G Z J Z J F G C G C G G H G H G F G Z G G J Z F F J C J Z c z z z c M z z z z M c M z c x M c x z z M z z c z x z c z z x z z z z c N f r w y i r y r i r y r y r y r y r y r y r r s C Z F G Z F J G G H Z G G H G G H Z F J Z F J ( :.-.-.X.-.-.-.-.-.-.X.-.-.-.-.O.-.-.-.X.:.-.                                                                                                                                                                                                                                                                                                                                        ",
"                                                                                                                                                                                                                                                                                                        t.A.x.x.x.h.z.x.h.x.z.l.h.l.x.2.X.-.-.-.O.-.-.-.-.X.-.-.-.-.-.X.-.-.-.-.:.-.} J F G F J Z G F J C G F J F Z J F J G G H Z G Z G C J Z H G C G F J C C F G C M c z z x z z c z z z z z z M z z z z c z c z z z z z z z x z z z z z z z z g r y i r y i r y y a y r y r y r y r i r y r y Z J G F J G Z F J Z F J Z G Z G Z G J C G G J ) :.-.O.-.-.X.-.X.-.-.-.-.O.-.-.-.-.O.-.-.:.:.                                                                                                                                                                                                                                                                                                                                        ",
"                                                                                                                                                                                                                                                                                                        w.v.x.h.l.x.l.h.f.x.l.h.z.l.h.7.-.-.X.-.-.O.-.O.-.-.-.O.-.O.-.:.-.O.-.X.-.:.( J Z F Z F G C J G G H Z G C G G Z G H Z G Z H G J G C G G G C J Z G G C G G Z M z z z c z z z M x c M z c z z z z M z z z N z c z M x z z z z c x z c c z f r r i r y r y r y r y r y r y r i r y r y r s C G H Z G H G Z F G Z F G F J C F G C G G C G ) :.-.-.-.-.-.-.-.X.-.O.-.-.O.-.O.-.-.X.-.-.-.                                                                                                                                                                                                                                                                                                                                        ",
"                                                                                                                                                                                                                                                                                                        t.N.x.x.x.f.z.x.h.x.z.l.l.x.x.9.-.-.-.-.:.-.-.-.-.O.-.-.-.-.-.X.-.-.-.-.:.-.} G G C G Z F J Z F J Z G G G F Z F C Z F Z F Z F Z F J F Z J G G C G C G C Z N M z z z z M x z z z z z z z z c x z z z N z z z z N z z c M z z z z z z f c f r i r y r i r i r y r y r i r y r r r y r w s C G G C G Z J G J C G J Z J G G J C G F Z F J ( :.-.-.X.-.X.-.-.-.-.-.O.-.-.-.-.X.-.X.-.:.:.                                                                                                                                                                                                                                                                                                                                        ",
"                                                                                                                                                                                                                                                                                                        w.v.x.l.h.x.f.x.x.x.l.A.l.N.x.y.X.-.X.-.X.-.O.-.X.-.-.O.-.O.-.-.O.-.O.-.X.:.} J Z F Z F Z G F Z G F J C J C G C G C G C G C G G Z G Z F Z F J G C F C Z Z B M z x c z z z z z z c M z c z z M z c z z z c z z z c z z z c z M z z c c f f w r r i r r y r r i r i r y r r y r y r r r s C G Z G H G C G C G G F J C Z F Z G C G G Z G ) >.-.-.-.-.-.-.X.-.O.-.-.-.X.:.-.-.O.-.X.:.-.                                                                                                                                                                                                                                                                                                                                        ",
"                                                                                                                                                                                                                                                                                                        t.A.x.x.x.f.z.x.h.x.x.h.x.l.x.y.-.-.-.-.:.-.-.-.:.X.-.-.-.-.X.-.-.-.-.-.-.:.) G C G G Z F Z G C G J Z G G J G G G F Z F Z G C G H G J G H Z F J Z F Z Z Z C z z z z z c z z c z z c z M z z z z z z c z z N z z z z c z z x z z z z c f g r a r r i a r y r y r y r y i r r r r r 0 r s Z F J G Z G F Z J G C Z G F G Z F G G C G F G ) -.-.-.-.:.-.-.-.-.-.-.O.-.-.X.-.O.-.-.-.-.-.                                                                                                                                                                                                                                                                                                                                        ",
"                                                                                                                                                                                                                                                                                                        w.l.x.h.x.x.l.-.            M ^ X.-.O.-.X.-.O.-.X.-.-.O.-.O.-.-.O.-.O.-.-.-.} _ ( ^ ( ( _ ! J H G C F Z F Z ) X.-.-.-.-.X.X.J F Z F J C Z G G Z F G C G Z N M z M z z z N z z z M z z z z z N z c x z M z z c z z z z x z z z c z z c z f a y r i r r y r r r i r r r r z l z z c z z c Z G Z F J C G J F J G J C G J P ( ( ( ( ( ( _ } -.-.-.-.-.O.-.X.:.X.-.-.:.O.-.:.-.O.-.O.-.:.                                  Z C Z V                                                                                                                                                                                                                                                                                               ",
"                                                                                                                                                                                                                                                                                                        t.N.x.h.x.l.x.C               g -.-.-.-.-.O.-.-.-.-.O.-.-.-.-.O.-.-.-.X.:.-.-.&.-.&.-.&.-.&.^ F Z G H Z Z G ,.f.f.f.l.x.x.d._ F G J C J Z Z G G F Z Z G Z C z z z M z z z z c z z z c z c z z z z z z z c z z c z c M z c M z z z x l l k r a r r r r i r i a w i a w r v Z Z Z G J Z J F J G C G J Z G Z C G C G C J ( -.-.-.-.-.-. .-.-.-.-.O.-.-.-.-.O.-.-.O.:.:.:.O.:.-.O.-.1.:.                                @.L.C.C.H.K.P.                                                                                                                                                                                                                                                                                          ",
"                                                                                                                                                                                                                                                                                                        w.A.h.x.x.N.v.C                 X.-.O.-.O.-.-.O.-.#.-.X.-.O.-.-.-.X.:.-.X.-.:.-.-.-.X.-.-.-.( F F F J Z C J $.c.l.x.x.M.N.g.( F Z F G Z Z G F F F Z Z C Z C z M z z c z z M z x z M z z z z c z z c z x z z x M z x z z z z z N z z k z f r r r y r i r r r i r r w r i C Z F G G F G F Z F Z G Z F J F G J G G G C G ( X.-.-.-.-.-.-.-.-.O.*.-.*.O.-.O.-.-.-.-.:.X.:.-.-.-.O.-.:.1.                                #.P.L.L.L.L.P.u.                                                                                                                                                                                                                                                                                        ",
"                                                                                                                                                                                                                                                                                                        t.l.N.h.x.l.x.C                 -.-.-.-.-.-.-.1.*.-.-.-.-.-.O.-.:.-.X.-.-.-.-.-.X.-.-.O.-.-.^ H F G H G G J $.l.N.z.h.z.x.d.( C G G G C G F F H F G Z G Z C z z z M z z z z z z z z x z z x z c x z M z z M z z z z z c z N z z z z x l f r r r y r r y r i r r a i r a N Z H G G F J Z J G H G H G Z J C G J C J G G ( -.-.O.-.-.X.-.-.-.-.-.-.-.-.-.-.-.O.-.X.-.-.-.:.:.-.-.1.:.:.                                @.L.H.C.C.K.P.w.                                                                                                                                                                                                                                                                                        ",
"                                                                                                                                                                                                                                                                                                        w.N.h.x.h.N.l.C                 :.-.:.:.O.*.O.*.O.-.O.-.O.-.-.X.-.X.-.-.O.-.:.-.-.-.-.O.-.-.( F F Z F G C J ,.x.l.h.l.h.v.d._ F F G G Z H J L F G Z Z Z Z C z z M z z c z c M z c z z M z z M z z z z z z z z z z z z z z z z z z z l z k r d r y r r i w a r i r r r s M Z F G G F G F G Z G Z G C G G Z F J G Z F Z ( -.O.-.-.-.-.O.-. .-.-.O.-.O.-.O.-.-.-.-.O.-.-.-.1.-.O.-.1.:.                                #.L.K.C.D.K.L.w.                                                                                                                                                                                                                                                                                        ",
"                                                                                                                                                                                                                                                                                                        t.N.l.h.x.x.l.F                 ,.-.-.-.-.O.-.-.-.-.-.O.-.-.-.O.-.-.-.-.-.X.-.-.:.-.-.-.X.-.^ H F J Z G F J 2.N.z.x.x.x.v.d.( C G F G C G F G G G G G F Z v c x z z M z M x z z x M z z c z z z z M z z c z z c z c z M z z c z z z k x s r r r y r a t r i r r r r r r Z Z F G G F J Z H G H Z F J Z H G Z G C G G H ( -.-.O.-.-.-.-.-.-.-.-.-.-.-.-.-.O.-.O.-.O.-.O.:.O.:.O.O.:.:.                                @.P.C.D.C.G.P.w.                                                                                                                                                                                                                                                                                        ",
"                                                                                                                                                                                                                                                                                                        w.v.x.h.x.l.x.C                 ,.:.:.:.-.-.-.#.-.O.*.-.-.O.-.-.X.-.O.-.O.-.-.-.-.-.O.-.-.-.^ H F G F G C J $.N.z.x.f.x.x.f.^ S G G C Z F C Z G Z Z Z Z Z N c z z z z x z M k x M z z z x z z z z z c z z x z z z z x z z z z z z x z x k r r r r r r i w a r r r r r r C Z F G G F Z F Z F Z G J G G Z F Z F G C G Z ( -.O.-.-.X.-.O.-.O.-.O.*.O.-.O.-.-.-.X.-.:.:.:.,.,.:.,.,.2.3.                                #.L.K.C.G.C.P.w.                                                                                                                                                                                                                                                                                        ",
"                                                                                                                                                                                                                                                                                                        t.N.x.h.h.N.l.C                    .} %.} } %.X.-.X.X.-.-.-.O.-.-.-.-.-.-.O.-.;.*.*.*.*.-.X.^ J Z G G H F J 7.N.x.x.x.l.N.a.} L J J J J J H Z Z Z Z C Z Z N M z M c M z z z M m k M z z z z M z c x z z z c z z z M z c z x c z c z k z k a a r y a a a a d r i r i a y M Z F G G F J Z H G Z F Z H G C G F J J G Z G ( -.-.O.-.-.-.-.-.-.-.-.-.-.-.-.O.-.O.-.-.O.O.O.*.%. .....X...                                @.P.F.D.C.J.L.w.                                                                                                                                                                                                                                                                                        ",
"                                                                                                                                                                                                                                                                                                        w.l.h.x.x.x.l.C                             6 P ,.:.-.O.-.O.-.-.O.-.O.-.-.-.-.-. .-.-.X.O.-.( Z F F G F F G t.D.A.C.C.F.C.N.p.u.t.t.u.u.u.$.J C G Z G Z J Z C C Z C C C Z M M M M z z z c z z z z z z M z z M z c z z z z z z z z z x z c M v c c M M M c M M M M M c M Z G C G C G C G G C G J F Z F P ) ) %.) ) } ) %.:.O.-.-.-.X.-.O.-.O.-.O.-.O.-.-.X.-.-.X.-.;.J 6                                             #.P.K.C.D.K.P.w.                                                                                                                                                                                                                                                                                        ",
"                                                                                                                                                                                                                                                                                                        t.N.x.h.h.l.x.C                               C <.,.-.-.-.-.-.-.-.-.-.O.-.O.-.-.-.O.-.O.:.-.! Z G F G H F J y.J.D.G.F.D.C.L.C.J.L.K.K.K.L.l.W C K J Z F Z J Z J Z J Z J G B M M M z c x z z z N z c z c z z z z z z c z z c z c z z z M M Z G Z G Z Z Z G G Z F J Z F G F Z G F Z G F Z G G C G Z G C _ -.:.-.-.:.-.-.X.-.-.X.-.*.-.-.X.-.-.-.-.-.-.O.-.-.-.:.-.-.<.n                                               @.P.H.D.C.D.P.w.                                                                                                                                                                                                                                                                                        ",
"                                                                                                                                                                                                                                                                                                        w.A.h.x.x.N.l.C                               B 3.-.-.:.X.-.O.-.O.-.X.-.-.-.O.:.O.O.-.O.O.-.^ G C G F G G G t.L.D.D.F.G.D.H.K.K.H.L.H.G.L.d.E G G F G G Z C Z C Z C Z G C C M b M z z z M z z z z z z x z c x M z x z M z z x z M x z M M Z Z G Z G G C G G F Z G J G J Z F Z G F Z G F Z F G G F Z F ^  .-.X.-.X.-.-.-.X.-.O.*.-.X.-.-.-.O.-.O.-.-.-.-.O.-.X.-.-.;.n                                               #.L.F.C.D.C.L.w.                                                                                                                                                                                                                                                                                        ",
"                                                                                                                                                                                                                                                                                                        t.l.N.h.x.x.x.C                               C <.:.-.-.-.-.-.O.-.-.O.-.O.-.-.X.:.X.:.X.:.-.^ J F F J G F G u.L.G.F.C.C.G.H.C.J.F.G.H.K.L.g.P C K G Z F G G H G F J F H Z B M M z z c z z c z z c x M z z M z z z z z z z M z c z z z z B Z Z Z Z G G G G G G J F Z C G F J C G Z F Z G J C G C G G C W  .-.-.X.-.-.X.*.X.-.-.-.-.-.-.O.-.-.-.-.-.O.-.-.-.-.-.-.-.;.                                                @.L.F.C.C.C.P.w.                                                                                                                                                                                                                                                                                        ",
"                                                                                                                                                                                                                                                                                                        w.N.x.h.x.l.x.C                               C <.:.X.-.O.-.-.-.X.-.-.-.-.-.X.:.X.X.X.-.X.-.^ H C Z F J C G t.L.G.F.J.F.C.K.D.D.K.G.F.K.L.g.L K K G G Z F Z F G F G H F G M M M M z z z x z z x z z z z z z c z c M z c z z z z z z z M M Z Z R Z G G F G Z F Z J F G J Z G G H G J F J C G G G C G C Y -.:.X.-.O.-.*.X.-.O. .-.X.-.-.-.-.O.:.X.-.-.O.-.O.-.O.-.X.;.                                                #.P.K.L.K.L.L.w.                                                                                                                                                                                                                                                                                        ",
"                                                                                                                                                                                                                                                                                                        u.v.x.z.f.N.v.C                               B :.:.-.-.-.O.-.-.-.-.O.-.X.-.-.X.-.-.-.-.-.X.^ G Z G G F K R t.L.F.C.C.K.C.F.D.K.G.L.C.F.L.g.E K G Z G Z J C Z G Z Z Z Z Z M m k m M k M M m z z z z z x z z z z c z z M z B b M b M M M B G C F G C G Z F G J F Z J C G F Z G Z F Z J Z G F J C G Z G ^  .-.-.-.-.-.O.-.-.-.-.-.-.O.-.:.-.-.-.-.:.O.O.-.-.%.-.-.-.;.                                                @.P.K.G.D.H.P.w.                                                                                                                                                                                                                                                                                        ",
"                                                                                                                                                                                                                                                                                                        w.A.x.l.h.x.x.C                               C :.:.-.O.-.-.X.-.O.-.-.-.-.O.-.-.:.X.-.X.-.-.( F C Z G G C G u.L.L.L.J.K.L.L.C.G.H.G.L.F.L.d.G B C G C Z C F G Z F G C Z Z B M l M M M m z M z z x z k z l c z z h M z z z M M b b M M M M G G C H Z F Z G C G Z F Z G G J F G J G G C G C G Z G F G C ! *.:.-.O.-.-.-.-.O.-.O.-.O.-.X.-.-.-.-.-.O.-.O.-.-.-.;.,.;.<.                                                $.P.P.L.P.P.P.p.                                                                                                                                                                                                                                                                                        ",
"                                                                                                                                                                                                                                                                                                        t.l.N.l.f.x.v.C                               S >.-.-.-.X.:.-.O.-.-.O.-.-.-.:.X.-.-.-.O.O.-.( J J G J H C L 6.C.F.M.M.V.M.C.C.L.G.K.F.F.H.g._ Q Y E Q P J J F G G G G F Z N M M m z M M z M z k z x z x z c c c c c c N z z M b M M M M B Z F Z H G G H G J C G J F J C G J C G H Z J G G F J Z J Z F ^  .-.-.-.-.O.-.X.-.-.-.-.-.-.-.-.:.O.-.O.-.O. .) [ ^ [ ( (                                                   | M.g.m.m.g.N.@.                                                                                                                                                                                                                                                                                        ",
"                                                                                                                                                                                                                                                                                                        w.A.x.z.x.x.N.C                               C :.:.X.-.:.X.-.-.X.-.-.O.-.O.-.-.O.-.O.-.:.-.%.]  .%.%.%.} %._ _ _ _ ( _ _ *.x.L.F.D.F.H.G.C.N.M.M.N.z.x.v.-.G Z Z C G Z G Z Z G Z Z Z Z Z M b x z z z z M Z C Z C F C Z G Z Z Z C G C G F Z F J G C G Z G G G G G J Z G C G G Z G F G C H Z F J F G Z ^ *.-.-.O.-.-.-.-.:.X.-.O.-.X.:.-.:.O.-.-.:.<.}                                                                                                                                                                                                                                                                                                                                                                       ",
"                                                                                                                                                                                                                                                                                                        t.A.x.f.x.h.v.C                               C :.-.-.-.X.-.-.-.-.O.-.-.-.X.-.-.-.X.-.O.:.-.-.&.-.-.-.-.-.-.P C G C C C B Y g.J.G.C.G.C.F.D.K.L.J.L.L.J.J.0.J Z C G C G G C G C Z Z Z Z Z M h z z z z z z J Z Z J G H G G G F G Z G G F J Z H C G J C J C J C J C G F J G Z F J Z F J C G H J Z G C G ! X.-.X.-.-.O.-.O.-.-.O.-.-.-.X.:.-.:.-.-.,.,.^                                                                                                                                                                                                                                                                                                                                                                       ",
"                                                                                                                                                                                                                                                                                                        w.v.x.l.h.x.x.C                               C >.:.O.-.-.:.X.:.-.-.-.X.-.-.-.O.-.:.O.-.-.O.-.-.X.-.-.-.-.%.Q G G G G Z C P l.L.H.D.G.C.J.C.H.H.C.D.L.C.L.y.G Z G F G H F H F H G Z Z Z Z M M z x z x z c Z C Z F J C G G Z G Z G C H H C G H G G G G G G C G G G J Z G C G J C G J C F J C J F J Z F ^ *.-.-.O.-.-.-.-.-.X.-.-.-.O.-.:.-.:.O.-.:.,.^                                                                                                                                                                                                                                                                                                                                                                       ",
"                                                                                                                                                                                                                                                                                                        u.N.x.l.h.x.Z.C                               C 3.:.-.*.-.-.-.X.-.O.-.-.O.-.:.X.-.X.-.1.-.-.X.-.-.-.-.-.-.%.! G C G F G C P h.J.H.C.J.F.C.G.C.G.K.D.C.D.D.t.J C Z G G G Z G J Z C Z C Z Z M h z z z k z M Z Z Z G Z G H J H Z F H Z G Z J F G H Z H Z F J G H Z F Z F G G C G G C G Z F J F J Z F G C W X.-.O.-.-.O.-.O.-.-.-.O.-.-.-.-.:.O.-.:.:.2.|                                                                                                                                                                                                                                                                                                                                                                       ",
"                                                                                                                                                                                                                                                                                                        w.v.x.z.l.x.x.C                               B 3.:.-.-.-.*.-.-.O.-.-.-.-.-.X.-.-.-.O.-.-.:.-.:.X.-.-.-.-.%.Y Z G F G F C J h.J.H.F.F.H.J.K.C.G.C.J.G.J.G.t.J C G F Z F Z F Z F Z Z Z G Z M M k x k z z M Z G Z G C G Z F J C J C G G F Z G Z G G Z F Z F Z G F J G C J Z H G F J C G H Z H J G Z G G ^ X.-.-.-.-.-.X.-.-.O.-.-.O.-.O.-.:.-.-.:.:.,.|                                                                                                                                                                                                                                                                                                                                                                       ",
"                                                                                                                                                                                                                                                                                                        t.A.x.f.x.h.Z.C                               S 3.+.O.O.X.-.*.-.-.X.:.X.-.-.:.-.O.-.O.-.1.X.-.-.X.-.-.X.-. .P G Z Z F Z C W z.K.K.F.G.H.C.H.D.K.D.D.C.G.G.t.H F F G G Z G Z G G Z Z Z Z Z N M l M x x l M Z G C Z G Z F J C C Z H Z F G J F J C G G J G J G Z G Z F G Z G G Z G Z G F H Z H C G H J C ^ -.:.-.O.-.O.-.:.-.-.X.-.-.-.-.-.:.O.:.O.-.<.|                                                                                                                                                                                                                                                                                                                                                                       ",
"                                                                                                                                                                                                                                                                                                        w.A.x.x.l.x.l.B                                 0.3.,.3.<.,.,.:.-.-.-.:.X.:.X.-.-.-.O.-.-.-.O.-.-.:.-.-.-.-.P F G F C G C J g.K.K.K.G.J.G.L.D.F.D.K.D.C.L.t.J F G G G Z Z Z Z F Z G Z Z Z M k M k k M m M Z G C G C Z C C J C F Z H G Z G J Z G C G C G J C J F J Z J F J F J F J C Z A C F F Z C G C P -.:.-.-.-.-.-.X.-.-.-.O.-.-.O.-.:.:.-.-.,.,.[                                                                                                                                                                                                                                                                                                                                                                       ",
"                                                                                                                                                                                                                                                                                                        u.A.l.x.h.x.Z.( >                               L K C C C S L  .:.X.-.-.X.-.-.-.O.-.O.-.1.X.-.:.X.-.X.-.X.-.! W P ! P Y L ^ d.N.M.M.N.x.N.N.F.D.F.D.C.J.L.t.G C G G Z G Z G Z G C Z G Z G N B N M M M N M Z F Z G Z G G C J J C J C G H Z F J G J G J C G J G Z F G G J Z G C G Z G Z A L Y P P P P J _ X.:.:.-.O.-.O.-.-.O.-.-.:.X.-.:.-.O.-.-.:.,.|                                                                                                                                                                                                                                                                                                                                                                       ",
"                                                                                                                                                                                                                                                                                                        w.A.N.l.x.h.x.d.u.t.w.w.w.t.q.                              @ [ >.-.-.O.-.:.X.:.-.X.-.1.-.-.-.-.X.-.-.X.-.X.-.%.X.*.*. .*.%.#.,.,.2.2.,.O.t.G.F.F.C.G.C.G.t.J F G G G G G Z G C G H F G G G G Z G G Z G Z G Z F Z G Z H Z C H Z H F F G J Z F Z F Z F J G J F G J C G C G F Z J F J K T O.-.O.-.X.-.-.X.-.-.-.-.X.-.-.-.O.-.-.O.-.-.-.X.-.O.O.-.:.,.[                                   u.9.w.9.u.5.                                                                                                                                                                                                                                                                                                                        ",
"                                                                                                                                                                                                                                                                                                        t.l.x.x.f.x.x.x.v.v.v.x.v.v.f.                                [ >.X.-.-.-.-.-.-.-.-.O.-.O.-.O.-.-.-.-.-.X.-.X.-.-.-.-.-.-.-.O.X.-.X.X.-.X.2.C.F.C.D.K.D.L.t.J G C G F H G F Z F J C J Z J G F G G Z F H F F J C G F Z G H G Z F J J F H C G F Z F J G Z F J Z F J G C J G J G F J Z F Y O.:.X.-.-.:.-.-.:.-.O.-.:.-.O.-.-.-.O.-.-.O.-.-.:.-.O.-.,.,.|                                 f.n.l.v.l.n.f.                                                                                                                                                                                                                                                                                                                        ",
"                                                                                                                                                                                                                                                                                                        w.A.h.x.x.f.x.f.h.x.x.x.x.x.f.                                [ ;.*.-.-.X.-.X.-.O.-.-.-.-.-.-.O.-.X.-.-.X.-.-.-.-.X.-.-.-.O.-.-.X.-.O.-. .3.C.L.K.C.J.K.J.t.J Z G G H Z F J F J C G C G C G G Z F J C J C J C G J Z H G Z G F Z G H C J F J F J G Z F J Z G F Z G C G G C G C G C G L T X.:.O.-.X.-.X.-.-.-.-.-.X.-.-.X.-.X.-.-.X.-.-.O.-.O.-.O.:.,.|                                 p.x.x.h.x.x.f.                                                                                                                                                                                                                                                                                                                        ",
"                                                                                                                                                                                                                                                                                                        t.N.l.h.l.x.x.x.l.x.x.f.h.l.h.                                [ :.-.-.X.-.-.O.O.*. .*.#.-.O.-.-.-.-.-.-.-.-.X.-.-.-.-.O.-.-.X.-.-.X.-.-.O.3.C.K.F.J.C.J.G.7.H F F G Z G Z G C G F G H F K G F J Z F G G C G G C G F G C G C G F F Z G F J Z G C J F J Z F G F F F G F F G F F F G F F Y O.-.O.*.X.-.*.-. .-.-.O.-.X.:.-.-.-.-.:.-.-.-.X.O.X.O.-.+.,.[                                 f.x.h.h.x.v.d.                                                                                                                                                                                                                                                                                                                        ",
"                                                                                                                                                                                                                                                                                                        w.v.x.x.h.l.g.l.h.x.x.h.x.x.f.                                [ >.-.-.-.-.X.-.O.-.1.*.-.-.X.-.O.-.-.-.X.-.-.-.-.X.-.X.-.-.-.:.-.-.X.:.-. .2.C.L.C.G.H.D.L.t.J F F G G F J Z G F J F G G F J G F G G J C G J G J F J Z G J G F G F G J Z G C J F Z J G G Z G C G C G F Z F G C G F F F J  .:.X.-.-.:.X.-.-.-.*.-.-.-.-.O.-.O.-.X.-.O.-.-.:.X.-.O.-.2.[                                 p.x.x.h.x.x.f.                                                                                                                                                                                                                                                                                                                        ",
"                                                                                                                                                                                                                                                                                                        t.N.f.x.f.x.h.x.f.x.x.l.x.l.h.                                [ ,.-.1.-.-.-.-.-.-.O.-.O.-.-.X.-.-.X.-.-.X.-.X.-.-.-.-.-.O.-.X.-.-.X.X.-. .3.C.K.F.J.C.L.F.t.G C G Z Z Z C G Z F G F G G G G F G F G F J G C G Z G Z F J F J Z C G C C F Z G G J G C G H G C G G G C G C G C G Z C Z G J  .-.-.:.-.-.-.-.-.:.:.X.:.X.-.-.-.-.-.-.-.-.O.:.,.:.O.:.,.,.|                                 f.x.h.h.x.v.d.                                                                                                                                                                                                                                                                                                                        ",
"                                                                                                                                                                                                                                                                                                        w.v.x.x.h.l.x.l.x.x.f.x.x.x.f.                                  2.>.,.:.,.-.:.:.-.-.-.-.-.O.-.-.-.-.O.-.-.-.-.-.X.-.O.-.-.:.-.X.-.-.O.-.X.3.C.L.F.H.D.H.D.t.F F C G C F C G F G F H F F C F G G G J Z F J Z J F J G J C Z G F Z G G G G J F J C G J C Z F J Z F Z G F Z G G F G G F G J -.-.*.-.X.-.X.-.X.-.-.-.-.-.:.X.:.X.:.O.-.O.-.;.-.>.-.,.-.3.|                                 f.x.x.h.x.x.f.                                                                                                                                                                                                                                                                                                                        ",
"                                                                                                                                                                                                                                                                                                        t.l.h.l.h.x.x.z.x.x.h.l.x.x.f.                                              C X.:.X.-.O.-.-.-.O.-.-.-.X.-.X.-.X.-.-.X.-.O.-.-.-.X.-.X.-. .3.C.K.C.J.F.J.D.f.-.-.%.-.-.*.-.%.%.-.%. .-.-.} P F Z F H G Z G F G Z F J Z C J W ^ ^ ^ ! ^ ! P Z G Z Z G F G P W ^ ^ ^ ^ ^ ^ ^ ! ^ ! ^ ! _ ( -.-.-.-.X.-.-.-.-.X.-.X.-.O.-.X.-.-.-.-.-.-. .Z s                                           W f.x.h.h.x.v.d.                                                                                                                                                                                                                                                                                                                        ",
"                                                                                                                                                                                                                                                                                                        w.A.h.x.z.f.f.h.l.x.f.z.f.x.f.                                                } :.-.-.-.O.-.O.-.-.O.-.-.-.-.-.-.-.X.-.-.-.O.-.-.-.O.-.:. .2.C.L.F.J.C.L.F.N.x.h.x.z.f.h.h.h.f.f.f.f.l.l.a.} D H H D G F J Z F J Z F G G W ` &.-.-.-.-.%.( G C G Z Z G H ( &.-.-.-.-.-.-.-.-.-.-.-.-.-.*.-.-.-.O.-.O.X.X.-.O.-.-.:.-.-.-.:.X.-.O.-.:.} 1               o.l.f.d.d.f.d.f.d.f.d.f.d.h.d.f.h.x.h.x.x.x.f.                                                                                                                                                                                                                                                                                                                        ",
"                                                                                                                                                                                                                                                                                                        t.N.l.h.f.x.x.l.h.x.x.f.x.x.f.                                                } <.-.O.-.-.-.-.-.O.-.-.X.-.X.-.X.-.:.-.O.-.-.X.-.-.X.-.-. .3.C.K.F.C.J.C.D.C.x.x.l.x.v.v.x.v.h.v.l.l.x.v.f.%.C G F F G C G C G C G G C Z W %.-.-.-.-.&.-._ G C G Z F G G ) -.-.-.-.-.-.-.-.-.-.-.-.X.-.-.O.-.-.O.-.X.-.:.X.-.X.-.X.-.O.-.X.-.X.-.-.:.} :               5.A.v.v.v.l.A.x.A.l.A.N.v.v.l.N.x.h.l.h.x.v.d.                                                                                                                                                                                                                                                                                                                        ",
"                                                                                                                                                                                                                                                                                                        w.v.h.l.x.x.f.x.x.x.l.x.x.x.f.                                                } ,.-.-.O.-.O.X.-.-.X.:.X.-.-.-.-.O.-.X.-.-.X.:.-.X.-.O.-.X.3.F.L.C.J.F.J.D.N.v.x.x.x.x.h.x.h.f.f.f.v.f.l.f.' F J G J F Z J G G G C G J Z P -.-.-.-.-.-.-.( J C G F Z F G [ O.-.-.-.X.-.:.X.-.X.-.X.-.-. .-.-.-.X.-.O.-.X.-.O.-.-.-.O.-.-.-.-.-.-.O.:.}                 @.v.x.l.f.x.h.x.h.x.h.l.x.x.x.x.x.x.h.h.x.x.f.                                                                                                                                                                                                                                                                                                                        ",
"                                                                                                                                                                                                                                                                                                        t.N.f.x.x.f.x.x.h.x.h.x.h.x.f.                                                } 3.-.O.-.-.-.-.O.-.-.-.:.-.O.-.-.-.X.-.-.:.-.X.-.-.X.-.-. .2.C.K.F.J.C.L.D.C.x.l.x.x.x.h.x.f.f.j.l.f.l.x.d.' F G F G J G F Z F J G Z F Z E X.:.O.-.-.%.-._ G G C G F F Z ( #.X.O.-.#.O.O.-.-.-.-.-.-. .-.-.-.-.-.O.-.-.-.O.-.X.-.-.-.-.O.-.O.-.O.-.,.}                 #.v.f.l.h.x.x.x.f.x.h.x.x.x.x.x.l.h.f.h.x.x.f.                                                                                                                                                                                                                                                                                                                        ",
"                                                                                                                                                                                                                                                                                                        w.v.x.x.l.z.h.l.x.x.g.l.x.x.f.                                                } ,.-.-.-.X.-.-.-.:.X.-.X.-.:.X.-.O.-.:.X.-.:.-.O.-.X.O.-. .3.C.L.F.C.J.H.D.N.x.x.f.z.l.h.x.l.f.f.f.l.x.x.d.) C F F G F J Z G J Z F J Z C P X.:.-.O.-.-.-.( Z F G H G F G ( -.:.:.X.-.:.O.-.-.-.-.X.-.-.-.*.-.*.-.-.:.-.-.:.-.-.O.:.X.-.-.-.-.-.-.-.,.}                 @.v.x.f.l.x.l.h.x.x.l.x.f.x.f.x.x.x.h.x.x.v.d.                                                                                                                                                                                                                                                                                                                        ",
"                                                                                                                                                                                                                                                                                                        u.l.h.h.h.l.h.x.x.x.x.x.x.v.f.                                                 .:.:.X.-.-.O.-.X.-.-.X.-.:.-.:.X.:.-.-.-.O.-.-.-.-.-.-.O.*.2.C.L.C.D.K.D.G.C.x.h.l.x.x.h.l.h.f.f.f.h.l.x.d.) F G F H Z F C G C G Z F G F _ -.-.-.-.*.%.%._ G C G F F G H } :.X.-.-.X.-.-.-.-.-.X.-.X.-.-.-.O.-.-.O.-.X.-.-.O.-.-.-.-.-.O.X.-.O.X.-.:. .*               $.l.h.x.f.x.h.l.x.x.h.x.h.x.x.x.h.x.x.h.x.v.d.                                                                                                                                                                                                                                                                                                                        ",
"                                                                                                                                                                                                                                                                                                        w.A.x.l.h.l.h.f.f.f.f.d.f.f.i.                                                } <.-.-.-.O.-.O.-.-.O.-.-.X.-.-.-.-.-.O.-.-.-.O.-.O.-.O.-.X.2.C.D.D.C.C.C.D.C.z.x.x.M.x.x.x.Z.x.x.x.f.x.x.f._ C J J J H J H G G G G Z G F T -.-.-.-.&.] &._ G J Z G G F J } :.-.-.-.-.-.-.-.X.-.X.-.O.` ` -.:.:.-.-.-.-.-.:.X.-.-.-.X.-.X.$.,.:.O.O.2. .<             X $.A.x.z.x.z.f.x.x.l.x.x.g.l.x.l.l.x.x.x.x.l.f.                                                                                                                                                                                                                                                                                                                        ",
"                                                                                                                                                                                                                                                                                                        t.l.h.x.h.x.x.}                                                               } :.:.-.O.-.-.-.X.-.-.O.-.:.X.-.O.-.:.-.-.O.-.-.-.-.-.O.X.-.:.u.i.u.i.i.i.u.d.N.N.C.N.C.N.C.C.A.N.C.N.C.C.x.0.-.:.:.:.:.,.X.J Z F Z G F C P X.-.-.-.*.=.*.%.( ( ( ( ( ( _  .-.-.-.-.-.X.-.-.X.-.O.-.O.-.&.O.-.-.O.-.:.-.:.X.-.X.-.-.*.X.2.u.u.u.u.u.i.t.^ B B C B C B J u.x.l.x.l.x.h.x.z.h.x.x.h.x.z.x.f.z.h.x.x.N.d.                                                                                                                                                                                                                                                                                                                        ",
"                                                                                                                                                                                                                                                                                                        w.A.h.x.l.l.x.C                                                                .,.-.-.-.-.O.-.-.O.-.-.X.-.:.-.-.X.-.X.-.-.-.O.-.O.*.-.O.X.-.X.-.%.-.-.-.o.u.C.C.D.F.C.D.D.C.D.C.D.D.C.D.C.N.x.x.v.x.x.l.u.W G G G Z G Z W O.2.#.:.-.1.-.-.-.-.-.-.-.-.=.*.-.:.-.-.-.-.-.:.-.X.-.O.-.-.-.*.X.-.-.:.-.O.-.-.*.*. .O. .-.9.l.l.l.h.f.x.f.x.x.N.A.N.A.x.l.l.z.l.d.l.z.f.x.x.l.x.z.f.x.l.x.f.x.x.h.x.l.f.                                                                                                                                                                                                                                                                                                                        ",
"                                                                                                                                                                                                                                                                                                        t.A.x.l.x.N.A.C                                                               } >.-.O.-.X.-.X.-.-.X.:.-.-.X.-.:.-.O.-.-.O.-.-.X.-.-.O.-.O.X.X.X.O.O.O.-.O.u.C.F.K.D.F.C.C.G.C.F.C.L.D.D.D.l.N.x.l.x.x.A.d.W C Z C G C Z ! O.-.1.O.X.-.-.-.-.X.-.-.:.-.-.O.*.:.-.X.-.-.-.X.-.-.O.-.O.-.-.X.-.-.:.X.-.-.-.-.:.O.-.-.O.%.y.N.h.x.z.l.f.h.x.x.x.x.v.x.l.M.x.l.x.z.z.l.h.x.x.g.l.x.h.x.z.x.l.z.h.z.x.l.g.                                                                                                                                                                                                                                                                                                                        ",
"                                                                                                                                                                                                                                                                                                        w.A.x.h.z.x.v.C                                                               } ,.-.-.X.-.-.:.X.:.-.-.X.-.-.O.-.-.-.O.-.-.O.-.-.-.O.-.O.-.-.-.X.-.-.-.O.X.u.D.F.G.C.D.G.C.G.C.D.G.C.C.D.C.Z.f.l.z.x.d.x.p.W C G G G G C P *.#.-.O.-.X.-.O.:.-.-.-.:.O.-.O.-.-.-.-.-.-.-.-.O.-. .-.O.*.X.-.-.-.-.-.-.X.:.X.X.-.O.-.-.*.t.x.x.z.x.x.x.f.x.l.l.x.x.x.x.x.l.x.z.l.x.x.h.x.x.f.x.z.h.x.l.h.f.x.d.x.h.l.h.                                                                                                                                                                                                                                                                                                                        ",
"                                                                                                                                                                                                                                                                                                        t.A.x.l.h.l.A.K                                                               } :.:.-.-.:.X.-.-.-.X.-.:.X.-.-.X.-.-.-.O.-.-.-.O.-.-.-.-.-.O.-.-.O.-.:.-.O.u.C.D.F.C.C.C.D.C.D.C.C.F.D.C.D.l.h.l.f.l.x.l.d.W F G G F Z C !  .:.:.O.X.:.O.-.-.:.1.X.-.O.-.O.-.-.-.-.X.-.-.:.X.-.O.-.O.*.-.*.-.*.*.*.-.O.X.:.O.:.-.:.-.:.t.x.z.l.z.l.x.x.h.h.h.x.x.h.x.M.l.x.x.x.f.z.l.x.z.h.l.g.l.g.x.x.z.f.x.h.x.l.d.                                                                                                                                                                                                                                                                                                                        ",
"                                                                                                                                                                                                                                                                                                        w.v.x.x.l.x.A.C                                                                .<.-.X.-.-.X.-.O.-.-.O.-.-.:.-.-.O.-.-.-.-.O.-.-.-.O.-.O.-.-.X.-.-.X.-.X.O.i.C.J.K.G.F.D.F.C.G.F.D.D.D.D.C.N.x.x.x.z.x.l.r.W C Z H G J Z J #.1.O.:.O.-.:.X.-.-.-.-.O.-.O.-.-.-.-.-.-.-.X.:.-.-.-.O.-.-.X.-.-.O.-.O.-.-.-.-.-.-.O.*.X.-.t.x.h.x.h.x.h.x.l.x.f.x.x.x.x.l.x.f.x.h.x.h.h.x.x.z.x.x.x.x.x.l.l.z.x.x.x.N.f.                                                                                                                                                                                                                                                                                                                        ",
"                                                                                                                                                                                                                                                                                                        u.N.x.x.h.x.A.C                                                               } :.-.-.O.-.-.O.-.-.X.-.-.X.-.O.-.-.O.-.O.-.-.:.X.-.-.:.-.:.-.:.-.O.-.-.-.O.y.C.J.F.H.D.F.J.F.D.D.F.C.D.C.C.N.z.x.x.z.x.z.d.P F Z C C C B W  .O.:.O.O.*.X.-.-.X.-.O.-.X. .*.-.-.-.O.*.-.*.:.-.O.-.:.:.:.-.-.:.-.:.-.-.:.-.O.X.-.O.-.O.%.t.z.k.x.f.x.j.x.h.f.x.f.h.l.h.x.f.x.f.x.f.h.f.x.l.A.l.N.v.l.N.l.N.v.x.v.N.n.h.                                                                                                                                                                                                                                                                                                                        ",
"                                                                                                                                                                                                                                                                                                        w.n.x.f.x.l.A.C                                                               } ,.-.-.-.O.-.-.X.-.-.-.-.-.-.X.-.X.-.-.-.-.X.-.-.O.-.X.-.X.-.X.-.-.:.-.-.O.y.D.K.C.K.D.D.D.D.C.D.C.F.C.D.C.N.z.l.N.N.l.l.z._ Y R J J P J _ X.,.1.O.-.-.-.O.-.:.O.-.O.:.-.-.:.:.-.-.:.-.:.-.-.-.O.:.O.-.X.-.*.X.*.-.X.-.X.:.:.:.:.X.:.O.u.z.l.f.v.f.h.v.f.x.f.x.l.f.x.f.h.f.x.f.x.h.x.g.d.w.t.t.t.u.u.t.w.t.t.u.w.u.w.                                                                                                                                                                                                                                                                                                                        ",
"                                                                                                                                                                                                                                                                                                        t.A.x.l.h.v.A.C                                                               } >.:.X.-.-.X.-.:.-.O.-.O.-.-.-.-.:.-.O.-.-.-.O.-.-.:.-.O.-.-.O.-.X.-.O.-.*.2.x.N.l.M.l.N.z.C.C.C.H.K.F.F.G.C.C.C.C.C.V.C.V.h.u.g.u.g.d.f.d.f.a.a.u.d.p.i.7.X.-.-.O.-. .-.t.f.a.u.i.u.f.u.:.-.O.-.:.-.O.-.X.-.X.X.-.X.-.2.u.f.d.p.d.d.p.l.l.l.j.x.h.x.x.x.x.x.x.h.z.x.x.x.x.x.x.x.v.A...                                                                                                                                                                                                                                                                                                                                                      ",
"                                                                                                                                                                                                                                                                                                        w.v.x.x.f.x.A.C                                                                .,.-.-.O.-.-.:.X.-.-.X.-.-.O.-.O.-.-.-.O.-.:.-.X.-.X.-.-.-.X.-.:.-.-.-.X.-.3.g.x.M.l.N.l.z.C.D.H.F.H.F.L.K.G.G.F.D.G.K.F.H.L.L.L.L.P.L.L.D.l.h.h.x.x.x.l.i.X.-.-.-.-.-.-.y.x.h.x.x.f.x.f.,.X.-.-.:.O.-.X.-.O.-.X.-.X.X.2.x.v.x.x.x.x.x.x.l.f.x.h.x.x.z.x.g.x.z.x.x.h.z.x.g.x.h.x.N.A.[                                                                                                                                                                                                                                                                                                                                                       ",
"                                                                                                                                                                                                                                                                                                        t.A.x.x.x.v.v.F                                                               } :.-.-.-.:.X.-.-.O.-.-.O.-.-.O.-.-.O.-.-.X.-.X.-.-.-.O.-.:.-.-.X.-.O.-.-.-.7.h.x.h.x.x.h.z.C.F.F.C.J.H.F.C.F.F.C.F.C.K.D.F.K.H.D.F.F.G.K.C.N.x.l.z.x.h.x.t.:.-.:.:.:. .-.t.x.l.f.l.h.l.f.2.-.-.O.:.:.X.:.X.-.X.-.X.-.X.2.h.v.x.x.x.x.x.x.x.x.f.x.x.x.x.x.x.h.h.x.x.x.h.x.x.x.x.h.N.n.|                                                                                                                                                                                                                                                                                                                                                       ",
"                                                                                                                                                                                                                                                                                                        w.v.x.f.x.x.v.C                                                               } :.:.-.X.-.:.-.-.-.-.O.-.-.:.-.X.-.-.-.-.:.-.-.O.-.-.-.O.-.X.-.:.-.-.X.-.#.7.f.N.x.z.x.h.x.C.J.K.D.C.C.D.K.D.L.C.G.C.G.K.D.K.C.H.G.F.C.D.C.M.z.x.z.x.f.x.t.X.-.X.-.O.-.-.t.l.l.x.l.x.x.d.2. .O.-.:.:.-.X.-.-.X.-.X.-.X.2.l.x.x.h.h.x.x.x.h.l.x.z.l.z.l.x.l.x.l.l.h.l.x.l.h.d.x.g.x.v.[                                                                                                                                                                                                                                                                                                                                                       ",
"                                                                                                                                                                                                                                                                                                        w.A.l.h.x.x.A.C                                                               } ,.-.-.:.-.:.-.O.-.-.-.X.-.X.-.-.O.-.O.-.X.-.O.-.-.O.-.-.-.O.-.X.-.-.-.-.@.7.f.N.z.x.x.x.h.C.H.C.C.D.C.D.J.F.D.K.D.K.D.C.G.K.F.K.F.C.K.C.C.M.x.x.x.z.l.h.t.-.-.X.-.O. .-.y.x.f.l.g.l.z.f.2.O.*.1.-.O.-.-.-.X.-.-.-.X.-.,.l.x.l.x.x.f.h.l.x.x.x.l.x.x.z.l.h.l.l.x.f.l.x.x.x.x.d.l.v.A./                                                                                                                                                                                                                                                                                                                                                       ",
"                                                                                                                                                                                                                                                                                                        u.A.l.x.l.v.l.C                                                               } -.:.-.-.:.-.-.X.-.O.-.-.-.-.O.-.-.-.-.-.O.-.-.X.-.-.O.-.-.-.-.:.X.:.X.-.#.7.h.x.x.x.x.l.x.A.H.L.H.F.F.F.K.K.L.C.D.C.G.F.D.C.G.D.K.F.K.D.C.l.x.h.l.h.x.l.u.X.-.-.-.-.O.#.u.x.l.f.l.x.x.h.:.-.#.-.:.:.:.X.-.-.-.-.-.X.-.2.d.x.l.h.l.x.h.x.f.x.z.x.z.l.x.z.z.x.f.x.f.x.g.h.h.h.x.x.l.n.[                                                                                                                                                                                                                                                                                                                                                       ",
"                                                                                                                                                                                                                                                                                                        d.S.A.A.A.A.n.L                                                               %.<.,.-.,.,.-.:.:.-.-.-.O.-.X.-.X.-.O.-.X.-.X.-.-.O.-.-.-.X.-.O.-.-.-.-.-.#.t.x.x.l.z.l.x.x.C.K.D.K.D.L.H.G.D.C.F.G.C.C.D.K.D.F.F.G.C.G.J.C.N.z.x.x.z.z.x.t.X. .-.O.-. .o.p.x.l.l.l.x.x.f.1.O.*.#.O.O.X.-.X.X.X.X.X.-. .,.l.x.l.x.h.l.x.x.x.x.l.x.l.g.x.x.z.f.l.f.x.l.x.A.v.Z.n.A.A.S.}                                                                                                                                                                                                                                                                                                                                                       ",
"                                                                                                                                                                                                                                                                                                        @.w.@.$.@.5.6.                                                                L / / / / / / } -.-.O.-.X.-.-.O.-.-.X.-.-.X.-.-.O.-.-.O.-.:.X.-.-.O.-.O.-.#.2.g.d.g.r.h.f.f.l.F.C.C.D.C.D.C.D.D.F.C.G.C.F.D.G.L.K.F.L.C.G.C.N.N.N.N.N.N.l.f.2.3.1.>.,.:.2.d.x.l.x.l.x.h.h.2.2.3.2.2.2.,.:.,.:.,.,.,.:.,.2.d.f.x.h.l.x.x.l.h.z.l.z.x.x.z.x.z.f.x.f.z.h.d.$.#.@.@.$.$.5.D                                                                                                                                                                                                                                                                                                                                                       ",
"                                                                                                                                                                                                                                                                                                                                                                                                    u X.-.-.X.-.X.-.-.X.-.-.O.-.-.O.-.-.-.X.-.-.-.-.:.-.-.-.-.X.-.-.:.,.:.:.-.-.:.i.N.x.N.l.N.x.x.D.D.J.C.G.C.D.F.C.C.D.F.F.K.F.F.F.C.D.D.A.C.D.C.N.F.C.F.C.C.C.N.l.h.x.x.d.x.l.f.a.l.a.l.f.a.f.f.f.f.f.f.d.d.h.x.N.x.x.h.f.x.x.l.x.x.x.z.l.x.l.x.f.x.l.x.n.r.                                                                                                                                                                                                                                                                                                                                                                      ",
"                                                                                                                                                                                                                                                                                                                                                                                                      X.-.-.-.-.-.-.-.-.-.O.-.-.O.-.-.X.-.-.:.X.:.X.-.X.-.O.-.:.X.X.X. .X. .*.%.-.t.x.x.x.x.x.h.z.C.D.C.G.C.G.C.G.L.G.C.G.H.F.C.K.F.L.F.J.D.D.H.D.C.F.K.G.K.G.C.C.x.x.x.h.x.x.x.l.l.l.l.j.l.l.x.x.x.x.x.x.x.x.x.h.x.x.x.x.x.l.h.x.h.z.f.x.l.g.x.l.x.l.h.l.A.6.                                                                                                                                                                                                                                                                                                                                                                      ",
"                                                                                                                                                                                                                                                                                                                                                                                                      -.:.-.X.-.O.-.O.-.-.-.-.O.-.-.-.-.O.-.-.-.-.-.X.-.-.:.X.-.-.O.-.O.*.-.-.-.-.i.h.x.x.x.x.f.x.C.D.G.F.G.G.F.G.C.F.F.F.C.L.K.F.F.F.F.G.K.C.K.H.C.D.C.C.D.C.D.N.z.x.h.h.h.h.f.l.f.f.l.x.l.h.h.z.h.x.l.l.h.l.x.x.x.f.x.l.h.x.x.l.x.l.x.h.x.x.f.f.h.l.x.l.N.w.                                                                                                                                                                                                                                                                                                                                                                      ",
"                                                                                                                                                                                                                                                                                                                                                                                                      X.-.-.O.-.-.-.-.O.-.O.-.-.-.O.-.-.-.-.O.-.O.-.:.-.X.-.-.:.X.-.-.-.-.-.X.-.-.t.x.x.x.x.x.f.z.C.D.F.D.F.D.G.C.G.C.F.K.K.K.C.K.L.H.K.H.K.C.K.H.D.D.L.F.F.F.C.C.x.x.h.h.f.d.h.f.f.h.x.x.h.l.x.l.x.f.x.x.l.h.x.f.x.x.x.h.l.h.x.f.x.h.x.l.x.f.x.x.f.x.f.x.v.5.                                                                                                                                                                                                                                                                                                                                                                      ",
"                                                                                                                                                                                                                                                                                                                                                                                                      -.:.-.*.X.-.O.-.-.-.-.X.-.-.X.-.O.-.X.-.-.-.X.-.:.-.:.X.-.-.O.-. .-.-.*.-.-.t.x.l.z.x.x.h.x.C.D.F.D.F.G.F.G.C.G.C.L.C.L.F.H.K.F.J.F.D.K.F.J.J.F.K.F.F.J.C.N.M.x.x.h.x.f.f.h.h.l.x.l.x.l.h.l.l.z.l.g.x.x.x.f.x.l.x.x.x.f.x.x.f.x.l.h.h.x.x.z.x.f.x.x.A.5.                                                                                                                                                                                                                                                                                                                                                                      ",
"                                                                                                                                                                                                                                                                                                                                                                                                      -.:.:.-.-.:.-.:.:.X.-.:.:.-.X.-.-.-.-.:.X.-.-.X.-.X.-.-.O.-.-.-.1. .1. .-.-.t.l.x.x.x.f.l.x.C.D.F.G.C.G.C.G.C.D.C.G.C.D.F.D.D.F.D.K.C.C.D.C.K.C.G.G.F.D.C.N.x.x.h.h.h.z.x.l.x.x.f.h.f.x.l.h.l.x.x.l.h.f.x.x.x.h.l.h.x.l.x.x.x.x.h.x.l.h.x.x.x.x.h.l.A.u.                                                                                                                                                                                                                                                                                                                                                                      ",
"                                                                                                                                                                                                                                                                                                                                                                                                      -.3.<.:.,.>.,.:.,.>.,.:.,.:.<.:.X.-.O.-.-.O.-.:.-.:.-.-.-.O.*.O.-.*.-.-.X.-.i.l.x.x.x.x.x.x.C.D.G.F.G.C.G.C.L.D.H.G.L.F.L.K.D.K.D.G.D.H.G.C.D.C.C.D.F.G.C.N.N.x.x.h.x.h.z.x.x.x.x.x.h.x.h.z.h.z.z.x.x.x.l.h.l.x.x.x.f.x.h.f.x.l.x.l.x.x.v.b.v.v.v.A.J.w.                                                                                                                                                                                                                                                                                                                                                                      ",
"                                                                                                                                                                                                                                                                                                                                                                                                                                    } :.-.-.X.-.-.-.X.-.X.-.O.-.-.O.*.-.#.-.O.-.-.2.u.u.p.u.u.u.d.x.C.N.C.N.C.D.C.C.C.C.C.C.N.C.C.C.C.C.C.G.C.D.C.G.D.H.G.K.F.D.C.N.N.N.N.x.x.x.x.x.x.x.x.x.x.z.x.x.N.N.x.x.f.x.x.h.h.f.x.x.l.x.x.l.h.x.h.x.d.%.L T T T T / S                                                                                                                                                                                                                                                                                                                                                                       ",
"                                                                                                                                                                                                                                                                                                                                                                                                                                    T ,.-.-.-.O.-.-.-.-.-.-.-.X.-.-.O.-.-.-.-.-.X.-.:.-.:.:.:.#.:.p.x.l.l.x.x.N.x.N.x.N.x.N.M.M.N.G.F.D.G.C.G.C.D.D.C.H.C.F.F.F.D.C.J.F.C.F.D.C.N.h.x.x.h.x.x.h.z.x.l.z.l.x.x.x.f.x.x.h.l.h.x.f.z.z.z.l.z.l.d.                                                                                                                                                                                                                                                                                                                                                                                      ",
"                                                                                                                                                                                                                                                                                                                                                                                                                                    S -.-.X.:.-.X.-.O.:.O.-.O.-.-.-.-.:.X.-.O.-.-.-.X.-.X.X.O.X.O.u.x.z.l.x.x.x.z.x.z.h.x.x.f.x.M.D.C.C.G.C.G.C.G.C.C.C.J.F.C.C.C.D.F.G.G.F.F.G.N.x.x.h.v.l.x.l.x.x.z.x.x.x.x.x.l.x.f.x.l.x.f.h.l.x.f.f.x.x.d.                                                                                                                                                                                                                                                                                                                                                                                      ",
"                                                                                                                                                                                                                                                                                                                                                                                                                                    H -.-.-.X.-.-.-.-.-.X.-.-.-.O.-.O.-.-.O.-.-.O.-.-.O.-.X.-.O.1.u.x.x.x.z.h.x.x.x.h.x.f.h.x.x.l.F.G.C.G.C.F.G.C.D.L.C.H.D.K.J.F.H.G.F.F.D.F.G.N.x.x.f.l.h.z.x.z.l.x.l.h.x.l.h.h.x.f.x.f.z.l.l.h.x.l.l.h.v.d.                                                                                                                                                                                                                                                                                                                                                                                      ",
"                                                                                                                                                                                                                                                                                                                                                                                                                                    L -.-.-.-.-.O.:.X.:.-.:.X.:.-.-.-.X.-.-.X.-.-.O.-.-.O.:.O.-.:.u.l.l.z.x.x.x.x.f.l.f.l.x.x.M.N.G.H.D.F.L.F.D.F.D.K.K.K.H.K.H.K.H.F.H.F.K.F.H.N.M.M.h.l.l.l.x.z.f.x.z.x.l.h.x.l.x.x.x.x.l.x.x.l.h.x.f.x.v.d.                                                                                                                                                                                                                                                                                                                                                                                      ",
"                                                                                                                                                                                                                                                                                                                                                                                                                                    L ,.-.O.-.O.-.-.-.X.-.X.-.-.O.-.-.:.X.:.-.O.-.-.X.-.X.X.-.-.:.p.l.x.x.x.h.x.f.x.x.h.x.h.h.N.N.D.C.J.F.C.K.D.F.G.C.C.D.C.D.C.D.K.D.F.D.D.F.D.M.g.z.x.x.z.l.x.l.x.z.l.x.x.f.x.x.f.h.z.z.x.z.l.z.l.h.l.x.v.d.                                                                                                                                                                                                                                                                                                                                                                                      ",
"                                                                                                                                                                                                                                                                                                                                                                                                                                    L ,.-.-.-.-.-.O.-.-.-.-.-.O.-.-.X.-.:.-.-.-.-.-.-.-.-.O.-.-.:.u.x.x.f.l.h.l.f.x.l.h.x.h.N.x.N.D.D.C.L.C.L.C.G.D.J.H.L.H.L.H.D.H.G.D.F.G.D.F.x.N.x.z.x.l.z.l.g.x.x.h.z.x.x.x.x.x.x.x.x.z.x.z.f.z.x.z.f.A.r.                                                                                                                                                                                                                                                                                                                                                                                      ",
"                                                                                                                                                                                                                                                                                                                                                                                                                                    F ,.-.:.-.X.-.-.-.:.X.:.X.-.-.-.-.O.-.X.-.O.-.O.-.O.-.-.X.-.&.t.x.h.f.h.x.f.x.l.h.l.x.z.M.M.M.H.H.H.F.C.J.D.C.C.G.C.G.C.F.C.D.C.G.C.D.D.D.D.N.z.N.x.z.l.x.x.f.x.f.l.h.l.h.l.h.l.x.x.x.x.z.l.x.x.z.f.l.l.u.                                                                                                                                                                                                                                                                                                                                                                                      ",
"                                                                                                                                                                                                                                                                                                                                                                                                                                                     .,.-.-.-.O.-.O.-.-.-.-.-.-.X.-.-.-.-.-.-.-.-.i.x.x.x.x.x.f.x.f.l.h.x.x.g.x.N.C.C.C.N.C.N.C.N.N.N.N.N.C.N.C.N.C.N.N.N.N.N.C.x.x.x.x.l.z.l.x.x.x.h.x.f.x.h.x.f.x.h.l.x.l.x.z.x.z.l.g.x.A.u.                                                                                                                                                                                                                                                                                                                                                                                      ",
"                                                                                                                                                                                                                                                                                                                                                                                                                                                    } 3.:.-.-.-.-.-.X.:.X.:.X.-.-.-.O.-.X.-.X.X.:.p.l.x.z.x.l.f.v.a.v.l.x.x.h.x.l.z.z.z.x.x.x.h.N.x.x.x.v.x.x.x.x.l.N.N.x.N.x.x.x.x.l.h.l.x.h.x.f.x.f.x.g.l.h.l.x.x.f.x.x.x.z.x.l.x.x.x.f.N.t.                                                                                                                                                                                                                                                                                                                                                                                      ",
"                                                                                                                                                                                                                                                                                                                                                                                                                                                    | ,.-.-.O.-.O.-.-.-.-.-.-.O.-.-.-.-.-.-.-.-.-.u.x.z.l.j.x.x.x.f.h.f.g.l.x.l.x.l.l.l.z.z.x.z.x.x.x.h.x.x.x.z.x.z.x.x.x.z.x.z.f.z.l.d.x.x.f.x.x.l.h.l.h.x.x.x.h.x.x.z.l.f.x.h.j.f.x.z.x.v.r.                                                                                                                                                                                                                                                                                                                                                                                      ",
"                                                                                                                                                                                                                                                                                                                                                                                                                                                    } <.-.-.-.-.X.-.O.-.O.-.O.-.X.-.O.-.O.O.-.O.-.u.x.l.h.h.x.x.h.f.x.z.x.x.x.f.l.x.z.l.z.x.x.h.x.h.l.h.l.h.l.l.h.l.z.x.g.x.x.x.f.l.h.l.x.l.h.l.h.x.f.x.f.x.f.x.l.h.l.l.h.x.x.l.f.l.x.l.x.v.u.                                                                                                                                                                                                                                                                                                                                                                                      ",
"                                                                                                                                                                                                                                                                                                                                                                                                                                                    } ,.-.O.-.O.-.-.-.-.-.-.-.-.-.-.X.-.:.O.-.-.O.u.f.h.j.k.f.h.h.x.x.z.l.x.l.l.x.f.l.l.h.x.x.f.h.l.h.f.x.f.x.f.f.x.h.l.x.f.x.z.f.l.l.l.x.l.l.x.x.f.g.h.l.g.l.h.x.x.h.l.x.z.l.x.f.l.x.l.v.n.u.                                                                                                                                                                                                                                                                                                                                                                                      ",
"                                                                                                                                                                                                                                                                                                                                                                                                                                                    | ,.-.-.-.-.-.-.-.X.X.-.X.-.O.-.O.-.O.:.-.-.-.u.f.h.l.d.l.h.z.l.l.x.x.l.h.x.x.z.x.x.l.x.x.x.f.x.x.f.x.f.x.h.x.f.x.x.f.x.h.x.x.f.x.x.l.x.x.f.x.x.x.x.l.x.x.z.f.l.x.v.x.l.N.l.l.x.l.l.v.A.u.                                                                                                                                                                                                                                                                                                                                                                                      ",
"                                                                                                                                                                                                                                                                                                                                                                                                                                                    } <.:.:.:.:.3.>.-.-.X.-.-.-.-.:.:.>.:.:.-.-.2.a.v.l.N.v.v.v.l.x.z.l.z.f.l.x.x.h.x.z.x.l.h.x.x.h.x.x.x.x.x.x.x.x.x.x.x.x.x.f.x.x.h.x.h.x.f.f.x.x.x.x.g.l.x.l.l.A.l.v.x.N.l.l.x.l.v.x.v.A.f.                                                                                                                                                                                                                                                                                                                                                                                      ",
"                                                                                                                                                                                                                                                                                                                                                                                                                                                    / %.} } } } %.*.-.-.-.X.-.-.X.*.%. .} } } } X.t.a.d.d.p.d.u.d.l.z.x.z.l.z.h.h.g.x.h.z.x.z.x.z.x.x.h.x.g.x.g.x.g.x.g.x.g.x.z.x.x.z.x.x.x.N.g.l.x.g.x.l.z.z.x.d.d.d.a.d.p.g.u.i.u.d.d.p.f.6.                                                                                                                                                                                                                                                                                                                                                                                      ",
"                                                                                                                                                                                                                                                                                                                                                                                                                                                                    -.X.X.-.-.:.-.                                u.A.x.l.x.x.l.h.l.x.x.x.x.h.h.h.h.x.h.x.h.x.h.x.h.x.h.x.h.x.h.h.h.h.h.h.h.f.f.l.x.x.h.h.x.l.}                                                                                                                                                                                                                                                                                                                                                                                                                     ",
"                                                                                                                                                                                                                                                                                                                                                                                                                                                                    ) -.X.-.X.:.-.                                6.v.x.f.x.f.f.l.z.l.d.x.v.x.x.v.h.x.h.x.k.x.j.x.k.l.h.v.h.x.k.x.x.v.x.x.x.j.j.h.h.z.h.x.x.l.D                                                                                                                                                                                                                                                                                                                                                                                                                     ",
"                                                                                                                                                                                                                                                                                                                                                                                                                                                                    } -.-.X.-.:.-.                                w.A.x.f.f.h.x.f.x.z.l.x.l.k.f.x.x.v.l.x.f.x.x.x.x.x.v.x.l.x.x.l.k.x.h.v.h.f.f.z.l.x.z.x.x.A.K                                                                                                                                                                                                                                                                                                                                                                                                                     ",
"                                                                                                                                                                                                                                                                                                                                                                                                                                                                    } X.X.-.:.:.-.                                5.A.x.l.x.l.x.l.l.f.x.l.x.x.x.x.f.x.h.x.x.x.h.x.h.l.h.x.h.x.k.x.x.x.x.x.x.x.l.x.x.l.x.h.x.N.L                                                                                                                                                                                                                                                                                                                                                                                                                     ",
"                                                                                                                                                                                                                                                                                                                                                                                                                                                                    } :.O.O.X.,.-.                                w.n.x.l.x.f.x.z.h.l.x.x.l.x.h.x.x.x.x.l.h.x.l.x.x.x.x.l.x.l.x.l.h.l.h.l.x.l.x.l.x.h.x.x.N.v.L                                                                                                                                                                                                                                                                                                                                                                                                                     ",
"                                                                                                                                                                                                                                                                                                                                                                                                                                                                    } X.X.-.-.:.-.                                5.A.x.z.z.l.z.l.z.l.l.l.h.l.f.l.h.f.j.x.f.v.f.h.j.f.h.f.h.f.h.l.h.l.h.l.h.l.l.x.k.x.v.l.N.A.K                                                                                                                                                                                                                                                                                                                                                                                                                     ",
"                                                                                                                                                                                                                                                                                                                                                                                                                                                                    -.,.,.>.:.3.:.                                w.S.N.l.N.v.c.l.A.n.N.n.v.A.A.v.A.v.A.v.A.v.A.v.A.n.A.v.A.n.A.v.A.v.A.v.A.v.v.v.v.A.v.l.A.A.L                                                                                                                                                                                                                                                                                                                                                                                                                     ",
"                                                                                                                                                                                                                                                                                                                                                                                                                                                                      | | ( | }                                   @.u.w.w.w.w.w.w.w.t.6.w.w.w.w.w.w.w.w.w.w.w.w.w.w.w.w.w.w.w.w.w.w.w.w.w.w.t.5.w.w.t.5.w.                                                                                                                                                                                                                                                                                                                                                                                                                          ",
"                                                                                                                                                                                                                                                                                                                                                                                                                                                                                                                                                                                                                                                                                                                                                                                                                                                                                                                                                                                                                                    ",
"                                                                                                                                                                                                                                                                                                                                                                                                                                                                                                                                                                                                                                                                                                                                                                                                                                                                                                                                                                                                                                    ",
"                                                                                                                                                                                                                                                                                                                                                                                                                                                                                                                                                                                                                                                                                                                                                                                                                                                                                                                                                                                                                                    ",
"                                                                                                                                                                                                                                                                                                                                                                                                                                                                                                                                                                                                                                                                                                                                                                                                                                                                                                                                                                                                                                    ",
"                                                                                                                                                                                                                                                                                                                                                                                                                                                                                                                                                                                                                                                                                                                                                                                                                                                                                                                                                                                                                                    ",
"                                                                                                                                                                                                                                                                                                                                                                                                                                                                                                                                                                                                                                                                                                                                                                                                                                                                                                                                                                                                                                    ",
"                                                                                                                                                                                                                                                                                                                                                                                                                                                                                                                                                                                                                                                                                                                                                                                                                                                                                                                                                                                                                                    ",
"                                                                                                                                                                                                                                                                                                                                                                                                                                                                                                                                                                                                                                                                                                                                                                                                                                                                                                                                                                                                                                    ",
"                                                                                                                                                                                                                                                                                                                                                                                                                                                                                                                                                                                                                                                                                                                                                                                                                                                                                                                                                                                                                                    ",
"                                                                                                                                                                                                                                                                                                                                                                                                                                                                                                                                                                                                                                                                                                                                                                                                                                                                                                                                                                                                                                    ",
"                                                                                                                                                                                                                                                                                                                                                                                                                                                                                                                                                                                                                                                                                                                                                                                                                                                                                                                                                                                                                                    ",
"                                                                                                                                                                                                                                                                                                                                                                                                                                                                                                                                                                                                                                                                                                                                                                                                                                                                                                                                                                                                                                    ",
"                                                                                                                                                                                                                                                                                                                                                                                                                                                                                                                                                                                                                                                                                                                                                                                                                                                                                                                                                                                                                                    ",
"                                                                                                                                                                                                                                                                                                                                                                                                                                                                                                                                                                                                                                                                                                                                                                                                                                                                                                                                                                                                                                    ",
"                                                                                                                                                                                                                                                                                                                                                                                                                                                                                                                                                                                                                                                                                                                                                                                                                                                                                                                                                                                                                                    ",
"                                                                                                                                                                                                                                                                                                                                                                                                                                                                                                                                                                                                                                                                                                                                                                                                                                                                                                                                                                                                                                    ",
"                                                                                                                                                                                                                                                                                                                                                                                                                                                                                                                                                                                                                                                                                                                                                                                                                                                                                                                                                                                                                                    ",
"                                                                                                                                                                                                                                                                                                                                                                                                                                                                                                                                                                                                                                                                                                                                                                                                                                                                                                                                                                                                                                    ",
"                                                                                                                                                                                                                                                                                                                                                                                                                                                                                                                                                                                                                                                                                                                                                                                                                                                                                                                                                                                                                                    ",
"                                                                                                                                                                                                                                                                                                                                                                                                                                                                                                                                                                                                                                                                                                                                                                                                                                                                                                                                                                                                                                    ",
"                                                                                                                                                                                                                                                                                                                                                                                                                                                                                                                                                                                                                                                                                                                                                                                                                                                                                                                                                                                                                                    ",
"                                                                                                                                                                                                                                                                                                                                                                                                                                                                                                                                                                                                                                                                                                                                                                                                                                                                                                                                                                                                                                    ",
"                                                                                                                                                                                                                                                                                                                                                                                                                                                                                                                                                                                                                                                                                                                                                                                                                                                                                                                                                                                                                                    ",
"                                                                                                                                                                                                                                                                                                                                                                                                                                                                                                                                                                                                                                                                                                                                                                                                                                                                                                                                                                                                                                    ",
"                                                                                                                                                                                                                                                                                                                                                                                                                                                                                                                                                                                                                                                                                                                                                                                                                                                                                                                                                                                                                                    ",
"                                                                                                                                                                                                                                                                                                                                                                                                                                                                                                                                                                                                                                                                                                                                                                                                                                                                                                                                                                                                                                    ",
"                                                                                                                                                                                                                                                                                                                                                                                                                                                                                                                                                                                                                                                                                                                                                                                                                                                                                                                                                                                                                                    ",
"                                                                                                                                                                                                                                                                                                                                                                                                                                                                                                                                                                                                                                                                                                                                                                                                                                                                                                                                                                                                                                    ",
"                                                                                                                                                                                                                                                                                                                                                                                                                                                                                                                                                                                                                                                                                                                                                                                                                                                                                                                                                                                                                                    ",
"                                                                                                                                                                                                                                                                                                                                                                                                                                                                                                                                                                                                                                                                                                                                                                                                                                                                                                                                                                                                                                    ",
"                                                                                                                                                                                                                                                                                                                                                                                                                                                                                                                                                                                                                                                                                                                                                                                                                                                                                                                                                                                                                                    ",
"                                                                                                                                                                                                                                                                                                                                                                                                                                                                                                                                                                                                                                                                                                                                                                                                                                                                                                                                                                                                                                    ",
"                                                                                                                                                                                                                                                                                                                                                                                                                                                                                                                                                                                                                                                                                                                                                                                                                                                                                                                                                                                                                                    ",
"                                                                                                                                                                                                                                                                                                                                                                                                                                                                                                                                                                                                                                                                                                                                                                                                                                                                                                                                                                                                                                    ",
"                                                                                                                                                                                                                                                                                                                                                                                                                                                                                                                                                                                                                                                                                                                                                                                                                                                                                                                                                                                                                                    ",
"                                                                                                                                                                                                                                                                                                                                                                                                                                                                                                                                                                                                                                                                                                                                                                                                                                                                                                                                                                                                                                    ",
"                                                                                                                                                                                                                                                                                                                                                                                                                                                                                                                                                                                                                                                                                                                                                                                                                                                                                                                                                                                                                                    ",
"                                                                                                                                                                                                                                                                                                                                                                                                                                                                                                                                                                                                                                                                                                                                                                                                                                                                                                                                                                                                                                    ",
"                                                                                                                                                                                                                                                                                                                                                                                                                                                                                                                                                                                                                                                                                                                                                                                                                                                                                                                                                                                                                                    "
};
