/* XPM */
static char *out[] = {
/* columns rows colors chars-per-pixel */
"498 498 158 2 ",
"   c None",
".  c #0C1B23",
"X  c #04162B",
"o  c #041C2B",
"O  c #0C1D2C",
"+  c #141A24",
"@  c #041F34",
"#  c #0C1B34",
"$  c #0C222B",
"%  c #0C2533",
"&  c #04273C",
"*  c #0C263A",
"=  c #0C2A3C",
"-  c #142433",
";  c #1C2632",
":  c #142A3D",
">  c #202122",
",  c #0C2B44",
"<  c #042F4B",
"1  c #142C43",
"2  c #142E4C",
"3  c #0C3244",
"4  c #0C344C",
"5  c #153244",
"6  c #14354D",
"7  c #043556",
"8  c #0C3654",
"9  c #0C3B54",
"0  c #043A5C",
"q  c #0C3B59",
"w  c #143654",
"e  c #143B54",
"r  c #1D3C53",
"t  c #143A5C",
"y  c #023965",
"u  c #0C3E64",
"i  c #143E63",
"p  c #0C425C",
"a  c #14425C",
"s  c #0C4365",
"d  c #0C466A",
"f  c #0C4A6C",
"g  c #144265",
"h  c #1C4565",
"j  c #1C4A64",
"k  c #14466C",
"l  c #1C466C",
"z  c #144A6C",
"x  c #1C4A6B",
"c  c #0C4672",
"v  c #0C4A74",
"b  c #0C4D7C",
"n  c #144674",
"m  c #1C4674",
"M  c #144A74",
"N  c #1C4B74",
"B  c #0C527C",
"V  c #14557C",
"C  c #1C567C",
"Z  c #24557C",
"A  c #134A81",
"S  c #0C5383",
"D  c #0C578B",
"F  c #145683",
"G  c #1C5684",
"H  c #145A84",
"J  c #1C5A84",
"K  c #145B8C",
"L  c #1C5D8C",
"P  c #0C5B94",
"I  c #145C95",
"U  c #1C5D94",
"Y  c #125E99",
"T  c #255584",
"R  c #245B84",
"E  c #245E8B",
"W  c #1C628C",
"Q  c #146294",
"!  c #1C6394",
"~  c #14639B",
"^  c #1C669B",
"/  c #146A9C",
"(  c #1C6A9C",
")  c #246494",
"_  c #2C6694",
"`  c #246A9C",
"'  c #2C6C9C",
"]  c #1466A3",
"[  c #1C66A5",
"{  c #146AA4",
"}  c #1C6BA4",
"|  c #146DAC",
" . c #1C6EAB",
".. c #1C72AC",
"X. c #1473B4",
"o. c #1C74B4",
"O. c #1C7AB4",
"+. c #1476BC",
"@. c #1C76BC",
"#. c #1C7ABD",
"$. c #246DA4",
"%. c #2C6FA4",
"&. c #246EAA",
"*. c #2473AC",
"=. c #2C74AB",
"-. c #2474B4",
";. c #2C76B4",
":. c #247AB4",
">. c #2C7AB4",
",. c #2476BC",
"<. c #247DBC",
"1. c #2C7DBB",
"2. c #147BC2",
"3. c #1C7EC3",
"4. c #1C7ECA",
"5. c #2C7EC4",
"6. c #2482BC",
"7. c #2C82BB",
"8. c #1C81C3",
"9. c #1C83CC",
"0. c #2482C5",
"q. c #2C82C4",
"w. c #2486CB",
"e. c #2C86CB",
"r. c #248ACC",
"t. c #2C8ACC",
"y. c #2386D4",
"u. c #248CD4",
"i. c #2C8ED4",
"p. c #248EDC",
"a. c #2C8EDB",
"s. c #348ED2",
"d. c #348EDC",
"f. c #2C92D4",
"g. c #2492DC",
"h. c #2C92DC",
"j. c #2C9ADB",
"k. c #3494DB",
"l. c #3C96DB",
"z. c #359ADC",
"x. c #1C93E4",
"c. c #2494E2",
"v. c #2C95E5",
"b. c #249AEB",
"n. c #2C9DEC",
"m. c #3496E3",
"M. c #349AE4",
"N. c #3C9DE4",
"B. c #349EED",
"V. c #3C9EEC",
"C. c #2C9EF4",
"Z. c #349EF3",
"A. c #2CA2EC",
"S. c #34A2EC",
"D. c #2CA1F3",
"F. c #34A2F3",
"G. c #3CA6F5",
"H. c #34A6FC",
/* pixels */
"                                                                                                                                                                                                                                                                                                                                                                                                                                                                                                                                                                                                                                                                                                                                                                                                                                                                                                                                                                                                                                    ",
"                                                                                                                                                                                                                                                                                                                                                                                                                                                                                                                                                                                                                                                                                                                                                                                                                                                                                                                                                                                                                                    ",
"                                                                                                                                                                                                                                                                                                                                                                                                                                                                                                                                                                                                                                                                                                                                                                                                                                                                                                                                                                                                                                    ",
"                                                                                                                                                                                                                                                                                                                                                                                                                                                                                                                                                                                                                                                                                                                                                                                                                                                                                                                                                                                                                                    ",
"                                                                                                                                                                                                                                                                                                                                                                                                                                                                                                                                                                                                                                                                                                                                                                                                                                                                                                                                                                                                                                    ",
"                                                                                                                                                                                                                                                                                                                                                                                                                                                                                                                                                                                                                                                                                                                                                                                                                                                                                                                                                                                                                                    ",
"                                                                                                                                                                                                                                                                                                                                                                                                                                                                                                                                                                                                                                                                                                                                                                                                                                                                                                                                                                                                                                    ",
"                                                                                                                                                                                                                                                                                                                                                                                                                                                                                                                                                                                                                                                                                                                                                                                                                                                                                                                                                                                                                                    ",
"                                                                                                                                                                                                                                                                                                                                                                                                                                                                                                                                                                                                                                                                                                                                                                                                                                                                                                                                                                                                                                    ",
"                                                                                                                                                                                                                                                                                                                                                                                                                                                                                                                                                                                                                                                                                                                                                                                                                                                                                                                                                                                                                                    ",
"                                                                                                                                                                                                                                                                                                                                                                                                                                                                                                                                                                                                                                                                                                                                                                                                                                                                                                                                                                                                                                    ",
"                                                                                                                                                                                                                                                                                                                                                                                                                                                                                                                                                                                                                                                                                                                                                                                                                                                                                                                                                                                                                                    ",
"                                                                                                                                                                                                                                                                                                                                                                                                                                                                                                                                                                                                                                                                                                                                                                                                                                                                                                                                                                                                                                    ",
"                                                                                                                                                                                                                                                                                                                                                                                                                                                                                                                                                                                                                                                                                                                                                                                                                                                                                                                                                                                                                                    ",
"                                                                                                                                                                                                                                                                                                                                                                                                                                                                                                                                                                                                                                                                                                                                                                                                                                                                                                                                                                                                                                    ",
"                                                                                                                                                                                                                                                                                                                                                                                                                                                                                                                                                                                                                                                                                                                                                                                                                                                                                                                                                                                                                                    ",
"                                                                                                                                                                                                                                                                                                                                                                                                                                                                                                                                                                                                                                                                                                                                                                                                                                                                                                                                                                                                                                    ",
"                                                                                                                                                                                                                                                                                                                                                                                                                                                                                                                                                                                                                                                                                                                                                                                                                                                                                                                                                                                                                                    ",
"                                                                                                                                                                                                                                                                                                                                                                                                                                                                                                                                                                                                                                                                                                                                                                                                                                                                                                                                                                                                                                    ",
"                                                                                                                                                                                                                                                                                                                                                                                                                                                                                                                                                                                                                                                                                                                                                                                                                                                                                                                                                                                                                                    ",
"                                                                                                                                                                                                                                                                                                                                                                                                                                                                                                                                                                                                                                                                                                                                                                                                                                                                                                                                                                                                                                    ",
"                                                                                                                                                                                                                                                                                                                                                                                                                                                                                                                                                                                                                                                                                                                                                                                                                                                                                                                                                                                                                                    ",
"                                                                                                                                                                                                                                                                                                                                                                                                                                                                                                                                                                                                                                                                                                                                                                                                                                                                                                                                                                                                                                    ",
"                                                                                                                                                                                                                                                                                                                                                                                                                                                                                                                                                                                                                                                                                                                                                                                                                                                                                                                                                                                                                                    ",
"                                                                                                                                                                                                                                                                                                                                                                                                                                                                                                                                                                                                                                                                                                                                                                                                                                                                                                                                                                                                                                    ",
"                                                                                                                                                                                                                                                                                                                                                                                                                                                                                                                                                                                                                                                                                                                                                                                                                                                                                                                                                                                                                                    ",
"                                                                                                                                                                                                                                                                                                                                                                                                                                                                                                                                                                                                                                                                                                                                                                                                                                                                                                                                                                                                                                    ",
"                                                                                                                                                                                                                                                                                                                                                                                                                                                                                                                                                                                                                                                                                                                                                                                                                                                                                                                                                                                                                                    ",
"                                                                                                                                                                                                                                                                                                                                                                                                                                                                                                                                                                                                                                                                                                                                                                                                                                                                                                                                                                                                                                    ",
"                                                                                                                                                                                                                                                                                                                                                                                                                                                                                                                                                                                                                                                                                                                                                                                                                                                                                                                                                                                                                                    ",
"                                                                                                                                                                                                                                                                                                                                                                                                                                                                                                                                                                                                                                                                                                                                                                                                                                                                                                                                                                                                                                    ",
"                                                                                                                                                                                                                                                                                                                                                                                                                         .} /  ./  ./ |  .|  .|  .|  .|  .|  .|  .| |  .| |  .| |  .| |  .|  .|  .|  .|  .|  .o.Y                                                                                                                                                                                                                                                                                                                                                                                                                                                                                                                   ",
"                                                                                                                                                                                                                                                                                                                                                                                                                    L N.l.k.M.k.N.M.M.k.M.M.M.M.M.M.M.M.M.M.M.M.k.k.k.k.k.k.k.k.k.k.k.k.M.M.M.z.M.z.M.z.M.z.M.N.w.                                                                                                                                                                                                                                                                                                                                                                                                                                                                                                                  ",
"                                                                                                                                                                                                                                                                                                                                                                                                                    I B.k.v.h.h.h.h.a.m.h.k.f.h.k.h.f.k.f.h.k.h.h.v.h.v.h.v.h.v.h.v.h.h.h.k.f.f.k.f.f.k.f.f.k.z.8.                                                                                                                                                                                                                                                                                                                                                                                                                                                                                                                  ",
"                                                                                                                                                                                                                                                                                                                                                                                                                    D j.h.h.h.f.i.f.h.h.h.h.a.h.a.h.a.h.a.h.a.h.h.h.h.f.h.h.h.f.h.h.h.h.i.f.a.h.i.h.a.f.a.i.h.k.8.                                                                                                                                                                                                                                                                                                                                                                                                                                                                                                                  ",
"                                                                                                                                                                                                                                                                                                                                                                                                                    H M.f.h.f.f.h.h.f.g.h.h.h.h.h.h.h.h.h.h.h.h.a.h.a.h.a.h.a.h.a.h.a.h.h.h.h.f.h.h.h.h.i.h.h.z.8.                                                                                                                                                                                                                                                                                                                                                                                                                                                                                                                  ",
"                                                                                                                                                                                                                                                                                                                                                                                                                    D k.v.h.h.v.f.a.i.h.a.a.a.a.a.a.a.a.a.a.a.a.a.a.a.a.a.a.a.a.a.a.a.a.i.a.i.a.a.i.a.i.a.i.h.k.8.                                                                                                                                                                                                                                                                                                                                                                                                                                                                                                                  ",
"                                                                                                                                                                                                                                                                                                                                                                                                                    F v.f.g.i.f.a.f.i.h.i.h.h.i.h.h.h.h.h.a.f.h.h.h.h.h.h.h.h.h.h.h.h.h.h.a.h.h.f.h.h.h.f.a.h.k.4.                                                                                                                                                                                                                                                                                                                                                                                                                                                                                                                  ",
"                                                                                                                                                                                                                                                                                                                                                                                                                    ^ f.f.f.a.f.i.h.i.h.a.f.h.a.f.a.i.i.h.h.h.a.h.h.p.h.h.g.h.h.g.h.a.g.h.h.f.h.h.i.h.a.h.h.h.k.9.                                                                                                                                                                                                                                                                                                                                                                                                                                                                                                                  ",
"                                                                                                                                                                                                                                                                                                                                                                      X.w.8.8.8.8.8.8.9.8.4.8.9.8.4.8.9.8.4.8.9.9.9.u.a.f.a.i.i.a.i.i.i.h.a.f.h.h.h.h.h.f.a.f.a.g.a.h.a.a.a.a.a.a.h.a.h.a.h.a.i.h.h.h.i.h.f.h.h.h.9.4.9.9.9.w.i.D                                                                                                                                                                                                                                                                                                                                                                                                                                                                                                   ",
"                                                                                                                                                                                                                                                                                                                                                                      9.N.z.M.k.k.k.k.k.v.z.f.k.v.z.f.k.v.z.f.n.f.v.f.h.g.f.a.f.i.h.i.h.f.h.h.a.f.a.f.h.a.h.h.f.a.f.a.f.h.h.f.h.a.f.a.h.i.h.f.h.f.h.h.h.f.a.h.h.h.k.B.v.k.M.k.N.~                                                                                                                                                                                                                                                                                                                                                                                                                                                                                                   ",
"                                                                                                                                                                                                                                                                                                                                                                      8.k.f.h.h.h.a.h.f.f.h.f.h.f.h.f.h.f.h.k.h.h.h.h.h.h.h.i.a.i.a.i.a.h.a.f.h.h.h.f.h.f.h.i.h.f.h.f.h.i.h.i.h.f.h.f.h.f.p.h.i.h.i.h.i.h.h.i.h.a.p.h.f.g.f.f.N.~                                                                                                                                                                                                                                                                                                                                                                                                                                                                                                   ",
"                                                                                                                                                                                                                                                                                                                                                                      8.k.i.h.v.h.k.h.a.h.d.h.a.k.a.h.d.h.a.f.a.g.g.h.a.a.a.h.i.h.i.h.i.h.f.h.a.f.a.h.p.f.a.h.a.f.a.h.f.h.h.f.h.i.h.a.f.h.f.h.h.h.f.a.h.f.h.h.i.h.h.g.h.h.a.h.n.~                                                                                                                                                                                                                                                                                                                                                                                                                                                                                                   ",
"                                                                                                                                                                                                                                                                                                                                                                      4.k.i.h.h.v.a.a.a.a.a.a.a.a.h.h.i.h.i.h.i.f.h.f.h.a.i.h.i.h.i.h.a.h.a.h.u.h.h.f.h.h.h.g.f.g.h.a.h.p.h.p.h.h.i.h.p.h.a.h.i.h.h.h.i.h.p.i.h.h.i.h.a.f.g.h.z.~                                                                                                                                                                                                                                                                                                                                                                                                                                                                                                   ",
"                                                                                                                                                                                                                                                                                                                                                                      <.k.i.a.v.a.h.g.a.h.a.a.h.a.h.h.h.k.f.f.h.h.h.h.k.h.h.h.h.h.h.f.h.f.v.f.m.h.h.h.h.g.f.h.h.h.g.h.h.g.h.h.i.h.a.h.i.h.f.a.f.a.i.h.h.f.h.h.f.h.a.f.a.f.a.i.k.~                                                                                                                                                                                                                                                                                                                                                                                                                                                                                                   ",
"                                                                                                                                                                                                                                                                                                                                                                      8.k.d.h.h.h.h.f.a.f.a.f.a.f.a.k.k.k.z.v.M.k.z.k.k.z.k.z.k.z.k.M.M.k.B.k.v.k.v.f.h.f.h.i.f.a.h.h.g.h.h.h.h.f.a.f.h.h.a.h.h.f.h.h.u.h.a.h.a.f.i.a.f.a.i.h.N.I                                                                                                                                                                                                                                                                                                                                                                                                                                                                                                   ",
"                                                                                                                                                                                                                                                                                                                                                                      w.k.a.a.h.g.i.h.i.h.i.a.f.a.h.,.K K K H K F K F I F K F I F K F I I I U I I ! w.e.w.t.w.r.w.i.p.h.g.a.g.i.a.g.h.i.a.f.h.i.h.p.f.h.h.f.a.f.h.a.f.a.f.i.k.k.-.                                                                                                                                                                                                                                                                                                                                                                                                                                                                                                  ",
"                                                                                                                                                                                                                                                                                                                                                      ~ f.r.r.t.u.t.r.i.h.c.a.h.c.h.i.a.s.h.d.a.k.h.                                                 .<...-.*.-.@.0.i.g.h.h.f.a.h.f.a.h.f.a.h.p.h.h.a.f.a.h.h.a.f.i.a.i.f.h.h.i.a.u.i.u.u.r.t.e.<. . . .}  .}  .} }  .} } } *.~                                                                                                                                                                                                                                                                                                                                                                                                                                                     ",
"                                                                                                                                                                                                                                                                                                                                                      ( N.k.k.k.k.k.m.h.a.k.a.h.h.h.h.h.h.f.i.h.h.h.                                                ] *... . ...*.0.i.c.h.a.h.i.h.h.f.h.h.f.h.f.h.f.a.h.f.h.f.h.h.i.h.i.h.i.i.f.k.h.k.f.m.k.f.l.e.:.;.-.>.:.>.*.;.*.:.-.;.:.1.}                                                                                                                                                                                                                                                                                                                                                                                                                                                     ",
"                                                                                                                                                                                                                                                                                                                                                      ~ z.k.f.h.h.a.h.a.h.h.h.h.h.h.f.h.f.h.h.f.f.h.                                                ^ :.-.*.*.*.-.0.i.h.g.f.a.f.h.i.a.h.i.h.a.a.h.i.h.i.h.h.a.i.h.i.a.f.a.f.a.i.a.f.h.a.h.h.f.i.0.*.*.*.*.*...*.*.*.*...*.o.:.}                                                                                                                                                                                                                                                                                                                                                                                                                                                     ",
"                                                                                                                                                                                                                                                                                                                                                      ~ k.f.f.f.h.h.g.a.a.h.h.a.g.a.h.h.h.i.h.h.h.h.                                                } :...*.-.*.o.0.f.h.h.f.f.a.f.h.i.h.a.h.f.h.f.h.a.h.f.h.h.h.i.g.a.h.h.h.h.i.h.h.h.h.i.h.h.h.0.*...*...*.*.*...*.*.-.*.-.>.}                                                                                                                                                                                                                                                                                                                                                                                                                                                     ",
"                                                                                                                                                                                                                                                                                                                                                      ] k.k.f.f.p.f.h.i.h.h.h.g.a.g.f.h.g.h.f.h.h.h.                                                ^ :.o.*...-.o.0.f.h.f.f.h.u.f.a.f.a.f.h.h.i.h.a.f.h.h.i.h.i.h.h.f.h.i.h.f.a.h.f.a.h.h.h.i.h.0.*.*...*.*...-.*.o.*.*.*...*./                                                                                                                                                                                                                                                                                                                                                                                                                                                     ",
"                                                                                                                                                                                                                                                                                                                                                      ] k.h.i.f.g.a.a.h.h.h.h.h.a.h.v.h.f.h.h.h.k.h.                                                } -...-...-.o.<.h.f.h.g.f.h.g.f.h.a.h.i.h.h.h.p.h.f.a.h.h.h.i.h.a.h.i.h.h.h.h.f.h.f.a.f.h.h.q.-...*.o.*.*...*.*.*...-.*.-.]                                                                                                                                                                                                                                                                                                                                                                                                                                                     ",
"                                                                                                                                                                                                                                                                                                                                                      ] M.k.h.u.f.g.f.f.f.h.a.a.p.u.h.i.i.i.i.u.f.a.                                                } <.....*.o.o.0.i.h.i.i.f.i.f.a.h.i.h.h.a.i.h.f.h.h.f.h.i.h.a.h.f.h.h.a.f.a.i.h.a.i.h.h.h.h.0.*.*.*.*.-...-.*...*.*...*.*./                                                                                                                                                                                                                                                                                                                                                                                                                                                     ",
"                                                                                                                                                                                                                                                                                                                                                      ~ k.h.h.h.f.f.u.                                                                              } *.*...*.-.*.<.0.0.w.0.0.0.w.i.a.d.i.h.f.a.h.i.h.a.h.h.a.f.h.i.h.h.i.h.h.h.f.h.f.h.h.i.f.h.0.*...-...*.*.*.*.-.*...-.*.-. .                                                                                                                                                                                                                                                                                                                                                                                                                                                    ",
"                                                                                                                                                                                                                                                                                                                                                      ] k.k.a.a.g.k.2.                                                              F =.=.=.*.*.*.*.*.*...*...*.*.-.o.o.o...*.-.@.w.i.d.i.h.h.f.h.h.f.h.i.h.f.h.h.h.h.h.h.f.a.h.g.a.h.i.g.f.i.f.q.-...*...*.o.*...*.*.*...*.-.-.-.-.*.-.*.o.:.I                                                                                                                                                                                                                                                                                                                                                                                                                                     ",
"                                                                                                                                                                                                                                                                                                                                                      ] M.h.i.h.h.k.#.                                                              I >.;.-.*.*.*.*.*...*.*...*.*.*.*.&.*.&...&.o.e.f.f.h.a.f.a.h.i.h.h.i.h.h.i.h.i.h.i.h.h.g.f.h.f.a.h.a.h.a.h.0.*.*...*.*.*.-.*...-.*.-...*.*.-.:.*.*.*.*.=.I                                                                                                                                                                                                                                                                                                                                                                                                                                     ",
"                                                                                                                                                                                                                                                                                                                                                      ] k.k.h.i.h.k.2.                                                              K ;.-.*...-.*.*.*.-...*.*...*.*.*.*.*.*.*.-...w.h.s.h.i.h.a.f.h.a.f.h.h.h.i.h.h.i.h.u.h.i.h.i.h.a.f.a.f.a.h.w.*...-.*.o.*...*.-...*.*.*.*.-.*.*.*.*.*.-.:.K                                                                                                                                                                                                                                                                                                                                                                                                                                     ",
"                                                                                                                                                                                                                                                                                                                                                      ] k.h.f.h.f.k.#.                                                              D ;.-.*.....*.-...*...*...*.&.*...*.-.*.-.o.-.w.h.a.h.h.f.h.h.f.h.h.i.a.g.f.a.h.h.h.h.h.h.h.a.f.h.f.h.a.f.h.q.-.*...*.*.*.*.-...*.*.o.*...*...*...-.*.*.>.I                                                                                                                                                                                                                                                                                                                                                                                                                                     ",
"                                                                                                                                                                                                                                                                                                                                                      ^ B.k.h.h.h.M.2.                                                              K :.*.-.*.o.*...*...*...*.*.*.*...*.-.-...-.-.w.f.h.f.a.h.i.a.a.i.h.h.f.h.h.f.h.f.a.f.a.i.h.h.h.f.a.h.h.a.h.w.*...*.*.o.*...*.*.*...*.*.-.*...-.*.*...*.*.K                                                                                                                                                                                                                                                                                                                                                                                                                                     ",
"                                                                                                                                                                                                                                                                                                                                                       .N.N.k.M.z.N.9.                                                              K ;.*...-...*.o.*...*.o.*...*.*.-...*.-.&.o.-.w.h.h.k.h.h.h.h.h.h.u.h.a.f.a.h.u.h.h.f.h.f.h.i.h.a.g.i.h.f.h.0.*.*...*.*.o.&.*.o.*.*.-...*...-.*.*...-.*.-.D                                                                                                                                                                                                                                                                                                                                                                                                                                     ",
"                                                                                                                                                                                                                                                                                                                                                      I h.u.u.9.p.h.+.                                                              K -.*.-...*...*...*...*.*.*.*.*.*.*.&.*. .-.-.w.i.i.a.i.i.i.h.g.i.h.f.h.h.f.h.a.f.a.h.h.a.f.h.h.i.h.f.h.g.f.e.-.-.-.-.-.-.-.-.-.*...*.*.*.*...*.*.*.*...>.I                                                                                                                                                                                                                                                                                                                                                                                                                                     ",
"                                                                                                                                                                                                                                                                                                                                                                                                                                    P >.*.*. .-.*.-...-.*.o.*...*...*.*...*.-.*...-.<.<.<.<.6.<.<.i.f.h.h.h.h.h.h.h.h.f.h.f.h.a.h.f.h.a.h.i.h.a.u.w.w.q.w.w.q.q.>.-...*.....*...-.*...*...*.*.} M                                                                                                                                                                                                                                                                                                                                                                                                                                   ",
"                                                                                                                                                                                                                                                                                                                                                                                                                                    P :.-.*.*.*...*.*...*.*...*.-.*...-.*.*...*.-.*...*...*...-.,.w.f.a.h.f.g.h.g.i.h.a.a.h.i.h.i.h.f.h.a.h.f.h.h.k.h.h.f.h.h.i.1.o.*...*...-.*.*...*.-.*...-.-.>.<.>.>.>.:.>.                                                                                                                                                                                                                                                                                                                                                                                                                      ",
"                                                                                                                                                                                                                                                                                                                                                                                                                                    K ;.*.-.&.*.-.&.o.*.*...-.*...*.*.*...-.*...*...*.*. .*.*.o.-.r.h.i.a.p.a.g.h.h.f.h.i.h.p.f.a.h.p.i.h.f.a.h.i.a.i.a.h.h.f.a.<.-.*.*.-.*...*...-.*...*.-.*.-.-.*.-.:.-.-.;.                                                                                                                                                                                                                                                                                                                                                                                                                      ",
"                                                                                                                                                                                                                                                                                                                                                                                                                                    F ;.-.*.*. .*.*.*...-.*.*...*.-...*.-.*.*.-.*.*...*.*...&.o.,.w.h.h.h.f.h.a.h.h.a.h.h.f.h.h.i.h.f.h.h.h.h.h.h.h.h.h.h.i.h.i.1...*...*.*.*.-.*.*.*.-.*...*.*.*.-.*.*.*.*.=.                                                                                                                                                                                                                                                                                                                                                                                                                      ",
"                                                                                                                                                                                                                                                                                                                                                                                                                                    K ;.*.*.*.-.&...-.*.*...-.*.*.*.*.*...*...*...-.*.o.*.*...*.@.r.h.g.h.a.f.a.h.f.h.i.a.h.i.h.h.h.h.a.i.h.a.h.a.h.h.a.h.f.i.a.5.*.-...-...*...*...-...*.*...-.*...*...*...=.                                                                                                                                                                                                                                                                                                                                                                                                                      ",
"                                                                                                                                                                                                                                                                                                                                                                                                                                    K ;.-.*.&.*.*.-.*...*.*.*...-...-.*.*.o.*.-.*...*.*...*.-...*.e.k.f.i.f.h.g.f.a.h.h.f.h.h.i.h.i.h.f.h.i.f.a.i.i.a.i.h.h.h.a.<.-...-...-...-.*.*.*.*.*...*.*.*.*.o.*.-.*.O.                                                                                                                                                                                                                                                                                                                                                                                                                      ",
"                                                                                                                                                                                                                                                                                                                                                                                                                                    K >.*.-...*.o.*...*.-...*.*.*...*...-.*.*.*...*.*.-.*...*.*.O.r.k.f.f.h.h.h.f.h.f.a.h.i.h.i.h.i.h.h.a.h.h.f.h.i.h.i.f.a.f.a.<.-. .-...*...*...-...*.-.*.-...*...*.*.*...:.                                                                                                                                                                                                                                                                                                                                                                                                                      ",
"                                                                                                                                                                                                                                                                                                                                                                                                                                    ~ :.*.*.*.*.*...-.*...*.-...-.*.*.*...*...-.*.*.o.*.*.-...-.o.w.i.i.i.i.i.u.p.a.h.u.h.h.i.f.i.h.h.v.h.h.h.h.h.f.h.f.h.f.h.a.<.&.-.*.-...-.*...*.-...*...*.-.*.-.*...-.*.-.                                                                                                                                                                                                                                                                                                                                                                                                                      ",
"                                                                                                                                                                                                                                                                                                                                                                                                                        ! ~ ~ ~ Y / *.*.-.*...o.*.*.*...*.-.*...*...-.*.*.o.*.*...*.*...*...*.*.*.O.:.:.:.*.>.-.<.i.h.i.a.f.a.h.h.B.n.B.B.n.n.B.v.g.a.h.a.h.a.a.<.-.&.&...*...*.-.*...*.-.*...*...*...-.*...>.                                                                                                                                                                                                                                                                                                                                                                                                                      ",
"                                                                                                                                                                                                                                                                                                                                                                                                                      7.:.=.*.:.*.=.*.*.*.-.*.*...*.-.*.*...*.*.o.*.*...-.*.*.*.-...-.*.*.*.-...*.....*.....*...-.u.h.a.g.f.h.a.f.Z.F.D.S.n.Z.D.v.h.a.h.f.h.f.a.<.-.$.*.-...-...*...*.*...-.*...-.*.*...*.*.-.                                                                                                                                                                                                                                                                                                                                                                                                                      ",
"                                                                                                                                                                                                                                                                                                                                                                                                                      :.*.*...*.*.&.*...-...*...-...*...-.*.*.o.*.*...*.*...*...*.*...*.o.*...*.*.*.*...*.*.*.&.-.u.h.i.h.a.f.p.v.n.D.D.n.D.D.B.n.v.h.h.i.h.a.a.<.&.*.*.......*.o.*.*.-...*.*.*.*...*.-.*...-.                                                                                                                                                                                                                                                                                                                                                                                                                      ",
"                                                                                                                                                                                                                                                                                                                                                                                                                      =.-.*.*.......*.*.-.*...*.*.*.-...*.o.*.*...-.*.*.*.-.*.-...*.-.*.*.*.*.*...*.-.*.*...-...-.i.h.a.f.h.h.a.f.Z.n.B.B.n.B.D.v.h.g.h.h.i.f.i.5.*.*.*.*...o.*.*.*...*.*...*.o.*.-...*.*.*.:.                                                                                                                                                                                                                                                                                                                                                                                                                      ",
"                                                                                                                                                                                                                                                                                                                                                                                                                      :.-.-.*.-.*...*...*.*.-.*.o.*.*.*.*.*.*.o.*.*...-...*...*.*...*...*...*.*.-...*...-.*...*.-.u.h.i.h.f.h.a.v.B.n.D.B.n.D.B.n.c.h.h.h.f.a.i.<. .*...*...*...o.*.-...*.-.*.*...*.*.-...-.-.                                                                                                                                                                                                                                                                                                                                                                                                                      ",
"                                                                                                                                                                                                                                                                                                                                                                                                                      :.*.*.*...*.-...-.*...*...*.*.o.*.o.*.*.*.*.*.*...*.-.*...*...*...*.-...*...*...*.....-...-.i.h.h.h.h.f.h.f.D.D.D.B.B.n.B.n.h.g.h.f.g.i.a.<.*...*...*.o.*.-...-.&.o.*...*.*.-...*.*.*.*.                                                                                                                                                                                                                                                                                                                                                                                                                      ",
"                                                                                                                                                                                                                                                                                                                                                                                                                      -.-.*...-.*.*.*.*...-.*.*...*.*...*.-...*.o.*.-.*.-.*.-.-.*...*.*.o.*.-.*...*...*.*...o...:.a.h.k.h.f.f.h.M.D.F.D.B.D.n.B.n.g.h.h.f.a.h.a.<. .-. .*.o. .o.&.&.-.&.-.*.*.o.*.*.*...*.o.*.                                                                                                                                                                                                                                                                                                                                                                                                                      ",
"                                                                                                                                                                                                                                                                                                                                                                                                                    F -.:.-.*.*...-...*.*.*...-.*.-...-.*.*.*.*.-...} } } } } } } } } } } $.} } } } } } } } } /  .8.0.6.0.0.<.9.i.n.D.D.Z.n.B.n.n.v.j.v.k.f.v.h.e.<.>.<.>.<.<.<.-.&. .-. .*...*.*.o.*.*...*.>.                                                                                                                                                                                                                                                                                                                                                                                                                      ",
"                                                                                                                                                                                                                                                                                                                                                                                      ~ } ^ ] ( ~ ( /  .} } } } ~ ^ -.o.-.*...-.*...*.-...-.*...*...*.*...*...-.*.( J J J J J J J K J J J K J J J L K J J K J K J J J L J J J K *.v.F.B.B.S.D.Z.n.B.B.B.n.D.D.D.k.i.u.i.u.u.i.e.-.*.&.&.-.*.*...*.*.*.o.*.*.-. .} ^  .( ( $.^                                                                                                                                                                                                                                                                                                                                                                                                       ",
"                                                                                                                                                                                                                                                                                                                                                                                      &.>.,.-.:.-.-.,.,.:.-.;.:.-.>.*.*.*.-...*...*.-.*.*...*.-.*.-.*...-.*.*...-.( G F G F G F G H G H F G F G F G F G F G F F F F V F C F G b ` f.Z.n.n.n.D.B.n.B.n.B.n.S.D.D.v.f.h.h.h.h.h.i.<.*.=.&.*...-...-...*.*.*.o.-.-.;.-.-.:.:.:.=.                                                                                                                                                                                                                                                                                                                                                                                                      ",
"                                                                                                                                                                                                                                                                                                                                                                                       .>.o.-.*.-...-.o.-.-.-.o.*.....*.o.*.*...*.-...*.*.*.*...*...*.*.*...*.*.-.^ J G G G F G G G F G G G G G V G J G J F C G J C G C G C C V ' v.S.D.B.n.n.F.D.Z.n.F.n.Z.n.D.v.i.h.g.f.g.f.u.,.*.$.*.o.*...*.*.*.-...*.*. .-.-.-.*.*...*.*.                                                                                                                                                                                                                                                                                                                                                                                                      ",
"                                                                                                                                                                                                                                                                                                                                                                                       .,.-.*.*.*.o...&.*.&.&.o.....*.*.*...*.-.*.*.*...-...*.-.*.*.*.*.*.*.*...-.^ J V G H C G H C G C G V G J G C F C C F G C G F G F G F G V } v.S.n.B.n.D.n.S.D.A.n.B.n.Z.D.h.f.h.h.h.f.h.i.>.*.&.*.*...*.-...*.*.-...*.*.*.*.*.*.*.*.*.*.                                                                                                                                                                                                                                                                                                                                                                                                      ",
"                                                                                                                                                                                                                                                                                                                                                                                       .>.-.*...*...-.&. .-.&.o.*.*...*...*...*...-.*.*...*.-...*...*...*.*...*.-.^ J G V G C F C G J F G J C F G F J F G J V G F G G F G G F V $.n.S.n.A.n.B.D.n.Z.n.F.n.D.n.D.v.f.a.g.h.f.h.i.,.*.&.*.*...*.*.-.*...*.-.*...-...*.*.*.*.*.*.                                                                                                                                                                                                                                                                                                                                                                                                      ",
"                                                                                                                                                                                                                                                                                                                                                                                      } -.*.*.*.*.-.&.*.-.&.-. .-.*.o.*.-.*.*.-.*...-.*.-.*.*...-.*.-.*.-...-.*.*.^ J G G G F C G F C J V G G H C G C G V G C G C F G G F F G V $.c.F.n.D.n.F.B.D.B.D.n.B.n.Z.D.v.i.h.f.g.h.h.u.;.*. .*.*...-...*.-.*...*.-.*...*.-.*...*.*.*.                                                                                                                                                                                                                                                                                                                                                                                                      ",
"                                                                                                                                                                                                                                                                                                                                                                                      } >.*.*.*.&.*.-.&.-.-.&.*.*.*.*.-.*.o...o.-.*.*.*...*...*.*...*...*.-.*.-.-.( G F C F G G G G F G C F C G V G G C G G F G F G G F G G F V $.j.D.D.S.n.D.n.D.A.Z.A.D.n.Z.n.v.f.f.h.f.g.h.a.<.&.*.*.*...*.*...*.*.-...*...*.*...*.*.*.*.*.                                                                                                                                                                                                                                                                                                                                                                                                      ",
"                                                                                                                                                                                                                                                                                                                                                                                    h  .;.*.*.*.*.&.&.-.&. .-...-...*...*.*.-.-...-.&.*.*.-.*.-.-.*.^ ^ ( ^ ( ^ } ~ G C G G C F J C G V G J G J G C H G H C G J C F G G G G F F ` h.j.n.v.n.n.n.B.D.n.D.n.Z.A.D.v.k.f.n.f.k.M.h.>. .-. .*.o.*.o.*.-...*.*.*.-.*.*.-.*...*...*.                                                                                                                                                                                                                                                                                                                                                                                                      ",
"                                                                                                                                                                                                                                                                                                                                                                      W *.*.$.} $.} *.*.*.*.*.*.*.-.&. .-.&.-.*...*.-.*.o.*.-.-.-.$.$.$.-...*...*. .J G J G G F Y K G F C F G C F G J G C F C V G F C G C G F C F G G F G F G V ) t.k.s.i.h.h.c.v.n.D.A.D.n.Z.D.B.M.B.M.B.M.B.M.>.-.&.*.*...*.*...*.*.-...*...*...*.*.*.*.*.*.                                                                                                                                                                                                                                                                                                                                                                                                      ",
"                                                                                                                                                                                                                                                                                                                                                                      } >.:.:.;.:.:.;...*...*...*.&.-.&.-.&.o.&.*...*.*...*...*.*.*.*.*.*.*...*.-.} J F G F G G F F C C J V J V C C V G V J G G V J G V G G H G G G G G V G C V ) i.f.s.f.i.a.h.v.A.D.n.S.D.n.Z.n.B.B.B.B.B.B.n.<. .*...*.*...*.*.-...*...-.*.o.*.*...*.*.*...                                                                                                                                                                                                                                                                                                                                                                                                      ",
"                                                                                                                                                                                                                                                                                                                                                                      ] :.-...-...*...*.*...*.*.*.o.&.-. .&.-.*.*.-...*.-.*.-.*.o.*.o.*...-.*.-.*.} G G G G H C G C G V G C G C F G C F C G F C G G F J G V G J V J V G G G G V ` i.f.h.i.f.a.f.n.n.Z.D.n.D.A.Z.A.Z.n.Z.n.Z.F.n.1...*.*.*.*.*.o.*.*...-.*...*.*.*.-.*.-.*.-.*.                                                                                                                                                                                                                                                                                                                                                                                                      ",
"                                                                                                                                                                                                                                                                                                                                                                      ] >...-...-...-.*...*.-...*.-.&.o.&.-.&.o.*...*.*...*...*.*.*.*.*.*...*.*.-.} J G H C G G J V J C F C F J C H C G J C F J F C G C G J V G C F G V J G J V ` p.h.h.h.h.i.h.v.D.A.n.F.n.D.A.D.n.B.D.B.D.Z.n.<.*...*...*.*.*.*.o.*.*.*.-.*...*...*.*.-.*.*.                                                                                                                                                                                                                                                                                                                                                                                                      ",
"                                                                                                                                                                                                                                                                                                                                                                      ~ >...*...*.o.*...-.*.*.*...-.&.-.&.&.-.&.*.*.o.*.-.*.*.o.*...-...*.-.*...-.$.J C G C F C V G C H C J C V G C G V C G G F C J F J V G G G F G J C F F F V ` i.h.h.a.a.h.h.v.B.D.n.n.Z.n.Z.B.D.B.D.B.B.Z.n.:.*.*.*.*...*.o.*.*.*...*...*.-.*.-.*...*.*...                                                                                                                                                                                                                                                                                                                                                                                                      ",
"                                                                                                                                                                                                                                                                                                                                                                      ] :.-...*...*...*.*...*.o.*.&.o.&.&.o.&.o.*.o.*.*.*...-.*.*.*.*.-.*...-.*.-.} G G F G G F G J C G V G J C G V J C H G V G G F C G G J V J C G F G G V G V ` i.h.a.i.f.a.i.n.B.F.Z.F.n.F.n.D.n.B.Z.n.D.B.n.<.*...*...*.*.*...*.-.*.-...*...*...-.*.-.*. .                                                                                                                                                                                                                                                                                                                                                                                                      ",
"                                                                                                                                                                                                                                                                                                                                                                      ] :.*...*...*...-.*.-.*.*...-.&.-.&.-.&.o.o.o.-.&.&.-.&.....-.&.&...*.*.$.%.$.G G G F G G V G V J G V G V G G F G G F G G F G G V G G G F G V J C H G C F ` e.s.i.s.t.i.t.k.D.B.n.n.n.n.D.B.D.n.Z.B.Z.D.n.>...*.*.*...*...-.*.....*.*.-...*.*.*...*...*.                                                                                                                                                                                                                                                                                                                                                                                                      ",
"                                                                                                                                                                                                                                                                                                                                                                      ] :.*...*...*...*.*...*.-.*.*.-. .-.*.-.-.-.-.^ ! ! U ! ! U W U ) ! ^ ! ! U U C G G F F G G C G F C J G J V J C H C F G G G G G F J V C J V G G G C F G V L ` &.$.' $.} $.7.v.k.v.k.n.n.n.n.D.B.D.n.B.Z.n.<.......*...*.*.*...*.-...*...*.-...-.*.-.*.*.J                                                                                                                                                                                                                                                                                                                                                                                                     ",
"                                                                                                                                                                                                                                                                                                                                                                      { ;...*...*...*.*...*...*.o.*...*.*...*.-.*.&.! F G G F G V G V G C F F F F F G G G G F G F J G G G F G G G F G G G F G F G F G C G G F G G J V G F C F C C G G G G F F V &.i.h.h.a.h.g.c.n.n.B.Z.n.Z.D.n.<.*...*...*...-.*.-.*.*.*.-.*.*.*.*.*...*.o.-.-.:.;.-.:.-.1.                                                                                                                                                                                                                                                                                                                                                                                        ",
"                                                                                                                                                                                                                                                                                                                                                                      ] :.*...*...*...*.-.*.-.*.*...*.-.*...*.*.*.*.! F J G G C G F H V C H H C H C G G G G G G G V G H C G V J V J C F C G G G G G F J V C J V C G G C G J G J G C C C C F F F } f.f.i.f.i.h.f.n.B.n.Z.n.F.A.n.<...*...*...*.*...*...*...*.o.*.o.*.-.*.*.*.*.-.,.-.-.*.:.>.}                                                                                                                                                                                                                                                                                                                                                                                       ",
"                                                                                                                                                                                                                                                                                                                                                                      ] :.*.*...*.*...*.*...*...*.-.*...*.-.*...*...! H C H V G F C H G C G V F G F G C G F G F G C G G V G C G G V G G G F G F G F G C G F C G F C F G V G V C F C G V G F F V *.a.h.h.f.g.i.h.n.B.n.B.D.B.Z.n.<...*...-...-.*.-.*.-.*.*...*.*.*...*...*.o...-.*.&.*...*.*.}                                                                                                                                                                                                                                                                                                                                                                                       ",
"                                                                                                                                                                                                                                                                                                                                                                      ~ ;...*.-...*.-.*.o.*.*.-...*...*...*.*.....&.! F H V H V G G V H C F J C G J C F G G G G F G H C J G F J C G G H C G F G G G G F C J F G J F C H G G J C C G F G G F C F ..h.f.g.h.g.h.h.n.B.n.Z.n.D.F.n.<. .*...*...*...*...*...-.*...-...*.-...*.*.*.*.*.-.....-.*.}                                                                                                                                                                                                                                                                                                                                                                                       ",
"                                                                                                                                                                                                                                                                                                                                                                      ] ;.*.-...*.*...*.*.o.*.*.*.*.-.*.-...-.*.*.$.E G G C G G H C G F G C G H C F G G C F G G C G G C F J C F G H C G F G G G F G G C F G C G C J G C G V G G F G G F G V G V *.f.h.a.f.a.g.f.n.B.n.F.B.D.S.n.<.*...*.o.*...*.-.*.-...*.*.-.*.*.*.*.-.*...-.*.*...*...-.-.^                                                                                                                                                                                                                                                                                                                                                                                       ",
"                                                                                                                                                                                                                                                                                                                                                                      ~ -.*...*.o.*.*...*.*.*.o.*...o.*.*.-.*.*.*.=.E F G G V G C F G C G F G G G C G V G G F G F C F G C G V G C G G C G F G F G G F G C J F G F G F G H G C F C F C G C F F F *.h.h.h.g.a.p.h.n.B.n.B.D.B.D.n.<.....o.....-.*.*...*.*...*...*.....*...-.*.*.&.-.*.....-.-.}                                                                                                                                                                                                                                                                                                                                                                                       ",
"                                                                                                                                                                                                                                                                                                                                                                      ~ :.-...*...*.o.*.-...*.*.o...*.........$.$.$.E G G F J V G G J F G J C H G H G G F G G F G G G G F G G V G V G H G G G G G F G C F G C G C F J C C G F C G G H G G F K F *.a.h.h.c.h.h.v.n.B.A.n.n.B.Z.n.<.-.:.:.-.:.-.*.*.*.*.*.o.*...*...*...*.*...*.-. .*.&.&.*.-.} 1                                                                                                                                                                                                                                                                                                                                                                                     ",
"                                                                                                                                                                                                                                                                                                                                                                      ] :.*...-...*...*.*.-...*.*.*.( W L L W L J L G C G G V G J V G V G V G C G C F C G G G G F G F G C F J G G G C G V G F G F G G G G H G H G C G G F G J G H G C F C F F F *.h.h.h.a.h.h.h.n.B.D.B.A.B.D.n.f.r.u.u.u.r.t.e.o.o.*.*.*...*...*...*...-.*.*.*.*.*.*...*.o. .I D D D D B                                                                                                                                                                                                                                                                                                                                                                           ",
"                                                                                                                                                                                                                                                                                                                                                                      ~ :.-...*...-...-...*.*.-.*.*.^ F C F F F F F V G G F G V G G G V V J V F J V G G V G F G G G G V G C F C F C F G G G G G G G F C V G C G V G V G C F C G V G G C J G F G *.i.h.f.i.i.f.i.n.n.n.B.A.B.Z.D.f.h.g.f.f.k.k.i.-...*.-...*...*...*...*.*...-...*.o.*...-.*.-.*.>.:.:.=.<.1.                                                                                                                                                                                                                                                                                                                                                                        ",
"                                                                                                                                                                                                                                                                                                                                                                      ] :.*...*...*...*.*...*...*.*.^ H G J H H V C G C G C G G C F J C C C C G G J C G G G C F C F G G F C G G F G J V G F C F C F C G G C F G J G J F G J V G G V G F G C F V *.i.f.v.f.a.f.h.n.B.B.n.S.n.Z.n.f.g.f.h.h.h.f.i.-.&.&.&.-...*...*...*.-.*.*.*.*.*.*.*.*...*...-.-.&.-.*.:.=.                                                                                                                                                                                                                                                                                                                                                                        ",
"                                                                                                                                                                                                                                                                                                                                                                      ~ ;...-.-...-.*...*.-...*.*...^ J C V C C F G V G G F G F G G G F F C F J V G F G H C G H G C F C J F J C G C F G C J G G V G G F G G J C F C G J V G G H C G J V G F G V *.a.h.g.g.a.f.a.n.B.B.B.A.B.D.D.h.f.f.h.a.a.h.i.-.o.-. .-...*.o.*.o.*...*...-...-...*.o.*.-.*.-.*.*.....*.;.                                                                                                                                                                                                                                                                                                                                                                        ",
"                                                                                                                                                                                                                                                                                                                                                                      ~ *.-.&.o.&.-...-.*.*.*.o.-.*.! G V G C F J C G F C G G G F G F G C G F C G V G C G H C G G J V G G C F G F J C G F G V G G G J V C F C G J F C F C G C G G V G G G V F F *.f.h.h.g.a.h.h.M.A.B.n.B.D.B.C.k.p.h.a.a.h.f.i.-.&.&.-.*.*...*...*...*.*...*.*.*.*.-.*.*...*...-.&...o.*.;.]                                                                                                                                                                                                                                                                                                                                                                       ",
"                                                                                                                                                                                                                                                                                                                                                                      ] =. .-.*.o.*.*...*.*.o.*.*.-.^ G G G F G C F G J V G F G G G G G H G J G F J G H C G F C F C G F J C F C G G F G C J G F J V G G G G H G V G G G G H C F J G F C H G G V &.h.h.a.f.h.i.h.M.B.Z.n.n.D.D.D.h.i.f.h.a.k.h.u.o.....-.*.*.*.*.*.-.*...-.*.-...*...*...-.*.*.*.*.*.....-.;.~                                                                                                                                                                                                                                                                                                                                                                       ",
"                                                                                                                                                                                                                                                                                                                                                                      ] ;.o.&.-.&.o.&.*.*.*.*.-.....^ G F G C J F J C F G G G G F G F G C G V G C G C G F C G G J F G C G F G J V G C H G F C C F C G H C F C G G J V J V G G G C F C G G V G F *.v.v.h.k.f.v.k.n.n.A.Z.B.n.Z.n.f.h.h.h.i.f.h.i.:.*.*.o.*.*.*.-.-...-.*...*.*.*.-.*...-.*...-...-.*...*.-.-.~                                                                                                                                                                                                                                                                                                                                                                       ",
"                                                                                                                                                                                                                                                                                                                                                                      ^ -.&.-. .-.&.*...*...*.*.-.*.^ F G G F G C F G C G G F G G F G G H G J G H C H C G G V G V J C F G J V G G J F C G J F G G C F G J C F J V G G C G J V J F J G F G V G F  .p.u.u.w.u.9.w.f.n.D.n.Z.B.n.S.v.g.h.h.h.f.v.r.o.} }  . .$.&.} ..o. .*.*.o.*...*...*...*.*.*.*...*.-.*.-.:.]                                                                                                                                                                                                                                                                                                                                                                       ",
"                                                                                                                                                                                                                                                                                                                                                        } ^ ~ ^ ] ~ ^ o.-.-...*.-...*.*.*.*.*.*.*.-.^ J V H J C G C J F J V G G G G F C G C V G G G F G V G F J C G G J C F G G V G C J G C G V G G J C F G C G G V G F C F G C G C F J C G G G G J R R J R J U <.f.v.h.a.v.h.h.n.n.B.n.n.n.B.i.L F J J J J J ) $.*.*.*...*.*.o.*.*.-.*.-...-.*.-...*...*.>.~                                                                                                                                                                                                                                                                                                                                                                       ",
"                                                                                                                                                                                                                                                                                                                                                        1.:.;.*.-.;.-.*...&.-. .-.&.-.&.*...&.o.*.*.! J V C V C H G G C G G G V G C G G F J G H C G C G G J C F G F C F G C G V G J G V G F J G J V G G G G H G C G J C G J C F J G C G F G F G F G V C V V C G <.v.h.v.h.h.a.f.Z.Z.n.B.B.S.B.i.L V F F G V F W $.*.*...*.-.*.*.*.o.*...*.*...*...*.-.*.-.:.]                                                                                                                                                                                                                                                                                                                                                                       ",
"                                                                                                                                                                                                                                                                                                                                                        1.*.*.*.*.*...*.*.-. .-.&.o.*...-...*.*...*.! J V C C F G V G H G C G G F G F J C G V G G F C F C F G C J G G C J F J G C F C G G G V G C F G V J C G V G F G F V G G F C F G J C G G G G C G G G G C G <.f.c.h.h.h.h.h.B.Z.n.n.n.A.S.i.L V F G F C F ! $.*.*.*.*...*.o.*.*.*.-...*.*.o.*.*.*...-.;.]                                                                                                                                                                                                                                                                                                                                                                       ",
"                                                                                                                                                                                                                                                                                                                                                        :.*...*...*.*.*...*.*.*.*...*.o.*.-.&.-.-.-.! J C G C J C G C G J V G V J C G V G V G C G C G J F C G F C F C F G C G F G G F G V J G F G J G G V G F G C F C G G F C F G F V F F G F G G C G C G F G G #.v.h.h.f.h.a.f.B.D.B.n.A.B.S.u.E V F G G G G L $.*.*.....-...*.......*...-...*.*...*.*.*.:.]                                                                                                                                                                                                                                                                                                                                                                       ",
"                                                                                                                                                                                                                                                                                                                                                        :.*.*.*.*...*.-.*.-...-.*...*...*.-...-.*.-.! G F G F G F J F C G F G G G F C J G G J F J F G C J G F J G G G C H G C F C J C G G V G C G V J V G G C H G G F G F G G F F G F G F G G G F C F C G G V J :.f.h.h.i.g.i.h.B.n.D.n.A.A.S.u.R F G F G C F ) *.*.*...*...*...*.-...*...*...*.-.*.o.*.-.-.~                                                                                                                                                                                                                                                                                                                                                                       ",
"                                                                                                                                                                                                                                                                                                                                                        >...*.o.*.*.*...*.*.*...-.*.....*.*.-.*.o...^ F G G J C G V G G V G J V G J G V G V G C G J V G F J C G V G V G G F G J C F G H C G H G V G G C F J F G C G G F G F G G F G F G F G G F G G C G V G G J #.v.h.h.i.h.a.f.B.Z.n.n.S.n.S.p.R C G F G F H W $.$...*...*...-...*...-...*.o.*...*.*.*.-.>.~                                                                                                                                                                                                                                                                                                                                                                       ",
"                                                                                                                                                                                                                                                                                                                                                        :.*...*.*.o.*.*.o.*.-.*...*.*.*.*.*.*.-.*.-.^ G F G V J F G J C J C G G V G C G F G F J V G G C G V G G J F G C G J V G F G C G F G C J G C F J G C G V J F G G G G J F J F H G F G G G G V G V G G F J <.f.h.h.i.g.i.h.B.n.B.n.A.A.S.i.J A F V C C V J *.*.*...*...*...*...-...*.o.*.*.*.o.*...-.:.~                                                                                                                                                                                                                                                                                                                                                                       ",
"                                                                                                                                                                                                                                                                                                                                                        >.*.*.o.*.*...*.*...*.*.*.-...( ( } ` } $.( ! F G G G C G C F G F G V G G F G H C G C G G C F J G J V G C J F J V G G C G J V G J V G F G V G C F G J G G V V V V V V V V G C J V G G F G G C G G F C J #.v.h.h.i.h.i.h.B.D.n.D.B.A.B.h.$.$.` $.` ` ' ` ) ( ^ } } $.} ..*.*...*...*.....-.*.*.-.*.:.^                                                                                                                                                                                                                                                                                                                                                                       ",
"                                                                                                                                                                                                                                                                                                                                                        >.o.*.*.*...-.*.o.*...-...*.} J F J G J J J G F G F C H G F C G V G J V J C G C G H G H C F C G V G G H G V G C G F J V G G G V G G J C G J G F C G V G C M z M z M M z M C C C C C G G G C G V G G F J :.h.h.g.i.g.i.h.B.Z.n.n.n.A.D.C.s.u.a.i.i.a.a.o.J G C J G F G ^ &.*.*.*...*.o.*.*...*...*...-.$.( } } } }                                                                                                                                                                                                                                                                                                                                                           ",
"                                                                                                                                                                                                                                                                                                                                                        1.*.*.o.*.*...*.*.*.*.*.*.-.( J G F C G C F C G F G G G C G H C J V G G G V J F G C G G G G F G G F C G G C F G J C G G V G V G F C F G V G C G J F J G V k k k k k k d M C C C C G G F G F C G C G G J #.f.h.h.i.h.i.h.n.B.n.n.S.n.D.C.h.a.h.f.h.h.k.<.G F F V F V F ^ *.*...*.......*.*...-.*...&...*.-.=.-.*.:.1.                                                                                                                                                                                                                                                                                                                                                        ",
"                                                                                                                                                                                                                                                                                                                                                        >.-...*.-.*.*.-...*.o.*.*.-.} G V G C G J C G G C F C H F C G G F G C F G G V G J F C G F G G G F J C F G H G V G F C G J G G J C G G J G F J V G C F C G k k k k k k k M C C C C C G G G C G C F G V J <.v.h.h.i.g.i.k.n.Z.n.D.A.B.D.n.v.a.a.f.g.f.f.<.H F G V F G F ^ $.*.*.} *...*...*.*.*...*...*.*.*.*.-.*.*.>.                                                                                                                                                                                                                                                                                                                                                        ",
"                                                                                                                                                                                                                                                                                                                                                        1.*.*.*...*.o.*.*...*.-...*.} J F G F J G J F J G V G C G F J V J G J G V J G G V G G G G G F G C G F C G C G G G V J F C H C F G H C F C G C F J G G H G k h h k h k k M C C C C C G F G G V G V G G J #.h.h.g.i.h.i.h.B.Z.n.n.A.n.n.n.d.h.h.v.h.h.h.<.G C G F G V G ^ *...*.*.*.*...*.-...-.*.*.*.-.*.-...*.*.*.;.                                                                                                                                                                                                                                                                                                                                                        ",
"                                                                                                                                                                                                                                                                                                                                                        :.-...-.*.*.o.&.*.*.*.*.*.*.( G G F G J J C G V G G V J G C G G C F C F G C F C G F C F G G G G H C J V G F J V G G G J G G F C G C G G F G H C G V G C G k k k k l k d M C C C C G G G G G C G G F G J :.f.v.f.f.g.h.k.n.Z.n.B.A.A.S.Z.h.a.h.h.a.h.f.<.J C C C G F G ^ $.*.*.-.-.*.*...*.*.*...-...*...*.*.-.*.-.;.                                                                                                                                                                                                                                                                                                                                                        ",
"                                                                                                                                                                                                                                                                                                                                                        <.;.*...*.-.-.*.&...&.$.*.&.) J F G C G G G J G V G G V G F C F J G C G C G G F C J G G F G F G C F C G C G C G G V G V G V G G V G F C G V G G G C F J C k k k k k k k M V G C C F G G F C F C C G V J <.v.f.v.h.h.f.k.n.Z.n.A.n.n.S.n.f.a.h.i.h.h.f.<.J F G C F F H ^ $...&. .&. .*.*.-...*...*...*...-...*.o.-.;.                                                                                                                                                                                                                                                                                                                                                        ",
"                                                                                                                                                                                                                                                                                                                                                        <.-.*.-.*.....*.*.*.*.*.*.*.( J G F J G J V G G H C F G C J G G V G F G F G C J G F C F G G G G F C G V G V J F C J G F G J C J G J G V J G C F G J G C F k l k l k k c M C C G C G G G G G C G F G G J <.v.f.h.h.h.h.k.n.Z.n.Z.A.A.F.n.h.h.i.h.i.h.v.<.J C C V C G F ^ *.*.*.*.*.*.*.*.*.*.-.*.*.-.*.*.*.*...*.-.:.V                                                                                                                                                                                                                                                                                                                                                       ",
"                                                                                                                                                                                                                                                                                                                                                      ~ -.*.-.*.*.*...) ! ! ^ ! ) ! U J F G J G J G F C G G C H G F C J G J V J C H G F C G G G G F G F G J C J G G G J F C G J C F G V G V J G V C M V M M M M N k k k k k k k M N M M N M M M M M N M M N M C ^ *.-.*.*.*.*.-.v.A.Z.A.B.D.A.n.f.a.h.f.g.f.f.#.J F V J G F J W $.*.*.*.*...*...*.o.*...*...-...-.*.-.*.*.-.! r                                                                                                                                                                                                                                                                                                                                                     ",
"                                                                                                                                                                                                                                                                                                                                        -.o.....o...o.-.*...*.*...-.} J F G C G C G G H G H G J V G J V J F C G C F G V G G C F G G C F J G F G G G F G C V G V C F C V G G V G G H C J V G V G C M k k l k k k k k k k k l k k k k k k k k k l k k k k z l k k N G C G J V V L u.F.n.B.n.n.D.C.h.a.h.g.f.h.v.<.J F C G V G F ! &.*.$.*.$.*...*.*...*.*.-.*.*.*...*...*. .*...*.*.*.$.*.*.*.                  k.h.h.h.f.k.9.                                                                                                                                                                                                                                                                                                        ",
"                                                                                                                                                                                                                                                                                                                                        :.-.-.=.-.*.-.-.*.-.&.*.o.*. .G C G G C G G G J F G C G J C G G C G H G C J G F J V G G C F J C F C G F G G G G G G V J G C F G G F G V G C G G C G G G V N k k k k k z k k k l k k k n k k k k k k k k k k k k k k h k M C V F G G V J a.F.D.A.B.n.n.B.h.f.h.h.g.h.f.#.J C G G F G G ^ $.*.&.$.....*...-.*.*...*...*.o.*.*.*...*...*.*.*.*.-.-.;.;.                  k.v.h.h.v.M.9.                                                                                                                                                                                                                                                                                                        ",
"                                                                                                                                                                                                                                                                                                                                        -.:.*.*.*.-.*.*.-.-.*.*.*.-.} J G G G G G G G F J H G F G F C H G F C J F C F C G G C F J C F G C J C G F G F C F G G G V J G C J C J G F G F G F G H C G M k k k k k l k k z n k k z k k j n z l n z k l k k l k l k k C G G C G F V E p.F.A.B.n.n.S.n.f.h.g.f.f.h.f.<.J V C G C F C ! *.*.*.*.*.*...*.*...-.*.-...*.*.-...-.*...*.*.-.*.*.*.-.*.*.                  k.h.h.h.h.n.w.                                                                                                                                                                                                                                                                                                        ",
"                                                                                                                                                                                                                                                                                                                                        -...o.-.-.-.*.o.o.-...-.*.*. .J F C G F G F G J V C G J C G G G J C F G C F G J V G F C G F J C F G F J C C G G G G F C G F C F G F C F J C G G C G C G G N k k k l k k k l k k k k l k k n k k k k k k k k z n k k h M N C G F C G V E p.F.D.B.n.D.B.n.f.g.f.f.a.g.v.<.J F C H G F G ! *.&.*.&.-.&.*.-...*.*...*.*.-...*.*.*.*.-...*.*.-.*...*.-.-.                  v.h.h.h.h.f.u.                                                                                                                                                                                                                                                                                                        ",
"                                                                                                                                                                                                                                                                                                                                        -.:.*.*.o.*.*.*.*.o.*.*...*. .J G C G G C G G G C G V C H C H C F G C G G G C G G G C H G C G F G C G F G F G V G C G G C G C F J F H F F H F G V F F H C M k k k k k k k k k k z k z k k z k z k l k z k k k k k l k k C C G G G V V J p.Z.B.D.B.D.n.n.f.h.f.i.h.f.f.#.J V C C G G J ! *.&.-.&.-.&.&.*.*.o.*.*.o.*...*.*.o.*...*.*.o.*...*.-.*.-.-.                  h.h.h.f.h.v.9.                                                                                                                                                                                                                                                                                                        ",
"                                                                                                                                                                                                                                                                                                                                        *...-.*.*.-...-...*.*...*.*.$.J F C H G F C F J V G C G V G G C J F J V J V G F C H G G C F G C G F C G C G C G G F G F C F J C C F G H J V G G G H G G G M k k z k M k n k k k l k k n l k k l k k k k k N k k k k h k N G G G G G V E u.F.D.S.n.D.B.n.h.h.h.h.f.f.v.<.J F C C G F F ) *.*.*.=.-.&.*.-.*.*.*...*.*.-...*.*.*.-...*.*.*...*.*.*.-.*.                  k.h.h.f.f.z.9.                                                                                                                                                                                                                                                                                                        ",
"                                                                                                                                                                                                                                                                                                                                        -.:...-.*.*.*.*.*.o.*.*.*.*. .J J V G C G H C C G V J C G F C F G C F G G G V G G G C F J C F G G G G C G F G F C G C G C C C G G C C C G C G N F C J V C z k l k k k k k k z k k k z k k k k z k k z m k k k z l k k k N C C C C G V R u.F.n.S.n.n.D.b.a.i.i.p.a.g.i.:.K G G C C G F ! $.*.&.&.&.&.*.*...*.o.*.-...*.*.-...*...*.-...*.-.*...-.*.-.                  h.h.f.h.g.k.9.                                                                                                                                                                                                                                                                                                        ",
"                                                                                                                                                                                                                                                                            I K I I                                                     *...*.*.-...-...*.o.*.*...*.} J F C G V G C F G H C F J C J G V J V G C F G G C F C F C F G C G C G G F C G C G G G G G G V M M V M M M M M M N M M z M n k k k k k n k k k k l k k k k k z k k k l k k z k k k k k k k k j N M N M v C w.M.n.n.j.v.n.i.*.( $.} ` $.` ! G C C V F G H J W W L E ! L W $.*.*.*...*.*.*...*.*.-.*.*.*.*...*...-.*.-.-.                  h.h.h.f.f.k.9.                                                                                                                                                                                                                                                                                                        ",
"                                                                                                                                                                                                                                                                        L N.l.k.k.k.N.                                                  -.:.o.*.-.*...-.*...*.*.*.*. .J C G J V G F C C C G C V G F C G G G V G J V G G H G G J V G F G V G C G G F G C F C F C J V v v v k z k z k z n n k k k k l k z k k z k z n k k z k j n k l k k k k z k k k k k z k k k k k k k k c s M 9.f.h.f.h.g.f.w.L S V F F V F F C V J F J C V G V F G C G F J  .*.-.*.*.-...-.*...*...*.o.*.*.-...*.*.*.-.*.                  k.h.f.h.h.f.w.                                                                                                                                                                                                                                                                                                        ",
"                                                                                                                                                                                                                                                                        K k.h.f.f.f.z.0.                                                -...*.-.*...*.*...-...*...*.$.J F C G G H G G F J V J C J C H G H C J G V G G V C F C F G C G V G G F C G C H C G G G F G V M v v f k k l k k k k k k z k k k k k k k k k k k k l n k k k k k k k k k k j n k k l k z n z n k k k k g N <.v.h.h.g.h.k.u.U F J G G G F G C F H C G F J V C C C G F F K } *.*.o.*...*.*...*.-.*...*.*...*.*.-...-.*.-.                  h.h.h.f.h.v.9.                                                                                                                                                                                                                                                                                                        ",
"                                                                                                                                                                                                                                                                        I k.f.f.f.k.k.8.                                                *.:...*.-.-.*.*.o.*.*.*.*.*. .J G J V G C G J C C G C F C G G G C G F C G J G G F G G J C H G G J V G F G V G G G G F C G V v n M k k z k l k k l k k l k k k l k k l k k l k z k k k k z k l k k N k k n k k k z k k l k k l g l n g N 9.v.f.g.h.f.v.w.U F G G F J F F G G F C G V C V C V G H G V J ( -.*.*.*.*...-.*.*.*.-.*.o.*.*.-...*.*.*.-.-.                  h.h.f.h.f.k.9.                                                                                                                                                                                                                                                                                                        ",
"                                                                                                                                                                                                                                                                        I k.f.f.f.f.M.9.                                                -.o.*.-.&.....*.*.o.*...*.*. .J V C G F J V C F V C H C J V J V J G J G V G V J C F C F G G J V G G G C F G C H C G F G G N v v n f k l k k l k k k k k k k k k k k k k k k k k z k k k k z k k k k z k k j k k k k z k z k l g k g n N w.f.c.g.g.v.h.e.J F C G F H H F G F G V C G H C H V H F C V J ( -.*.o.*.-.*.*...-...*.*.*...-...*.*...-.*.-.                  k.h.h.h.g.k.9.                                                                                                                                                                                                                                                                                                        ",
"                                                                                                                                                                                                                                                                        K k.h.k.f.f.k.9.                                                -.*.*...-...-...*.*.*...-...} J F F F F G F G V C G C G V G C G V G V G G V G F H G G J V G C G G V J G C G G C F G C G C V n k k k k k k k k k k k k k l k k k k k k k z z M n z n z n k M n z M k k z k k n k z k k k k k k k k k k N <.v.a.a.h.a.k.q.J F C C G C C J H G J F G V C G C G C G C V C } *.*.*...*...-.*.*.*...-.*.*.*.*...-.*.*.-.-.                  h.h.h.h.h.v.w.                                                                                                                                                                                                                                                                                                        ",
"                                                                                                                                                                                                                                                                          N.M.k.k.z.N.r.                                                *...*.*...-...*.*...*.*...*. .J F V G F G H F V V V V V V V V V V V G V F F F G G F C G C G F G C G F C F G V G G G F G V M M k z k k k k z k z k l z k k z k j n k k l k n k k k n k M k k k n k z k k k k z l k k k k k k h k l l g C w.k.k.h.k.h.k.e.J C C G G G V G H F G J G J G F C F C G V C J } *.-.*.o.*.*...*.o.*.*...*...-.*.*.*...-.*.-.                  h.h.h.f.h.f.9.                                                                                                                                                                                                                                                                                                        ",
"                                                                                                                                                                                                                                                                            w.8.#.8.9.X.                                                ;...*.*.*...*...*.*...-...*. .J F F V G F G J J J J E J E J E J E L J L L L J G F G G F G G C G F G G G C G G G C F C G C V k k k z l k k l k k k k k z k k k k z k k k k k k n k k k k n z n z k k k z k k k k z k k k k k g g l g g N #.r.w.r.u.t.t.8.J C C G G G G F H K F G F C G J V G V J C V G ( -.*...*.*.-.*...*.*.o.*.-.*...*.o.*.*.-.-.*.                  k.h.h.h.g.k.u.                                                                                                                                                                                                                                                                                                        ",
"                                                                                                                                                                                                                                                                                                                        F ~ D I I K I } o.*...-...-...*.*.*.*...*.*. .H H J G H G V ( p.v.h.c.h.c.h.c.v.c.a.c.h.h.a.$.F V G V G C G F G C G C G G C G F G G G C G M M k k k k k k k k z k k l k k l z k k l k k k z k z k z n z k k k k k k k l k p 9 u 9 i e 9 t e u i t i q i k k k k k k k j C G V C G C G C G G F G G H C G G V G C F C J ( -.*.*.o.*...*.-.*...*.*...*.-.*...*.-.*.-.-.                  h.h.h.f.h.v.w.                                                                                                                                                                                                                                                                                                        ",
"                                                                                                                                                                                                                                                                                                                        %.=.:.=.*.=.;.*.*.*.*.&.o.*...*...*.*.-...*.} J F J F G F V *.B.F.F.S.F.F.F.F.F.F.F.F.Z.G.B.*.F G G G C F G C G G F G F G F C G C G G V G V k k z k z k k z k l k z n k z k k n k k z k k k k k k k k k k z k k k z k k a u 9 9 q 9 9 9 9 8 9 t q w 8 9 4 4 4 4 4 7 4 u V C J G G G F C V G C F C G F C F C J V C V G ( -.*.*.*.*.*.o.*.*.-.*.*...*...*.-.*...*.-.*.                  h.h.h.h.h.j.9.                                                                                                                                                                                                                                                                                                        ",
"                                                                                                                                                                                                                                                                                                                        $.-.*.*.*.*.*.-.*...*.*.*.o.*.*.*...*...*.o.} J F J H G F V $.n.S.A.Z.n.n.Z.n.n.Z.n.Z.n.B.B.*.V V G H G C J F J V J C G C G V J F G F G C M f k k k k z k l k k k k z k k k k k j k k l k k j n k j n z l k k j n k k z g e q e q 9 8 q 8 q e 9 t t 9 e 9 e 9 w 9 e 8 i V G V G G G C G C C G C G C J G G V G C G V J } *.-...*.o.*.*...*...*.o.*.-.*...*...*.-.*.-.                  k.h.h.h.g.k.w.                                                                                                                                                                                                                                                                                                        ",
"                                                                                                                                                                                                                                                                                                                         .*.*.*.*.-...*.-...-...-.....*...*.-.o.*.-...K F C G H C V $.n.S.n.B.D.S.n.F.n.Z.A.B.B.F.n.*.V C C G C F G C G G C F J F C G C G G G V G V k z k z k k k k k z k k k k l z k k n k n k z n k k n k k k k k n k k k k k g i 9 e t q 9 q q 9 q q 9 9 q 9 u 9 q 9 q q q g V J V G G G V G F G F G F G F C F C F F J V G ( -.*.*.o.*.*.*.o.*.*.*.*...*.o.*.-.*...-.-.*.                  h.h.h.f.h.v.w.                                                                                                                                                                                                                                                                                                        ",
"                                                                                                                                                                                                                                                                                                                         .=.*...*.*.-.*.-...*...*.o.*.*.*.*.-.*.*.-...J F C G C G V $.n.F.n.D.B.D.B.D.B.n.D.n.B.B.n.%.V C F G F J C F J V G G C F G H C F G F G C M z k k k k h k z k k k j n k k k z l k k z k k k k k k k z k k k k k k k j n g e 9 9 e q e 9 q 9 q q 9 q 9 9 9 u 9 9 9 q 9 i V J V J V G G C G F G C G C J G V J H C F V J } *.*.-.*...*.-.*.*.o.*.*.-.*.*...*.*.-.*.-.-.                  h.h.h.h.h.f.9.                                                                                                                                                                                                                                                                                                        ",
"                                                                                                                                                                                                                                                                                                                        ..:.-.*.-...*.o.*.o.-...-...*...*...*.*.*.*. .J C C V G V V $.n.n.Z.n.n.n.n.n.D.B.D.B.n.Z.n.*.C V C J C F G C G J F G F C G C G C G G V G M v k k k k z k k k l k n k k z k k k k k k l k k j n k l k k l k k l k n k k g 9 i 9 t 9 q 9 t 9 9 9 9 9 q e 9 9 e 9 t 9 8 g V C C V C V C G V G C F G F C F G V G F V F G ( -.*...*.*.o.*...*.*...-...*...*.o.*...*.-.*.                  k.h.h.h.g.k.u.                                                                                                                                                                                                                                                                                                        ",
"                                                                                                                                                                                                                                                                                                                         .-.*.o.*.*.o.*.-...*...*.o.*...*.*.-.*.-.*.} F V V V V C M ` n.S.n.B.D.B.Z.n.B.n.B.D.B.S.n.$.C C F G G C F G F C G J C F G H C G C G C G C z k k z k k k l k k k k k l k k l k k k k k k k n k k k k k k N k j n j M k g e e t 9 t 9 t 9 t 9 t e 9 e 9 e 9 q e 9 9 q a C G G H C G G C G V G G C G J G V G H C F V J } *.*.-...*.*.*.*.o.*.*.*.*.-.*.*.*...-.*.-.-.                  h.h.h.f.h.v.w.                                                                                                                                                                                                                                                                                                        ",
"                                                                                                                                                                                                                                                                                                                         .-.*.*.-.*.-.*.-...-...-...*.*.*...-.o.-.*.&.^ ) ) ) ) ) ! >.n.A.B.D.B.A.Z.A.Z.A.Z.A.B.B.B.*.V C C F J G F J C G V G F J C V C C C C C C M v k k k h z k k z k z l k z k k k k z k z k z k k z k z k M k g g k g k g k i t 9 e t 9 e q e 9 e 9 i 9 e q e 9 e 9 e e 9 i N M M M M M C C F C G F J V G G F H C H G V J ( -.*.*.*...*.o.*.*.*.o.*...*.o.*.*.*.*.*.-.*.                  h.h.h.h.h.j.9.                                                                                                                                                                                                                                                                                                        ",
"                                                                                                                                                                                                                                                                                                                        &.-.-.o.&.o...-.*.o.*...*.o...*...*.*.-.*...-.r.t.u.u.i.u.u.h.n.Z.n.Z.n.Z.n.Z.n.Z.n.Z.n.B.n.$.C V G C F C G C F G G C G F V M v z M M k b M k z k z k k k k k l k k k k k z k k m k k l k k l k k l k k k q q q q u 9 q q t e t e q t 9 t q e 9 e 9 e 9 i 9 e q e 9 4 e e i 9 u e 9 y f C C C G C F G C C F J V G V J } *.*.o.*.-.*...*.*...*.*.*.*.*.o.*.o.*.-.*.-.                  k.h.h.h.g.k.w.                                                                                                                                                                                                                                                                                                        ",
"                                                                                                                                                                                                                                                                                                                        ..-.*.*...*.*...*.*.o.*...*.*...*.*...*.*...-.f.h.f.v.h.h.h.v.B.D.n.n.Z.A.B.D.B.n.F.n.B.S.n.*.V C V G J G V G G G G F G C V M M k k z k M k k k k k k k k l k k z k z k l k k z k z k k k n k k z k k k k 8 8 e 9 9 t q t q q 9 t 9 e u e 9 i 9 e q e 9 e 9 t 9 t 9 e 9 t 9 8 q 9 9 q k V C F G G C F J F C F J V F J ( *.*.*.......*...-...*.o.*.o.*.*...*.*.*.-.-.                  h.h.h.f.h.v.w.                                                                                                                                                                                                                                                                                                        ",
"                                                                                                                                                                                                                                                                                                                        *.-.*...-.*.*.-.*...*.*.-.*.-.*...-.*.*.*...:.a.h.h.h.h.h.h.v.n.Z.B.D.B.D.B.D.n.Z.n.F.n.A.n.*.V C C F C G J V G C F G C G V M k k k k k k z k z k k j k k k z k k k k k k M k k k k k k k l k k k k j n k e 9 e e q t q e q t e q e q e 9 e 9 e q e q e q e 9 t 9 i 9 t q t t q t q 8 k C F C G V J G C G F C G G C G } *.*. .*.*.....*...*...*.*.*...*.*.*.o.*.-.*.                  h.h.h.h.h.f.9.                                                                                                                                                                                                                                                                                                        ",
"                                                                                                                                                                                                                                                                                                                         .*.*.*.*.*.o.*.*.-...*...*...*.-.*...*.-...-.h.h.h.g.h.h.p.f.Z.D.B.D.B.D.n.B.D.B.D.B.n.S.n.$.V C V J F C G G F G G G H C V k k k k k z k k k k k k k k z k k k k l z n k k k k j n k l k k k k k n k k g e t t 9 t 9 t q e q t 9 t 9 i 9 t 9 t 9 t 9 i 9 t 9 t 9 e q e q 9 t 9 e t e g C C C G G F G V G G G H C F J ^ *.*.*.*.*.*.*...*.o.*...-...*.-...*.*.-.*.-.                  k.h.h.h.g.k.u.                                                                                                                                                                                                                                                                                                        ",
"                                                                                                                                                                                                                                                                                                                        *.-.*...-.*.*...-.*.*.-...*.-.*...*.*.*...*.-.h.h.f.h.g.h.h.v.F.n.D.B.D.B.n.D.B.n.n.D.n.B.n.$.V C C G C H G J C F G F G C V j n k k k k k k k l k k k k k k k k k k k z k k k k k k k k k k l k k k z k k e t 9 e q e q t q e q e u e 9 e u e u e 9 e 9 e q e q e 9 t 9 t 9 t 9 t 9 9 k C G C G F C G G V G V G G C G ( *.*.o.-.-. .*.o.*...*...*.*.*.*...-...*.-.-.                  h.h.h.f.h.v.w.                                                                                                                                                                                                                                                                                                        ",
"                                                                                                                                                                                                                                                                                                                        ..-.*.*...-...*.*.....*.*.-...*.*...*.*...o.-.i.h.g.h.h.h.g.v.n.F.n.B.D.n.Z.n.Z.D.B.Z.n.S.n.$.C V C F G C F C F G G G F G V k k k k j n z l k k k k z k j n k j n z k l k k l z n z k k k l k k k k l k k e 9 t e q t q e q t 9 e 9 e u e 9 e 9 e q e q e u e 9 i 9 e q e 9 t 9 t u 8 g G G C G C F J F C G J G V F J ^ *.*.-.-.&.-.*...*...*.o.*.-...-.*.*.*.-.*.-.                  h.h.h.h.h.j.9.                                                                                                                                                                                                                                                                                                        ",
"                                                                                                                                                                                                                                                                                                                        &.*.-...*.*.*...*.-.*.*.o.*.*...*.-.*...*.*.-.g.h.f.g.h.g.i.v.B.D.B.D.B.n.B.D.B.F.D.S.A.S.n.*.V C C G J G F G G G F G F G C z k k n k k k k k z k k k k n z k n k k k k k k k k k l k k k k k l k l g l g t e t 9 t 9 t q e u e q e 9 e 9 t e q e t 9 t e 9 e e 9 t 9 e q e q e 9 e 0 k A G V G F C G C G F C F G C J ` *.*.*.*.*.*.*...-...*...*.*...*...*.o.*.-.-.                  k.h.h.h.g.k.w.                                                                                                                                                                                                                                                                                                        ",
"                                                                                                                                                                                                                                                                                                                         .-.*.*.*.o.*.*.-...*.*.*...*.-.*...*.*.*...:.h.n.f.v.v.n.v.n.n.F.n.Z.n.Z.D.a.0.0.<.0.0.0.<.) V C V G V G J C F G G G F G V j n k z k k k z n k k k k z k k k k k k k k z k k k k k z k z g i g i i g i i q e t e q t 9 i 9 e q e q t 9 t 9 e t e q e t e t e q e e t 9 t 9 i 9 i e 7 g G C C G G V J F J G J C F G G W ( ^ ^ ) ^ ^ ) *.-.*...-.*.o.*.*.-.*.*.-.*.-.                  h.h.h.f.h.v.w.                                                                                                                                                                                                                                                                                                        ",
"                                                                                                                                                                                                                                                                                                                        *.*.*.o.*.*.*.o.*.*.*.o.*.-.*...*.-.*...-...<.n.B.D.S.S.n.B.n.B.D.B.D.B.D.n.<.H J H H J J J C J G G J G V G C G F G G F G C k k k l k z l k k k j n k l k k j k k k j n k j n z k k k k k i q t i u t u e t 9 t e 9 e q e 9 t 9 t 9 e q e q e q e t e q e q w t t 9 t 9 i 9 e 9 e t q g C C C F J G C G V G F G C F G V G G C T G G J *.*.-.*...*.*.*...*...*.-.*.-.                  h.h.h.h.h.f.9.                                                                                                                                                                                                                                                                                                        ",
"                                                                                                                                                                                                                                                                                                                        ..-.*.*.*.o.*.*...-.*.*...*.*.-...*...*.*...,.n.S.n.B.n.S.A.B.D.S.D.B.D.B.D.<.V F F F C F C F C F C F C J F G C G G G G G V M k k k k k k z k k k z k k k k n k k n k k k n k k j n k j n u 9 9 e 9 e 9 t 9 w t 9 t 9 t 9 i 9 e q e q e q e q e 9 q e q e q e 9 9 t 9 t 9 e u e q 9 t g C G C G V G H G G C J C G G H C C C G C G F J  .-.*.*.-.*.o.*.*.-.*...-.-.*.                  k.h.h.h.g.k.u.                                                                                                                                                                                                                                                                                                        ",
"                                                                                                                                                                                                                                                                                                                        &.-.*.o.*.*.*.-.*...*.-.*.*...*.*.-.*.-.....<.n.A.S.A.B.A.Z.A.B.D.B.D.B.D.D.<.F C H F G G V G G C G G F G C F G V C V F G C z k k z k k k k k k n k k z k k z k z k z k z k z k n k k n k i q t q t q e q t e 9 t q e q e 9 e q e q e q e q e q e q e q e 9 t q e q e q t q e q t q e k C G F G G G C G H G F G F C C C C C G G F F J  .*.-.*...*.*...-...*.*.*.-.-.                  h.h.h.f.h.v.w.                                                                                                                                                                                                                                                                                                        ",
"                                                                                                                                                                                                                                                                                                                        ..*.*.*.*.o.*...*.*...*.o.*.-...*...*.*.-...:.n.B.n.B.D.A.B.n.Z.A.D.B.n.Z.n.<.H V J H C F G G H G V J C J G C G C F C C C N M k k k k z l k k j k z l k k l k k l k k l k k k l k z k k z u q t q t q t q e t t e 9 t 9 t 9 t 9 i 9 e q e q e q e q e q e q e 9 t 9 t q e q t 9 t 9 t g F G C J V G H C G C F C J G F C V F F G C V J &.*.-.*.*.*.-.*.*.*.o.*.-.*.-.                  h.h.h.h.h.j.9.                                                                                                                                                                                                                                                                                                        ",
"                                                                                                                                                                                                                                                                                                                        *.-.*...-.*.*.*.o.*.-.*.*.*.*.*.*.*...*...o.<.n.S.n.A.B.D.S.n.Z.B.n.D.B.D.D.<.V G F H G J C G C H G G F G F G V C F C G G N z k k z k k n z n k k k k k k k k k k z k k k n k k k k l k k t q e q e q e q e t 9 t 9 e q e 9 e 9 e 9 t 9 e 9 i 9 e 9 t 9 t 9 i 9 e q e q t q e q t q q g C G C G G G G F G G J V G V G G C G C G C V R  .*.*.-...*...*...*.*...*.-.*.                  h.h.a.f.a.k.w.                                                                                                                                                                                                                                                                                                        ",
"                                                                                                                                                                                                                                                                                                                         .-.*.*...*.o.*.*...*...-...-...-.*...*.*. .:.n.n.B.D.B.n.S.n.D.F.n.Z.n.B.n.<.G H C F G V J F G C G C J C H G G G C G C G C M k k k k k k k k k k n k k z n z k k n k z k z k z k k k z k i q w q e 9 t 9 t 9 e t 9 t 9 t u e u e q e q t 9 e 9 t 9 t 9 t 9 e 9 t 9 t q e q t 9 t e 8 n N G G J V G H C H C F G G C J F C V G V C V J &.*.-.*.*.-.*.o.*.-.*.*.-.*.-.                  h.h.h.a.f.f.w.                                                                                                                                                                                                                                                                                                        ",
"                                                                                                                                                                                                                                                                                                                         .-.-.-.-...*.o.*.o.-...&.&.&.-.*.*.*.*.*.} :.n.S.Z.n.F.D.Z.A.B.n.B.n.n.B.B.>.C G C C G G V G J F G F G F C F C F G G F G C k k k z k l n k j n k z k k l k k l z z k k z k z k k z k k k 9 q e t e t 9 9 t 9 t 9 t 9 t 9 e 9 e 9 i 9 e 9 i 9 e q e q e 9 t 9 t 9 t 9 e q e q e q t 0 c G G V C G F G F H F K C J F C G G V G G C V J &.*.*.o.*...*.*.*...-...*.-.*.                  h.h.h.h.h.k.9.                                                                                                                                                                                                                                                                                                        ",
"                                                                                                                                                                                                                                                                                                                        *.-.*...&.-...-...-...-.-.-.&.<.0.0.7.7.0.6.e.n.S.D.B.n.n.Z.n.v.n.v.v.v.v.M.-.C G V C G F G C C G V C J G C G G G G G F G V k k k k k k z n k k k k l k k k z k k k z z k M k z k k k k k i 9 e q e 9 q 9 t 9 t 9 t 9 e q e q e 9 e 9 t 9 e 9 t 9 e q e q e q e q e q e q e 9 t e 9 8 g N G C V G G F F F K G F G G F C F C C F C V J  .*.-.*.*.-...*.o.*.*.*.-.-.*.                  h.f.h.a.g.M.9.                                                                                                                                                                                                                                                                                                        ",
"                                                                                                                                                                                                                                                                                                                        ..*.*.*...*.o.*.o.*.o.*. . .-.t.k.k.k.k.k.f.f.n.D.B.D.Z.n.F.v.a.c.a.v.g.v.h.*.G G C C G C J F G V J G V G F J V G F G G G C z k k k k k k k z k j n k k z k n k z k k v k z k z k z k l k e 9 e t e e 9 q e 9 i 9 e q e q e q t q e q e q e u e u e 9 t 9 i 9 e u e 9 t 9 i 9 e q t q g C C C J F G F G G G F C F C J G C F C G V C J &.*.*.o.*.*.*.*.*.*...*.*.-.*.                  k.v.h.f.h.k.9.                                                                                                                                                                                                                                                                                                        ",
"                                                                                                                                                                                                                                                                                                                        &.-.*.-.*...-.&.-.&.*.o.*...*.u.f.v.f.f.f.k.k.S.Z.n.B.Z.B.Z.v.h.h.h.h.a.h.h.-.C V G C F G V G G G G F G J C G G F G G F G V k k z l k k n l k n k k z k k k l k k z k k z k f k z k z k g i 9 e q t 8 t 9 t 9 e 9 t 9 i 9 e 9 e 9 i 9 e q e 9 e 9 e q e 9 e 9 t 9 e q i 9 e q t 9 t 9 k C G G F G F J V C G G G C F G F C G V G C V J  .*.-.*...*.o.*...*.-...-.*.-.                  h.h.h.a.h.j.w.                                                                                                                                                                                                                                                                                                        ",
"                                                                                                                                                                                                                                                                                                                        ..*.*...-.*.-...&.o.-.&...*.*.r.h.p.h.i.s.a.h.B.Z.B.D.n.D.B.v.h.h.a.a.a.h.h.*.G G V C C J G H C H C J V F F C C G V G F C C z k k k z k z n k z k k k n k k k k k z z k f k z k f k k z g e 9 e w t e 9 9 i 9 t 9 i 9 e 9 t q t 9 e 9 i 9 e u e 9 i 9 e q t 9 t 9 t 9 e q t q e q t e g G C G G G G V G F G H C G G C G V G J V G V J &.*.*.*.-...*.*.-...*.*.*.-.*.                  h.h.h.f.h.v.w.                                                                                                                                                                                                                                                                                                        ",
"                                                                                                                                                                                                                                                                                                                        &.-.*.-.*...&.-.-.&...-.*...*.w.h.a.f.a.a.f.h.B.Z.n.Z.B.n.Z.v.a.v.a.h.v.a.v.-.V F C Z C F J V J F H F J F V C C V G V C G V z k k k k k m k k l k z l k k z k k k z k z k z d z k z k k k i 9 e q e 9 q 9 e 9 e 9 e 9 t 9 e 9 t 9 t 9 e 9 t 9 i 9 e 9 t 9 e q e u e q t q e q t q e q g G F C F C G G J V G F G V J F J F V J F J V J  .-.*.o.*.*.*...*.*.*.o.*.-.-.                  k.f.h.h.g.k.9.                                                                                                                                                                                                                                                                                                        ",
"                                                                                                                                                                                                                                                                                                                        ..-.*...*.-...-. .*...*. .*.*.w.h.g.f.h.i.h.h.D.B.Z.n.Z.n.D.v.v.k.v.h.h.h.v.-.G G F F G V G G V G C G H F F C C C V G V G N M k k z k k k k k z k k k k k k l z k k k k k k k k k k k l g 9 t e q t e 9 t 9 t q e q e u e q e u e 9 i 9 e q e 9 e u e 9 t 9 t 9 e 9 e q t 9 t 9 t q q g C G C C V C G C F G C G F G C G V G H C F V J ..*.*.*...*.-.*.*.o.*.*.-.:.*.                  h.v.h.i.h.n.w.                                                                                                                                                                                                                                                                                                        ",
"                                                                                                                                                                                                                                                                                                                        *.*.*.*.*...*...-...-...&...-.w.f.i.h.g.a.a.h.n.Z.n.Z.n.n.Z.n.f.v.k.v.k.v.h.:.F C G F J C J F J G J F F G V C C G C C G C C z k k k M k z n k k n k k l z k k n k k n k k k l k k k k l g i 9 e t e e q 9 t 9 i 9 e q e 9 t 9 e 9 e 9 t 9 e 9 i 9 e 9 i 9 i 9 e q t 9 t 9 i 9 t 9 t 8 n C Z C F C G C G C F G C G J V G F C H F J V J  .*.-.*.-.*...*.*.*.*...*.-.*.                  h.h.h.h.f.f.w.                                                                                                                                                                                                                                                                                                        ",
"                                                                                                                                                                                                                                                                                                                        ..-.*.o.*.-.&.*.*.-.*.-.*.*.-.r.h.i.h.a.h.a.h.D.Z.D.n.Z.n.Z.v.p.p.u.p.u.u.i...J C C C G F G C G V G C H F F C C V C G C G N n k k k k l k k l k z l k k k k z l k k l k l g n k k z k l g i 9 e q e q 9 9 t 9 e 9 i 9 e 9 t 9 t 9 i 9 e q t 9 e 9 i 9 e 9 e 9 t 9 e q e q e 9 t 9 i 0 g N N C V V F C G F C G H G V G J V G H C F V J &.*.-...*...-.*.o.*.o.*.-.*.-.                  k.f.h.h.g.k.9.                                                                                                                                                                                                                                                                                                        ",
"                                                                                                                                                                                                                                                                                                                        ..*.*.*.*...o.<.t.u.w.t.w.e.t.v.n.n.n.B.M.n.n.Z.D.B.D.B.D.F.u.' ) ) _ ) ` ) U G F F F G C F G J C F G H F V M M M M M M M N k k k k k k k n k k k k z k k n k k k k k g n i u u 9 9 u i 9 9 e e q e e q e q e q e 9 e q e 9 t 9 e 9 t 9 e q e q e 9 e u e q e q e q e q e q e 9 t 9 t u i a a g a g d M C V C G V G G C F C H G V F J  .*.*.*.-.*...*.*.*.*.*.*.-.*.                  h.v.h.a.h.n.w.                                                                                                                                                                                                                                                                                                        ",
"                                                                                                                                                                                                                                                                                                                        ..-.*.o.*.*.o.0.i.h.h.s.f.f.k.n.B.B.Z.n.B.B.B.D.D.B.n.n.n.F.w.G M C F C V F F C F J G F J C F C F G G F G V M d c n c n n n k k z l k k k k k z k k n k k k j n k l k m g u q 9 u 9 9 9 9 i 9 e t t e 9 q e q e u e q e q e 9 t q e 9 t 9 e q e u e 9 e 9 t 9 i 9 e q e q e u e 9 e 9 e 9 w 9 9 8 9 0 M C C V G G G F G F F C H G V J  .*.-...*.*.*.o.*...*...-.*.-.                  h.h.h.f.h.f.u.                                                                                                                                                                                                                                                                                                        ",
"                                                                                                                                                                                                                                                                                                                        *.-.*.*.*...*.q.i.h.h.i.f.f.s.n.A.B.n.B.B.B.D.D.D.D.n.D.n.F.u.J F G V G G C G C G G C G F G C G G C H J V C z k z k z k k k k k k k z k m z k l k k l k z k k k k k k k k u q 9 9 9 q 9 9 9 q e q e 9 q 9 t 9 t 9 e 9 t 9 t 9 e u e u e q e q e 9 e u e u e 9 e 9 t 9 e u e 9 e q t e 9 e e q t q 9 t z V G G G V J C G C G F C G V J &.*.-.*...-.*.*.*.o.*.*.-.*.-.                  k.f.h.h.g.k.9.                                                                                                                                                                                                                                                                                                        ",
"                                                                                                                                                                                                                                                                                                                        *.-.*...-.*.-.0.i.a.f.h.i.f.f.n.S.Z.B.B.D.B.D.B.B.Z.Z.Z.B.F.w.J C F G G C F G G V G F C G J F J F C G F J V j k k k k k k z k j k k k z k k k k k k k k k l k k k k k k g i q q 9 9 9 q 9 t 9 e q e t 9 e q e q e q e q e q t 9 e 9 e 9 t 9 e e 9 e e 9 e e 9 t e 9 t e 9 e t 9 t 9 e t 9 t e 9 w t 9 z C G V J G G F G V G C F G V J  .*.*.-.*...*.o.*.*...*.-.*.-.                  h.v.a.h.i.k.9.                                                                                                                                                                                                                                                                                                        ",
"                                                                                                                                                                                                                                                                                                                        ..*.-.*...*.-.0.h.a.h.g.i.h.h.n.B.n.B.B.D.D.D.B.B.D.B.Z.D.Z.w.J F C C F G C F C G G C F C G C G J V G H C V N k z k l k k k z k k k l k n k k z k z k z k k k z k z k n l u 9 e q e t e 9 t 9 t 9 t 9 t 9 t 9 t 9 t 9 t 9 e q e q e q e 9 t 9 t e t 9 e e e e e 9 e t e t 9 e t e e q e e 9 t e w e 9 k V G G F F G G C G F G J V G J &.-.*...*.*.-.*...*.-...*.-.*.                  h.h.f.h.h.h.w.                                                                                                                                                                                                                                                                                                        ",
"                                                                                                                                                                                                                                                                                                                        *.-.*...-...-.0.a.f.h.f.a.i.f.n.F.n.Z.C.Z.Z.B.B.B.B.n.B.B.F.w.J G F G J V J G F G V J G G H C F C G F J C V z k k k z k k h z k z k k k k z n k k k l k n k k k k z k k l i 9 9 t 9 9 t 9 i 9 e q e 9 t 9 t 9 t 9 e q e q e q e 9 t 9 t q e t t 9 t t t q t q t t t 9 e e e e 9 e 9 e t e e 9 q e 9 9 z V J C H G G G F C G V G G V J  .*.-.*.o.*...*.*.*.*.*.-.-.*.                  h.h.h.a.h.k.u.                                                                                                                                                                                                                                                                                                        ",
"                                                                                                                                                                                                                                                                                                                        ..-.*.*.*.*.-.0.a.h.p.h.f.a.g.M.S.Z.D.D.B.D.D.V.B.F.F.S.D.F.e.J V C G V G G C G V G G V G V G G F G C H C V j k k k k k k k z k k k k k m k z l k k k k k k z n k k k k k e 8 9 i 9 i 9 e 9 e q e u e 9 t 9 t 9 t 9 e q e q e u e 9 t 9 e q 9 e q e 9 9 e 9 e 9 9 e q q 9 q t q t q e q q t 9 9 w w 9 z G C G F G F G G V G G V G V J &.*.*.*.*.*.-...-...-...*.-.-.                  k.h.h.h.a.f.9.                                                                                                                                                                                                                                                                                                        ",
"                                                                                                                                                                                                                                                                                                                        ..*.*...-...-.0.a.f.h.f.a.f.h.n.B.n.D.n.n.D.C.h.p.g.c.g.v.g.8.J G F C G J F J V G J V J G J G C J V G F C V M k k j k z k k h k z l k z k k k k z n z l z k l k z z k k l u 9 e 9 e 9 e u e q e 9 e u e 9 t 9 t 9 i 9 e q e 9 e q e q e 9 9 8 8 8 8 8 8 8 8 8 8 8 8 8 8 8 8 8 8 8 8 8 8 8 8 8 8 4 8 8 k C J F J G G G C F C J F G V J  .-.*.o.*...*.*.*.*.*.*.*.-.*.                G v.h.h.h.h.k.u.                                                                                                                                                                                                                                                                                                        ",
"                                                                                                                                                                                                                                                                                                        I ] ~ ] ~ ~ ] } *.-.*.-.*.*.o.0.h.g.h.h.h.h.h.n.n.Z.D.D.D.F.c.) J R E E E E R G F G G F C G G G G V G G V G H G G F J F G C z k k k k k h z k k k z k k M k M k k l k k k n k k k k z k k i 9 9 i 9 i 9 e 9 t 9 i 9 e 9 t 9 t 9 e 9 i 9 e q t 9 t 9 i 9 4 < 1 , , , , , , , 1 , , 1 , 1 , 1 , , , , , , , , 1 , , , , i G G C F G F G G F G F C G V R ..*.-.*.*.-...-...-...*...*...} ^ ~ ~ ~ ~ ~ ] w.v.h.h.a.h.h.a.w.4.8.9.8.9.u.X.                                                                                                                                                                                                                                                                                        ",
"                                                                                                                                                                                                                                                                                                        } ;.>.*.>.-.>.*.*.-.*...*...-.0.h.g.f.g.f.a.h.n.S.D.Z.D.n.F.c.J F V F C F V G F C J V G J V J V G J V J G C G H C G V G F C M k k z k z k k z k k k l k k l k k k k k k k k z k z k k k l u 9 e 9 e 9 e q e q e 9 e u e q e u e u e 9 e q e q e 9 e 9 t < < , , = , = , = , = , , = , = , = , = = , = , = , , , , , < g C G G F G G G F C C G F C F J &.*.*.o.*...*.*.*.*.-...*...&.*.*.*.=.-.-.*.;.w.h.h.h.h.h.i.h.h.M.k.M.M.M.N.8.                                                                                                                                                                                                                                                                                        ",
"                                                                                                                                                                                                                                                                                                        } *.*.*...*.*...*.-.*.*.*.-...w.f.a.h.h.h.h.h.n.n.B.n.D.B.F.c.E F C F G G G C J F G G V G G C F G G G V G F C G V G G H G V j k k l k k k k k z l k k k M k k z k k k z k l k k k z k k l e 9 9 i 9 t 9 t 9 e q i 9 e 9 e q e 9 e 9 t 9 t 9 e q t u e 9 4 < , = , = 1 = , = , = , , = , = , = , , : , , = , = , , , , g C C G H G F G G F G V G G V J  .*.-.*.*.*.-...*...*.-...*...-.o.*.-.*.*.-.*.w.h.h.a.h.i.h.a.h.a.h.h.h.f.k.+.                                                                                                                                                                                                                                                                                        ",
"                                                                                                                                                                                                                                                                                                        ^ -.*...*.*...*...-...o.....-.0.g.f.g.h.h.f.h.n.n.D.B.D.n.F.c.E V F C G V J F C G V G J C F G G V J V G J G H G J C F G G V N k z k k k l k k k k k k k k n k l k M l k k k k z k k k k g i 9 e 9 e u e 9 t q e 9 e q e q e 9 t 9 t 9 t 9 t 9 t 9 e 9 q < < , , , , = , , , 1 , , = , = , , = , , = , = , 1 , , , < , s C J G F G G G C G V J G V G J &.*.*.o.*...*.-.*.-...*.*...*.*...*...*...-.*.w.g.h.h.i.h.a.h.a.h.a.h.h.h.v.@.                                                                                                                                                                                                                                                                                        ",
"                                                                                                                                                                                                                                                                                                        } -.-.*...*.*...*.-.*.*.*...-.w.h.g.h.h.f.a.h.n.B.D.B.D.n.F.c.E V G V G G V G G F J C F G J V G C G G F C G C F C G G F G V M k k k k z k k z k z k z l z k k k k k k k k z l k k z k n l u 9 q t 9 e 9 t 9 e 9 t 9 t 9 t 9 t 9 i 9 e q e q e u e 9 t 9 4 < , , : , , , = , = = , : , , = , , = , = , , = , = , , , , g C C G F G G G F C G G J V V J  .*.-.*.*.-...*...*.*.o.*.*...-...-.*.*.*.o.*.w.h.h.h.h.h.i.h.f.h.f.a.g.h.k.+.                                                                                                                                                                                                                                                                                        ",
"                                                                                                                                                                                                                                                                                                        } :.*.*.*...*.o...*.o...-...-.0.f.a.h.g.h.h.h.n.n.B.D.B.n.F.c.J V G G V G G H C G C G J V G J C F J V J G V G G F J V F G C z k k j n k k l k k l k k k n z k z k k k z m k k k k z k k g i 9 e 9 i 9 e q e q t 9 t 9 t 9 t 9 t 9 e q e 9 t 9 e 9 t 9 9 4 < , = , = = = 1 = , = , , = , , : , = 1 , , = , = , , , , , s C G C H G F G G F C F C G V J  .*.*.-...*.-.*.-...*.*...*.*.*.o.*...*...-.*.w.h.h.a.i.h.h.i.h.a.h.g.i.h.k.@.                                                                                                                                                                                                                                                                                        ",
"                                                                                                                                                                                                                                                                                                        } *.-...*.-...*...-.*...*...o.0.h.i.f.h.h.u.h.M.S.D.B.D.n.F.c.E V V G G V G C G F J F C G F C G G G C G G G V G C G G H C V N k k n k k z k k k z k M k l k k l k z l k k k k k k z k k l i 9 9 t 9 e q e q e 9 t 9 t 9 e u e 9 i 9 e q e q e q e q e q 4 < , , = , , , , = , 1 = , , = , = , , = = , 1 = , , , , , < g C C F G F G G C F G G G F C J *.-.-.*.-.*.*...*.*...-.*...-...-.*.*.*.*. .-.w.h.h.h.h.h.a.h.g.h.f.h.h.f.k.+.                                                                                                                                                                                                                                                                                        ",
"                                                                                                                                                                                                                                                                                                        ^ -.-.*...*.*...*.-...-...*.-.e.f.v.f.v.v.f.v.B.B.n.Z.n.B.F.c.E V G V G G H G V G C G H C G F J V G F C H G J C H G V G G V z k z k z l k k z k k k l k k M k k k k n k z k k z k k n k g u 9 e 9 t 9 t 9 t 9 t 9 i 9 i 9 e 9 e 9 t 9 e 9 w 8 w 9 w 8 8 4 < = , , = , = = 1 = , , , = , = , = , , 1 = = , , = , , , < a V G J F G G G G C F J V G V J ^ } } ( } } } $...-.*.*...*...*.o.*...*.-.*.-.w.h.a.h.h.f.h.h.a.g.a.h.i.h.k.+.                                                                                                                                                                                                                                                                                        ",
"                                                                                                                                                                                                                                                                                                        } :.*.*.*...*.o.*...-...*...-.u.S.Z.n.S.Z.n.n.B.B.D.n.Z.n.F.c.E V V G G V G C J F G V G G H C G G C G F C F G F C G G F G V N k k k n k M k k k m z n k k k z k k k z k k k l k k k z k k i 9 e q e q e u e 9 i 9 e 9 e 9 t 9 t 9 i 9 9 4 , , , = = = , , , = 1 = , = , , , , , = = , = , 1 = , = , , , = , , , , = = g C C C H C G V G G C G J G G G G G J G J G F W &...*.*.*.*.*.*.o.*.*...*.o.*.w.h.h.h.i.h.a.g.h.h.f.h.h.f.k.#.                                                                                                                                                                                                                                                                                        ",
"                                                                                                                                                                                                                                                                                                        } -.-...*.*...*...-.*...*...-.i.n.S.D.n.n.D.Z.D.D.B.D.n.n.F.c.J V G V G J C F G C J G J C G G H G F J C J G C J G F G F G V j n k m z k k m k k n k k n k n l k k l k k l k k k z k k k k e 9 e q e u e 9 e 9 e 9 i 9 e 9 t 9 t 9 e e 9 4 1 , , , , = , = 1 = , , , : , = = , = , 1 = , = , , , = , = , = , , = , = , s J C G F G C G F J V G V F C F C F C G V G V L ..*...*...-...*.o.*.*.*.*.&.-.0.h.a.h.a.h.i.h.a.h.g.i.h.f.k.2.                                                                                                                                                                                                                                                                                        ",
"                                                                                                                                                                                                                                                                                                        } *.*.*...-.*...-...-...*...*.u.n.B.n.C.n.n.D.A.Z.A.B.Z.n.F.c.E V G F C F G C F G V G V G H C G C C G F C F G F C J V G F C M k z n k n k k k k z n k z m z k z k z k k k k z k k l k z k i 8 e u e 9 e q t 9 t 9 e 9 t 9 t 9 i 9 t 9 9 4 , , , , = , , = , , = , = , = , , = , = , = , , , = = , = , = , : , , = , = g J C J V J F G C G G F G G G G F G V G G C F L *.-.*.*.*...-.*...*...*.-. .*.e.h.a.h.i.h.a.h.a.f.h.f.a.h.z.@.                                                                                                                                                                                                                                                                                        ",
"                                                                                                                                                                                                                                                                                                        } -.-.*.*...*...*.-...*.o.*.-.h.D.D.B.n.n.B.n.B.B.D.B.n.n.F.c.E V V G G C F G C J G J G C G V G H G V J G C J C F G F J G V N k k k k M k n l n k j n k k k k k k k k z k k n l k k k k k i 9 e 9 e q e 9 t 9 i 9 t 9 t 9 t 9 e 9 t 9 9 4 1 , = , = = , 1 = , = , 1 , = , 1 = , , , = , = : , = 1 , = , = , , , , = < a J C C H C G G G V G J C F J C J C G F C F G L ..*...*.*.*.*...-.*.-.*.*.*.*.w.h.a.f.a.f.i.h.i.h.g.h.g.f.n.O.                                                                                                                                                                                                                                                                                        ",
"                                                                                                                                                                                                                                                                                                        } *.-...*.*...*...*.-...*...o.u.F.A.B.n.n.Z.B.D.B.D.Z.D.B.F.c.J V G V J F C H G F C F V G H G C G G G V G F G F G J C F C V z k k M l k k k z k n n k n z n l z n j n k k l k k k k z k k i 9 e q e u e q e 9 e 9 t 9 t 9 i 9 t 9 t 9 9 4 , , , , = , = , , = , , = , = , = , = 1 = , , , , , , = = , , = , = , = = = g C J V G F G C F J V G V G V G F G J C J F F L ..*.*.*...-...*.o.*.*...*.&.*.w.f.a.h.i.h.i.h.a.f.h.g.f.h.z.@.                                                                                                                                                                                                                                                                                        ",
"                                                                                                                                                                                                                                                                                                        } -.*.*...-.*...-...*...*...-.u.B.n.B.B.D.n.S.Z.A.Z.A.B.D.F.v.E V G C G C G G C J G J C G C G H C F J G C G C J C F G V G V j k k k k z k k k z k k N k k k k k k k k k z k k z k k k k k e 9 t 9 e 9 e q e q t 9 t 9 e q e 9 e q e t 9 4 1 , , = , = 1 = , , = = , = , , = , , = , = = , = = , , , : , , , = , = , , s J C G H C G F C G G G G C G J C F C F G C F L *.*...*.*.*.*.-...*.*.*.*...*.e.h.a.f.a.f.a.h.a.h.g.f.h.f.j.#.                                                                                                                                                                                                                                                                                        ",
"                                                                                                                                                                                                                                                                                                        } *.*.*.*...*.*.*.-.-.*...*.-.u.F.D.D.F.B.D.n.D.D.S.Z.D.B.F.c.J V F G V J F C F G V G H G F C G F C G V J F G F C G H H C V M k k k k k l k k l n k k k M l k z k k k k n k k k k k z k k i 9 e u e u e 9 i 9 e q e q e q e u e 9 t 9 9 4 , , , 1 = , , = , = 1 , = 1 = , = , , = , , 1 = , 1 = = , , , = = , , , = , a C J C F G C G G F C V G H G V G J V G G G F L ..*.*.*...-...*.o.*...*...-.*.w.f.a.h.i.h.i.h.i.f.h.f.h.h.k.+.                                                                                                                                                                                                                                                                                        ",
"                                                                                                                                                                                                                                                                                                        } -.*...*.*...*...*.*.-.*...-.u.B.D.D.B.D.B.n.w.<.<.<.<.<.<.o.R F C G G G C J G J V G C H C J F C F J G V G V J F C G H C C z k k j n k k z k k z k M k k n k k k k z k k k z k z k k k k i 9 e 9 e 9 e q e 9 i 9 e 9 t 9 e 9 t 9 t 9 9 4 1 , , = , = , , = , , = , , , , : = , = 1 = , = , , = , = = , = , , = = = < a J C F J V G F C G J G C G V G C G G F C G V L *.o.*.&.*.*.*...-.*.*...*.*.*.w.h.a.f.a.k.i.h.a.h.i.h.i.h.k.X.                                                                                                                                                                                                                                                                                        ",
"                                                                                                                                                                                                                                                                                                        } *.*.*...*...*.*.-.*...-.*.-.u.B.D.D.S.B.F.b.&.F V G C V J C J G F C H C F G V G G F G G G F G J C F C G J G C G J V G V C z k k n k z k k k k k n l n k k k j n k l k k l k k l k M k k e 9 t 9 t 9 t 9 t 9 e 9 t 9 t 9 t 9 t 9 e q 9 4 , , , = , = , = 1 = = , = , = , , , , = , = , , = , : , , 1 , = , = , , = , s C J C H G G G G V G F J G J F C F J C H G F L ..*...*...*.-.*...o.*.*.*...*.w.h.i.h.i.f.a.h.i.h.h.g.h.i.k.+.                                                                                                                                                                                                                                                                                        ",
"                                                                                                                                                                                                                                                                                                        } -.*.*.*...*.*...-.*.*...*...i.D.D.B.Z.D.F.b.` V G V G G V G F C G G G F J G J V J C F J V G C G V G G V G V G F G J H C V j n k k k k l k z k j n k k M k k n k z k k k k k M k k k k k i 9 e q e u e 9 t 9 t 9 t 9 t 9 t 9 t 9 t e 9 4 1 , , , = , , = , = , , 1 = , = , = , = , , = , = , , = , = , = , , , = , = g J C C F J V G C J C G V G C G J V G G G C F L *.*.*.*.*...*...-.*...*...-.*.w.h.a.h.i.h.i.h.a.f.a.f.h.f.k.+.                                                                                                                                                                                                                                                                                        ",
"                                                                                                                                                                                                                                                                                                        } *.*...*.*...*.*.-.*.o.*...-.u.B.D.D.S.B.F.v.$.V G F C F C G G F C H C G C F G G G J C C G J F G J G J C G G G J V G V G C M k z l k k k k k k n z n k k l k z k k k k k z k k k z k z k i 8 e u e 9 e q e q e q e q e q e 9 t 9 t 9 9 4 , , , , = = 1 = , = 1 = , , = , : , , : , = , = 1 = , , = , = 1 = , , , = < a G J V G V G C F G F G J F G V G G F C F G F L ..*...*.*.o.*.*.o.*.*.*.*...*.w.f.a.f.a.f.a.f.a.h.g.a.i.h.k.+.                                                                                                                                                                                                                                                                                        ",
"                                                                                                                                                                                                                                                                                                        } -.*.*...*.*...*.*.-.*.*...o.i.B.D.Z.B.D.F.c.$.V G V G G V G J V G G V J F J C J V G F G F C G V G V G F C H C G F G J V C z k k k k k z k z k k k k N k M k k l k z k l k k k k k k k k e 9 e 9 e q e q e u e 9 i 9 e 9 t 9 t 9 t 9 9 4 1 , , = , , = , = , , , = , , , , = , , , , = , , , = 1 = , = , , , = = = = g H C C H G G G G V G V G J C G F G C G J C F L *.*...*.*.*...*.o.*...*.*.*.*.w.h.a.h.i.h.i.h.i.h.f.h.h.f.k.X.                                                                                                                                                                                                                                                                                        ",
"                                                                                                                                                                                                                                                                                                        ^ -.*.*.*...*.*.*.o.-.o.-.o.:.a.F.n.B.Z.n.F.n.` V C G V F G V G G V J G G C G V G G C G J V J F C G J C F G G F C G V J V C z k k z k k n l k k k N k k k k k k k k k k n k k j n z n k g i q 9 t 9 t 9 i 9 e 9 t 9 e q e q e q e u e 9 4 , , , 1 = , , = 1 = , = , = = = , , = = = , = , = = , = , = , = = = , , = , a C G G G F G F G C F G C F G F J C F G V G F L ..-.*.*...-.*.*.o.*.*...-...*.w.h.i.h.s.h.i.h.i.h.i.h.i.h.k.+.                                                                                                                                                                                                                                                                                        ",
"                                                                                                                                                                                                                                                                                                        ] *.*...*.*.*.*...-.........o.u.F.B.n.F.B.B.v.$.C V G V C G G V G G V G F J F J F C H G C G G C J F G C J V G J G J F C F C z k m k n k z k k M k k k k k k k l k k z k z l k n k z k n l u 9 e q e q e 9 e q e u e 9 t 9 t 9 t 9 e 9 9 4 1 , , = , = , , = , = , = 1 , , : , , , , = , = , = , = , = = * , = , = , , g C C F J C G G G F C J G C G C F G J C F C F L *.*...*.*...*.o.*...*.*...*.*.w.h.a.f.a.i.h.h.a.h.h.h.a.f.k.X.                                                                                                                                                                                                                                                                                        ",
"                                                                                                                                                                                                                                                                                                        ^ -.*.*.*...*.*.=.-.-.*.-.-.@.p.Z.A.B.D.A.F.v.$.V C G F C F C G H C G G C G C G C G G F G V G F C G H G F G C F C G F J C V j k z k M l n k k l k k k z k k z k k k l k k k k k k z z l g e 8 q e u e 9 t 9 i 9 e 9 i 9 e u e 9 e q t 9 4 , , , , = , = 1 = , = , , = , = , = , = 1 , = , = , = , = , * * = = , , = = g C G C F F G G V G G G H G H G C F C G F G V L ..-.*.*.*.-.*.*.o.*.*.*.*...*.w.f.a.h.f.a.f.h.i.h.g.f.h.f.k.+.                                                                                                                                                                                                                                                                                        ",
"                                                                                                                                                                                                                                                                                                         .*.*...*.*.*.<.i.u.f.u.g.u.i.v.F.Z.D.Z.B.F.c.` C C F C F G F C G G F C F J V G H G H C G G H G J C G C G J G V G J V J F C M k n k k n z k k k z k k m z k n k z k M k k g u u s d g s i 9 9 e 9 e q e u e 9 e q e 9 t 9 e 9 t 9 t 9 9 4 1 , , , = , = , , , = 1 = , = , , = 1 = , = = # O @ O @ O % @ O @ $ @ @ @ * u C C F G G F G G G H C G C G V J G G H C F G L *.*.*...*...*...-...*...-.*.*.w.h.a.f.i.h.i.a.h.i.h.a.f.a.k.+.                                                                                                                                                                                                                                                                                        ",
"                                                                                                                                                                                                                                                                                                        ] *.*.*...*.} e.n.S.D.A.S.A.B.Z.F.n.S.D.B.F.v.$.V C G V G C G F J C J G G C G V G C G V G C G C F G F G V G G G G V G F C V j k k n k k n k z k k m k k k k l k k k k k k u 0 q q u 9 u q 9 9 9 i 9 e 9 e 9 t 9 e q e 9 t 9 t 9 t 9 t 9 4 , , 1 = = , , = = , , = , , , = , , = , = = - o O o O o O o . o . o @ o o @ 9 J C G F G G G F C G G V J F G C F C G G V F L ..-.*.*.*.*.-.*.o.*.*.*...*.*.w.h.i.h.a.f.a.f.a.h.f.h.a.f.f.@.                                                                                                                                                                                                                                                                                        ",
"                                                                                                                                                                                                                                                                                                        ^ -.*...*.*. .w.D.D.D.D.D.B.F.B.B.D.D.Z.n.F.v.` C V G G V G G C F G V G V G F J G J G G H C F J C H C G G F G F G G F G F C M k n k M k l n k k k z k z k k z k k k k k l i q q 9 9 q 9 9 9 q e 9 e 9 t 9 t 9 t 9 t 9 t 9 t 9 t 9 e q 9 4 1 , , , = , , : , = , = , = , , = , , & , , = . o . o . o . . o O o o o o o 9 C G C F G F G G G H C G F C J G J F C F C F L *.*...*.*.....*...-...*.*...*.0.h.h.i.h.s.h.h.a.f.a.g.f.h.k.X.                                                                                                                                                                                                                                                                                        ",
"                                                                                                                                                                                                                                                                                                         .*.o.*.*.....e.D.F.D.A.A.F.D.D.n.D.D.D.B.S.v.` V C G G F G H G C G G G F J C F C V G C G G G F G G F G G G G G F G G F G V N k z k k n z k k z k k k k k k n k k M l k k u t t q 9 t 9 i 9 9 e 9 e 9 e 9 t 9 t 9 t 9 i 9 e q e u e e 9 4 , , , , = = , , , , : , , , = , , < = , , = * O o O o . o o o . o O o o o o 9 G C V G F C G V G C G H G G V G V G J G F C U ..-.*.*.*.-.*.-...*.*...*.-.*.w.h.g.h.a.h.f.h.a.h.f.a.f.a.k.+.                                                                                                                                                                                                                                                                                        ",
"                                                                                                                                                                                                                                                                                                        ] -.*.&.-.-. .q.C.D.n.n.n.n.D.D.n.D.Z.D.n.F.n.` V C F J C V G G F C H C G V G G G F C F J V G J C J C F G F F G G F G F C V z k n k k k n k k k m z k z n k k k l k k k k i q 9 t 9 q 9 9 t 9 t 9 t 9 t 9 t 9 i 9 e q e 9 t 9 e 9 e q 9 4 , , , = , = , = : , , = = , , , & , = , , = * O o . o o o o O o o o o o o o e C C C H C G C G J F C G C F J C G G V C F V L *.*.*.*...*...*.o.*...*.*...*.w.f.g.h.g.f.g.f.h.a.g.i.h.h.k.+.                                                                                                                                                                                                                                                                                        ",
"                                                                                                                                                                                                                                                                                                        ^ -.-.o.&.*...0.n.Z.D.B.B.B.D.Z.Z.n.B.B.n.F.v.` M G C F G G C J G G F G F G G V G G G G C G V G G V G G F C C V V C C C C C M k z n z m z k m z k k k l k z l k k k k k k i q i 9 9 9 u 9 9 9 e 9 e 9 e 9 t 9 e 9 t 9 e q e q e q e q 9 4 1 , , = , = , , , = , , , = , , , = < = < : * O o . O o @ o o o o o o . o . e G C G H C F G C F G G V J G C F J F G G C F L ..-...*.*.-.*...-.*.*.*.*.*.*.w.h.g.h.a.h.g.h.i.h.f.u.f.a.k.+.                                                                                                                                                                                                                                                                                        ",
"                                                                                                                                                                                                                                                                                                        ] -.&.*.o.&...e.n.F.n.S.n.n.Z.n.Z.D.Z.n.B.F.n.` V V G C F C F G H C J C G J C G J V G H G H G J C J F G G F C C V C C C C C M d n k k n k k k k k z k z k k k z k z k k l u 9 e q t 9 e 9 i 9 9 e q e u e 9 t 9 t 9 t u e 9 i 9 e q e 9 4 , , , , = , , : , = , , = , , = < = = , = , * . o o . o o # o . @ o . o o . e G C V J F C G G C J V G G F J C G C F C F F L *.*.*.*...*.-.*.o.*...*.o.*.*.w.f.h.h.a.f.g.f.h.a.g.i.h.h.k.+.                                                                                                                                                                                                                                                                                        ",
"                                                                                                                                                                                                                                                                                                        } *.-. .-. .*.e.n.F.n.B.n.D.B.D.B.n.n.D.B.n.n.` M C G J G J F C G F G H C F G F C G V G C G C F G G G G G F C C C C C C C C M k z n k z n z k z l k n k k M k k n k j n k i q t 9 9 q u 9 9 9 i 9 e 9 e 9 e q e q e 9 e 9 9 8 9 9 8 9 8 4 , , , : , = , = , = , : , = , , = < = < = = * O o O o o o o o o . o o . X . e J C V H J F G H G G J G C G G F C H G F C F L *.-...*.*.*...*.o.*.*.*.*...*.w.h.g.i.h.f.g.f.a.f.h.i.h.i.k.@.                                                                                                                                                                                                                                                                                        ",
"                                                                                                                                                                                                                                                                                          I I K K K F I &.&.o.&.*. .-.q.n.D.D.D.S.Z.B.n.v.v.v.v.v.n.c.) V C F C F C G V G J C G G V G G F G G V G H G C F J V F G V N z f k M z M k z k n k k n l k k k k k z l k k k l z n k k k i 9 t q e 9 e 9 t 9 e 9 e 9 e q e q e q e q e 8 < 4 < 4 < 4 < < 1 , , , = , = , , , = , = , = o o o o o o @ o O o . o . @ o O o @ o o . . . t J J V H C H C C F C F C H G H C G C G C G V L ..*.*.*.*.o.*...-...*...*.*.*.w.h.a.h.a.h.h.g.a.a.f.p.f.k.k.+.                                                                                                                                                                                                                                                                                        ",
"                                                                                                                                                                                                                                                                                        ~ >.-.;.=.=.>.-.-.-.*.o.-.-.&.e.n.Z.n.D.n.n.B.v.c.h.h.p.g.v.p.) V G V G J F G G V G V G F G J C F C G G G C J F C G G H G C M k k k k n k k k k n k k k n z k M k l k k z k k k k k k k l u q e q e q 9 t 9 t 9 t 9 t 9 t 9 e q e q e u 4 < < , < < < < , , , , = , , , : , = , , , = , O o . o O o o o . o . o o o O o o . o O o o o t J J J J J J J G C F G G V G C H G F V G V F L *.-.*...*.*.*.*...-.*.*...-.*.w.f.a.h.a.h.h.a.k.i.h.i.h.a.k.+.                                                                                                                                                                                                                                                                                        ",
"                                                                                                                                                                                                                                                                                        I :.-.*.*.*.*.*.&.-.o.*...*. .e.n.F.B.D.B.D.n.n.f.a.h.h.f.h.u.) V F G G C G V J C G F G C G V G J G H C F G C J F J C F V C M k z k k k k l k k z n z n k l k k k k z n k k z k z k k k k i 9 t q 9 9 q 9 q 9 e 9 e 9 e 9 i 9 e q e 9 e 6 , , , < = , = , , = , , , = , , , , , = , , = O o O o . o . o . o . @ . o . o O o . o o X o i C C C H C C G V G C F J H J V J V H G H G F L *.*...*.*.-...-...*...*.*...*.w.h.h.h.h.h.h.a.h.i.g.i.f.h.k.+.                                                                                                                                                                                                                                                                                        ",
"                                                                                                                                                                                                                                                                                        Q ;.-.-...*...*.&.-.*.o.*.o.*.e.n.F.D.n.D.B.D.n.g.h.g.h.f.h.a.` M F C H G J G F G J C H G J G F C G C G J F G G C F G J V C M k d k z k k z k k n k k N k n z k k k k k l k n k k n k l k i q e q 9 t 9 9 t 9 e q e q e 9 e q e q e t 9 8 , = = , , , = < = , = , , , , , , = , , , , , o . o . o . @ . @ . @ . o . o O o O o o . o . e C C V H F F G G F C G V G V H G F V C F C F L ..-.*.*...*.*...-.*.*...*.*.*.w.h.f.h.h.h.h.v.i.h.f.a.f.a.k.+.                                                                                                                                                                                                                                                                                        ",
"                                                                                                                                                                                                                                                                                        I ,.-.*.-...*.-.&.-.o.*.o.*. .e.n.Z.B.D.B.D.n.n.h.h.f.g.a.h.u.` M F G C F C G J V G F C G V G J C F J F C J V J F J C F G V M k z k k k n k z k z n k k k k k k k k l k z k z k l k k k k i q q e q 9 q e u 9 e 9 e 9 t 9 i 9 e q e 9 t 4 , : , = , = , = , & , = , , , , , , , < , = , O o . @ . o . o . o . o . @ O o O o . o o . . t G J V G F G F C J F C G H C F J V H G H C F L *.*...*.*.-.*.-...o.*.*.-...*.w.h.h.h.f.h.h.h.h.f.g.i.h.h.k.+.                                                                                                                                                                                                                                                                                        ",
"                                                                                                                                                                                                                                                                                        I ;.-.*.o.*.*.*.&.-...-...-.&.e.n.Z.n.D.B.n.B.n.h.h.h.f.h.k.p.` M F G F J F C F G G G G J G V G G C G J F C G F C G G H C C M k k k k k j n k k l k n k M k z k k n k k k n l k k k k k k i 9 i 9 9 q e 9 9 9 i 9 e 9 e 9 e 9 t 9 t 9 t 4 , , - , , & , & , = , , , , , = , , = = , , = o O o O o O o . o O o O o . o . o . o o . X o i F J V H H H C F C G F C H J F J V G V G V F L ..-.*.*.*...*...-.*.*...*...*.w.f.a.h.h.h.p.a.a.f.h.i.f.a.k.+.                                                                                                                                                                                                                                                                                        ",
"                                                                                                                                                                                                                                                                                        I -.-.*.*...-.*.&.-.o.*.o.*...e.n.Z.B.D.A.Z.n.n.v.f.v.v.k.n.f.) V F G C G C G G V C F C F C G F C H G C G F J G J V G V J V M k z k k k n k z k n z k n k n l k z l k k z k k k k k z k l u 9 e q e q 9 q q 9 e 9 e 9 e 9 t 9 i 9 e q e 8 1 , , , , , , = , , = , , = , , = , , , , , , O o . o . o . @ . o . o O o O o . o . o o . . i J J J J J J J G F G C F G V G H C H F J C F L *.*.*.*...-.*.*.o.*...*.*.*.*.w.h.h.h.g.f.h.u.h.g.h.u.h.f.k.+.                                                                                                                                                                                                                                                                                        ",
"                                                                                                                                                                                                                                                                                        I ;.-.-...-...*.&.-...-...-. .e.n.F.n.D.B.D.n.p.9.w.8.w.0.w.8.) V G F G F G F C G J C J G F C G G V G F J C F C F G J F C C M a z k z k z k k k k k n j n k k k n k k k k z k k k k k k k i q t q 9 9 t 9 t 9 e 9 i 9 e q e 9 e 9 t 9 t 4 , * : , = = = , = , , = , , = , , , , < = , = o . o . o O o O o O o . o O o O o O o o . o # , k z f f d z n M J G V G V J V G F V G V G V U *.-...*.*...-...*...*.*.....*.w.f.h.f.h.i.i.h.h.h.h.i.h.a.k.+.                                                                                                                                                                                                                                                                                        ",
"                                                                                                                                                                                                                                                                                        I -.-.&.-...*.-.&.-.-...-...&.e.n.F.D.B.D.B.D.<.L J E J E E E J G C J C G V J G F G F C F J C F G G H C G F J G C F C G F C M k f k k k k k k l z n k n k k k z k z k z k k k k z k z k l u q e q t 9 t 9 e q i 9 e 9 t 9 t 9 t 9 t 9 t 4 , 1 = , , , , , = , = , = , , = , , = , , & , O o O o . o . o O o O o O o . o O o . . o o . # @ % % % # # % z G G C G G G G V G C J F G V L ..*.*.*.*.*.*.*.o.*.*...*.-.*.w.h.h.h.h.i.i.h.h.h.g.i.h.h.k.+.                                                                                                                                                                                                                                                                                        ",
"                                                                                                                                                                                                                                                                                        I ;.-.*...*.*.*.&.-...-...*. .e.n.Z.n.A.D.Z.n.-.F V V G V V V G V G F J G G G H C J G J C F G C H C G G C G C F C G G H C V M k k z k z l z k k k z k M k M k k k k k k k n z k n l k k k i q t 9 t 9 t q e 9 e 9 i 9 e 9 t 9 t 9 i 9 e 8 , = , , = , = , , = , , = , : , = , , , , , = O o . o O o O o . o . o . o . o . o . o . o . o o o o o o X O g J C F H G V G G V G F C G F L *.-...*.*.o.*.o.*.o.*.*.*...*.w.f.h.f.g.i.i.h.g.h.h.p.f.a.k.@.                                                                                                                                                                                                                                                                                        ",
"                                                                                                                                                                                                                                                                                        I -.-.-.*.o.*.-.&.-.o.*.o.-.&.e.n.Z.Z.n.Z.n.n.-.V G G F C G G G J G C F J V G C G V G F C G F G G G F C F J F G J F C F J C M k z k k k k k k z m k n l k k l n z l n z k l k k k k k k k i 9 t u e 9 e q e u e 9 e q e q e q e q e 9 t 4 , - , , , , = , = , = , , = , , , , , , < = , O o . o . o . o . o . o . o . o O o O o . # o O . o . o . o o k G C G V J G G V G C G F C F L ..*.*.*.*.*...*.o.*.*...*.*.*.w.h.a.h.h.i.i.h.f.h.g.i.h.h.k.+.                                                                                                                                                                                                                                                                                        ",
"                                                                                                                                                                                                                                                                                        I ;.-.*.o.*...*.&.-.*...*.o. .e.n.Z.n.D.n.Z.n.-.C F C F G V G V G V G C F G G V J G J V G G J V J C G H G C G V G C F C F C M k k z k k z l k k k k k n k n z k k k k k k k k z k z n k k i q e 9 e q e q e 9 t 9 t 9 t 9 i 9 e q e u e 8 , , : , = , = , = , , = , = , , = , , = = , = o . o . o O o O o O o O o O o O o . o O o . o . @ . o O o o O k J C F G G V G G V G J V G V L *.-...*...*.-.*...*...*.-...*.w.f.h.g.f.p.i.h.h.g.h.a.h.h.k.@.                                                                                                                                                                                                                                                                                        ",
"                                                                                                                                                                                                                                                                                        I -.-.*.*...-.*.&.-.o.-...-.&.e.n.F.B.n.F.n.D.*.G V G F C G F G C J F G C J G G F C G J F C G G V G G C G H G G V G J F C V z z k k k k k n z k M k n z k k k k k z k k M k k n l k k l k i 9 u e q e q e q e q e q e u e 9 e q e 9 e e 4 , 1 * , , , , = , = 1 , = , : , = , , , < = , O o . @ O o . o . o . o . o . o . o . o . o O o . o . o . o O g J C G H C G G V G V G G V G L ..*.*.*.*.o.*...-.*.-...*.*.*.w.h.f.h.h.i.i.f.h.h.h.h.h.k.k.+.                                                                                                                                                                                                                                                                                        ",
"                                                                                                                                                                                                                                                                                        I ;.-.-...-.*.*.&.-.*...-...&.w.n.Z.n.D.n.Z.n.-.C G V G F G C F G G C F G V G C J F G C G H C J G H C H G C G J G F C F G C M k d z k z k k l k k k k n l n k k k k n l k k k k k k z k k i 9 t 9 t 9 t 9 t 9 t 9 t 9 e 9 t 9 t q i 9 t 8 , = , , = = , , = , = , , = , , = , , = , , , O o O o . o O o . o O o O o O o . o . o O o . o . @ . o o o O d J C C F J F C G F G V G V F L *.-.*.*.*.*.*.o.*...*.*.*...*.w.h.a.h.g.i.i.h.g.h.g.h.a.h.M.@.                                                                                                                                                                                                                                                                                        ",
"                                                                                                                                                                                                                                                                                        I >.-.-.-.=.*.*.o.o. .o.....*.q.n.Z.S.D.B.A.C.-.G F G G V G G V G F J G C J F G V G J V G G F C F G G C F G V C F J G C F C z d k k k k n z k k n l n k k k z k l k z k k k k k z k k k k i q t 9 t 9 e q e q e u e 9 t 9 t 9 e 9 e 9 e 8 , : * , , , = = 1 , , = = , = , , , < = , , = o O o . o . o O o . o . o . o . o O o O o . o O o O o . o o . g J C G V G C G V G C G G G G L ..-...*...o.*...o.*.-...*.o.*.w.f.f.h.f.i.i.h.h.h.f.h.f.h.k.+.                                                                                                                                                                                                                                                                                        ",
"                                                                                                                                                                                                                                                                                                    s G 4.e.e.w.e.w.e.h.B.D.Z.n.Z.S.n.-.G C F C G J F C G C G H G V G C G F C G F C G G G C H G J G G G C F C G C G M z z k M k l k n k z n k z n k k k k k k k k j n k k n l k k i 9 t q e q e q e 9 e 9 e q e q e q e u e u e 4 , , 1 , = , , 1 = = , 1 = , = 1 = , = < = , = o . o . o O o . o . @ . o . o O o . o O o O o . o . o O o o O k J C G H C F G G V F C F C F L &.*.*.*...*...*.o.*...*.-.*.-.w.f.h.g.f.i.g.i.h.f.a.h.a.h.n.+.                                                                                                                                                                                                                                                                                        ",
"                                                                                                                                                                                                                                                                                                      1 p.F.D.B.n.n.B.n.B.n.D.B.n.D.B.-.V G G F C F G J F G V G C G F J V G J V G G F C H G C G V G V J G C F J F C M f k k k n k n k k n z k k z n k z k z n k n k k k z k k k k i q e q e q e u e q t 9 t 9 i 9 e q e 9 e 9 t 4 , : = , , = , = , , = , , = , = , , , = < = , O o . o . o . o . @ . o . @ O o O o . o . o O o O o . o . o . g J C C F G G C F G C F G C F E ..-.*.*...-.....o.-.*.*...-.*.w.g.i.f.g.i.i.h.h.h.h.f.a.f.k.+.                                                                                                                                                                                                                                                                                        ",
"                                                                                                                                                                                                                                                                                                      - p.G.D.D.D.B.Z.n.D.B.D.Z.n.S.n.-.C V V G G C F C G C F G F C G F G C F G C G J G C G H G C J G V G F C G C G M k z n z k M k k M l k n k k l k k k k k k z k k k k l k k k i 9 t q e q e 9 e 9 t 9 t 9 e 9 t 9 t 9 t 9 t 4 , , , , = , : , : , , = , = , , , = < , = , = o . o O o O o . @ . o . @ . o O o . o O o . o O o O o . o o O k G C F J C F G C F G G C G F L *.*.*...*...*.-...-. .-.*. .*.0.f.h.f.f.f.i.h.i.a.f.a.h.h.k.+.                                                                                                                                                                                                                                                                                        ",
"                                                                                                                                                                                                                                                                                                        v.F.D.Z.D.n.D.B.n.D.Z.n.B.Z.n.*.F C G V J F G G G F J C G F C G G G C G F G V G F G C H G F G F G G V G F C M d z k n k k k m k n k M l n k k z n k j n k l k k z n z k h u q e q e u e q t 9 t 9 i 9 t 9 e u e 9 t 9 t 4 , - , , , , , , , = , : , , = = , , , = , , , O o . o . o O o . o . @ . o . o O o . o . o . o . o O o . o O s J C G F G G C G C F C F G G L *.-.*.*...-.....o.*.-...-...-.w.h.f.h.h.i.i.h.h.i.h.h.h.h.v.@.                                                                                                                                                                                                                                                                                        ",
"                                                                                                                                                                                                                                                                                                        a.F.Z.D.B.n.Z.n.Z.n.Z.n.B.n.B.-.C H V G G C G H C G C F C G H C H C F J C J G G J V G G C G C G C J G H C G M k M k k k n z n z k k n k k M k k j n k k k k z k k k k k k i q t 9 t 9 e 9 e q e 9 e 9 e q e 9 t 9 e u e 4 , , : , = 1 = 1 = 1 , , , = , , , = , , & , = o . o O o . o O o O o . o . @ . o O o O o . @ . o O o O o o O g J G G V G G G V G C J C G V U &.*...*...*...*.o.*...*.*.-.*.w.f.h.f.g.i.f.h.h.h.h.i.h.i.k.+.                                                                                                                                                                                                                                                                                        ",
"                                                                                                                                                                                                                                                                                                        c.F.D.B.D.n.B.n.D.C.D.n.D.A.S.-.V V G G H C G G H G J G F C G G G F G G F G V G V G G F G V G H G V G C G C M d z k n z n k k k n z k M k k k k n k z k k k n l k z l k l i q t 9 t 9 e q t 9 t 9 t q e u e 9 t 9 t 9 e 8 , 1 * , , = , = , = = , = , = : , , , , , , , O o . @ . @ . o O o O o O o O o . o . o . o . o . o O o . o O s G G G F G G J C J V G G G G L *.-.*.*.*.-.*.*.*...*.*...*.*.w.h.a.h.f.a.i.h.i.h.i.h.h.h.f.@.                                                                                                                                                                                                                                                                                        ",
"                                                                                                                                                                                                                                                                                                      - g.F.B.D.n.B.n.n.D.n.D.A.n.D.n.*.G V H C G F J C F C F C J G H C F J C G C G G J G G V J V G G C F C G F G C M n z k k n z l n z k n k k m k k k z k l n z k k z k n k k k i 9 q t 9 t 9 t 9 t 9 i 9 e q e 9 t 9 t 9 t e 4 , , = , , , : , , 1 , = , = , , = , , , = , = o . @ . o O o . o O o . o O o O o O o O o . @ . @ O o . o o O g G G V G G V G C F C J V G V L *.*.*.*.*...*...*.*...*.....*.0.h.a.h.a.f.a.h.h.h.h.a.f.a.k.+.                                                                                                                                                                                                                                                                                        ",
"                                                                                                                                                                                                                                                                                                      : g.F.n.n.D.n.B.B.n.Z.D.A.S.A.B.-.V C G C F C G F C G J F G C G G C G F C F C F C F C G C G H C G J F G J V G M d z n k k n k k n k j n k z n k k l n k k k j n k k k k k k i q t 9 i 9 e 9 t 9 e 9 i 9 e q e q e q e q t 8 , : , , = , , : , = , , : , = , , , = < , , , o . o . o . o O o O o O o . o . o . o O o O o . o . o . o o O k G C F J F G G V G V G G G F L &.-...*.*.*.*.....*.*.*.*.*.-.w.h.a.h.i.a.h.f.a.f.a.f.h.h.v.@.                                                                                                                                                                                                                                                                                        ",
"                                                                                                                                                                                                                                                                                                    z ) v.S.D.B.n.D.B.n.v.n.v.n.v.n.b.*.G V F G G C F J G V G C H G V G G C F G G J F G C G F J G G G V G C G C G C M k f k M k k M k z n n k n k z k k k k z k k n k k l k k l k i 9 t 9 e 9 t 9 t 9 t 9 e 9 t 9 e q e q e 9 e 4 , , : , , = , , = 1 = , , , = , = , , = , , = O o . o . @ . o O o . o . o O o O o . o . o O o O o O o O o . d C C C F C G C G C G G V G C U *.*.*.-.&.*...:.7.0.7.w.q.0.0.t.h.a.h.a.a.f.a.h.h.h.a.h.a.k.+.                                                                                                                                                                                                                                                                                        ",
"                                                                                                                                                                                                                                                                                        :.k.k.h.k.i.i.k.n.B.n.D.n.D.B.n.h.h.g.g.h.f.c...C F C C F G G C F J F G C G G G V J G C F C G C F J G V G V G G H G V G F C M d k k k n k l k n k k n k l n k k z k k k k k z k k k n k k i q u e q e q e 9 t 9 i 9 e q e q e 9 e q e t 4 , 1 * , , = 1 * , , = , = , = , , = < , = , , o O o . @ . o . o . o . o O o . o . o . o O o O o . o . o o . g G C F G G V G F G V J G C F L *.*.o.&.*.$...7.i.f.f.f.i.k.i.h.a.a.k.i.h.a.h.i.h.i.h.i.h.f.@.                                                                                                                                                                                                                                                                                        ",
"                                                                                                                                                                                                                                                                                        #.z.f.k.f.f.f.k.D.D.B.D.n.D.B.n.a.h.h.f.h.h.c...C V F G C H G G C G C G F J V J G G F G G G F J G C F G J G J V G G J G C G M z M k M k k n z k k M k z n k k k m k k n j n k k k z k k k a q e q e q e q t 9 e 9 e q e q e q t 9 t 9 t 8 , = , , = , , 1 = 1 = , , = , , = , = , , < = O o O o O o O o O o . o . o O o . o O o . o . o . o . o . o O k J C J V J G G C F G C F G G L *.*.*.-.*.*...<.i.f.h.h.i.f.i.h.h.a.h.a.i.h.f.h.h.h.h.h.h.k.+.                                                                                                                                                                                                                                                                                        ",
"                                                                                                                                                                                                                                                                                        o.k.f.f.f.a.f.f.F.D.D.B.D.n.B.n.h.h.h.g.h.h.g.*.F V J V G C F G H G F J C F C G V G J C F C G V G G J V G V G G J C F G F C M f k k k M k k n z n l k n k z l k k k k k n k k k l k k k k i q e q e 9 t 9 e q e u e q e 9 t 9 t 9 e u e 4 , : = , , = = , , = , = 1 , = = , , , , = , = o O o . o . o . o O o . o O o . o . o O o . o . o . o O o o O s J C F G C F G C F C F G C F L *.-. .-. .*.*.<.h.f.i.h.h.k.a.f.a.f.a.f.h.a.h.i.h.i.h.i.h.k.+.                                                                                                                                                                                                                                                                                        ",
"                                                                                                                                                                                                                                                                                        o.k.h.g.h.g.f.v.Z.n.D.C.n.A.B.n.h.v.g.g.f.h.c. .H C V J F J C F C G C G G C G F J C F G J F J C J V G G C J V G V G G J C G M k z n k k n k k k k k n k k n k z k z k z k k k k k z k k k i q t 9 t 9 e q e u e 9 e q e q e q e q e 9 e 4 , * 1 , = 1 , : , 1 = , = , , 1 = , = , = , = O o . o O o . o . o O o . o . o . o . o . o . @ . o O o . o O g J C C H G C G F C F G C F G L ..*.*.-.*.*...6.a.h.h.h.a.h.h.f.h.f.h.f.a.h.h.h.i.h.h.h.h.M.+.                                                                                                                                                                                                                                                                                        ",
"                                                                                                                                                                                                                                                                                        +.k.h.f.h.f.g.f.Z.D.Z.Z.D.Z.n.B.v.h.g.h.g.v.a.*.H V F J G F G C G F J V G H G C G F C G V G C F G G V J F G G G G F C F C F M d z k n z k N k n z n k n j n k k k m k k l k k z n k k l k i 9 q i 9 e q e q e 9 i 9 e q e 9 e q e q e t 8 , 1 = , , = , , = , , = , , = , = , = , , = , O o . o O o . o O o O o O o . o . @ . o . @ . o . @ . o . o O s J G C F G F G C G G J F G V U *.-...-...*.*.<.g.f.a.f.h.h.a.h.i.h.i.h.f.a.f.a.h.h.u.h.h.k.+.                                                                                                                                                                                                                                                                                        ",
"                                                                                                                                                                                                                                                                                        @.k.h.h.g.f.h.v.B.D.D.Z.n.D.Z.n.v.v.v.n.f.n.v...V C F V G J C F J C G J V G C F C J G G C J G G V J G G C F C F J C J F C G M k k z k k k k n k l k z n k k z n z k z k k z k l k k k k k i q e 9 e q e q e 9 t 9 e q e q e q e u e 9 e 8 , = , , = , = 1 = , = , = : , = , = , = , , = O o O o . o . o . o . o . o O o O o O o O o O o O o . o o o O g J C J F J C G F C F C G G F L ..*.*.-. .*...6.h.h.h.h.a.h.a.f.h.i.h.h.a.h.i.h.i.h.a.h.h.M.@.                                                                                                                                                                                                                                                                                        ",
"                                                                                                                                                                                                                                                                                        @.k.f.i.h.h.g.v.Z.D.Z.D.B.C.B.v.u.p.p.g.a.g.a. .H V J H C F G C G F C F G C J F G F J V G F C F G G V F G J F C G F G C G C M f n k n k n k k M k n k k n k k l k k k k n k k k z k k k k i q t u e q e u e q e u e 9 t 9 t 9 e 9 i 9 t 4 , - , , , = , * , : , = , , , = , , , , = , , O o . o . o . @ . o . o . o . o O o . o . o . o O o O O o o . s R C G V G C G V G V G V J V L *.-...*.*.-.*.<.f.a.h.h.h.h.a.h.f.a.f.a.f.h.h.h.h.i.h.f.h.k.+.                                                                                                                                                                                                                                                                                        ",
"                                                                                                                                                                                                                                                                                        @.k.h.h.g.f.f.f.C.B.F.n.D.n.B.e.` ) _ ^ ) _ ) L C G V G V G G H C G J G V G F G C G V G G G H G J V G J C F C G H C G F C F M k z k k k n j n k k n k m z k k k z k k z k j n k k k l k k i 9 t 9 e 9 e 9 e 9 e 9 t 9 e q e u e 9 e 9 e 8 , , : , , 1 = 1 , , = 1 = , , : , = = 1 , = , O o . o O o O o O o O o O o . o . o O o O o O o . o . o . o O g J G H C G F G G V G G G F G L ..*.*.o.*...*.6.g.h.i.h.a.h.h.f.a.f.h.h.a.f.h.i.h.h.h.a.h.M.+.                                                                                                                                                                                                                                                                                        ",
"                                                                                                                                                                                                                                                                                        @.k.h.a.h.f.g.v.B.D.Z.Z.n.Z.B.<.G N C V C C F G C G F J G F C G F G V G J G H C H G G V J V G C G G G V G G J C G G H C G C M k k M k k n n k n k k k k n k z k k k k l n k k k z k k k k i q e q t 9 i 9 i 9 t 9 t 9 t 9 e 9 t 9 t q e 4 , 1 * , = , , * , : , , , = , , = , , = , = , O o . o . o O o . o . o . o O o O o . o O o . o . o O o o o O s J C C F J C G V G V G J C F L *.-.*.&.-.*...<.h.i.h.h.h.h.a.h.i.h.i.h.h.h.h.h.a.i.g.f.h.k.@.                                                                                                                                                                                                                                                                                        ",
"                                                                                                                                                                                                                                                                                        @.k.h.a.h.a.h.v.D.Z.Z.n.Z.D.F.<.J F G C F C G C F J C F C J F C J G J C F C G G G C F G G C F G H C F G G V G F J V G G G C M f k k n z k z k z k n z n k k n k k z k k z k k k k k M k l u 9 t q e q e 9 e u e u e 9 t 9 i 9 e q e q t 8 , = , , , = , : , , = , = , = , , = , = , = = O o . o . o . o . o O o O o . o O o O o . o . o O o . O o o . g J G C F G F G G C G F C F G L ..*.o.-...*.*.6.h.h.h.a.h.a.h.f.a.h.h.a.f.a.i.h.f.h.h.h.h.M.+.                                                                                                                                                                                                                                                                                        ",
"                                                                                                                                                                                                                                                                                        @.k.h.a.h.h.g.f.Z.D.Z.n.Z.n.F.w.J G G C G C F J C G F C G G C G F C F G J F C H C F G J V G G C G G J C G G V G G G V J V G M n z k k n k m k n l k k z m z k l k k n k k k M l k k l k k i q t 9 t 9 t 9 t 9 e 9 e q e 9 e 9 t 9 t 9 e 4 , 1 * , , = 1 , = , = , = , : , , : , , : , , o . o . @ . o O o . o . o . o . o . o O o . o . o O o . o o O g J C J V J C G V G F C G G F W ..-.*.*.*.*...<.f.a.h.h.h.h.a.h.f.a.f.h.h.f.h.h.h.i.h.a.h.k.@.                                                                                                                                                                                                                                                                                        ",
"                                                                                                                                                                                                                                                                                        @.k.h.a.a.h.h.n.D.Z.Z.Z.n.Z.D.<.J F C H C F G G F C J F J F J V J G H C G V G G G C G C F J F G H C F G V J G V G J G G G C M d z n k z n k z n k n k k k k k n z k k l k k k k z k k k k i 9 t q e 9 i 9 e u e 9 t 9 t 9 i 9 e q e q e 8 , = 1 , = , = , : , 1 = , , , = = , = , , = , O o . o . @ O o O o . o . @ . o . o . o O o O o O o O o . o O s J C G F C G G F C G F J V G L *.*...-.o.*.*.6.p.h.f.a.h.a.h.i.h.a.f.a.p.h.a.f.a.h.a.f.h.M.+.                                                                                                                                                                                                                                                                                        ",
"                                                                                                                                                                                                                                                                                        @.k.h.a.h.h.h.f.Z.D.Z.n.Z.D.Z.0.J G G C G C G J C G G C G C G G F C G G V G G V G F G F G C G V G G V G G V G J V G V G V G M z k z n k k n k k z k n k n k k k k k k k n k k k k n k k h u q t 9 i 9 e 9 e 9 e q e u e 9 e q e q e q e 8 , : * , , , : , , = , , , = = , , , = , = , , O o O o . o . o O o . o O o . o . @ . o . o . o . o O o . o O g J G J V J F C G F C G G G F L ..-.*.-.*.*...<.f.h.h.h.h.h.a.h.i.h.h.f.h.f.h.h.f.h.f.h.h.k.@.                                                                                                                                                                                                                                                                                        ",
"                                                                                                                                                                                                                                                                                        +.k.h.a.a.h.g.n.D.Z.D.B.D.B.D.<.J F G V J V G F G V G F C F J V G G C F G J C J F J C G F G C G C F J G V J F C G G G V G C M d k k k n z k m k n l M k N k k k k k N k k z k k k l k k k i q t 9 e 9 i 9 t 9 t 9 e 9 e q e q e q e u e 4 , , , , = , , = * , = : , = , , : , , = , = = O o O o . o . o . o O o O o . o . o . o O o . o . o O o o o . s R C C F G C G V G F C H C F L *.-.*.-.-.*.*.6.h.a.a.h.a.h.h.f.h.f.a.h.a.h.a.h.a.h.a.h.h.M.+.                                                                                                                                                                                                                                                                                        ",
"                                                                                                                                                                                                                                                                                        +.f.v.p.h.g.f.n.n.D.Z.B.D.B.Z.w.J C G V G C F C J G V G G G F G G H G C F C F G C G F J C J F G J G V G G G G G F C F J G V M z M k M k n k z k n k k k k M k z l k k k k k k k z k k k l u 9 t u e 9 e q e u e 9 t 9 t 9 t 9 t 9 e 9 t 4 , : = , , = 1 , 1 , , , = , : , , = , 1 , , , O o . o O o O o O o O o . o . @ . o O o . o O o O o . O o o O g J G H C J F G G C G F G G F L  .*... . ...$.<.p.h.h.h.h.h.a.h.i.h.h.i.h.f.h.f.h.f.h.a.h.k.+.                                                                                                                                                                                                                                                                                        ",
"                                                                                                                                                                                                                                                                                        @.k.k.a.a.h.g.v.B.Z.n.B.B.D.F.<.G F G G G J C F G C J C F J C G C G V J G G G C F G C G F C G F C G G J V G H C G H C G C G M d k k k n k m k n z n k M k k l k k k k z k k N k k n j n k i q e 9 t 9 t 9 e 9 e q e u e 9 i 9 e q e q e 8 , , : , , = , = , : , , = , , = , , = , = = , O o . o . o . o O o . o . o O o O o O o O o O o . o . o . o . s J C C F G C G V G V G J C G J J G J G G G G *.s.h.a.h.a.h.i.h.h.h.h.h.h.a.h.i.p.h.g.f.h.M.+.                                                                                                                                                                                                                                                                                        ",
"                                                                                                                                                                                                                                                                                        @.k.h.a.h.h.f.n.n.Z.B.D.B.D.F.0.G F G V G F G G H G F G C F G H C G G F C F J F J G H C G J G C F J V G G C G J C G G F G C M k f n z k z k M k l k n l n k k k n k k k m k k k k k k k k i q t 9 t 9 t 9 t 9 t 9 t 9 e 9 e 9 t 9 t 9 t 4 , 1 = , , = 1 = , , = , 1 = , = , = , = , , = O o . o . o . o . o O o O o . o . o . o . o . o O o . o o o O g J G J V J G G F C G C F G V G C F V F G G F $.i.h.i.h.f.h.h.f.a.h.a.h.h.g.h.h.i.h.f.g.f.M.@.                                                                                                                                                                                                                                                                                        ",
"                                                                                                                                                                                                                                                                                        @.k.h.a.a.h.g.v.B.D.B.n.Z.B.D.0.G G F G J C F C G C F G J C G G H G V G G C F C G V G F C F C F G V G F C F G F G V G J V G M f k k n k n k k n k z k k M k k k z k k z k z k k z k z k k i 9 t q e q e 9 i 9 e q e q e q t 9 t 9 e q e 8 , = , , = , , : , : , = , = , = , 1 = , = , = O o . o . @ . o . o . o . o . o O o O o . o . o . o . O o o O g J C C F G V G C F G G J C J F C F C G F G G $.d.h.h.h.h.i.a.h.a.h.h.a.h.a.h.f.a.h.f.h.h.M.                                                                                                                                                                                                                                                                                          ",
"                                                                                                                                                                                                                                                                                        @.k.h.a.h.h.h.n.n.Z.Z.B.n.F.F.<.G F C G V G J G H C J V G F J C G G G H C G G V G G C J G F J G G G C J G V J C J G V G C G M k z n k z k n j n k n k n k j n k k k l k k k k k k n k l k i q 9 i 9 e u e 9 i 9 e q e q e u e 9 t 9 t 9 w , = : , , = , , , , = , , = , , , = , , = 1 , o . o . o O o O o O o O o O o O o . o . @ . @ . o . @ . o o . s J G J V J G G F C F C F G V G G C F G F G G *.i.h.i.h.h.h.f.h.i.h.h.p.h.h.h.h.h.a.g.f.a.z.                                                                                                                                                                                                                                                                                          ",
"                                                                                                                                                                                                                                                                                        +.k.a.a.a.h.g.f.Z.D.B.n.F.n.F.0.G F G F J V G C F G G G C G V G V F C G F C J G G V G F C G C F J V G F G G G F G V G J G C M d k z n k M k n k M l k z n k z k k M k k M k z m k k z k k i q e 9 t 9 e 9 e 9 e q e 9 t 9 e 9 t 9 e q e 4 , , * , , * 1 = 1 * , = 1 , = : , = , 1 = , = O o . @ O o O o . o . o O o O o . o . o . o O o o . o o . o O g J C G F C G C G G C G F G G G G F C F G C F $.a.h.h.i.h.h.a.i.g.h.h.h.h.h.g.h.h.h.f.h.a.M.                                                                                                                                                                                                                                                                                          ",
"                                                                                                                                                                                                                                                                                        +.v.h.g.a.h.g.n.D.B.D.B.n.F.F.<.G F G C G G F G C G H C F G G F G C G V G F C F C G G J G H C G C G G J V G V J C J G V G C M z k k z m k k M k k n k n z n k k l k k k k l k z k k k k k i 9 t u e 9 i 9 i 9 t 9 t 9 t 9 t 9 e q e q t 4 , 1 = , , , = , = , = , , = , , = , = , , = , O o . o . o . o . @ O o . o . o . @ . o O o o o o o # o o X # g J H C G G V G V G F G C G C F C G G G G G G &.i.h.i.h.h.i.h.h.h.a.h.a.h.a.h.h.k.a.f.g.i.M.                                                                                                                                                                                                                                                                                          ",
"                                                                                                                                                                                                                                                                                        +.n.h.p.c.h.g.v.n.F.B.D.B.D.F.0.G F G G H C G V J G C G C H C J G F G J G G G G J F C F C G F G V J F C G J G G F G G V G C M c z n k k n k k m k z n l k k j n k z k z k z k k z k z l k i q 9 e q e 9 e 9 e u e 9 t 9 t 9 t u e 9 i 9 6 , = 1 , = , 1 = 1 , 1 = , , = , , , = , , = , O o O o O o O o . o . o . o . o . o . o o o . @ o o o o o o o s J G H C G G F G C G F G F G C F V F G C C F *.h.a.a.i.h.a.f.a.f.h.h.h.h.h.h.k.k.M.k.l.M.N.                                                                                                                                                                                                                                                                                          ",
"                                                                                                                                                                                                                                                                                        +.B.v.v.v.n.v.n.D.B.D.B.B.F.D.<.G G F C G G H G G V G F G G G V G J C F C H C F C J G V G G J C F G J G F C F C J V G G G V M k k k n k z k M k n k k n z n k k k k k m k k k n k l k k k i 9 t q e q e q e q e 9 t 9 i 9 e 9 e 9 e 9 t 4 , * , , , = , , = = , = , = , : , = 1 = , : , o . o . o . o O o O o O o . @ . @ . o o o o o * , 1 , , , , 6 k J C F G F C G V G F G V J F J V G F G G C F *.v.f.v.h.f.v.f.h.h.h.h.h.a.h.u.*.I ~ ~ I ~ ^                                                                                                                                                                                                                                                                                           ",
"                                                                                                                                                                                                                                                                                        8.G.B.B.n.M.n.B.D.Z.B.n.Z.n.F.0.G F G G H C G C F G J C G H C G V G G J G G G J F C J G V G V G G C F C J F J G G G C F C G M z z k k n l n k k k N k k n k k M k z k k z k k z k k k k k i q t 9 t 9 i 9 e 9 i 9 e 9 e 9 i 9 e u e u e 4 , 1 = , = , : , 1 , = 1 = , , = , , = , , , = O o . o . o . o O o . o . o . o . o . . o o o 8 C F G F F F F C C F J C G G V G G C G F V G F G V G G G C F *.n.B.B.B.B.n.B.v.h.h.h.h.h.k.9.                                                                                                                                                                                                                                                                                                        ",
"                                                                                                                                                                                                                                                                                        8.G.V.n.B.B.B.B.A.n.Z.A.B.F.F.<.G F G C G F C G G C F J G C H G G J V G V J V G G G V J G J G V J F G G V G C V G H G J G C M d k M k z n k z m k k M k k z k k k l k k n z l k k z n k k i 9 q t 9 e 9 e u e 9 e q t 9 t 9 e q e 9 e q w , * 1 , , = * , = 1 , = , , = , = , , = , = , O o . o O o O o . o . o . @ . @ . @ . # o X o i R J J J J G H G V G F G C F G V G H G G F J C H F J G C C V *.B.B.n.B.n.Z.n.f.h.h.h.a.h.m.w.                                                                                                                                                                                                                                                                                                        ",
"                                                                                                                                                                                                                                                                                        8.G.G.B.Z.B.n.B.D.n.Z.B.D.B.D.0.G F G F C G F J F J G V G G G J V G G G G G G H C J G F C F C G G C J G J C G J G C F C F C M M k k n k k m k k n k k z n k k l k n k z l k k k n k k l k i q e q e q e q e 9 t 9 i 9 e 9 t 9 t 9 t 9 e 4 , , = , = , 1 , , = , = , = 1 , , : , , , = , O o O o . o . o . o . @ . o O o O o . o o o O t G C G G J F H G C H C G F C G G C G G F C F G V V G G G C F =.M.n.Z.n.D.B.n.v.h.k.a.h.h.k.9.                                                                                                                                                                                                                                                                                                        ",
"                                                                                                                                                                                                                                                                                        9.G.B.B.B.n.B.n.n.n.Z.n.B.D.F.0.G F G J F C G C G V G J F J V G G C H C F C F C G V G J F J G H G V G V G F G V J G C G G C M d k z k M k k z n z k n k k n k k k k k k k k n z k z k k k i q t 9 t 9 t 9 t 9 e 9 e 9 t q e q e u e q t 4 , - , , , , = = 1 = , , = , = = , , = = , = , O o . o . o O o O o O o O o . o . o o O o o o e J C C V G H C C C F G G G C F C F G G F J V J F J V G C C F *.B.B.B.B.B.B.B.v.h.h.h.a.h.k.w.                                                                                                                                                                                                                                                                                                        ",
"                                                                                                                                                                                                                                                                                        2.G.B.D.B.B.n.Z.n.Z.D.B.D.B.F.0.G G V C G C H G V G G C G V G G H G C F J G C G H G G C G C F C G J G F J C J G F J F C F G M z z n k n z n k k n k k n k k k k k z k z k k k k k k k k k i 9 q t 9 t 9 i 9 e q t 9 t 9 i 9 e 9 e 9 e q 4 1 , = , = , , = , , = 1 = , , = , = , 1 = , , O o . o . @ . o . o . o . o . o . O o o . o o t G V C G V G V G C F J V G G F G C F G G F C J F G F G F C F -.n.B.n.n.n.B.n.f.a.v.a.h.h.k.9.                                                                                                                                                                                                                                                                                                        ",
"                                                                                                                                                                                                                                                                                        9.F.n.Z.D.B.n.Z.Z.D.B.D.B.D.D.0.G V G C G V G G J V J F J G C G C F G G C H G G G C H G H G C J F C G C G F G J C G G G C G M d k z k n k k k n z k n j n z n k k k m k z k z l k z k l k a q t 9 t 9 e 9 t 9 t 9 t 9 t 9 e u e u e q e 8 , , = , , , : , , : , , , = 1 , = 1 , = , = , O o . o . o O o O o O o O o O o . o . o # o O q G C C C G F C C V J V G C F C G H C G F G G J F F K G G F F o.n.A.n.B.n.B.D.v.v.a.h.i.k.k.p.                                                                                                                                                                                                                                                                                                        ",
"                                                                                                                                                                                                                                                                                        9.H.B.D.B.n.B.Z.n.Z.D.B.D.D.F.0.J G C G V G C F G G G C F G F G H C J F G C H C H G G C G F G V G F J F C J V G F J V G F C M z k n k z k n j n k k k n k k l k k k k k k k n k k n k k k i q t q e q e q e q e 9 t 9 e q e 9 e 9 t 9 e 4 1 = , 1 = , , = , , = , = , = , , = , = , = , O o . o O o . o . o O o O o . o . @ . @ . o o t G C F C F C C C C F G C G G G G C F G G G C J F J K G F G I -.B.S.n.n.Z.n.n.v.h.i.h.i.h.h.9.                                                                                                                                                                                                                                                                                                        ",
"                                                                                                                                                                                                                                                                                        2.G.n.Z.Z.n.B.Z.D.Z.n.Z.n.F.D.0.G V G C G C F C G V J G C J V G G G C G V G G G C F G H C G J G J C G J V G G V G C J C G C M d z k n k n k n k n k k M k n k z k z k z n k k k k l k k k i q 9 t 9 t 9 t 9 e u e 9 t q e q e q e u e q 8 1 * , = , = , = , , = , = , = , = , = , , 1 = o . o . o . o . o . o O o . o O o O o . @ o . q G J C G G G C G C H C F G V G H G J G F G V L ..*.*.-.*.-.o.w.Z.A.A.Z.n.Z.n.v.h.g.i.a.f.k.w.                                                                                                                                                                                                                                                                                                        ",
"                                                                                                                                                                                                                                                                                        9.H.B.D.B.n.Z.B.D.Z.D.S.D.D.F.0.G C F C G V G G V G G V G G G C F C F G J V G H G C G G G V G V G F C G G V G G J F F G V G M k z k M k j n z k z m k k k k k k k k n l k k l k k k z k k i q t 9 t 9 i 9 t 9 e q e q e q e q e 9 e 9 t 4 , , = , 1 , = 1 = , 1 = , = 1 = , 1 , = = , = O o . @ O o . o O o O o . o . o . o . @ . o . t G G F C F G C F C F G G G G C G V G F G C V ) i.h.h.i.a.i.h.n.D.F.n.D.Z.n.D.f.h.f.h.i.h.k.9.                                                                                                                                                                                                                                                                                                        ",
"                                                                                                                                                                                                                                                                                        8.H.B.D.Z.B.n.Z.B.D.Z.n.Z.D.F.0.G V G C G C J G J G V G J V J F G J G V G G G C F G H C F G J G V G F G J F C F C G C G G C M v k k k n n k n k n k k M k n k k k z k k k z k k n k k l k i 9 t u e 9 e 9 t 9 t 9 e q e u e 9 i 9 t 9 t 4 1 * , , = , = , , , = , , = , , = , = , , , , O o . o O o O o O o . o . o O o O o O o . o @ q G J C G H V G C C H C G C F J G J C G G F V ) i.k.k.v.h.h.g.v.Z.A.Z.n.D.Z.n.v.g.h.a.a.h.k.9.                                                                                                                                                                                                                                                                                                        ",
"                                                                                                                                                                                                                                                                                        9.G.n.Z.n.B.n.Z.D.B.D.S.D.A.D.0.G G V G C F C F C F G F G G C G C F C G V J V J G C G G C G V G J C G V G C G G V G F C F G M z z k M k k M k k k k k n l k k k k l k k k k n z k l k k k i q 9 e 9 i 9 i 9 e 9 t 9 t 9 e 9 e 9 e q e 9 4 1 , = , , = , = = = , = , = , = , , = 1 = = , O o O o . o . o O o . o . o . o . o . @ O o . q G G V C G F C C C H G F C G V G V J F G F V ) u.h.k.a.h.h.h.v.Z.A.A.Z.n.Z.n.v.f.g.i.a.f.k.9.                                                                                                                                                                                                                                                                                                        ",
"                                                                                                                                                                                                                                                                                        8.G.B.Z.D.B.n.Z.D.D.Z.n.Z.D.F.0.G F G G F C C C G F J F J V G F C G F C G G G V G F C F G V J G F G G F G J V G G J G G C G M d k k n k k k n k M k k k n z k z k k z n k z k k k z k k k i q t u e 9 e 9 e q t 9 t 9 i 9 e q t 9 t 9 i 4 , , : , = 1 , , , , , = , = , 1 = = , = , = , O o O o O o . o . o O o O o . o . @ . o . o o t C G G G G G G V G H C G G G G J G G G G C V ) t.h.h.v.a.a.h.v.n.Z.A.Z.D.B.D.v.g.f.h.a.a.v.w.                                                                                                                                                                                                                                                                                                        ",
"                                                                                                                                                                                                                                                                                        2.G.F.D.Z.n.D.D.D.D.F.n.D.D.F.8.J C F C C G G C G F G F G G C J F G J F J V G G J C H G C G G C F C J C F G G V G V G F G C M z z n k z n z l k n l n z k k l k n k k j n k l k k k k k l u 9 t 9 e u e u e 9 t 9 e q e 9 t 9 e u e 9 e 4 1 , = , , , = = 1 = , 1 = , = , , = , , , = , . . . . . . o o o o o O o O o O o O o . o o . q G F C F G F C G C V G F C F C F C F G F C V ) u.f.h.a.a.a.h.v.B.A.D.Z.n.Z.n.v.f.p.f.a.f.M.9.                                                                                                                                                                                                                                                                                                        ",
"                                                                                                                                                                                                                                                                                        9.G.B.D.D.D.Z.D.D.D.B.D.B.D.F.0.G V G C F C F C G G F G V J F G C F C G G G C F G F G C H G H G G V G J G V J G G G G J C G M d k k k n k n k M k k k n k n k k k z n k k k k k M k k k k i q e q e 9 e 9 e q e q e q e 9 e q e 9 e q i 4 , , , , = , , = , , = , , = , , = , = = , = = . . . . . . o O o O o o . o . o . o O o . o o e G G G C G G G V C F J G G G F J G V G G G V ) r.k.h.h.a.h.h.v.B.D.n.Z.D.D.n.v.f.h.a.i.h.v.9.                                                                                                                                                                                                                                                                                                        ",
"                                                                                                                                                                                                                                                                                        9.F.B.Z.Z.B.n.Z.D.F.D.B.D.F.D.0.J G G C G C G F F C G C G G C F G G G V J F J C J C H G G V G C J F G V G G F C F C F C F C M z k M k k n z k n z n z l M k k z l k k k k k k k k k k k k i q t q e q i 9 t 9 t 9 t 9 t q e q e q e 9 e 8 < < < < , , 1 = = = , = , , , = , , 1 , , = , O o . o o . o o o o o . o O o O o O o O o . o q C G G G F G V C C F C G C G C G H G G V G V ) r.h.a.a.a.a.a.k.Z.A.A.Z.B.Z.n.v.i.f.h.a.i.k.9.                                                                                                                                                                                                                                                                                                        ",
"                                                                                                                                                                                                                                                                                        2.F.n.v.n.v.v.B.n.B.D.n.Z.A.D.w.) ^ ! ^ ) ^ ) L G C C C F G F C J F J G C G F C F G G V G G G F C G C J G C G J F J G H C G M d z k n k k m z k l n k n k k k k k k k k z k k j n k k l k i 9 t 9 i 9 e 9 t 9 t 9 t 9 e q e q e u e u e q 8 8 8 4 8 4 4 3 , = = , , , , 1 , = , = = 1 , % % % % % % % % o . @ o . o . o . o . o O o . q G C G V G G G C G V J F G F G C G J C G C V ) t.h.f.h.a.k.h.k.B.n.D.Z.D.n.D.f.g.h.i.a.h.z.w.                                                                                                                                                                                                                                                                                                        ",
"                                                                                                                                                                                                                                                                                        +.B.v.h.h.h.a.f.B.D.Z.n.D.Z.F.p.*.*.&.*.*.=.%.) F G C G C G J G V G C H G J C J G J C G J V J G G F G F J V G V G C G C G C M k d k n k k n k n k k k k l M k l z k k k n l n k k k k k k i q i 9 e 9 t 9 e q e q e q e q e u e 9 e 9 t 9 q e q 9 9 9 w 4 , , 1 , , : , , , , = , , = , = = , = = = * * o o o O o O o O o O o o . o o e G H C G G F C F C F G C G C F J V G F G G N ) u.h.k.h.a.a.a.k.Z.A.A.Z.n.Z.n.v.h.g.i.h.i.k.9.                                                                                                                                                                                                                                                                                                        ",
"                                                                                                                                                                                                                                                                                        @.M.f.a.h.h.a.v.B.B.D.B.B.A.F.u.-.*.*.*.*.*.*.^ C G F F G V G J G J G V G V G F C F J F G C G V G J C F C G H G J F J F G C M f M k z n z k M k k n j n n k z k k k n l k k k k k z k k l u 9 e q e u e q e q e u e 9 t 9 e 9 e q e q e q e q e t 9 e e 4 , = , = , , , = , = , , = , = , , = , , , , * o . . o o O o . o . o o o o o 9 J G G F G F G C G G J F G H C G G C G F G V ^ r.h.h.h.a.f.h.v.n.F.n.Z.D.Z.n.n.f.h.a.i.h.M.u.                                                                                                                                                                                                                                                                                                        ",
"                                                                                                                                                                                                                                                                                        +.M.h.h.a.h.a.k.n.F.B.n.Z.n.Z.u.*.*...*.*...*.! C F C F G J V G V G V G G J G J G V G C F G J G V G V G J G C G C G C G C G M k z k n k k m k k n k n k k k k k n k z k z k k k n k l k k i q t q e 9 e q e u e 9 e u e u e u e 9 t 9 t 9 t 9 t 9 q 9 e 4 < = , , , , , , , 1 = = 1 = , = , , = , = = & O o O o o O o O o . o . o o o 9 J V J C J F C F G C F J C G G V J F J C F V ) u.k.h.g.f.a.h.v.n.A.A.Z.n.Z.n.v.g.f.h.a.h.k.9.                                                                                                                                                                                                                                                                                                        ",
"                                                                                                                                                                                                                                                                                        X.k.h.a.i.h.i.v.n.B.D.B.n.D.S.i.-...*.*...*.*.! C G J F G G J G J G G J V G V G C G G G J V G H G C J G V G H G F C H G F C M d k n k k n k M k z n k M k M k z k k k k k k z l k k k k k i q e q e q e q e 9 e q e 9 e 9 e 9 i 9 e q e u e 9 t 9 t t 9 8 < , = , , , , 1 , = , , , , = , = , = , , , * o o O o o O o . o . @ o o o o e H G C F G F G G C F C G F J V G G C F G G V ) u.f.h.h.a.i.h.n.B.S.n.Z.D.D.n.v.f.p.f.a.i.v.u.                                                                                                                                                                                                                                                                                                        ",
"                                                                                                                                                                                                                                                                                        @.B.h.h.a.h.h.k.n.Z.B.n.S.Z.D.u.*.*.*...*.*.*.^ C F G F C F C F C F C G J C G F J V G V G G V G J F G G G G C H G G G C G C M z z k M k z k k n l k n l k k k k z k l k k m k k k k k k l i 9 i 9 t 9 t 9 i 9 e 9 t 9 t 9 t 9 e 9 t 9 e 9 e q e q 9 q 9 4 , , = = : = = = = , = = , , = , 1 = , = 1 = & O o . o o . o . @ . o . o o o 9 J G F J G F C F J G G J V G G V J F C G G V ) u.h.h.f.f.f.a.k.n.A.n.Z.n.Z.n.v.g.f.a.h.h.k.9.                                                                                                                                                                                                                                                                                                        ",
"                                                                                                                                                                                                                                                                                        @.M.h.h.i.h.i.v.B.A.Z.n.Z.n.B.i.-...*.*.*.*.*.! G G V G J G G J C J F C F J V G G C H G J C G C G C F J V J F C J V G H G C M c k k k n l n k k M k k M k M k l k k z n z k z k k k k k k i q 9 t 9 i 9 e 9 t q e q e q e 9 i 9 i 9 t q e q e q e 9 e q 6 , , , , = , = , = , , , : , = , = , , , = , & O o O o o . @ . o . o o o o o e H C G C H G G C G V G V G J C G F G G V G V ` u.f.h.g.i.a.i.f.B.S.A.Z.D.Z.n.n.f.g.i.a.f.v.w.                                                                                                                                                                                                                                                                                                        ",
"                                                                                                                                                                                                                                                                                        +.M.k.h.a.h.h.k.n.Z.n.B.n.Z.D.u.*.*.*...*...*.! C F G F F J V G F C G F C G G V J F G V G F G F V G C F C G G G G G G C F G M k z k k M k k M k k n k n l k k k z k k k k k k z k M k k k i 9 t u e 9 e q e 9 t 9 t 9 e q e 9 e 9 e 9 i 9 e q e q t 9 t 4 , 1 , , , = , = , = = , = , , = , = 1 , = , = o . O o o O o O o O o . o o o 9 J G F G G F G F C J G G V G H G J C H G G V ` i.f.v.f.a.f.a.v.n.A.n.Z.n.Z.n.f.h.h.f.a.a.k.9.                                                                                                                                                                                                                                                                                                        ",
"                                                                                                                                                                                                                                                                                        @.M.h.h.i.h.i.v.B.n.Z.S.n.S.Z.u.*.o.*.*.*.*.*.! G C F G C G G V G J G J F G J G G C G G C G V G G F G G G H C H C F C F C C M d z n k k n k l n z k N k z n k k n l k z k k l k k l k k k i q 9 e 9 t 9 t 9 i 9 e q e q e q e q t 9 t 9 e u e 9 t 9 t e 4 2 , , = , : = = : , , = , , = , : , = = , , , = , * * = = = * = = * * * & = a V G J C F G V J G F C H G C G C F G C G G C ` h.M.M.n.n.n.n.n.n.S.D.Z.D.B.D.v.g.i.h.i.h.f.u.                                                                                                                                                                                                                                                                                                        ",
"                                                                                                                                                                                                                                                                                        @.M.h.h.a.h.h.k.n.F.n.Z.n.D.B.u.-.*...*...*.*.^ C F J F G V G G F C F C G V G V G F C H G F J C G J C F C G F G G C J G G G M k z k n z l n k k n k k k k k z k z k k k N k k k z k z k l u q i 9 t 9 t 9 e 9 t 9 e q e q e q e 9 t 9 t 9 e 9 t 9 t 9 t 4 , , = : = = , = = , = 1 , = 1 = , , , , , = , , = , , , , , , , , = , = = = a F C G H G F G C F J G C G H G F J C F G F V ` k.S.B.n.B.B.B.Z.D.A.A.Z.n.D.n.v.f.g.a.a.h.k.9.                                                                                                                                                                                                                                                                                                        ",
"                                                                                                                                                                                                                                                                                        @.M.h.f.a.f.a.f.Z.n.Z.B.n.B.F.u.*.*.*...*.*.*.! C G C F J G F J C G C F C G V G J C G G J C F G V G J G H C G C H G F J V C M f k M k n k k M k z n z n z n l k k k z k k z k k k n k k k i 9 e q e q e q t 9 t 9 t 9 i 9 e q e q e q e q e q e 9 t 9 t 4 1 1 * , , = : , : , , = , = , , = = , = = , = , , = = = , = = , = , = = & = g V J G C J F C G G V G H C G C G C J G V V C $.n.F.n.D.n.S.D.n.Z.D.n.Z.Z.Z.n.v.g.f.h.i.a.n.9.                                                                                                                                                                                                                                                                                                        ",
"                                                                                                                                                                                                                                                                                        +.M.k.h.a.h.h.k.D.B.n.B.D.B.D.i.*...*.*.*...*.! G F G F G C C F G V G G F G G C G F J V G V G J G F C F C G J F G C G G G G M z k k k k M k k n l k n k l k k k z n l k k k k M k k j k k i q t 9 t 9 t 9 e q e q e 9 e q e q e q e 9 e u e q e q e t 9 4 , , , , 1 , , , , = , = , , = , , = , , , : , = , = , , = , = , = = * = & = g G F J F G F G H C J G G F G H G F G J C F V ` n.F.B.D.n.n.F.Z.D.S.A.D.n.Z.n.n.f.p.h.i.h.k.9.                                                                                                                                                                                                                                                                                                        ",
"                                                                                                                                                                                                                                                                                        @.M.h.h.i.h.a.k.n.Z.Z.n.B.D.B.u.-.*.*...*.*.*.! C J F J F G F C G G J C G C H G G C G G G G G V J C G J G V G C G H G H C C M c z k n k n k k n z k k n k n k k k k k k k M k k l k n k k i 9 t u e 9 t 9 t 9 e 9 t 9 t 9 t 9 t 9 i 9 e 9 e q e q e t e 4 < , , , , , , = 1 = , , : , = , : , = = , , , = , , = , = , = , , = = = * = a H C G C F G C G F G V G C G V G J V G F V C ` b.S.Z.A.B.n.B.D.Z.n.D.Z.D.Z.n.v.f.h.i.a.h.f.9.                                                                                                                                                                                                                                                                                                        ",
"                                                                                                                                                                                                                                                                                        @.M.h.h.a.h.i.v.B.n.B.S.n.Z.F.u.*...*.*...*.*.^ C G C F C G J G V G V G F G G V J F C F J V G G G H G V G G G H G C G C F G M k z k M k k M k k n k M k z k z k k z k M k k l k k k k k l i q e 9 e q e u e q t 9 i 9 e u e 9 t 9 e u e u e 9 t 9 t 9 t 4 < , , = = = = , , = , = , , , = , , , , : , = , = , = , = , = , = , = = & = g V G F J G F G G J C G J F J C G V G C G V V ` n.F.n.D.n.F.n.Z.D.S.n.Z.n.Z.n.n.g.f.h.i.h.k.u.                                                                                                                                                                                                                                                                                                        ",
"                                                                                                                                                                                                                                                                                        +.k.h.h.s.h.a.k.n.Z.D.B.n.D.B.u.-.*...*.*.*.*.! G F G F G V G F G J G C J V G G V G J C F G J V G C G G C F C G V G H G C C M d z k k M k l n z m k k n l n k k k m k k k k k z k z k k k i q u e u e 9 e 9 e q e 9 e 9 e q e 9 i 9 e 9 e u e 9 i 9 e q 4 < , , , = , , = = , 1 = , = , = , = : , , = , , : , = , = , = , = = = , & , g F J G F G F G V F H F C F C V F C C F F V V ` b.F.F.D.A.B.D.B.B.n.F.n.B.n.n.f.i.i.a.h.h.k.<.                                                                                                                                                                                                                                                                                                        ",
"                                                                                                                                                                                                                                                                                        @.k.h.h.a.h.i.h.n.n.B.D.B.Z.n.i.*.*.-...*...*.! C G V J F G F C F C F G C F G J C G F G C G C F G F C H G C H G G G C F G G M k k M k k n k k n z k n z k z k z k z k k z k k n k k z k k i 9 e q e 9 i 9 t 9 e q e q t 9 e u e 9 e u e 9 e 9 e 9 9 q 9 4 , , = , = 1 = , 1 = , , = , : , , , , = , , = , , = , , , = , , , , = , = = g V G G G F G F G H C J H C F C U ) ) ) ) ^ J %.b.D.D.D.F.n.Z.n.M.n.n.n.n.n.n.h.w.u.r.u.t.t.>.                                                                                                                                                                                                                                                                                                        ",
"                                                                                                                                                                                                                                                                                        X.B.h.a.f.h.a.h.n.B.Z.n.B.D.Z.u.-...*.*.*.*.*.! G H G F G C J G J G V J G G V G F C G V G F G G J C F G H G C G V J G J C C M f k k n z k n z k n k k k n k k k k k k k l k k k z k l k k i q t 9 t 9 e 9 i 9 e q e q e q e 9 e q e 9 e q e q t e q e q 4 , , , = , = , = , = , = , , , = , = , = , = , = , , = , = , = = = , = = & = i F G G F G F G C H V H G H F I 7.t.r.r.r.p.u.h.F.D.A.n.n.F.D.v.k.h.k.f.f.f.k.0.*.-.-.-.-.>.|                                                                                                                                                                                                                                                                                                         ",
"                                                                                                                                                                                                                                                                                        @.k.h.a.h.a.f.h.n.D.B.B.n.B.D.i.*.*...*...*.*.^ C G C F G G F C F C G F C G G V G G G G J V J V G F C G C G F J V G V G F C M k M k k n k k n l k M k n k z k N k z k k n z k k k k k k l u 9 t q e q e q e 9 t 9 t 9 e q e u e 9 i 9 t 9 i 9 e q 9 q e 4 , , = 1 , , = , , = , , = = , = , : , , = , 1 , , : , = , : , , 1 = = , * , g G F G G G F G F G C G F G V L t.k.k.h.k.v.v.v.A.n.A.B.n.B.n.n.h.i.h.a.f.f.h.1...-.-.-.-.-.]                                                                                                                                                                                                                                                                                                         ",
"                                                                                                                                                                                                                                                                                        X.k.v.f.a.h.a.h.B.n.Z.n.Z.n.F.u.*...*.*.*.*.*.! C F G F J V G J C F G J F C H G C H C F G C G G C G F J G V G G G J G J C G M f k k n k n z k M k k m k k n k k k k n k k k j n z k M k k i q t 9 t 9 t 9 e u e 9 t q e q e 9 t 9 e 9 e 9 e q e 9 t 9 q 4 , , , = , = , = , = , = , , , : , , = , 1 , = = , , = , , , , = , = , , * , s G C F C G F G G G C F G G V E r.k.h.i.h.v.g.v.S.n.B.B.A.D.A.v.f.g.f.f.h.f.h.<.&.&.o.&. .-.]                                                                                                                                                                                                                                                                                                         ",
"                                                                                                                                                                                                                                                                                        @.k.v.f.a.f.a.f.n.Z.n.B.n.Z.S.u.-.*.*...*...*.! G C F G G G V G G V G C G F C G G G J V G H G V G H C C F G C H C F C F G V M z d z k k k n k k n k k n z k k k z k k j n k n k k k k l k i 9 t q e q e q e 9 t 9 e 9 t 9 i 9 e q e q t u e 9 t 9 q 9 e 4 , , = , = , = , , = , , : = , , = , , = = , , = , = 1 = = , , = , , = , * , g F J G H G F C F G G C F G V L r.f.a.h.a.h.c.v.n.Z.n.D.S.A.Z.n.f.h.h.a.h.h.a.<.-...-...-.-.]                                                                                                                                                                                                                                                                                                         ",
"                                                                                                                                                                                                                                                                                        X.B.h.a.h.h.a.v.n.B.Z.n.B.D.Z.u.*.*...*.*.*.*.! C C G V C F C G V J G F J C G F C F G G C G G F G C G G F C G G F J G C G C M k n k n k n z k N k z n k n k l k k k n k k z k k k k k k k i q 9 t 9 e 9 t 9 t 9 t q e q e 9 e q e q e 9 e 9 t 9 i 9 q 9 4 , , , = , = , 1 = , = = , , , = , = , , = , = , : , , , = 1 = , = , = , * , g G C F C J F G G G C F G F G E r.f.f.h.h.h.h.f.Z.n.Z.n.n.D.n.n.i.g.f.a.h.i.a.<.*...*...*.-./                                                                                                                                                                                                                                                                                                         ",
"                                                                                                                                                                                                                                                                                        @.k.h.a.f.a.i.h.n.B.D.B.n.n.F.i.*.o.*.*...*.*.) C C C G C C G C G F J C F G G J G J V J F C G C G F J C G H G J C G H G V G M f z k z n k n k k n k k z l n z k k j n z k k k z k k j k k i 9 t u e q e q e q e q e 9 i 9 e q e q e q e q e u e 9 e q e 4 < = , = , , = , = , 1 , = , = , = , = 1 = , : , , = , = , = , = 1 , = , = , s G F J G F G V G G G G G G V E r.f.f.a.h.i.h.h.B.D.B.Z.Z.Z.A.f.a.i.h.a.f.a.h.5.*.-.-.:.-.:. .                                                                                                                                                                                                                                                                                                        ",
"                                                                                                                                                                                                                                                                                        X.k.h.h.a.h.h.k.n.D.B.Z.n.Z.A.u.-.*.*.*.*.*.*.L V C V G F F F G F C G F J C F C F C G V J G H G J C G F C G V G V G C J G C M k k n k k k j n k k M l n k k k n k n k k k k m k k k n k k i q e 9 e q e q e q e u e 9 e 9 t 9 t 9 t 9 t 9 t 9 e q 9 u 9 4 , , = , = , = , , = , = , = , = , 1 , = , , , = , , = , , = , , = , = , * , g F C G C F G G V G G F G F F E u.v.h.f.h.h.h.v.n.B.n.B.D.D.n.n.c.f.f.d.k.f.k.q.*.:.:.:.:.>.$.                                                                                                                                                                                                                                                                                                        ",
"                                                                                                                                                                                                                                                                                        @.k.v.h.i.h.i.v.n.B.D.B.n.Z.F.i.*...*...*.*.*.) W L ) L ! ! U J G G C G V J G J G H G G G V G C F G V J F G J V J G F G V G M f k z n z n n z n l k k n k M k k k z k z k k k z k k k k l u q t q e q e q e 9 e 9 e q e q e q e q e q e q e q e i 9 e 9 4 , , = , 1 = , = , : , , = , = , = , = , = , = , = , = = , = 1 = , , = , = , s G G H G J F C F J C G F G F W u.M.v.f.v.f.v.v.S.n.D.B.n.n.D.v.h.u.f.i.f.h.i.^                                                                                                                                                                                                                                                                                                                       ",
"                                                                                                                                                                                                                                                                                        X.B.h.a.h.h.a.h.n.B.Z.n.B.n.D.u.*.*.*.*...*...*.$.*.*.&.*.*.$.L F C F J G V G V G V G H C G F C F G G C G C G G G J C J G C M k k k k n k k n k n k M k k k k z k k k k k k k k M k k k k i 9 t 9 t 9 t 9 t u e u e u e 9 t 9 t 9 t 9 t 9 t 9 e 9 9 q e 4 , , , = , = , , = , = , , = 1 , = , , = , , = , , , , , = , , = = , = , * , g F C G G F G F C C G V G F V E g.S.B.Z.n.Z.n.B.A.B.n.B.B.S.n.k.s.i.f.f.i.k.r.                                                                                                                                                                                                                                                                                                                        ",
"                                                                                                                                                                                                                                                                                        @.k.h.i.h.i.h.h.n.B.D.B.n.Z.S.i.-...*...*.*.*.*.*...*.$.o.*.*.L F C G C G G G G G J C G F C J G J C H G F G H C F C F F C G M f M k k M k N k k k n k k M l k k k k k l k k M l k k j n k i q t 9 t 9 t 9 e 9 e 9 e 9 i 9 e q e q e q e q e u e u e 9 q 4 , = , , , = , : , , = , = , , = , = , : , = 1 , = : , = 1 = , , , = 1 , * , g G J V G H G C J F C G F G V W g.F.Z.B.n.B.n.n.F.S.n.S.n.S.n.v.s.i.s.i.f.h.i.                                                                                                                                                                                                                                                                                                                        ",
"                                                                                                                                                                                                                                                                                        X.k.v.h.a.h.i.k.n.D.B.n.Z.n.D.u.*.*.-.*.*...*.&.$.-...*.-.o.*.L F C G F C H C F C F G J C F G V G G G C J C G H G J G C F C M k d z n k k k k M k z k n k k k k k k z n k k k k k k n k k a q e q e 9 t 9 t 9 t 9 t 9 e 9 t 9 t 9 e 9 i 9 e 9 e 9 9 q e 4 , , , = 1 = , , = , = , = 1 = , , 1 = , , , = , = , , , = , = , : , = , * < g F G G C F G F V G J G V J B ) g.F.Z.B.Z.D.D.n.A.Z.n.B.n.B.A.v.s.i.a.i.f.h.r.                                                                                                                                                                                                                                                                                                                        ",
"                                                                                                                                                                                                                                                                                        @.k.h.g.h.h.a.v.C.n.D.n.D.F.A.i.*...*.*.*.*.*.*.-...*.&.-.*. .W G V G C F G G C J G C F G C J G H C H G F G V G C F C J G C M d z n k k n z k k m k n k z n k k j n k k z k k k k k k z l i 9 t 9 t 9 t 9 t 9 t 9 t 9 t 9 t 9 t 9 t 9 e 9 t 9 t e t e q 4 < , , , = , = , : , , = , = , = = , , = , = , = , , = , = , , = , , , = * , g V J F J G F C G G F J G F V E c.F.Z.n.D.B.D.D.D.Z.D.A.A.Z.D.v.s.a.i.i.i.k.i.                                                                                                                                                                                                                                                                                                                        ",
"                                                                                                                                                                                                                                                                                        X.B.h.h.h.i.h.h.D.D.B.D.B.D.Z.u.*...*.*.-.*...*.*.*.*.*.o.-.&.L F C F G J G H G V G J C J F C F C G G C F C J G G J F C F G M z k k M l k n N k z n k k m k z n k k k k l k z k l k n z k g 8 t t 9 t 9 t 9 t 9 t 9 t 9 e q e u e 9 t u e 9 i 9 9 t e q 4 , , , = = = , , 1 = , = 1 , , 1 = , = , = , , = 1 = , 1 , = , = , = , , * , g G G C F J F G H C G C H G V E v.F.Z.n.Z.D.n.Z.D.Z.Z.F.B.D.D.v.s.i.i.i.i.h.u.                                                                                                                                                                                                                                                                                                                        ",
"                                                                                                                                                                                                                                                                                        @.k.h.a.f.a.h.f.C.D.D.B.D.S.D.i.*.*.*.*.*.*.*...-...*.*.&.-.&.W F C G C F C G V G G F C F G C J F G H C G F G H C G F G C G M d z k k n k k k k n k k M k k k k k k n z k k n k k k k M k g q w 9 t 9 i 9 e 9 t 9 t 9 t 9 e 9 e 9 t 9 e 9 e 9 e t 9 t 9 4 < , = , = , = = * , , , = , = = , , = , 1 = , = , , = = , = 1 = , = , = = , s G H C G F G V G J G F G F V E c.F.Z.n.B.D.n.n.B.n.n.S.B.B.D.k.s.i.f.i.f.k.u.                                                                                                                                                                                                                                                                                                                        ",
"                                                                                                                                                                                                                                                                                        X.k.v.f.f.a.i.v.B.B.D.B.D.Z.Z.u.*. .*.-.*.*.*.*.*.*...*.-.-. .L C F C F G J F J G J V G J V G G V G C F G C G C F G J V G C M k M k k k M k n k z n k k k n k k z k k k k k j n k l n z k i 9 t e u e 9 e u e 9 t 9 e u e q i 9 t 9 t 9 t 9 t 9 t 9 t 9 8 , , , = , = , 1 1 , = , = , , , = , , = , = , , = , = , = , , , = , , = * , g F C G H G F C G F J C J F V E c.F.B.D.B.n.Z.Z.n.B.n.B.C.Z.n.f.s.f.i.f.i.f.r.                                                                                                                                                                                                                                                                                                                        ",
"                                                                                                                                                                                                                                                                                        @.k.h.h.h.h.h.i.u.w.e.u.e.a.w.<.-...*...*...*...-.*.-.&.o.&.*.L F C G G V G C G V G G C F G G F G C F G J F J F C G V G G C M d k k M k k n k k n k k N k z k l k k j n k k n z k k k M k g 9 t 9 e 9 i 9 e 9 t 9 i 9 e 9 e 9 e q e q e q e u e 9 t e t 8 4 , 4 , , 4 4 , , , = , = , = , 1 = , , = , = , = , , : , = , = 1 = , , * , s G J C G J F G J C G F C G F ) g.F.Z.n.Z.n.n.n.n.v.v.v.M.n.v.i.1.6.7.<.6.7.<.                                                                                                                                                                                                                                                                                                                        ",
"                                                                                                                                                                                                                                                                                        X.B.h.f.g.a.h.t.#.o.-.-.-.-.-.-.*.*...*.*.*.*.*.*...*.*.*.-. .L G V G J G V G G V G G F C J C J V G G V G C G G H G G V G F M z k n k n k z n z l z k n k n k z n k n z k z k k k k k z k i q e t 9 e 9 e q e q e 9 e u e q e u e 9 t 9 e q e 9 t 9 t e e e q w t t e q 4 < , , : , , = , = , , = 1 , , = 1 = , , , , = , , , = , * , g F G F C F G V G F J C H G V E v.F.Z.n.B.n.B.n.v.c.h.h.h.h.a.w.-.-.*.*.-.-. .                                                                                                                                                                                                                                                                                                                        ",
"                                                                                                                                                                                                                                                                                        @.k.h.a.h.h.h.r.-.o.*.......*...*.*.*...*...*...-.*...*.o.&.*.L H C V G V G F C G H C G G F G F G G F J C F J V G C H G C C M k z k z k n k k n k n k z n k k k k k k l k k k k l k n k z i 9 q t q t 9 t 9 t 9 t q e 9 t 9 t 9 e u e 9 i 9 e q e t 9 t 9 e t q e q w q 4 < : , , = , 1 , , = 1 , , = , = , = , = , : , , = , = , = , g G J C G G F C G C G G F J V ) g.F.Z.n.Z.n.D.n.v.h.g.a.h.h.k.0.-.&...&...-...                                                                                                                                                                                                                                                                                                                        ",
"                                                                                                                                                                                                                                                                                        X.k.v.h.g.h.h.r.-.*...-.*...*...-...*.*.*.*.*.*.*.*.*.*.-.-.&.L C F G G G C J G V G G H C G C G J V G G F G C G V G C G F G M d k n k n z m k z n k l n k k j n k k z k k k N k k k z k z i 9 t 9 e q e q e u e 9 e q e q e 9 t 9 e 9 e 9 t 9 t 9 t e e t q e e t w q 9 4 < = , = , = , = = , = = , = 1 , = , , : , , = , = 1 , = * , s G V G H G F G H G H C G F V E c.F.Z.n.B.n.Z.n.c.h.h.a.h.a.h.q.o.&.*.*.*.-.&.                                                                                                                                                                                                                                                                                                                        ",
"                                                                                                                                                                                                                                                                                        @.k.h.h.h.h.h.r.-.o.*...*.o.*...*.*.o.*.o.*...*.-...*.*. .-. .W F C C F J F C F G G C F G H G V G G C H C J F J G G H C G C M z z k M k k z n k k M k k M k n k k k k M k k k z k k k M k g 8 t q e q e 9 e 9 e q t 9 t 9 t 9 i 9 t q t 9 e q e u e q w t e t 8 q t w q 4 < = , = , , , = , , , , = , = , , : , , , = , 1 , = , , * , g F J C G F G C G C G J F J V ) g.F.Z.D.n.n.D.n.h.h.g.m.a.h.a.w.*.*.-. .*.-.&.                                                                                                                                                                                                                                                                                                                        ",
"                                                                                                                                                                                                                                                                                        +.k.v.h.g.h.h.r.-.*...*...*...-.*.*.*.*.*.*.*.*.*.-...*.-.-.&.L C F G V G G G J C F J G C G G G V J F G G C G V G C G F G V M d z k k n k k k z k m k k k k z k k j n k k z k k z k k z k a q t 9 t 9 t q e q e 9 e q e 9 t 9 e 9 e 9 e q t 9 e 9 e e q w q e t e t q e 4 < : , , = : , = , : , = , , = , = , , = = , = = = , = , * , s G G F C J F F J F C F C F V E c.F.B.Z.n.Z.B.n.h.g.g.f.h.h.k.e.-. .*.*.*.-...                                                                                                                                                                                                                                                                                                                        ",
"                                                                                                                                                                                                                                                                                        o.B.h.h.h.h.h.r.-.o.*.o.*.o.*...*.o.*...*...*...-.*.*.*.&.-. .W F C G G C H C F G G V G H C F C G G J C H G J G H G G H C G M k M k k z n k m k n k k M k n k l n k k k k k z k l k k z k g 8 t q e q e q e q e q t 9 i 9 e u e u e q e q e q e u e 8 t e t 9 w q w t q 4 < = , = , , = , , , = , = , 1 = , = , , , = , , , = , = = , g F C G G F G C V V G V V F M J h.F.Z.n.Z.D.n.n.h.h.v.g.h.h.k.w.*.*.*...*.-.&.                                                                                                                                                                                                                                                                                                                        ",
"                                                                                                                                                                                                                                                                                        +.k.h.a.g.h.h.r.-.*...*...*...*...*.*.*.o.*.&.*.*...*.*.o.-.&.L C V G H G G G C F J G C G G J F J V G G G V G V G C V G C G M f k k n k n z n k z n k k N k z k k z k k l k k k k z k M k g 9 t 9 i 9 e q e 9 t 9 e 9 e q e 9 e 9 t 9 t 9 t 9 e 9 t e t 9 w t q e t 8 q 4 < , = , , , = 1 = , , = 1 = , = , , = 1 = , = , = , = , * , g G G V J G F G J J J J J J F ) c.F.Z.n.Z.D.n.n.p.p.g.i.i.h.a.<.-. .-.&.*.-. .                                                                                                                                                                                                                                                                                                                        ",
"                                                                                                                                                                                                                                                                          ~ I I I Y I ~ u.a.h.i.h.a.h.r.-...-.*.o.-.*.o.*.*.o.*.*.*...*.-.*.*.*.&.*...L G F C C G V F J G V J F J V G C G J G H C J G G J F G G G C M k z k k k l k k k n k z n k k k k k k z k k k k k k k k k k k g g k g k k g u 9 t q t q e u e 9 i 9 e q e q e q t 9 t 9 q e q e q t q t 9 9 6 8 e 6 8 6 8 9 w 4 w 8 9 4 8 4 4 4 4 8 4 4 8 4 8 4 6 8 4 8 d F G G G F F G o.t.w.u.w.u.w.u.n.F.B.D.n.D.Z.v.<.:.>.<.<.<.<.#.*.*.*...*.-...                                                                                                                                                                                                                                                                                                                        ",
"                                                                                                                                                                                                                                                                          N.M.z.k.z.M.z.h.i.h.a.f.a.h.u.-.*.o.*.&.-...-.*...*.-...*.*.*.*.o.*...*.*.*.L F G F G G J C F C G G C F G J V G V G C G F C F C G V G C G M k n k k l k k k k k k m k k z k z k k k k k k k M k k z k k k k k k k k z k i 9 e 9 e 9 e 9 e 9 e q e 9 t 9 t 9 e u e 9 t 9 t 9 e 9 e q e 9 t 9 e q e q e e q e q e e 9 8 9 w q 8 9 8 9 w 8 8 e 8 w 8 9 k G G G F G G J e.G.F.F.B.F.F.D.S.D.B.Z.Z.n.D.g.-.&.*.*.*.*.o.-.*.*.o.*...-...                                                                                                                                                                                                                                                                                                                        ",
"                                                                                                                                                                                                                                                                          M.f.m.h.h.h.h.h.h.f.a.h.h.h.w.-...-.&.o.*.-. .*.*.-...*.*...*.-.*.*.*.o.*...L G G G V G F G C F G V J G V G G J G V J F G J V G G J V G C M k k k k n k l k k m k z n k n l k k l n k k M k k k k k k z k k z k z k k k i 8 q t u e u e q t 9 t 9 t 9 t 9 i 9 e 9 t 9 t 9 t q t 9 t 9 t 9 i 9 e q e q e q e 9 t 9 t t q t 9 t e t q t 9 t 9 e 9 w 8 z F G G G G F J e.F.F.n.B.D.S.n.D.B.D.n.n.D.F.c.-.o...*.*.*.-.O.*.*.*.*.*.-...                                                                                                                                                                                                                                                                                                                        ",
"                                                                                                                                                                                                                                                                          k.h.a.h.h.h.h.i.h.h.i.h.a.h.u.-.*.-.&.-...-.*.*...*.*.*...*.*.*...*.*.*.*.*.L F G V G G J C F J G G G G G C F C F G G C G V G J V G G G C M k k k k l g n k k n k n z k k k k n z k z l k k k j n z k k z k k k k k z k i 9 e 9 e 9 e 9 e u e 9 t 9 t 9 e 9 e u e 9 i 9 e q e 9 t 9 t 9 e 9 i 9 e q e q e q e q e q e 9 t 9 t 9 q e q e q e q w 8 9 n J G G G F G J e.F.n.B.n.Z.D.A.n.B.B.Z.B.D.S.v.*...*.*.*.*.*.*.*.o.*...*.-...                                                                                                                                                                                                                                                                                                                        ",
"                                                                                                                                                                                                                                                                          M.h.h.i.h.i.h.a.f.a.h.a.h.h.u.-...o.*. .-. .-.*.-...*.o.*.*...-.*.*.*...*.*.L F G G F C F G G V G V G V G F G J C G H G H G G C F G C G C M n k k l g n l g n k k k n z n k z k k k k k k k k n k k z k n k k k z k z k i 9 q e u e u e 9 e 9 t 9 t 9 t q e 9 e q e 9 i 9 e q e q e 9 t 9 t 9 e q e u e 9 t 9 e q e q e q e q e q e q e q e e q w 9 k F G F G G F J e.F.B.D.B.n.F.n.n.Z.n.n.B.D.Z.h.*.&.*...*.*...-.*.*...-...-...                                                                                                                                                                                                                                                                                                                        ",
"                                                                                                                                                                                                                                                                          k.h.i.h.h.h.f.a.h.f.a.f.a.h.i.-...&.-.*.-.*...*.*.*.*.*.*.*.*.*.o.*.*.*.-. .L G F C G F C G H C G G J C J V G V G G C C G C F J C G F C G M k k k n k k n k l n z n k l k k k l k n z k M k z k k k k l k z l k k k z k i 4 t 9 e 9 e q e q e q e 9 i 9 e q t 9 t 9 e 9 e q e q e q e q e 9 i 9 t 9 e 9 t 9 i 9 e q e q e q e q e 9 t 9 t 9 e e 8 9 z F G G V G F G w.G.n.n.Z.D.D.D.Z.D.Z.D.Z.n.F.v.*...-.*...*.*...*.-.*.*.*.-...                                                                                                                                                                                                                                                                                                                        ",
"                                                                                                                                                                                                                                                                          M.h.a.f.a.f.a.f.a.h.h.h.h.h.r.>.-.-.*.-.-.-.-.*.-...*.o.*. .*.-.*...*.*.*.*.L F G F C J F C G G H C F G F C G J F C H G F G C G F J F G C M f k k k k k k k k k n l k n z k z n k k l k k l k z l n k k k k k k k k M k i 9 q e q t 9 t 9 t 9 t q e 9 e q e 9 t 9 t q e q e q e u e 9 i 9 e 9 e q e q e u e 9 e q e q e q e u e q e 9 q e 9 8 q 8 8 n V F V F V M G w.S.B.B.n.A.D.n.Z.D.Z.B.Z.B.F.a.*.*...*.-...-.*...*...*...-...                                                                                                                                                                                                                                                                                                                        ",
"                                                                                                                                                                                                                                                                          M.f.a.h.a.h.h.h.f.a.g.g.f.f.u.^ ~ ~ ] ~ ~ ~ } *.*.*.&.*.*.*.*.*...*.*...*...L G C G F G C F J V G G C G C G F C G G F C J V G J C G F F F M M v M z M M M d M k k M k k n k l k k k z k k M k k k z k z k n k z k k z k e 8 t q e 9 t 9 t 9 t 9 e q i 9 e q e q e 9 t 9 t 9 i 9 e 9 t 9 e q e q e u e 9 e 9 t 9 t 9 t 9 t 9 e q 9 e e i i e t q u i M E L E J L K ) w.N.B.n.n.D.n.n.B.n.n.Z.n.l.B.i.*.*.*.*.*.*.*.-.*.o.*.*.*.-...                                                                                                                                                                                                                                                                                                                        ",
"                                                                                                                                                                                                                                                                          z.h.a.f.i.h.f.a.h.f.f.f.h.v.X.                 .-.*.o.&...&...-.*.*.*.-.*.*.L F G F C G F G C G G V G F G G G F J C G G G G F G V G F H C V C C C C V C C z k n k k n z k k k z k k k k k k k k k k k m k z l k k k z k i 9 q e q e q e q e q e q e 9 e q e q e q e q e q e 9 e q e u e q e q e 9 e q e q e u e 9 t 9 t 9 i 9 e q 8 g N C M N M M M } u.r.u.u.w.w.u.n.D.D.Z.B.B.B.B.v.v.h.m.k.h.k.e.=.&...*.o.*...*...*.*...*.-...                                                                                                                                                                                                                                                                                                                        ",
"                                                                                                                                                                                                                                                                          M.h.a.h.h.i.h.f.a.h.a.a.h.z./                  .-.*.*.*.*.*.*.*...-...*.*...L G F C G G C G F G V G G C F C F C G F G H C F J C F G H F J C C C C C C C C z c z k n k m z k k n z k M k k k k k M l k k k k k k k k M k i 9 t 9 t 9 t 9 e q e 9 t 9 t 9 t 9 t 9 t 9 t 9 t 9 t 9 e 9 e 9 t 9 i 9 t 9 e q e q e 9 t 9 t 9 e 9 e q e 9 g C C C G C C C ;.f.m.f.v.h.h.f.n.F.n.Z.n.D.B.B.h.a.a.h.f.f.v.u.=.*.*...*.*.o.*.*.*.o.*...-...                                                                                                                                                                                                                                                                                                                        ",
"                                                                                                                                                                                                                                                                          k.h.i.h.a.h.h.a.f.h.i.h.h.k.|                 &.-.*.*.-. .*...-.*.*.*.*.*.*.L F G G F C F C J G C F J G C J G J V J C G G C G J C G V H G V C C C C C C C M k k n j n k k M k l k k l k k k k l k k k z k k k k k k z k i 8 q e u e 9 t 9 t 9 t 9 i 9 e q e q e u e 9 i 9 e 9 t u e q e q e 9 e q e q e q e u e 9 t 9 t 9 i 9 e 8 9 g V G F C V C C *.h.h.h.h.f.g.f.D.n.Z.n.Z.S.B.B.f.f.i.d.f.f.h.w.*...*.*.-.*.*.-...*.*.*.*.-...                                                                                                                                                                                                                                                                                                                        ",
"                                                                                                                                                                                                                                                                          n.f.h.i.h.g.f.g.f.a.g.a.h.k./                 *.-.*.*.*.*.*.*.*...*.*...*...L G V G C J F G V G H C F C F G V G G F G F G F G V G F G H G V C C C C C C C z k k n k k n k k k k k z k k M k k k k z k n k j n k z k k k i 9 e 9 e 9 t 9 t 9 t 9 e 9 e q e q e 9 e 9 e 9 e q t 9 e 9 i 9 e u e q e q e q e 9 e 9 t 9 e u e 9 e q w 8 g C C C T C C C *.h.h.h.h.h.a.v.n.Z.D.D.n.D.B.B.h.i.h.i.h.f.f.e.*.&...*...*...*.-...-...*.-...                                                                                                                                                                                                                                                                                                                        ",
"                                                                                                                                                                                                                                                                          k.h.h.h.f.a.f.a.h.g.a.h.h.k.|                 *.:.*.*.o.*. .*.-.*.*.*.*.-.&.L F G G F C G J G G C G G J G F G J V G C J V J G J F C F F C G V C C C C C C z k z k M k z k k k z k k n k l k k z k n k j n n k k k z M k e 9 q t 9 t 9 t 9 t 9 i 9 t 9 i 9 e u e u e q i 9 e q e q e 9 e 9 e 9 t 9 t 9 e q t 9 t 9 t 9 9 e q 9 e 9 8 g C C C C C V G *.a.h.h.i.h.u.h.B.A.D.S.D.F.B.n.h.h.a.f.h.f.v.w.-.*.*...-.*.o.*.*.*.*...*.-. .                                                                                                                                                                                                                                                                                                                        ",
"                                                                                                                                                                                                                                                                          M.h.h.h.g.i.h.f.a.f.a.f.h.M.]                 &.-.*.*.*...*.*...-...*...*...L G V G G F C F C F J F C F C G C G G V G F C G V G C G G J G V G G V G C C C v k z k k k k n z l n k M k k k k k k k k k n k k k z k k k l u 8 e q e q e q e u e 9 e 9 t 9 e q e 9 e 9 e 9 i 9 e q e q e q i 9 i 9 e q t 9 e q e q e q 9 t 9 q 9 q e 8 g G V C C F C F -.s.h.f.h.a.h.c.n.B.D.n.D.B.D.B.h.h.a.a.h.i.k.e.*...*.*...-.-.*.%.*.*.*.*.*.&.                                                                                                                                                                                                                                                                                                                        ",
"                                                                                                                                                                                                                                                                          z.g.h.f.h.h.f.h.h.h.i.a.h.n.|                 *.:.*...-.*.-.*.*.*.*.*.*.-.*.L F G C F G G G V G C J F G V G H C F J C G G F G G F G V G J G J G J V G F C M d z k k z k l k k M k l n k M k k n z k z k z k k k z k k g i 9 9 t 9 t 9 e 9 e 9 t 9 t 9 t 9 t 9 t 9 t u e 9 e q e q e q e 9 e 9 e q e 9 t q e u e 9 q e q 9 q e 9 q 8 i M C M V V V F *.d.a.h.i.a.i.f.n.F.n.F.n.F.B.n.h.p.h.i.k.a.f.e.-.*.....*.*.-.*.%.*.*.*.*.>.                                                                                                                                                                                                                                                                                                                          ",
"                                                                                                                                                                                                                                                                          n.f.h.h.i.a.a.h.i.a.h.f.h.k.|                  .>...*.*...*.....-...*.*.*...L F C F C G V G G V G G C G J G C G C G F C G C J C G C G C F C F C F J C G C v k z k n k z k k n k n k k k l k z k l k k l k k z k z k k l u 9 e u e 9 i 9 t 9 t 9 i 9 e q e q e q e 9 e 9 e q e q e 9 i 9 e q e q e u e 9 t 9 e q e q 9 q 9 e u 9 q 8 N ^ ' ) ) ) ) ^ >.h.k.h.h.h.h.v.n.B.D.n.D.n.F.n.h.h.a.h.a.k.a.t.-...*.o.*.*.-.!                                                                                                                                                                                                                                                                                                                                       ",
"                                                                                                                                                                                                                                                                          k.h.h.h.h.f.h.f.a.f.a.a.f.k.|                  .:.*.*.-.*...-.*.*.*.*...-.*.L F G G G C J F J G V G F C F C F G F C G J F G F G F G H G J G H C G F G V G z d n z k k k k z k z k n k n k k k k k k k z k k l k z k k l i 9 9 e 9 t 9 e 9 i 9 e 9 t 9 t 9 i 9 e u e u e q e u e 9 e 9 t 9 t 9 i 9 e q e u e 9 t 9 q e q 9 9 9 e 8 8 G w.i.u.t.t.e.e.v.D.B.B.B.B.n.n.Z.A.n.D.S.Z.A.B.h.h.a.f.d.f.i.e.-.*...*...-.>.                                                                                                                                                                                                                                                                                                                                        ",
"                                                                                                                                                                                                                                                                          M.h.h.f.a.h.h.a.h.h.i.h.h.v.|                 &.:.*.*...*.*...*.-...*.*.*...L G V G H G C G V J G C G F G G F C G J F C G C J V J C G V G C G H C G G C G f n k k z k k m k n k n z l n z k m k k M k k n k z k k k k k e 8 q e u e 9 i 9 e q e q e u e 9 e 9 t 9 e 9 e q e 9 t q e q e 9 t 9 e 9 t 9 e 9 t 9 t e u 9 e q t 9 8 q 8 J a.f.f.v.f.i.k.n.B.n.n.n.n.B.D.n.F.n.D.A.Z.S.n.h.g.a.h.d.i.k.w.-.*.*...*.*.-.                                                                                                                                                                                                                                                                                                                                        ",
"                                                                                                                                                                                                                                                                          k.f.h.h.h.f.h.f.h.u.a.f.h.z.]                 &.:.*.-...-...-.*...*.*.*.-...L F G G C F G H G C F G V G J V G J C F G G H G V G G F G C F G V G G V G F C M d z k k k z k k k z k n k k n k z k k k k k k k k k z n k l u 9 e 9 e 9 e 9 e q e q e 9 e 9 t 9 t 9 e q e u e 9 t 9 e q e q e q e q e 9 t 9 t 9 t 9 e 9 9 q 9 9 q q 8 8 J a.v.f.h.h.h.f.n.S.B.Z.D.Z.D.D.B.D.B.n.D.B.D.n.h.a.a.f.h.d.h.e.*...*.....-.-.                                                                                                                                                                                                                                                                                                                                        ",
"                                                                                                                                                                                                                                                                          n.h.h.h.a.i.g.i.h.h.a.f.h.v.|                 &.:.*...*.*.*.*.*.*.*.*...-.*.L F G C C C G F F H G C G G C J G F G C F C G V G G C G V J G J C J G J V G C M k k k k k k k z k k z k z z k k k k k k l k z l k k z k k k i 9 q t 9 t q e q e u e 9 i 9 i 9 e q e q e 9 e 9 i 9 e q e q e q e q e q t 9 t 9 t 9 t u 9 9 u 9 t 9 9 9 8 L i.f.f.a.s.a.v.B.Z.A.D.A.n.D.F.n.B.D.B.D.B.Z.D.k.h.a.h.a.s.f.e.*.....*...-.:.                                                                                                                                                                                                                                                                                                                                        ",
"                                                                                                                                                                                                                                                                          k.h.h.f.h.h.i.h.h.f.a.a.f.k.|                  .>...*.*.o.*...*.o.*.*.*.*...L G G C G F F G H G G H G F G F C G V G J G H G G V G J G F C F G F C F J C F z n k n z n M k l k n k z k z k z k z k z k k k k z k k k l g i 9 u 9 u 9 q 9 e 9 e q e 9 e 9 e q e q e u e q e 9 e q e 9 t 9 e q e q e 9 e q e q e 9 e e q 9 e 9 e 9 9 8 J u.k.f.a.h.i.v.v.B.D.n.F.D.n.D.S.D.A.D.n.D.Z.n.f.h.a.a.h.h.k.w.-.*...-...*.o.                                                                                                                                                                                                                                                                                                                                        ",
"                                                                                                                                                                                                                                                                          M.h.h.h.h.i.h.h.i.h.i.h.h.k.|                  .:.*.-...*.*...-.*...*.*.-...L F C F G G H F F H G C J C J C F J G V G V C J C G V G C J G J V G H C V G C M n n n n M m n l k z z k z d k k k k m k k k k k n k k k g k u q 9 9 9 q q 9 t 9 t 9 i 9 t 9 t 9 t 9 e 9 e u e 9 t 9 i 9 e q e q e u e q e q e u e u e q t e 9 9 e 8 q 8 J i.h.f.h.i.a.h.n.n.B.D.n.A.n.D.A.Z.D.n.D.D.A.D.h.h.i.h.h.h.h.r.*...*.....-.:.                                                                                                                                                                                                                                                                                                                                        ",
"                                                                                                                                                                                                                                                                          k.g.h.f.a.h.h.a.h.h.a.i.f.v.|                 &.:.*.*.*.*...*.*.*.*.*...*.*.U F G F F F F G G V G F G F G F C G F C G J G F G H G C F G V G J C G G H V J M n n M k v M n k k z k f k M k k M k z k k z n k k l k m k g u q u y 9 u 9 q 9 t 9 e 9 e q e q e q e u e 9 e u e 9 e 9 t 9 t 9 t 9 e 9 t 9 t 9 e 9 e 9 q 9 8 q 9 0 9 8 7 G u.h.i.h.h.h.h.n.B.A.D.n.F.n.F.B.n.B.D.n.B.Z.n.h.f.h.h.h.i.i.t.*.*...*...-.-.                                                                                                                                                                                                                                                                                                                                        ",
"                                                                                                                                                                                                                                                                          n.f.h.h.f.a.f.h.i.f.a.h.h.k.|                 &.:.*...-.*.*.-...-...*.*.-. .) L ) ! ^ ! ^ W F G F C G V G C G J C H C F C G V G C F G J G C F G H C C G V M M M M M M M M k k z k M k z k k k k k z k k l k z k k k n k g u u a s u i q t 9 t u e q e q e q e q e u e 9 e q e q t 9 t 9 i 9 e u e 9 t 9 t 9 t 9 t 9 s J ! E W L L J -.v.M.v.v.f.v.f.B.n.Z.n.Z.n.n.Z.n.n.n.n.v.n.v.f.w.w.0.w.w.7.0.<.*.*.o.*...:.o.                                                                                                                                                                                                                                                                                                                                        ",
"                                                                                                                                                                                                                                                                          k.h.h.h.h.f.h.i.h.h.i.a.f.v.|                 &.:.*.*...*.o.*.*.*.*.-.*...&.*.%.$.*.*.*.*.$.I H G G J C J F G F G G F G J G J G F J C V G J G V G C G C G G G C G C F J C z k z d z k z k z k j n k k k z k k k k l k m n k k k k k l g e u e 9 e 9 t 9 t 9 t 9 e 9 i 9 i 9 e q e 9 t 9 e q e 9 t 9 t 9 t 9 t 9 t 7 M 0.k.s.i.i.i.e.m.C.B.n.B.B.n.n.Z.Z.n.B.D.n.n.n.v.h.f.h.h.h.h.i.:.o.-.-.-.*.*.o.*.*.....*.*.:.                                                                                                                                                                                                                                                                                                                                        ",
"                                                                                                                                                                                                                                                                          M.h.f.h.i.a.h.h.h.f.a.h.h.k.|                  .-.*...*.*.*...-...*...*.*...*.*.*.*.*.*.*.} J F C F C F C G C G H C G C F C F C G C F G G V G J V G F C G C G G C G G G V z k k k k k k k k k n k k k l k n k l k k k k k k l k k k k k t 9 e 9 t 9 e u e 9 e u e 9 e 9 e 9 t 9 t q e q e 9 t 9 t 9 t 9 t 9 e q e 8 z u.f.h.f.h.k.f.n.n.D.S.n.B.A.B.n.n.Z.n.B.D.Z.n.k.a.g.h.g.h.h.i.-...o.&.o.*...*.*...-.*...-.-.                                                                                                                                                                                                                                                                                                                                        ",
"                                                                                                                                                                                                                                                                          k.g.h.a.h.h.f.a.i.h.a.i.f.v.|                 $.:.*.-.*.o.*.*.*.*.-.*.-...-.*.*.*.*...*.*. .J F G G F G G V J F C G J F C G G H C G G H C J F C G C J F J F C G V G F C C z k k z k z n k z k z k z k n k z k k k n k k k k k k k k k k 9 e q t 9 t 9 e 9 t 9 e q e q e q e q e 9 e q e u e q e 9 t 9 t 9 t 9 t 9 8 x p.m.f.v.f.f.f.k.D.B.D.S.D.B.D.S.A.B.D.B.n.Z.n.v.i.h.g.f.h.f.u.<. .*.o.*.*.*.-.*.*...*.*.-.-.                                                                                                                                                                                                                                                                                                                                        ",
"                                                                                                                                                                                                                                                                          n.f.h.f.a.f.h.h.h.f.a.h.h.k.|                  .-.*...*.*...-...*...*.*.*...*.o.*.*.*.*.-. .J F G C G V J F G C G F C G G V G G F J V G G G C F G F C G C J F C G C F G V z k k k k k z k k k k k k k k k k k k k k k k k k k k k j n k t 9 i 9 e q e u e 9 t 9 t 9 t 9 t 9 t 9 t q e 9 e 9 e q t 9 i 9 e q e q e 8 N u.v.h.h.h.h.f.k.B.D.D.B.A.S.n.B.D.B.D.Z.n.Z.n.f.h.f.h.h.h.h.i.:.o. .-.-...*...*...-.*...-.-.                                                                                                                                                                                                                                                                                                                                        ",
"                                                                                                                                                                                                                                                                          z.h.a.h.h.h.i.h.f.a.i.h.f.n.]                 &.:.*.*.-.*.*.*.*.*.-...*.*.-.*.*...*...*.*. .J F G F G C G C F G G V G F J G V G C F G C H G F J C G H G F C G F C G F J C z k n z k n k k z n z k z k j n z k z k k j n z k k M k n k k 9 e 9 e q e 9 e q e q e 9 t 9 e q e 9 t 9 e q i 9 t 9 t 9 e 9 t 9 t 9 e q 8 j u.k.h.f.h.h.h.v.B.B.A.B.D.B.A.F.n.B.n.n.F.n.F.v.i.g.h.g.f.h.i.-.o.*...-.*.-.*.-.*.*...*.*.-.                                                                                                                                                                                                                                                                                                                                        ",
"                                                                                                                                                                                                                                                                          k.g.f.h.u.h.a.h.p.h.a.f.h.k.|                  .*.*...*...*...-...*.*...*...*.-.*.*.*...-. .J G C F C F J G V G J G C G V G G J C G V G G J C G F G C G J G J F C G F C C M k k k k k z k k k k l n k n k k k n l k n k k k l k k k z k t 9 t 9 t 9 t 9 t 9 t 9 t 9 t 9 t 9 t 9 t 9 e 9 e q e q e q e q e q e q e 8 j e.m.f.h.f.f.f.n.z.n.Z.A.B.A.B.A.S.D.Z.n.Z.n.Z.f.a.f.h.f.h.h.i.:. .-.&.-.*...*...*.-...*.-.-.                                                                                                                                                                                                                                                                                                                                        ",
"                                                                                                                                                                                                                                                                          z.h.h.a.h.f.a.f.h.f.a.a.f.v.|                 &.:.*.*.-.*.-.*...*.*.-.*.*.-.*...*...*.*.*. .J F G J G C F C G V G V G H G C F C F G J G V G F C J G F C F C F C G V J G V z k k z k k k k j n k k k z k k k k k k k k k k k k k z k k k 9 t 9 t 9 t 9 t 9 t 9 t 9 t 9 t 9 t 9 t 9 t u e u e 9 e q e q e u e 9 t 9 8 j w.k.a.i.a.g.p.f.M.B.n.S.n.F.n.Z.n.B.D.B.D.n.F.f.a.h.g.h.h.f.i.<...o.*.-...*.*.-...*.*...-.-.                                                                                                                                                                                                                                                                                                                                        ",
"                                                                                                                                                                                                                                                                          n.f.h.i.h.i.h.a.f.a.f.a.h.z.]                  .-.*...*...*.*.-.*...*.o.*...*...-.*...*.-. .J F C F C J G F G J G G C G C G F G C F C J G H C F C F C J G J G G C G F G C z k k k n j n n k k k k k k z k k z k z k k k z k M k k k k k t 9 t 9 t 9 i 9 e u e 9 t 9 i 9 t 9 t 9 t 9 e 9 e q i 9 e u e 9 e 9 t 9 t 9 g U L E L W E J =.B.S.D.B.D.B.n.S.D.B.n.Z.A.Z.D.v.i.h.f.h.h.h.i.:. .-. .-.*.-...*.*...*.*.*.-.                                                                                                                                                                                                                                                                                                                                        ",
"                                                                                                                                                                                                                                                                          k.h.h.h.f.h.a.f.p.h.a.f.h.v.|                 $.:.*.-.*.-...*...*.-.*.*...-.*.*...*.*...*.&.J F G J G F C J C F C F G F J F J C J G F C F G G G F G G F C F J V G C H G C z k k z k n k z k z k z k l k k l k n l k k k m k k l k M l k 9 i 9 e q e 9 i 9 e 9 i 9 e 9 e u e 9 t 9 e q e q e 9 e 9 e q e q e q e q 9 e 8 8 9 q 8 8 4 L n.F.n.Z.n.F.D.B.D.B.D.B.D.B.n.k.g.f.g.h.h.f.i.<...o.*.-.*...*.-.*.-...*.-.-.                                                                                                                                                                                                                                                                                                                                        ",
"                                                                                                                                                                                                                                                                          M.g.f.a.a.h.g.f.h.f.a.a.f.k.|                  .-.*...*...-.*.-...*...*.-...*.*.*.*.*.-.*. .J F C G V G G F G G G J C G V G C F G V J G C G J C G J C J G C G G V G G G V z k k k z k k k k k k l k k M k k z k k k M k z k k z k k k k 9 e q e q e 9 e 9 t 9 e 9 t u e 9 e q e q e u e 9 i 9 t 9 t 9 t 9 t 9 t e q 8 q e 9 t 9 t 8 W n.Z.n.Z.n.Z.n.Z.n.D.B.D.B.D.Z.f.a.h.h.f.h.h.i.:. .-. .-.*.*.*...*...*...-.:.                                                                                                                                                                                                                                                                                                                                        ",
"                                                                                                                                                                                                                                                                          k.h.h.f.h.f.h.a.h.a.f.a.h.M.]                 &.:.*...*.*.*...*.*.-.*...*.*...-...*...*.-. .J G F G G F C G H C F C F G C J G J V G G V G V G V G V G F J F J G C G H C C z k z k k k z l z n k z n k k k k k z k k k k k k k k k k k k t 9 i 9 e u e u e 9 t 9 t 9 e 9 t 9 t 9 t 9 e q e 9 e q e u e 9 t 9 t 9 q e q t e t q t 9 8 E v.Z.n.B.D.B.D.S.D.B.D.B.n.Z.n.v.i.g.f.g.h.h.i.<...o.*.-...-.*.o.*.-.*.*.*.-.                                                                                                                                                                                                                                                                                                                                        ",
"                                                                                                                                                                                                                                                                          n.f.h.i.g.a.f.a.f.a.i.h.f.n.|                  .*.*.-.*.o.*.-...*...-.*...-.*.*.*.*.*...*...J F G J C J F C G J C F G J F C F G G J V G J G J G H C J C G C F J V C F G V M k k n k k k n k z k k k z k j n k k M k j n z l z n j n z k q e 9 e q e 9 e u e 9 t 9 t 9 i 9 e q e 9 t 9 e q i 9 e 9 e q e q e u e 9 e t q e q e t 9 8 E v.F.Z.n.Z.n.Z.n.Z.n.D.B.D.B.D.k.i.h.h.h.h.f.i.:. .-. .-.*.*...*.*...*...-.-.                                                                                                                                                                                                                                                                                                                                        ",
"                                                                                                                                                                                                                                                                          z.h.u.h.h.f.h.h.f.h.a.f.h.k.|                 &.:.*...*.*...*.*.-.*...*.*.*...-...*.*.-.*. .J G V G F C G J V G G V G C G G C H C F G C F C F C G F C F G H C G G C F J C z k k k z k k k k k k k k k k n k z k k k n k k k k k n k k k e 9 t 9 e q e 9 e 9 t 9 t 9 e 9 e q e q e q e q e 9 e q e q e q e 9 e q e q 9 q t e q t 9 w U v.F.Z.n.Z.n.F.n.Z.n.Z.n.Z.n.B.v.u.h.g.i.h.h.i.<...o.*.*.*...-.*...-.*...-.-.                                                                                                                                                                                                                                                                                                                                        ",
"                                                                                                                                                                                                                                                                          k.h.h.h.a.a.i.a.h.f.a.a.f.v./                 ..-.*.*...*.-...*...*.-.*...*.*.*.-...*...-. .J F G V G V G V G V V G V F V F C G G C G G J G J F C G G J C G F C F G G G V z k k k k k k l z k z k k z k k k k k k k z k k z k k k z k k t q e q 9 t q e q e q e q e q t 9 i 9 e u e 9 t 9 t 9 t 9 t 9 e q t 9 t 9 e t q 9 e w 9 8 8 E B.G.Z.Z.S.Z.D.B.n.Z.B.B.n.Z.A.k.h.f.h.k.h.k.u.-.*.&.o.*.o.*.*...-.*...*.*.-.                                                                                                                                                                                                                                                                                                                                        ",
"                                                                                                                                                                                                                                                                          M.h.h.f.h.f.h.h.f.a.f.a.h.M.|                  .>...*.-.*.*.*...-.*...*.*.o.*...*.*.*.*.*. .~ F G G J G J G J J J R J E I J V C F C F C F C F G H C F G F C G G C F C J V k k k z k n z k k k k k m k k k k k j n k k j n k l k k l k z i 9 t 9 t 9 i 9 e q e u e 9 t 9 e 9 e 9 e q e q e u e 9 t 9 t 9 t 9 t 9 t 9 e q i e w t e w J f.M.v.v.v.v.v.Z.B.S.B.Z.n.B.n.h.u.i.i.i.u.i.u.;...*.*.*.*...*.-.*.*.*...-.-.                                                                                                                                                                                                                                                                                                                                        ",
"                                                                                                                                                                                                                                                                          j.h.h.h.i.a.h.i.h.h.a.f.h.k.|                 &.:.*.*...*...-.*.*.*.*...-.*.*.*.o.*.-.*.*...$. .$.} ( $.} *.<.<.w.0.w.0.0.} F G G G G G G J C G C G C J G H C F J C H G C n k k k k k k k k z n z k k z l k n k k z n k k k k M k k n k q q 9 q q 9 e q e u e 9 e u e q e q t 9 t 9 t 9 e 9 t 9 t 9 t 9 t 9 i 9 e 9 i j N M M M M M G _ ` ` ` ` ( ` <.v.v.g.v.h.f.g.=.! ) ) ) ^ ) ^ *...*.-...-.*.*...*.o.*.*.-.-.                                                                                                                                                                                                                                                                                                                                        ",
"                                                                                                                                                                                                                                                                          k.h.h.h.h.i.h.h.h.i.a.f.h.n.]                 &.:.*...-.*.*...*...-.*.*.*...-.*.*.o.*.o.*.-.*.*.*.*.*.*.*.<.h.h.a.h.h.k.h.-.J G G G G V G F J F C H G F C G F C G F G J V j n k k j n k k k k k k z k k k k z k k k k z n z k k k k z k i q q q 9 t 9 i 9 e 9 i 9 e 9 e q e 9 i 9 e 9 t q e q e 9 t 9 e q e 9 e q e i C C C G G C G G V V V V V V V ..h.h.h.h.h.v.h.^ M A V V V V J  .*.*...*.*...-.*.*...*...*.-.                                                                                                                                                                                                                                                                                                                                        ",
"                                                                                                                                                                                                                                                                          M.h.f.h.i.h.h.i.h.f.a.a.f.z.|                  .>...*.*...*.-...*...*...-.*...*.*...&.*.*...-...*.*.&.*.*.<.i.a.h.a.f.a.f.*.V V J F F G C G C J G G C J F J C J G C G J V M k k k n k k k z k j n k k k z k m k z k n k l k k l k k k k u 9 0 9 q 9 e 9 e u e 9 e q e q e u e 9 e q e q e q e q e q t 9 t 9 i 9 e 9 i V G G G C G C C C C C C V V G -.g.h.v.h.a.h.g.` A C C V F V J  .*.o.*...*.-.*...-.*...-.*.-.                                                                                                                                                                                                                                                                                                                                        ",
"                                                                                                                                                                                                                                                                          k.g.h.h.h.i.h.h.h.a.f.h.h.v.|                  .:.*.*.-.*...*.*.*.-.*.*...*.-.*.o.*.-...*.....-.*...*.*.*.<.i.h.s.h.a.f.h...C F F G J F J F G V G H G F C G F G H G V J C z k k z k k z l n k n k k k k n k z k k l k k k z k n k k z k i q q q q q q q 9 e q e q e u e 9 e q e q e q e 9 t 9 i 9 e u e 9 e 9 t q 9 i V G C F G G C F G C F G G C G -.h.a.a.h.f.f.a.} V C G G C G J ..*.*.-.*.*...*.-...*.*.*.-.-.                                                                                                                                                                                                                                                                                                                                        ",
"                                                                                                                                                                                                                                                                          n.h.f.h.i.h.i.a.f.a.i.h.f.z.]                 &.:.*...*...*.*.o.*...*...-.*...*.*...*...-.*...*...*.*.*.*.<.i.a.h.i.a.h.h.*.F F J F G C G C F J V G C J G J C F C J G J V j n k k z k k k k k z l k z k l k k k n z k z k n k z k k m k u q q q t q e q q q 9 t e 9 e q i 9 e q e q e q e u e 9 e q e 9 t q e 9 t 9 i C F J G C G F G G H V G C F G *.g.h.f.h.i.f.h.( F C V C C V J ..*...*.o.*.-.*.*.*...-...*.-.                                                                                                                                                                                                                                                                                                                                        ",
"                                                                                                                                                                                                                                                                          k.h.h.h.h.h.h.f.h.h.i.a.h.n.|                  .>.-.-.-.-.O.*.*.*...*.*...*.-.*.*.*.-...*...*.o.*.*...*...<.a.a.h.m.a.h.a.*.C G F F G V C G G C G G F C F C H G G F C J F z k k k k l n k z l k k k k k k k k z k k k k k k l k k z k k i q w q q w 9 e e e q e q t 9 e 9 i 9 e u e 9 i 9 e 9 t 9 e q e 9 t 9 i e 9 i V G C F G F G V G G G G G C G -.f.h.v.f.h.h.i.` N C C F G G J ..o.*.*.*.*...*.o.*.*...*.-.-.                                                                                                                                                                                                                                                                                                                                        ",
"                                                                                                                                                                                                                                                                          M.h.h.f.a.f.h.a.h.a.h.f.h.k.|                 -.>.,.-.-.-.=.:.*.-...*...-.*...*.o.*...*...-...*.*.*.*.*.*.<.i.h.h.h.h.h.i...F V V F V F V G V G H C J G J G C H C J G G C n k z n k z k k k k k M k k z k k k k k j n z k k z k k k k k q q q t 8 q 8 t 9 t 9 t e 9 t q e 9 e q e 9 t 9 e q e 9 t q e q e u e 9 e q i V G J G H C G G V J V G V F C o.v.f.v.m.f.k.h.` G C V C F F J  .*.-.*.o.*.-.*.*...-.*...-.-.                                                                                                                                                                                                                                                                                                                                        ",
"                                                                                                                                                                                                                                                                          k.f.h.h.a.h.f.a.f.p.i.h.f.M.]                 P ] I I I I ~ ( *.o.*.-.*...*.*.*.*...*.o.*...*.....*...*...:.h.h.h.h.h.h.h.>.^ ) ^ W ) ) ) J C G G F C F C F G G G F C J V M z n z M n z k z k k k k l n k j n k n k k k j n k k M l k k i t q i q t u e q 9 t 9 t u e 9 i 9 e q e q e q e q e q e q e q e 9 e q e 9 i V G C F C G F J G G G C G V G ..9.u.u.u.u.w.w.` G J J J J E E  .*...*.*.*...*...*.*...*.*.-.                                                                                                                                                                                                                                                                                                                                        ",
"                                                                                                                                                                                                                                                                          n.h.h.h.f.a.h.i.h.h.a.f.h.n.|                                 :.*.*. .*.*.*.o.*.o.*.*...*.o.*.o.*.*.*...*.q.n.Z.n.Z.n.Z.n.n.f.v.v.n.v.k.h.$.F V C G J F G J C H C J F C G V C V V C V Z N k k M k z k k n k z k z k z n k k k k k k k z g g g g g k k g 9 e e t 9 e 9 t 9 e q e q e q e q e q e q e q e u e u e q 9 i C F J C G H C G V J F J C G F J U L L J L L U ^ &. . . .&.&.&.o.o.-...-...*.-.*.o.*.*.*.-.-.                                                                                                                                                                                                                                                                                                                                        ",
"                                                                                                                                                                                                                                                                          k.h.h.h.a.f.h.a.f.h.i.a.f.k.|                                 =.-.-...*...-.*.*.*.*...-.*...*.*.-...*.*. .q.n.D.n.B.n.n.B.Z.F.F.D.S.B.G.B.*.C C G F C G V G G G V G G F G J V G F G V Z N k k l k k k z k k k k k k k k k M k z k z k k l k m k k M j k q 8 e t 9 t 9 t 9 i 9 e q e u e 9 i 9 e q e u e 9 e 9 e t 9 i V G G F G C F G G V G G F G G F F V F F C F F  .-.-.-.-.-.*.*.o.-.*.*...*.*...*.*.*.o.*.*.-.                                                                                                                                                                                                                                                                                                                                        ",
"                                                                                                                                                                                                                                                                          M.h.h.f.h.a.f.h.a.h.a.h.h.M.]                                 ;.o.*. .*.*...*...*.-.*.*.*.-.*...*.*...*...q.n.A.A.A.F.A.n.D.D.Z.n.Z.B.B.M.*.V C G H G J G V G J F G H C V F V F C F F Z N k k z k z n l k k z l z k j n k k k l k k m k k k k k k k z g q 8 e 9 t 9 t 9 e 9 t 9 e 9 e 9 e 9 t 9 t 9 e 9 t 9 t 9 t 9 i V G J C J G C J G J V J C J C J G G G G V F J ^ -.*.....*.*.-.*.*.o.*.-.*.o.*.*.o.*...*.-.-.                                                                                                                                                                                                                                                                                                                                        ",
"                                                                                                                                                                                                                                                                          k.g.h.h.i.h.h.i.h.f.i.h.f.n./                                 -.:.*.&.-.*...-.*...*...-...*.*.-...-.*... .6.C.Z.Z.n.B.B.B.B.A.B.n.n.n.B.n.$.C G V G C F C J G V G C G C G G C G H C J C M M m k n k k k z n k k z k n z k z k k M k z k k M k k k n k g t q q t q q 9 q q q e t q e t t 9 t 9 t 9 t 9 t 9 t 9 t 9 9 i C C F G V J F G V G G G F G F C F C J F C G J ( *.*.*.*.-...*.*...*.*...*.*.*.o.*.*.*...*.-.                                                                                                                                                                                                                                                                                                                                        ",
"                                                                                                                                                                                                                                                                          n.f.h.f.h.a.f.h.g.a.a.f.h.k.|                                 -.*.-.&.*.o.*.*.-.*.o.*.*.*.o.*.*.*.*...*.&.0.D.B.D.B.Z.Z.B.n.D.n.n.D.n.B.n.$.G F G G J C G F C G J V G H G H G V G F G G C n z n z k k k k l k k n z k k k l k k k k k z k k z k k z l i q q t q q t 9 i 9 t 9 e t e 9 t e q e q e q e q e q e q e q i V J G J G V G C J G H C J C J G J F C G F C G ( ;.*.*.*...*.*...*.*.-.*.-...*.*.*.o.*.*.-.-.                                                                                                                                                                                                                                                                                                                                        ",
"                                                                                                                                                                                                                                                                          M.f.h.a.f.h.p.f.a.f.a.f.h.n.]                                 :.-.*.&.-.*...*...*.*...-...*.*.o.*...*.....7.n.D.S.B.n.B.B.B.D.D.n.D.n.B.n.&.C G C G V G F J C F G J G C G V G J G J V G V n k l n z k k z k k z k k k k k k M k z k k k l k k l k k k i t q 8 q w q e e 9 t 9 t 9 t t e q e q e q e q e q e q e q w i V G C F C J F G V G C G F F C F C G F C G F G ( -.*.*.*.*...*.*.*...*...*.*.-...*.*...*.-.:.                                                                                                                                                                                                                                                                                                                                        ",
"                                                                                                                                                                                                                                                                          z.g.h.h.a.f.h.a.h.f.a.h.f.k.|                                 -.-.*.&.*...-.*.*.*.-.*.*.*.-...*.*.-.*.*. .q.D.S.Z.S.F.S.B.S.F.B.n.B.n.B.n.$.F C F G G G C G H G C F J V G G G V G C G G V f v c z n k n m l k n z k z k z k k l k k l k k k k z k k l g q 8 i q 8 q 8 9 t 9 t 9 t e 9 t e q e 9 e q e q e q e u e 9 i V G C J F G C J G F J F C G F C F C F V C V G ^ -.*.*.*.-.*.*...*.*.-.*.o.*.*...-.*...*.*.-.                                                                                                                                                                                                                                                                                                                                        ",
"                                                                                                                                                                                                                                                                          M.h.i.h.u.h.f.a.f.a.a.f.h.M.|                                 :.;.*.&.-.*.*...-...*...-...*.*.o.*...*...*.-.w.0.w.w.w.w.0.a.n.B.n.n.Z.n.n.$.G G C F C H G G C H G C F G G H C J G H G H V M M M M M M N N k k k M k k k n k k k k z k n z k n k k k l g i i i i u i i i 9 e 9 t e q e 9 t 9 t q e q e u e 9 e 9 t 9 i V J F C G C F G C F C G J V G J U W U ) ! L ! $.*.*.*.*.*.*.*.*...*...*.*.*.o.*.*...*.o.*.-.                                                                                                                                                                                                                                                                                                                                        ",
"                                                                                                                                                                                                                                                                          f.h.h.h.h.h.h.h.h.h.i.h.h.f.|                                 ,.*.-.&.*...-.*.*.*.*.-...*.*.*.*.*.-.*.-.-.} R G J J J J K <.B.D.Z.Z.n.S.n.*.C F G G G C H C G C G F C J C G G V G C G C G G F C C C C C N k k k z k k z k j n z k k k k k z k k z k l k l g g g g z k a q e e t 9 w t t e q e u e 9 e 9 e q e q e 9 i V G C G F G J V G G H C G F J ^ *.*.*...*.*.&.*.*.*.-. .-...*.o.*.-.*.o.*...*.*.-.*...*.-.-.                                                                                                                                                                                                                                                                                                                                        ",
"                                                                                                                                                                                                                                                                          M.h.g.i.h.i.f.a.f.a.a.f.h.M.]                                 -.*.-.&.-.*...*.o.*...*.*.*.o...-...*...*.-.( C G F G F F F :.B.B.Z.D.n.F.n.*.C G C F J V G G H G V J G F C H G J V J G H C J G H C H F G V k z k n z k k n k k k n k k k k l k n l k k k k k l n k N z g 9 8 t 9 t t 9 t 9 e 9 e 9 i 9 i 9 e q e q 9 i V J G H C F C G J C G G F C G ^ ..-.*.-.*.*.*...*. .*.*.*.*.-.*.*...*.*.*.-.*...*.-.*...*.-.                                                                                                                                                                                                                                                                                                                                        ",
"                                                                                                                                                                                                                                                                          M.h.f.h.h.h.h.h.f.h.i.a.h.n.|                                 ,.*.*.&.*.*.*.-.*...*.-...*.*.*.*.*.*.-.*.*.} C C F F G F G ,.B.B.B.D.B.B.n.$.F C G G C G J F C G G F C J G G V G G F C G G V G C F V F C V k k z k k k z k z n k j n z l n z k z k k z k l k k k k z k a q 8 e t 9 t e 9 t q t 9 e 9 e 9 e u e 9 t 9 i C F C G G J F G F C F J C F J ^ *.*.*.-...*.*.*.-.*.-.*.-...*...-.*.-...*...*.-...*...*.-.-.                                                                                                                                                                                                                                                                                                                                        ",
"                                                                                                                                                                                                                                                                          M.g.f.a.h.i.h.i.p.h.a.f.f.k.|                                 -.-.=.&.-...-...*.*...*.*.-...*.o.*...*.o.*.^ J F C H G G F >.B.B.Z.n.B.n.n.$.G G V G H G V G G H C G F C F J C F C J G H C J F C F C G G N n k k k z k n k l k k n k k z k k k k k k l k k k z k k z k a q t q e q e q t 9 e q e q t u e 9 e q e q e i V J G V G C J C F G C F G C G ^ *.o.*...*.*.o.&.*. .*.*.&.*.-.*...*.*.-.*.-...*.*.o.*.*.-.-.                                                                                                                                                                                                                                                                                                                                        ",
"                                                                                                                                                                                                                                                                          f.h.h.i.h.a.f.h.h.f.a.h.h.M.]                                 :.-.*.&.-.*.*.*.*.-.*...-.*.*.*.*.*.-.*.*.-.} J C F C F G G <.B.F.B.D.B.S.n.*.V G G V G C G J C F G H C G G C G J G V G C G G C F G V C C M n z k k k k k z k z k k z k k k z n j n z n k k k k k k z a g q q t 9 i 9 e 9 i 9 e q e 9 e 9 q 8 e 9 9 8 a F C G G H C F G C F G G G V G ^ *.*...*.*.*.*...*.-.*...-...*.*.-.*...*...*.*.-.*.*...*.*.-.                                                                                                                                                                                                                                                                                                                                        ",
"                                                                                                                                                                                                                                                                          M.h.h.h.h.h.a.i.a.h.i.h.f.n.|                                 >.;.-.-.*.-.*.o.*...*.*...*...-.....*...*.-.( F C G C F C F -.D.Z.n.A.n.B.n.$.M F C F V F V G V G C G G H C H G V G G G H C F J C F C V G N n k k M k z k k n k z l k k M k l k n k k z k z k k z k a z e 8 q t 9 9 t 9 q e q e q t 9 t 9 e q 9 t 9 8 i V G F C G G C F J C G V G G V ) -.o.*.*.*.*...-.*...*.-.&.*...*...*.-...*.-.*...*.-.*...-.-.                                                                                                                                                                                                                                                                                                                                        ",
"                                                                                                                                                                                                                                                                          M.g.f.h.i.h.f.h.f.h.a.i.h.k.|                                 ,.*.*.&.*...*...*.*.o.*.-.*.*...*.-.*.-.*.-.( G C G C F V G :.S.F.B.A.B.n.n.$.G V G C G C F C G F J V G G G F C G F J C G G G V G F C C C M M k k z k n k k l k k k M k k k z k z k k k k k M l k z z a d q q q t q q t 9 q e q e 9 t 9 t 9 9 e 9 q 8 g C J G J V J F C G F C F C F G ^ *...-.*.*...*.*.*.-.*...*.-.*.-.*...*.*.*.-.*.-...*.*.*.*.%.                                                                                                                                                                                                                                                                                                                                        ",
"                                                                                                                                                                                                                                                                          k.h.h.h.i.h.g.i.a.f.a.h.f.n.{                                               ! *.-.*...*.o.*.-...*...*...*.&.^ ! ! ! ^ ! ! <.D.Z.n.B.D.B.n.e.-.:.,.O.:.<.-.L F C G G V J C J G H C G V G H C J F J V G C M n k k k k z k k z k z k k k j n k k k k j n z k k k k k z z k a i u g i a s i 9 q t q q q 9 g k k k k z k M V G V G F C G J ! ^ ! ^ ^ ) ^ ( -.*...*.*.*.*.o.*...*.-...*...*.*.*.*.o.*.-.^                                                                                                                                                                                                                                                                                                                                                       ",
"                                                                                                                                                                                                                                                                          n.f.h.h.a.f.h.h.h.h.i.h.h.k.|                                                 >.:.*.*.*.*.*.*.*.*.-.*.*.o.*.*.*.*.-.*.*.-.e.Z.B.Z.n.Z.n.n.n.n.B.n.D.n.A.n.) V J F C G G F G C G G G G V G G F C F J V G M z k k k k k k k k l k k k n k z k M k k n k k l k k k k z k k f z k k k k k a 9 q q t 8 8 q N C J G G G J G G G V G C F F ! *.*.*.*.*.*.*...*.o.*.*.*...*.*.-.*...*.*.*.-...-...*.*.:.>.                                                                                                                                                                                                                                                                                                                                                        ",
"                                                                                                                                                                                                                                                                          z.h.h.f.h.h.a.i.a.h.a.i.f.k.|                                                 ;.*.*...-...-...-...*...-.*...*.o.*.*.-.*.&.e.D.B.A.B.B.B.F.A.D.A.D.A.D.S.n.) C G C H G V G H G V J V J G J V J G H J V C M N k k k z k k z k k k n j n k k l k k k z k z k k z k k k f z k k k l k z a p 8 q q q q t q C C F G G F C F J V G G F C C !  .-.....*.-.*.*...*.o.*.*.*.*.o.*...-.*...*...*.*.-...-.-.>.                                                                                                                                                                                                                                                                                                                                                        ",
"                                                                                                                                                                                                                                                                          M.h.h.h.i.h.f.h.h.f.a.h.h.v.|                                                 =.*.*.*...*.*.*.*.*.-.*...*.*.-.*.*.o.*.*.&.w.B.D.B.D.B.n.A.D.A.F.S.D.A.F.c.) V J F G J G C G V G G F C F C G V G H C F G M z k k k k k k l n z k k k z k z k k k l k k k n k k k k z k z k z k k k z a a 9 t q q t q q M C G F G F J C G G V G C F G W  .*.*.*...*...&...*.*.*.*...*.*...*.*.-.*.-.*...*.*.*.*.-.>.                                                                                                                                                                                                                                                                                                                                                        ",
"                                                                                                                                                                                                                                                                          k.h.h.h.h.f.h.a.f.a.i.h.f.M.]                                                 =.-...-.*.*...*.o.*...*.-...*...*...*.*.o.&.e.Z.Z.n.B.D.D.B.B.B.D.Z.F.D.F.v.^ S G C F C F G J C F J C J G H G J C F J V C N M g k k k z n k k k k z n k k k n k z k k n j k z k k z k z k f k k l k k z i 9 q 9 t 9 q t V C F G G F G F G V G G V G V ! &.*...*.-.*. .*...-. .*.*.*...-.*.*...*...*.-.*.o.*.o.*.*.:.                                                                                                                                                                                                                                                                                                                                                        ",
"                                                                                                                                                                                                                                                                          n.f.h.f.a.a.f.a.h.g.i.h.h.j.|                                                 -.*.*...*.o.*.*...*.*...*.*.-.*.*.-...*.*.*.e.D.B.S.n.n.D.D.A.B.D.F.D.D.D.b.) G V J G G J V G F C G F C F C G G H C F G F N z k k k k l k z k k k l k k l k k k k n k k n k k k k k k f k z M k g k k k i 9 9 q 9 q 9 q C C F G G V G C H G C F G C G L ..-.*...*...*.*...*...*.*.*.*.*...*.-...-...*.*...*.*...-.>.                                                                                                                                                                                                                                                                                                                                                        ",
"                                                                                                                                                                                                                                                                          z.h.h.h.f.a.h.f.h.f.a.i.h.k.|                                                 >.*.o.*.*.*.-.*.-...-.*.o.*...*.o.*.*.o.*.-.e.Z.D.B.F.F.D.F.n.F.D.B.D.B.D.n.) F G G H C G G J C F J G J G J V G G H C H C M M g k k k z k k k l k k z k k z k k z k z k k k z k n z k n z d k z n k k z 9 8 q q 8 8 q 9 M C G F G G H G C F G J V G V ! &.*.-.*.-.*.*...-.*.*.o.*.o.*...-.*...*.*.*...-.*.-...*.-.1.                                                                                                                                                                                                                                                                                                                                                        ",
"                                                                                                                                                                                                                                                                          M.h.h.h.h.f.h.a.h.i.h.h.h.M.{                                                 -.*.*.*.o.*...*...*.*.*.*...*.*.*.*.*.*...*.w.M.D.n.B.n.n.b.D.Z.A.D.A.B.A.C.) C G C F G H C F G G C F C V G J V G V F C G M j k k k k k n k k k M k k k n k z k k k k j n k k k k k n k z v z c z k z l i q q q t u e i V C F G G F C F G C G V G G F )  .*.-...*...-.*...*.*.*.*...-.*...*.-.*...-.*...*...*.-.*.>.                                                                                                                                                                                                                                                                                                                                                        ",
"                                                                                                                                                                                                                                                                          k.g.f.h.i.g.i.h.f.h.a.i.f.n.|                                                 *.-.*...*.*.*.o.*.*.o.*.-.*...-...-...-.*...:.e.0.0.6.7.0.q.h.A.Z.Z.Z.D.F.n.^ F F J C G C G J C F J C G H G G G H J J V C M M k k k z l k k z k k k k z k k k l k z n k k z k j n z k n M C V N V N V M M M M M M z M M V C F C F C F J F H C J F C C !  .*.*.*.-.*...*.*.o...-.*.*.*...-.*.*...-.*.*.-...-.*.*.-.:.                                                                                                                                                                                                                                                                                                                                                        ",
"                                                                                                                                                                                                                                                                          n.f.h.h.h.h.a.h.a.f.a.h.f.k.|                                                 -.*.*.-.*.o.*.*.*.*.*...*.*.*.*.*.*.*...*.*...*..... .$.} *.u.F.A.D.Z.D.Z.v.^ D G C H G H C F G C F G F C G V G C F V J F N M g k k k k z k k k k z n k k j n k k k k z k k n k k n z k M C C C C C C C C G G C H G F C G F C G G F C F C H G F J G V ! *...*...*.*.-...*.*.*...*.o.*.*.*...-.*.*.*...*.*.*.*.o.*.>.                                                                                                                                                                                                                                                                                                                                                        ",
"                                                                                                                                                                                                                                                                          M.h.h.h.i.h.f.a.h.i.a.f.h.n.{                                                 >.*...*.*.*...-...-...-.*.o.*...-...-.-.*.o.*.*.&.*.*...} *.u.D.B.D.B.D.D.v.^ F G F G C G F G J F J C J F C J F C J H G C M N k k z k k k n k k l k k j n k k z k k k k n l z k z k n z M C C C C C C V G C G G G J C J V G F C F C F H G H J C G V G L ..*.*.-...*...*.-...-.*.*.*...-...*.*...-.*.-...*.o.*.*.-.>.                                                                                                                                                                                                                                                                                                                                                        ",
"                                                                                                                                                                                                                                                                          z.h.h.f.h.i.h.i.h.h.a.h.f.k.|                                                 >.-.*.-.*.-.&...*.*.*...*.*...*.*.*.-.*.-.&.*.o.*.*.-.*.&.-.i.Z.D.A.D.n.F.c.( F H C G F J C V G C F G C J F G G H V G V G M z k k k k M l z k k k M k n k z n k k M k l k k k k k j n k M C C C C C C C C G V G V G F G G V G C G F C F J V G F G C F W &.*...*.-...*.-.*.*...*...-.*.*.*.-.*.*.*...*.*.*.*...-.*.:.                                                                                                                                                                                                                                                                                                                                                        ",
"                                                                                                                                                                                                                                                                          z.h.h.h.a.h.f.a.h.f.i.a.f.v.|                                                 >.:.*.&.&.&.*...-...*.*.o.*.*.o.*...*.-.*.*.&.*.o. .-. .&.-.a.D.n.D.D.n.F.n.^ V G F J C F G G H G C F G C G C F G J F J V N M k k k k k k k z k k k k z k k k k k l k k k z k M k n k k M C C C C C V C G G G J G C G H C G G F C G V G H C H J C F G ! ..*.-.*.*.*.*...*...*.-.*.*...-...*.o.*.-...-...*.-.*...-.;.                                                                                                                                                                                                                                                                                                                                                        ",
"                                                                                                                                                                                                                                                                          v.f.f.h.f.i.f.i.i.f.h.h.g.z./                                                 ;.*.-.*.o.*.*.*...-.....*.o.*...*.-.*.*...-.&.&.-.&.-.*...-.u.D.D.B.B.V.S.n.^ V V V V J G F H F H G C C G F G J V J V G G M n n n k n M k n n k z k l k k n k l k k k k k k z k z n n n M C C V V C F G V G C F C H C G F C J G F C J V G G G C F C C ! &.*...*...-...-.*.-...*...-.*.*.*.*.-.*.*.o...*.*.$.*.*.*.=.                                                                                                                                                                                                                                                                                                                                                        ",
"                                                                                                                                                                                                                                                                          N.N.k.z.k.f.z.i.h.f.g.h.h.M./                                                 >.*.*.o.*.*...-.*...*.-...*...-.*...*...*.&.-.&.-.&.-.*. .-.a.B.D.B.B.Z.S.v.W M F F V F F F C J G G C C G C G V G G G G C M M n M n d n n k k k k k k k k k k k k g k l k k k k d n n n M G F C H G C F C F G C F G F G J G V G C F G C F C H G G F C ! } -.*.-.*.*.*...*.*.-.*.*.*...*.*.*.&.-...-.o.*.*.*.*.=.-.1.                                                                                                                                                                                                                                                                                                                                                        ",
"                                                                                                                                                                                                                                                                          e.3.<.9.9.8.w.i.i.f.a.h.f.M./                                                 >.-.*.*.*.-.*...*...-...*...-...*.*.-.*.-.-. .-.&.-. .-...*.p.S.D.B.B.D.B.c.' J L L L E L L G F J C G C C G C G C F C F G M v n c k n f n f n z k z k k l n k k l k k l k z z z z M n M M G F G F G V G G J V G J V G C F C J F J C F G G G C F C G V ! *.*.-...*...-.*.-...*...-...*.-.*.o.*.o.*...o.^ ~ ^ ^ ^ ^ $.                                                                                                                                                                                                                                                                                                                                                        ",
"                                                                                                                                                                                                                                                                                        +.k.h.f.g.h.M.|                                                 :.*.*...-...*.-...*...*.o.*...*.*...*...*.&.-.&.-. .-.*...-.w.v.h.h.h.f.k.f.i.h.c.c.c.c.v.9.L V V G G V G G G F G G F H G F G G F C V C C b d k k h k k z v k k g l k k z C C V C V G F G G V J V J G J C G G G G J V J F G F G V G J F H C H G J G V E  .*.*...-.*...*.*...-.*.*.*.-.*.-.o.*.-.-.>.}                                                               Y r.w.9.9.9.p.X.                                                                                                                                                                                                                                                                                        ",
"                                                                                                                                                                                                                                                                                        @.M.f.h.h.h.M./                                                 -.-.*.*...*.*...*.o.*...*...-.*...-.*.*.o.*.&.o.&.-.&.o.&.*.w.v.h.h.g.k.h.h.B.F.F.F.F.F.F.a.E C J G F G G G G G G C F H C G G C C V C C V M d j k k z k d M k k k k k k M C C C H G H G V J F G G C F G F G V J V G F C H C H G J F C V G H G C F G F ! ..*.-.*.*.*.-...-.*...*.-.....*.-.-.*.-.*.:.^                                                               :.G.G.G.G.G.G.u.                                                                                                                                                                                                                                                                                        ",
"                                                                                                                                                                                                                                                                                        +.z.f.g.f.h.M.|                                                 :.*.-...*.*.-.*.*...*.o.*.....*.*...*.-.*.&.-.&.&.-.&.o.*.-.w.k.h.h.h.a.h.g.n.Z.D.D.D.D.F.p.E V V C C V G G G C F G H H H V G F G C C C C M d k z k k k M M k k k h k k M J V C H G H V H G H V J G V J C F G G G J V F V J F C G C F H G H J F J C V E ..*...*.o.*.*.*.*.*.-.*...*.-.*.-.*.o.*.-.:.[                                                               @.G.F.B.Z.F.G.9.                                                                                                                                                                                                                                                                                        ",
"                                                                                                                                                                                                                                                                                        +.k.h.h.g.h.M./                                                 ;.-.*.*.-...*...-.*...*...-.*.o.*.-...*...-...-.*.o.&.*. .*.w.h.h.h.f.h.a.v.n.Z.D.D.F.B.F.p.J V G C C G C C V G G G C G J F C F C V V C V M f k k k k z d M k k k g k k M C C C G C G G C F C G F J G V G J C H C F C F J F J J F G V G H C V G C F G !  .*.-.*.*...-...*...*.*.-.*.*.*.-.o.*.-.:.:.]                                                               X.F.B.B.n.D.F.9.                                                                                                                                                                                                                                                                                        ",
"                                                                                                                                                                                                                                                                                        @.k.v.f.f.h.v.|                                                 -.*.o.*.*.*.-.*...*.-.*.*.*.*.*.*.*.*.-.*.*.*...*.*.-...o.*.w.v.h.h.a.g.h.a.B.D.D.B.D.D.F.p.J V F C G V G G G F G C F V V F J V F C V C C M n k k k k k k M g k k l k k M C G C G F C F G J G J C F C G F C F G G G F C H C H C J G H V G H J G J G C ! *.*...*.o.*.*.*.o.*.-...*...*.o.*.-.-.*.-.:.]                                                               +.H.B.D.B.D.G.9.                                                                                                                                                                                                                                                                                        ",
"                                                                                                                                                                                                                                                                                        @.k.v.f.g.h.k./                                                 -.-.*.*...-...*.-...*...-...-...-.....*...-...-.*...*.-. .-.w.h.h.f.h.h.h.h.B.Z.D.n.B.Z.F.p.L F F G F C G V H G F J C H G H C H C J C C C M k k l k l k n n n l g m g m m G V C C G G G V G V G G G G V G J C F C F C F J F C F G J C F J V F C F J V ! *.-.*.*.*...-...*.*.*.*...-.*.*.-.-...-.:.:.]                                                               +.F.B.n.Z.D.F.9.                                                                                                                                                                                                                                                                                        ",
"                                                                                                                                                                                                                                                                                        +.k.v.f.h.h.M.X.                                                >.-.*...*.*.*...*.*.-.*.*.*.*.*.*.*.-.*.*...*.*.-.*.*...*.-.e.h.k.a.i.h.h.h.n.n.D.Z.n.F.S.p.J V B V V F V G H J C V G H C H F J V C C C C M n k k k d k n n g n k k k n M C G F C F G G G J F J V G J G J G G G J F C Z V F F V C F C C F G F V G V V U *.-.-.*.-.*.*.*.-...*...*.*...-.*.-.*.-.*.:.]                                                               +.H.B.D.D.n.F.9.                                                                                                                                                                                                                                                                                        ",
"                                                                                                                                                                                                                                                                                        @.k.v.f.g.h.k.|                                                 >.-.o.*.-...*.*...*...*...-...-...*...*...-.*...*...-...o.*.<.a.t.r.w.u.w.i.n.B.D.C.B.D.Z.a.$.` ` ` ` ` ` W V C V J V J F J V G V G V G C M M M M z M M M N M M N M M N M G V G C G V G V G C G G V G V G J V G V G C C K U L L L L E R J U L L L E L ) ..*.-...*...-...*.*.-.*.-.*.*.-.*.o.*.o.-.:.]                                                               8.F.n.D.D.Z.F.9.                                                                                                                                                                                                                                                                                        ",
"                                                                                                                                                                                                                                                                                        +.k.v.f.h.h.M.{                                                 <.:...*.*.*.-...-.*.-.*.*...*.*.-.*.-.*.*.*...*.-.*.*.o.*.*.-.o.:.-.:.-.o.8.c.F.D.n.Z.n.F.n.n.v.v.v.v.v.k.<.K C C C F V G V G H V H H H G G G V G C G C G G G G C G C G C G J V G F F J G V G V G J G J V J G G J G F U  .o.*...*.*.$.%.o.o...*...*...*.*.*.*.*.o.*.*.*...-...*...-...*.*.o.&.-.*.:.]                                               D v.x.g.g.x.g.i.n.A.B.B.B.D.G.9.                                                                                                                                                                                                                                                                                        ",
"                                                                                                                                                                                                                                                                                        @.M.h.h.g.h.k.                                                  >.-.*.*...*.*.*.*...*.o.*.-.*...*...*...*.*.*.*...*...*.o.*.o. .*...*.....o.n.D.D.n.Z.n.Z.D.B.D.F.A.F.Z.F.0.G V C F C J V J F C G G C G C G G G C G V H V G G V G F G G F C C G C G F G V G G F C F C F G J V G V J F K  .-.o.*.*.-.*.*.-.*.-.*.*.-.*.*.*.o.*.*.*.*.o.*.*.*.*...*.*.*.o.*.-...-.-.:.]                                               I G.F.F.F.F.G.G.F.D.B.n.B.n.F.9.                                                                                                                                                                                                                                                                                        ",
"                                                                                                                                                                                                                                                                                        #.k.h.f.a.f.v.                                                  ;.&.*.*.*...*...-.*.*.*...*...*.*.*.*.*...*...*.*.*.-...-.......&...*.o...#.v.S.D.D.n.D.n.B.D.B.n.Z.n.S.S.q.J C C G G G G C G G V G V G C F C F C G V G G V C C H C H C J G G V G V G G G H C J G G V F V G G F G G F I  .-.o.*...*.*.*...*.*...*.*...*...*.-...*.o.*...-...*.-.*...*.-.-.*.o.*.:.:./                                               K F.A.A.B.D.Z.B.B.D.D.n.B.n.G.9.                                                                                                                                                                                                                                                                                        ",
"                                                                                                                                                                                                                                                                                        #.k.h.h.g.h.k.                                                  ;.-...*.*.*...o.-.&.-.&.-.*.-...-...*.*.*.*.*...*...*.*...-.*.*.o.-.-.-.*.:.c.F.D.n.Z.n.Z.n.n.D.B.D.n.B.D.<.G F C H G V G H C F G C G C G C G V G V G C C C G C G G C G H G H C H G C F C G G V G J C H G H F G V F F J  .o.*...*.o.*.&.*.-...-.*.o.*.-.*.*.*.*.-.*.*.*.*.*.o.*.*.-.*...*.o.&.-.*.:.]                                               I F.D.n.n.D.F.B.Z.D.Z.n.A.D.F.9.                                                                                                                                                                                                                                                                                        ",
"                                                                                                                                                                                                                                                                                        @.n.h.f.h.h.M.                                                  -.*.-.*...*.*.o.&.o.&.o.*...*.*...*.*.*...*...*.*.*...-.*...*...*...*.*.o.,.v.S.D.D.n.B.n.D.Z.n.D.B.D.B.D.w.G V G C G J G G F J C G C G C G C F C G C G G C C C C G G V J V J V G H C G J V J G F C F C H C F G F G F J  .-.o.*.*.*.*...*.*.*...*.*.*...-...*.o.*...*.o.*...*.*...*...-.*.o.*.-.-.:.]                                               I F.A.Z.B.D.F.Z.D.Z.D.D.S.D.G.9.                                                                                                                                                                                                                                                                                        ",
"                                                                                                                                                                                                                                                                                        #.M.h.h.h.f.M.                                                  >.-.*.*.*.*.-...-.*.o.*.*.-...-.*.*.*...*.*.*...*...*...*.-...-.*.-.*...o.:.v.n.F.n.D.D.B.n.n.Z.n.D.B.B.Z.0.J H F G V F V C G G C F C G V G C G C V G V C G V F C V C F C F V J V C J F G G C J G H C F G H C F C F C G  .*.-.*.-.*.-.*.-...-.*.-...-.*.*.*.-.*.*.*.-.*.*.-.*.o.*.-.*.-.-.:.-.-.:.:./                                               U F.A.n.n.Z.S.B.F.D.F.F.Z.F.F.9.                                                                                                                                                                                                                                                                                        ",
"                                                                                                                                                                                                                                                                                        6.N.k.f.n.f.N.                                                  1.-.;.:.-.*.*.*.-.*.*...*...*.*...-...*.*...*.*.*.*.*.*.o.*.*.*...*...-.*.,.f.Z.D.D.B.B.D.n.Z.n.Z.n.D.B.B.<.G C V C F V H G V G C G C G C V G V G C G C G C G V G C G V V J V V C F G C H G F C F G C Z V F G C G G F J $.*.&.*...*...*.*.*...*...*.*.*.o.*...*.o.*...*...*.*.*...*.*.*.=.;.*.*.=.>. .                                              I F.A.Z.n.n.F.D.Z.F.G.F.F.F.G.y.                                                                                                                                                                                                                                                                                        ",
"                                                                                                                                                                                                                                                                                                                                                                    z  .*.*...-.*.-.*.-.*.*.*...*.*...*...*...*.*.*.o.*.*.-.*.*...-.v.B.n.n.n.n.n.B.B.n.B.D.n.B.B.e.&.$.$.$.*.*.$.W G G V G F V G J ) ! W ! ! ! L G V G C G C G H C H C H C J F C G C J C F G C U ! ! ! ! ! ! ) &.*.*...*.*.*...&.*.-.*.-.*.o.*.*.*.*.*.*.*.-.*.-...-.*.*.-. .                                                              I G.D.n.B.n.F.v.&.I I I I U L                                                                                                                                                                                                                                                                                           ",
"                                                                                                                                                                                                                                                                                                                                                                      ~ -.-.*.*...*...*...o.*.-.*...*.*.*.-.*...-.*.*...*...*.o.*.-.u.v.g.c.g.h.h.v.B.n.B.D.Z.C.D.v.i.i.i.i.i.f.u.$.G V G F G F J ) %.*.*.*.*.*.} J C V G C F C H V G H C F G C G H G F G C H K } o.*.*.*.*.*.*...*.*...*.....*...-...*...*.*.*.o.*.o.*.o.*...*.*.*...*...-.}                                                               U F.A.B.n.S.F.g.;                                                                                                                                                                                                                                                                                                       ",
"                                                                                                                                                                                                                                                                                                                                                                      ] >.*.*.o.*.*.-...*.*.*...*.*.o.*...*.-.*...*...*.-.*.*.*.*.-.u.v.a.h.h.a.a.c.B.D.Z.n.D.Z.B.M.f.v.h.f.h.h.h.*.C G G F G F J ` =.*.*.*.*.*.&.J F C F G C F C J C G H C F G V G C F C G F I } o.*.*...*.*.*.*.-...*...-...*.*...*.*.-...*...*.*.*.*.*.*.-...-...*.-.*.-.}                                                               K F.D.n.B.n.F.g.                                                                                                                                                                                                                                                                                                        ",
"                                                                                                                                                                                                                                                                                                                                                                      ~ >.-.*.*.*.o.*.*.o.*.o.*.*...*.-.*...*...*.-.*.*...-...-...-.i.m.h.g.h.h.h.v.B.D.D.B.D.n.B.n.h.a.h.g.f.h.f.*.V G F F G C G ^ *...*...*.*. .J F H C G J G G F G V G G C F G F G G F G F K } -.*...*.-...*...*.*...-...*.o.*.*.-.*.*.-.*.-.*.o.*.o.*...*.*.*.*.*...*.-.}                                                               I F.n.n.n.B.F.g.                                                                                                                                                                                                                                                                                                        ",
"                                                                                                                                                                                                                                                                                                                                                                      ] >.*.o.*...*.*.-.*.*.*...-.*.*...*.*.-.*...*.o.*.*...*.*.o.-.p.h.a.h.h.a.a.h.Z.n.Z.n.B.B.n.v.f.i.f.f.g.f.f.*.G G G F J V C  .o.o.o.-.*.*.} J C G F C F J C J F G F F F G F C F F G V F K  .o.*.*.*.*...$.*.&.*.*...*.*...*.-...*...*...*.*.*.*.*.*.-...*.o.*...-.*.:.}                                                               I F.F.D.B.D.F.g.                                                                                                                                                                                                                                                                                                        ",
"                                                                                                                                                                                                                                                                                                                                                                      ^ <.*.*.*.o.*...*...*.o.*.*.*.o.*.-...*...-.*.*.-...-.*.*.o.@.e.a.v.h.k.h.a.v.B.n.Z.n.n.B.n.k.h.h.v.h.f.h.g...C V F G F F G } -.-.o.o.*.*.*.J F C G J C F G C F C V G V G V G V G V G G G ^ -.*.*...*.*. .*.*.*.-.*.-.*.-.*...*.-.*.-.*.-...*...*.o.*.*.*.*.*.*.*...;.|                                                               I F.F.D.Z.n.G.g.                                                                                                                                                                                                                                                                                                        ",
"                                                                                                                                                                                                                                                                                                                                                                      ] >.-.*.*.*.*.-...*.*.*...*.*.*.*.*...*.*.*...*...*.*.o.*. .@.a.k.a.h.a.k.a.k.n.S.n.Z.B.D.n.v.g.h.h.g.g.h.g.*.F C G V G F J } *.o.*...*...} J G V G V G G V G V G V G V G V G V G V F V G ^ *.*.*.*...*.*.*...&...*.*.o.*.*.-.*...*...*.*.-.*.o.*.*...-...-.-.*.o.*.:. .                                                              ~ G.F.F.G.F.G.g.                                                                                                                                                                                                                                                                                                        ",
"                                                                                                                                                                                                                                                                                                                                                                      U *...} ..} } *...*...-.*.o.*.o.*...*.-...-.*.-.*.-.*.*.-.o.,.u.h.i.f.i.f.i.h.n.B.B.B.n.B.B.n.c.h.h.v.f.f.i.*.H Z V H C G K ( *.-.-...*.o.o.G G G G G H G J G J G G G G G G G G G G G G J $.&...&.*.*.*...-.*.-.*.o.*.*.*...*...-.*.-...*...*.*...o.o.o.-.&.&.....o.o.|                                                               K n.B.C.C.n.S.                                                                                                                                                                                                                                                                                                          ",
"                                                                                                                                                                                                                                                                                                                                                                                      } -.*.*.*...*...*.-...*.*.*...*.*...*...*.-.,.<.w.<.6.<.<.<.w.n.Z.D.Z.B.Z.D.B.n.v.n.n.n.n.v.w.-.-.:.:.-.:.*.*.-.*.*.....-...^ ^ ^ ^ ^ ^ ^ ^ ^ ^ ^ ^ ^ ^ ^ ^ ^ ^ ^ ^ ^ ^ )  .*.*.*.*.o.*.*.*...*.*.*.-...-.*.-.*.*...*.*.-...-...*...*.*.                                                                                                                                                                                                                                                                                                                                                                                                      ",
"                                                                                                                                                                                                                                                                                                                                                                                      } >.-...-.*.*.-...*.*.o.*.*.-.*.o.*.-.*...-.o.@.o...*.-.*. .<.n.D.D.B.D.B.D.Z.B.n.B.B.n.S.n.M.f.v.h.k.f.f.i.<.....*...*.o.o.*.*.*.*.*.*.*.*.*.*.*.*.*.*.*.*.*.*.*.*.*.*.*.*.*.*...*.*.*.o.*.*.*.o.*...*.*...*...*.-.*...*.*.*.*.o.*.:.$.                                                  M.k.v.f.v.k.                                                                                                                                                                                                                                                                                                                                        ",
"                                                                                                                                                                                                                                                                                                                                                                                       .:.*.*.*...*...*.*.*.*.-...*...*.*...-.*...*.....-.-.*.-.&.5.n.Z.Z.n.n.B.D.n.D.D.n.D.n.A.B.v.g.h.a.f.a.k.i.<. .-...o.o.*.*.*.*.*.*.*.*.*.*.*.*.*.*.*.*.*.*.*...*.*.*.*.*.*.-...*.*.o.*.*.*.o.*.*.*.-...-.*.-.*...*.o.*.-...-...*...*.}                                                 9.M.h.k.v.v.k.                                                                                                                                                                                                                                                                                                                                        ",
"                                                                                                                                                                                                                                                                                                                                                                                      } -.-.*.o.*.-.*.*.o.*...*.*.-.*.-.*.*...*.*...&.o...*.&.&. .5.n.Z.D.B.D.n.Z.D.B.D.B.Z.A.S.D.n.f.h.a.h.i.i.t.<.*.-.o.*.o.*.*.*.*.*.-.o.-...*.*...*.*.o.-.o.*.*.*.*.*.*...*...*.*.*.*.*.*.o.*.*.*...-...*.*...*.-.*.*.*...*.*...*...*.*.$.                                                9.k.a.h.a.h.h.                                                                                                                                                                                                                                                                                                                                        ",
"                                                                                                                                                                                                                                                                                                                                                                                      } >.*.*.-.*.*.-...*.*.o.*...*...*...-.*.o.*.-.-.&.o.*.*.-. .<.n.B.D.Z.n.Z.n.B.S.D.n.D.n.S.Z.v.g.h.a.i.f.f.i.<.} *...-...*.-.o.o.o.o.-.o.-.*.*.*...*.o.-.@.o.*.*.*...*.*. .&.*.*.o.*...-.*.*.o.*.*.*.-.*.-.*...*...o.*.*.-.*.*.-...*.*.$.                                                9.k.a.a.h.h.h.                                                                                                                                                                                                                                                                                                                                        ",
"                                                                                                                                                                                                                                                                                                                                                                                      } -.-...*.-.*.*.-...*.*.*.-.*.-.*.*...*.*.-. .-...*.o.*...-.5.n.S.D.n.Z.n.F.D.D.B.Z.n.Z.n.B.n.g.a.h.g.a.h.i.1...*.=.-.-.*...*.*.*.*.o.*...*.*.*.*.*...*.*.&.*.*.*.*...*.*.*.*...*.-.*.*...*.*.-...-. .*...*.-.*.*.*.*...*.o.*.*.....*.*.                                                w.k.k.a.a.f.k.                                                                                                                                                                                                                                                                                                                                        ",
"                                                                                                                                                                                                                                                                                                                                                                                      } =.:.*.-.:.*.-.*.*.o.*...*...*...-.*.-...*.-.&.-.*.*.*.*. .1.n.F.Z.n.B.B.D.B.D.n.Z.n.D.D.B.v.a.h.h.g.a.a.i.<.*.-.&.-.*.-.*.*.-...*.*.*.*.*.*...*...*...*.*.*...*...*.*.$.*.*.-.*...*.o.*.-...*.-...-.*.-.*...*.-...*.*.*.-.-.-.=.*.=.*.                                                w.k.h.a.h.h.h.                                                                                                                                                                                                                                                                                                                                        ",
"                                                                                                                                                                                                                                                                                                                                                                                      ! } ( } } } /  .*.-.*.*.-.*.-...*...*.*.*.*.o.*.o.*...-...*.<.M.B.B.n.M.n.B.B.S.D.B.F.n.n.B.v.f.h.h.h.h.i.i.:.*.&.&.*.-...*.*.*.*.*.*...*...*...-...*.*.*.*...*...-...*.%.*.*...*.-.*.*.*.*.*.*.o.*.o.*...*.-.*...*.*.*.&.} ( ^ } ^  .`                                               5 w.f.a.v.g.h.k.                                                                                                                                                                                                                                                                                                                                        ",
"                                                                                                                                                                                                                                                                                                                                                                                                      *.*.....*...*.*.-.*...-...*.-.&...*.-.*...*.,.p.v.h.h.f.h.f.n.B.B.D.B.D.D.B.v.h.a.h.i.h.h.i.<...*...*...-.o.*.*.*.*.*.*.-.*...*.o.-...*.*.-.*.*...-...*.%.*.*.*...*...-.....o.*...-...*.-.*...*.-...-.*.                                                    ^ ~ { ] ~ ..i.h.h.a.h.h.f.                                                                                                                                                                                                                                                                                                                                        ",
"                                                                                                                                                                                                                                                                                                                                                                                                      } -.*.*...*.*...*.-.*.*.*.-...-.*.*...*.-. .<.u.h.v.h.v.g.a.v.B.B.n.Z.D.n.Z.n.h.k.h.h.a.h.i.<...*.....*.o.o.-.*.*.*...*.*.*...*...-.*.*.*.*...-...-...-...*...*.-.*.*...*.*...-.o.*.o.*.*...-.*...*.*.-.                                                  N.l.M.l.M.M.f.h.a.f.a.f.h.m.                                                                                                                                                                                                                                                                                                                                        ",
"                                                                                                                                                                                                                                                                                                                                                                                                      *.*.-...*.-.*.-...*...*.o.*.*...*.-...*.*.o.,.a.h.a.h.h.a.g.f.Z.D.B.D.Z.D.B.v.h.a.h.v.h.v.i.<.-.&.-.-.*.o.-.*.*.*.*.*.*.-...*.o.&.....*.*.*.-...*...-...*.*.-.*...*.o.*.o.*.o.*...-. .-.*.*.*.*.-.*.-.*.                                                @.k.f.k.h.k.h.h.h.f.h.h.h.g.k.                                                                                                                                                                                                                                                                                                                                        ",
"                                                                                                                                                                                                                                                                                                                                                                                                      *.*.*...*...*.*...-.*.*.*.*.*.*.o.*.-...*. .<.a.h.h.h.h.i.h.v.n.B.Z.B.D.Z.B.k.v.a.h.f.h.h.u.<...*.....-.*.o.*.*...*.*...*.*.*...*...*.*.*.*.*...*.o.*...&.*.*.&.*.&.*.*...-...o.*.*.*.-...-.-...*.*.*.:.                                                2.k.k.a.h.f.h.h.h.i.i.g.h.f.v.                                                                                                                                                                                                                                                                                                                                        ",
"                                                                                                                                                                                                                                                                                                                                                                                                      ..-.*.*...-.*...*.*.o.*...-...*.*. .-.&.*.&.:.p.h.g.h.h.h.i.f.B.D.n.Z.n.Z.B.v.a.a.h.c.a.f.i.<...&.*...-...*.-.*.-.*.&.*.*. .*.*...*.*.*.-.*...*...-...-. .&.*. .*.&.*...o...-.-.*.-...*.-.*.*.-.-...*.:.                                                #.k.h.h.i.a.f.a.f.a.i.h.i.h.f.                                                                                                                                                                                                                                                                                                                                        ",
"                                                                                                                                                                                                                                                                                                                                                                                                      *.:.*.-.*.*...*...*.*.-.*...*.o.*.-.&...*...>.u.f.h.h.h.i.g.v.B.n.B.n.B.n.B.n.h.h.a.i.h.h.g.<...*.*...*.o.o.*.-.*...-. .-.*.-.&.-...-. .*.*.-.*.-.-.-.*.*.*...-.*.o.*.*.*.*.*...-. .-.&.o.&.o.&.o.&.o.:.                                                #.k.h.i.i.a.f.h.h.h.h.h.f.v.f.                                                                                                                                                                                                                                                                                                                                        ",
"                                                                                                                                                                                                                                                                                                                                                                                                      *.>.>.-.:.:.-.-.*.-...*.*.-.*.*...-.*.-.&.*.-.h.f.h.h.h.h.f.v.B.Z.Z.D.B.D.B.v.g.v.h.h.g.h.i.<...&...*.*.o.2.*. .*.&...&.*. .-. .&. .&.*.*.-.*.-...-...-...*.*.*.*.*.*.o.*.-. ...*.o...o. .o. .o. .o.*.*.                                                O.k.h.h.h.i.a.k.z.z.k.v.k.M.B.                                                                                                                                                                                                                                                                                                                                        ",
"                                                                                                                                                                                                                                                                                                                                                                                                      ~ ~ ~ ~ ~ ~ ~ } *...*.*.o.*...*.*.o.&...*.*.*.u.a.u.u.u.i.u.h.n.n.n.n.n.n.n.n.v.c.n.v.c.v.h.q.:.>.;.,.-.<.<.-.:.-.:.-.:.-.;.-.:.,.:.-.-.-.-.*.*.*.-.-...*.*...*...*...&.*.o.>.<.:.:.:.-.:.-.<.-.:.-.>.:.                                                <.k.f.h.a.f.i.u.8.2.+.#.2.2.#.                                                                                                                                                                                                                                                                                                                                        ",
"                                                                                                                                                                                                                                                                                                                                                                                                                    M =.-.*.*.*.*.*.o.*.*...-.*...-.*.-.-.-.:.,.o.0.f.g.f.f.h.f.h.n.B.M.B.M.M.n.B.v.n.C.C.n.n.n.n.i.a.i.a.i.p.i.p.i.i.i.a.u.i.i.0.*...-.o.*.-...*...*...*.....*.w.a.h.u.u.u.p.u.p.u.p.u.p.a.a.u.8.8.9.4.8.4.9.8.9.4.8.9.4.8.9.4.9.4.4.4.4.8.4.p.a.a.h.a.k.N./ +                                                                                                                                                                                                                                                                                                                                                     ",
"                                                                                                                                                                                                                                                                                                                                                                                                                      *.*.o.*.o.*.*.*.o.*.*.*.*.*.*...*.*.....o...<.u.f.f.h.h.a.h.v.B.n.Z.B.n.B.A.n.Z.D.Z.D.F.Z.n.h.h.h.h.h.h.h.h.h.h.a.h.i.h.i.0.*.*.*.-.-...*.o.*...-...*...-.u.k.h.h.v.h.h.h.h.h.h.h.h.h.h.h.k.k.v.M.k.v.k.k.v.M.k.v.M.k.v.k.k.n.k.M.v.k.k.h.h.h.h.a.m.M.]                                                                                                                                                                                                                                                                                                                                                       ",
"                                                                                                                                                                                                                                                                                                                                                                                                                      *.-.*.*...-...*.*.*.o.*.o.*...*...*...o.-.o.w.a.h.g.h.h.i.h.M.n.Z.n.Z.D.A.D.A.n.B.n.D.n.n.n.h.a.h.a.h.a.h.h.a.h.f.h.f.h.f.0.-...-...-.-...*...*...-.....-.r.m.h.h.a.h.a.h.a.h.a.a.h.h.h.v.h.v.h.h.v.h.v.v.h.v.h.v.h.v.h.v.h.h.h.h.h.h.a.a.a.h.h.h.h.z./                                                                                                                                                                                                                                                                                                                                                       ",
"                                                                                                                                                                                                                                                                                                                                                                                                                      :.*...-.*.*.*.-...*.*.*.*.-.*...*.*.o.-.o.&.<.i.h.h.a.h.a.h.n.B.B.Z.D.A.D.D.S.B.D.D.D.Z.n.n.h.a.h.a.h.a.f.h.f.g.a.g.h.h.h.0.o.-.o.-.-.o.*.*...*.*...*.*.*.r.h.f.h.a.h.i.h.i.i.g.i.h.h.k.f.h.f.h.h.h.h.h.h.a.h.a.h.a.h.h.f.a.f.a.f.h.a.f.h.i.f.a.f.k.k.[                                                                                                                                                                                                                                                                                                                                                       ",
"                                                                                                                                                                                                                                                                                                                                                                                                                      :.*.*...*...-...*.-...-...*...*.-...-...-.-.<.h.g.h.h.a.h.h.k.Z.B.n.F.n.n.D.S.B.Z.D.n.Z.B.n.h.a.h.i.h.a.h.f.a.h.f.a.f.g.f.w.o.&.-.-.-.*.*...*.*.*.*... .*.r.k.f.h.a.h.i.f.a.f.i.f.i.f.h.f.h.i.h.a.f.a.h.h.f.h.h.f.h.f.a.f.h.f.h.f.h.f.a.u.f.a.f.a.h.l.]                                                                                                                                                                                                                                                                                                                                                       ",
"                                                                                                                                                                                                                                                                                                                                                                                                                      >.*.-.*.-.*.*.*.*.*...*.*.*.-...*.*...*.&.-.<.h.h.i.h.k.i.s.v.B.B.D.B.n.B.n.D.A.n.Z.D.Z.n.n.k.a.h.h.h.f.a.h.a.i.h.a.h.a.a.0.-.-. .-.-...*.*.*...*.*...*.*.r.h.f.h.f.h.h.f.h.f.h.h.f.a.i.h.f.h.f.h.a.h.f.a.h.a.f.a.h.h.a.f.h.i.i.h.i.h.f.h.h.h.h.f.k.N.~                                                                                                                                                                                                                                                                                                                                                       ",
"                                                                                                                                                                                                                                                                                                                                                                                                                        >.:.>.*.-.:.*.-...-.*...*.*.*.*...*...*.&.1.i.a.a.a.a.i.i.M.n.B.n.Z.n.Z.B.n.B.n.B.Z.D.Z.n.h.a.h.a.a.a.h.a.h.a.a.a.h.f.h.q. .-.o. .o.-.......*.......} *.r.h.f.h.h.a.i.h.i.h.i.h.i.h.f.f.a.f.a.h.f.h.h.f.a.h.h.h.i.h.h.f.h.h.f.h.i.f.h.k.z.z.z.k.N.N.                                                                                                                                                                                                                                                                                                                                                        ",
"                                                                                                                                                                                                                                                                                                                                                                                                                                  M  .*.*.*.*.o.*.o.*.-...*.*.*.*.>.p.h.a.a.h.a.f.v.M.n.n.n.n.n.n.Z.n.B.D.B.D.Z.n.h.a.h.h.h.a.h.a.h.h.h.a.h.a.h.e.<.w.5.<.w.<.<.1.<.<.<.1.<.<.<.u.h.h.a.f.h.f.a.f.h.i.h.f.a.f.h.f.h.f.h.a.f.a.h.f.h.i.h.h.f.a.h.i.f.a.f.h.h.u.( I I I I I                                                                                                                                                                                                                                                                                                                                                           ",
"                                                                                                                                                                                                                                                                                                                                                                                                                                    ~ >.-...-.*.*.*...*.-.*...*...0.a.g.h.f.a.a.k.i.d.a.v.h.c.c.c.n.B.C.n.Z.n.n.B.h.h.a.h.h.h.h.a.h.a.a.h.h.f.a.h.a.i.a.a.i.a.a.a.i.a.i.a.i.a.i.a.h.h.h.a.h.a.h.i.h.h.h.h.h.h.a.i.h.a.f.h.h.h.h.h.f.h.f.k.h.h.h.h.f.a.f.h.M.9.>                                                                                                                                                                                                                                                                                                                                                                     ",
"                                                                                                                                                                                                                                                                                                                                                                                                                                    I :.-.*.*...-.*.-.*...-.*.-...<.f.g.f.a.h.h.a.a.i.a.h.h.f.h.g.n.D.n.n.Z.D.n.D.a.h.i.a.f.a.f.h.i.h.h.f.a.h.f.a.h.h.h.h.h.h.f.h.h.i.h.i.h.h.h.a.h.h.h.f.h.f.h.h.h.i.h.i.h.i.h.h.h.h.h.g.f.h.g.i.f.a.f.h.f.p.f.a.f.h.f.h.k.2.                                                                                                                                                                                                                                                                                                                                                                      ",
"                                                                                                                                                                                                                                                                                                                                                                                                                                    I >.*.*...-.*...*.*.*...*...*.<.f.h.g.s.h.h.h.a.i.h.g.h.f.h.h.n.B.D.n.Z.A.D.n.h.h.f.a.h.h.a.h.h.f.a.h.i.h.a.h.f.a.f.h.f.h.h.h.h.i.f.f.h.i.h.f.h.h.a.a.h.a.f.a.h.i.h.a.f.h.a.f.a.i.h.i.h.i.a.f.a.f.h.i.h.p.f.a.f.a.f.h.v.9.                                                                                                                                                                                                                                                                                                                                                                      ",
"                                                                                                                                                                                                                                                                                                                                                                                                                                    D >.-.*.*.*.*.*.o.*.-.*.*.-...<.i.i.a.d.i.a.a.a.h.g.f.i.v.c.c.n.S.A.D.D.D.Z.D.i.h.a.h.f.h.i.h.h.a.f.h.a.h.f.h.h.h.a.f.a.h.i.h.f.g.h.h.h.a.h.h.a.f.h.f.h.h.h.i.h.h.h.h.h.a.f.h.h.h.i.h.a.h.h.g.i.a.f.h.i.i.h.g.i.h.i.h.k.8.                                                                                                                                                                                                                                                                                                                                                                      ",
"                                                                                                                                                                                                                                                                                                                                                                                                                                    I :.-.*.o.*.-.*.*.....*...*...<.i.h.i.i.a.a.a.h.h.h.h.h.h.a.v.n.B.A.B.A.D.A.D.h.h.f.h.a.h.h.f.h.i.h.h.f.h.a.h.i.h.h.h.h.h.i.h.a.f.h.g.f.h.i.h.h.h.h.a.f.a.h.f.h.h.f.a.f.h.h.a.f.p.h.h.h.i.h.h.h.i.h.k.h.h.a.h.a.h.f.h.M.9.                                                                                                                                                                                                                                                                                                                                                                      ",
"                                                                                                                                                                                                                                                                                                                                                                                                                                    D 1.-.-.-.-.-.;.*.*...*.*.*...0.h.h.h.h.h.h.v.h.g.h.h.a.c.h.c.B.A.B.D.n.D.S.n.h.a.h.h.f.a.h.a.h.h.h.a.h.f.h.h.h.f.a.f.a.h.h.h.f.g.f.h.h.h.f.a.f.h.i.h.h.f.h.a.f.a.h.h.a.f.g.h.h.f.h.i.h.h.h.a.h.h.h.h.h.h.h.h.h.i.h.k.M.9.                                                                                                                                                                                                                                                                                                                                                                      ",
"                                                                                                                                                                                                                                                                                                                                                                                                                                    K =.*...*.*.*.=.*.*.*...*...*.0.h.h.h.h.h.a.f.f.h.g.h.a.c.v.c.n.B.A.n.Z.B.B.B.h.i.h.i.h.i.h.f.h.i.h.i.h.a.i.h.a.h.i.h.h.f.a.f.a.h.c.h.p.h.i.h.h.h.h.h.a.f.h.a.h.f.a.f.h.a.f.a.f.a.h.a.h.f.i.s.i.f.i.h.h.i.s.s.f.f.i.h.M.8.                                                                                                                                                                                                                                                                                                                                                                      ",
"                                                                                                                                                                                                                                                                                                                                                                                                                                                    } *...*...*.*.! M z       k z ..h.h.h.h.a.p.h.v.n.n.n.v.n.v.v.h.h.i.h.a.h.h.a.h.a.h.h.f.a.h.i.h.f.h.h.a.i.h.h.h.h.h.v.f.h.h.h.i.h.i.a.h.h.f.h.h.i.h.h.h.i.h.a.h.h.f.h.h.a.$.                                                                                                                                                                                                                                                                                                                                                                                                    ",
"                                                                                                                                                                                                                                                                                                                                                                                                                                                    ^ *...*.*.-.%.k               M k.h.h.i.h.a.h.f.f.g.f.h.h.a.v.i.h.h.h.i.h.f.h.f.h.i.a.h.u.h.h.a.a.i.h.h.h.h.i.h.g.h.g.h.h.i.h.h.h.a.f.h.a.h.i.h.a.h.f.h.a.h.f.h.i.g.a.f.p.                                                                                                                                                                                                                                                                                                                                                                                                      ",
"                                                                                                                                                                                                                                                                                                                                                                                                                                                    ] :.*...*.-.%.                  v.k.a.a.h.i.h.a.f.h.g.h.h.a.h.h.h.i.a.h.h.a.h.a.h.h.f.h.h.h.f.h.h.h.h.f.a.h.h.f.h.f.h.f.h.h.h.i.h.f.a.f.f.g.f.g.f.g.i.g.f.g.i.h.f.i.f.h.h.                                                                                                                                                                                                                                                                                                                                                                                                      ",
"                                                                                                                                                                                                                                                                                                                                                                                                                                                    / >...*...-.=.                  h.f.h.h.a.f.i.f.h.f.h.p.h.a.a.i.h.h.h.i.h.f.h.i.h.i.h.h.i.a.h.f.a.f.h.h.i.h.a.f.g.h.g.h.i.h.h.a.h.a.f.h.g.f.h.f.g.f.f.f.g.f.g.f.g.i.h.k.g.                                                                                                                                                                                                                                                                                                                                                                                                      ",
"                                                                                                                                                                                                                                                                                                                                                                                                                                                    } :.o.-.o.:.*.                  k.f.a.h.f.a.k.f.i.f.i.a.h.h.i.h.a.f.h.h.h.a.h.f.h.p.f.a.h.f.h.a.f.a.a.g.i.h.h.h.p.f.h.h.h.i.h.i.h.h.h.g.f.f.g.f.f.g.h.g.f.g.f.f.h.f.a.k.a.                                                                                                                                                                                                                                                                                                                                                                                                      ",
"                                                                                                                                                                                                                                                                                                                                                                                                                                                    ~ :.-...*.*.%.                  k.v.h.u.h.i.f.f.f.h.f.f.a.f.h.h.h.i.h.i.h.g.f.p.h.h.h.h.h.a.f.a.h.g.f.a.h.i.h.f.h.h.i.h.a.f.h.a.f.a.h.f.h.h.f.a.g.f.i.h.f.h.h.g.a.f.h.k.i.                                                                                                                                                                                                                                                                                                                                                                                                      ",
"                                                                                                                                                                                                                                                                                                                                                                                                                                                    } >.-.-.-.-.=.                  k.f.f.v.k.k.f.h.g.f.h.u.h.h.h.h.h.g.h.g.h.f.h.h.h.g.f.h.i.h.h.h.f.a.h.f.a.h.i.h.a.f.h.a.f.h.a.h.h.f.h.a.f.a.h.f.a.h.a.f.a.h.f.k.v.k.k.z.d.                                                                                                                                                                                                                                                                                                                                                                                                      ",
"                                                                                                                                                                                                                                                                                                                                                                                                                                                      *.} } } }                       i.u.t.u.u.u.f.g.h.g.h.i.a.a.g.h.h.g.h.h.c.h.g.h.h.g.h.a.h.i.h.h.i.h.h.h.h.h.h.h.h.h.h.h.i.h.f.h.a.f.h.i.f.a.h.h.f.h.h.h.a.u.u.u.u.r.i.                                                                                                                                                                                                                                                                                                                                                                                                        ",
"                                                                                                                                                                                                                                                                                                                                                                                                                                                                                                e o.z.h.h.h.f.h.f.h.h.a.h.h.h.a.h.h.h.a.h.a.f.a.h.h.i.h.a.h.i.h.i.h.i.h.i.a.h.h.h.a.f.h.a.h.h.h.f.g.h.h.a.h.h. .                                                                                                                                                                                                                                                                                                                                                                                                                    ",
"                                                                                                                                                                                                                                                                                                                                                                                                                                                                                                  ~ k.h.i.h.i.i.a.a.h.a.h.a.i.h.a.i.h.a.h.a.h.i.h.i.h.h.i.h.h.h.h.f.h.a.h.f.a.f.a.f.h.a.g.f.p.u.h.h.p.h.p.f.k.I                                                                                                                                                                                                                                                                                                                                                                                                                     ",
"                                                                                                                                                                                                                                                                                                                                                                                                                                                                                                  ~ M.h.h.i.a.i.f.h.f.h.h.f.h.h.h.h.h.h.f.h.h.i.h.h.h.h.h.i.h.i.h.a.h.f.g.h.f.h.g.h.f.h.f.a.s.s.i.h.h.a.a.v.f.D                                                                                                                                                                                                                                                                                                                                                                                                                     ",
"                                                                                                                                                                                                                                                                                                                                                                                                                                                                                                  ~ M.k.f.a.f.h.h.h.h.h.h.h.h.h.f.k.h.h.a.a.h.a.f.a.f.a.i.h.h.a.f.h.f.a.h.i.h.a.f.a.a.a.h.h.f.i.h.g.h.g.i.h.k.K                                                                                                                                                                                                                                                                                                                                                                                                                     ",
"                                                                                                                                                                                                                                                                                                                                                                                                                                                                                                  ~ M.h.f.h.f.h.g.f.h.f.h.h.f.h.h.i.f.a.a.h.f.a.h.i.h.a.g.i.h.h.h.a.h.h.f.a.h.h.a.f.h.f.h.i.h.a.g.f.g.h.h.h.v.K                                                                                                                                                                                                                                                                                                                                                                                                                     ",
"                                                                                                                                                                                                                                                                                                                                                                                                                                                                                                  ~ N.f.c.g.f.g.f.f.h.f.h.f.h.f.f.k.s.k.h.a.h.f.h.a.h.i.h.a.f.a.f.a.i.h.a.f.a.f.h.a.h.i.h.h.f.f.g.f.h.h.h.h.k.K                                                                                                                                                                                                                                                                                                                                                                                                                     ",
"                                                                                                                                                                                                                                                                                                                                                                                                                                                                                                  ~ N.v.f.v.f.M.f.k.v.f.k.v.k.k.h.f.f.f.k.f.h.a.h.f.h.h.f.h.h.h.h.g.a.h.h.h.h.a.f.h.h.h.h.i.h.f.h.h.i.h.a.v.v.F                                                                                                                                                                                                                                                                                                                                                                                                                     ",
"                                                                                                                                                                                                                                                                                                                                                                                                                                                                                                  P u.9.4.9.9.9.9.9.9.9.9.9.9.4.w.p.h.h.i.a.f.h.f.h.h.f.h.a.f.a.i.h.f.h.i.a.f.h.h.i.h.f.a.h.g.f.i.a.a.g.f.h.k.I                                                                                                                                                                                                                                                                                                                                                                                                                     ",
"                                                                                                                                                                                                                                                                                                                                                                                                                                                                                                                                  e.k.i.f.f.h.a.h.i.h.a.h.f.h.f.h.h.a.h.h.f.h.a.f.a.h.a.f.h.f.f.f.i.f.i.h.k.k.F                                                                                                                                                                                                                                                                                                                                                                                                                     ",
"                                                                                                                                                                                                                                                                                                                                                                                                                                                                                                                                  w.k.f.h.i.h.h.i.h.h.f.h.h.a.a.f.h.f.h.a.h.a.h.h.f.h.a.h.f.i.i.f.a.f.a.i.a.m.K                                                                                                                                                                                                                                                                                                                                                                                                                     ",
"                                                                                                                                                                                                                                                                                                                                                                                                                                                                                                                                  9.k.h.f.a.h.f.h.h.a.a.f.a.f.h.h.i.h.i.h.f.h.f.a.a.f.h.a.h.f.a.g.f.h.g.h.h.k.K                                                                                                                                                                                                                                                                                                                                                                                                                     ",
"                                                                                                                                                                                                                                                                                                                                                                                                                                                                                                                                  9.h.h.k.i.h.h.a.i.h.f.a.h.h.i.h.a.h.h.h.a.h.a.f.h.h.i.h.f.a.f.h.h.f.a.h.v.k.K                                                                                                                                                                                                                                                                                                                                                                                                                     ",
"                                                                                                                                                                                                                                                                                                                                                                                                                                                                                                                                  w.h.f.a.h.f.a.f.h.h.h.f.a.h.h.h.f.h.i.h.f.a.h.h.h.a.h.h.f.h.f.f.h.a.k.h.v.k.I                                                                                                                                                                                                                                                                                                                                                                                                                     ",
"                                                                                                                                                                                                                                                                                                                                                                                                                                                                                                                                  9.k.h.k.h.h.h.h.h.h.h.h.h.h.f.h.h.h.h.h.h.h.f.h.h.f.h.h.h.f.f.h.d.h.f.h.v.k.K                                                                                                                                                                                                                                                                                                                                                                                                                     ",
"                                                                                                                                                                                                                                                                                                                                                                                                                                                                                                                                  i.B.z.M.z.k.M.k.M.k.M.k.M.k.M.k.M.k.M.k.M.z.k.M.k.M.k.k.M.k.k.k.k.M.k.k.V.V.!                                                                                                                                                                                                                                                                                                                                                                                                                     ",
"                                                                                                                                                                                                                                                                                                                                                                                                                                                                                                                                  {  .|  .| | | | | | | | | | | | | | | | | | | | | | | | |  .| |  ...| |                                                                                                                                                                                                                                                                                                                                                                                                                           ",
"                                                                                                                                                                                                                                                                                                                                                                                                                                                                                                                                                                                                                                                                                                                                                                                                                                                                                                                                                                                                                                    ",
"                                                                                                                                                                                                                                                                                                                                                                                                                                                                                                                                                                                                                                                                                                                                                                                                                                                                                                                                                                                                                                    ",
"                                                                                                                                                                                                                                                                                                                                                                                                                                                                                                                                                                                                                                                                                                                                                                                                                                                                                                                                                                                                                                    ",
"                                                                                                                                                                                                                                                                                                                                                                                                                                                                                                                                                                                                                                                                                                                                                                                                                                                                                                                                                                                                                                    ",
"                                                                                                                                                                                                                                                                                                                                                                                                                                                                                                                                                                                                                                                                                                                                                                                                                                                                                                                                                                                                                                    ",
"                                                                                                                                                                                                                                                                                                                                                                                                                                                                                                                                                                                                                                                                                                                                                                                                                                                                                                                                                                                                                                    ",
"                                                                                                                                                                                                                                                                                                                                                                                                                                                                                                                                                                                                                                                                                                                                                                                                                                                                                                                                                                                                                                    ",
"                                                                                                                                                                                                                                                                                                                                                                                                                                                                                                                                                                                                                                                                                                                                                                                                                                                                                                                                                                                                                                    ",
"                                                                                                                                                                                                                                                                                                                                                                                                                                                                                                                                                                                                                                                                                                                                                                                                                                                                                                                                                                                                                                    ",
"                                                                                                                                                                                                                                                                                                                                                                                                                                                                                                                                                                                                                                                                                                                                                                                                                                                                                                                                                                                                                                    ",
"                                                                                                                                                                                                                                                                                                                                                                                                                                                                                                                                                                                                                                                                                                                                                                                                                                                                                                                                                                                                                                    ",
"                                                                                                                                                                                                                                                                                                                                                                                                                                                                                                                                                                                                                                                                                                                                                                                                                                                                                                                                                                                                                                    ",
"                                                                                                                                                                                                                                                                                                                                                                                                                                                                                                                                                                                                                                                                                                                                                                                                                                                                                                                                                                                                                                    ",
"                                                                                                                                                                                                                                                                                                                                                                                                                                                                                                                                                                                                                                                                                                                                                                                                                                                                                                                                                                                                                                    ",
"                                                                                                                                                                                                                                                                                                                                                                                                                                                                                                                                                                                                                                                                                                                                                                                                                                                                                                                                                                                                                                    ",
"                                                                                                                                                                                                                                                                                                                                                                                                                                                                                                                                                                                                                                                                                                                                                                                                                                                                                                                                                                                                                                    ",
"                                                                                                                                                                                                                                                                                                                                                                                                                                                                                                                                                                                                                                                                                                                                                                                                                                                                                                                                                                                                                                    ",
"                                                                                                                                                                                                                                                                                                                                                                                                                                                                                                                                                                                                                                                                                                                                                                                                                                                                                                                                                                                                                                    ",
"                                                                                                                                                                                                                                                                                                                                                                                                                                                                                                                                                                                                                                                                                                                                                                                                                                                                                                                                                                                                                                    ",
"                                                                                                                                                                                                                                                                                                                                                                                                                                                                                                                                                                                                                                                                                                                                                                                                                                                                                                                                                                                                                                    ",
"                                                                                                                                                                                                                                                                                                                                                                                                                                                                                                                                                                                                                                                                                                                                                                                                                                                                                                                                                                                                                                    ",
"                                                                                                                                                                                                                                                                                                                                                                                                                                                                                                                                                                                                                                                                                                                                                                                                                                                                                                                                                                                                                                    ",
"                                                                                                                                                                                                                                                                                                                                                                                                                                                                                                                                                                                                                                                                                                                                                                                                                                                                                                                                                                                                                                    ",
"                                                                                                                                                                                                                                                                                                                                                                                                                                                                                                                                                                                                                                                                                                                                                                                                                                                                                                                                                                                                                                    ",
"                                                                                                                                                                                                                                                                                                                                                                                                                                                                                                                                                                                                                                                                                                                                                                                                                                                                                                                                                                                                                                    ",
"                                                                                                                                                                                                                                                                                                                                                                                                                                                                                                                                                                                                                                                                                                                                                                                                                                                                                                                                                                                                                                    ",
"                                                                                                                                                                                                                                                                                                                                                                                                                                                                                                                                                                                                                                                                                                                                                                                                                                                                                                                                                                                                                                    ",
"                                                                                                                                                                                                                                                                                                                                                                                                                                                                                                                                                                                                                                                                                                                                                                                                                                                                                                                                                                                                                                    ",
"                                                                                                                                                                                                                                                                                                                                                                                                                                                                                                                                                                                                                                                                                                                                                                                                                                                                                                                                                                                                                                    ",
"                                                                                                                                                                                                                                                                                                                                                                                                                                                                                                                                                                                                                                                                                                                                                                                                                                                                                                                                                                                                                                    ",
"                                                                                                                                                                                                                                                                                                                                                                                                                                                                                                                                                                                                                                                                                                                                                                                                                                                                                                                                                                                                                                    "
};
