/* XPM */
static char *_[] = {
/* columns rows colors chars-per-pixel */
"64 64 9 1 ",
"  c None",
". c #181818",
"X c #393939",
"o c gray35",
"O c #5A5A5A",
"+ c #5B5B5B",
"@ c #7B7B7B",
"# c gray74",
"$ c white",
/* pixels */
"                                                                ",
"                                                                ",
"                                                                ",
"                                                                ",
"                                                                ",
"                                                                ",
"                                                                ",
"                                                                ",
"                                                                ",
"                                                                ",
"                                                                ",
"                                                                ",
"                                                                ",
"                                                                ",
"                                                                ",
"                                                                ",
"                                                                ",
"                                                                ",
"                                                                ",
"                                                                ",
"                                                                ",
"                                                                ",
"                                                                ",
"                                                                ",
"                                                                ",
"                                                                ",
"                                                                ",
"                                                                ",
"                                                                ",
"                                                                ",
"                                                                ",
"                                                                ",
"                                                                ",
"                                                                ",
"                                                                ",
"                                                                ",
"                                                                ",
"                                                                ",
"                                                                ",
"                                                                ",
"                                                                ",
"                                                                ",
"                                                                ",
"                                                                ",
"                                                                ",
"                                                                ",
"                                                                ",
"                                                                ",
"                                                                ",
"                                                                ",
"                                                                ",
"                                                                ",
"                               OO                               ",
"                             .@#@O.                             ",
"                             X@#@OX                             ",
"                             O#$#@O                             ",
"                            OXOOOOXO                            ",
"                            XXO@@OXX                            ",
"                            .XO#@OX.                            ",
"                            .XO#@OX.                            ",
"                            .XO#@OX.                            ",
"                            .O@$#@O.                            ",
"                            XOO@@OOX                            ",
"                            OXO#@OXO                            "
};
