/* XPM */
static char *_[] = {
/* columns rows colors chars-per-pixel */
"64 64 50 1 ",
"  c black",
". c gray40",
"X c #181818",
"o c #393939",
"O c gray9",
"+ c #408080",
"@ c black",
"# c #181818",
"$ c gray9",
"% c #808080",
"& c #191919",
"* c #151515",
"= c #393939",
"- c #3A3A3A",
"; c #5B5B5B",
": c gray35",
"> c None",
", c #3A3A3A",
"< c #555555",
"1 c #627676",
"2 c #6A8080",
"3 c #65777D",
"4 c #181818",
"5 c #181818",
"6 c #65737E",
"7 c #607080",
"8 c gray9",
"9 c #63737B",
"0 c gray22",
"q c #5A5A5A",
"w c #393939",
"e c #3A3A3A",
"r c #7B7B7B",
"t c #5B5B5B",
"y c #63737B",
"u c #64747D",
"i c #191919",
"p c gray9",
"a c gray22",
"s c #5A5A5A",
"d c #7B7B7B",
"f c #BCBCBC",
"g c gray35",
"h c gray74",
"j c #7B7B7B",
"k c #5A5A5A",
"l c #393939",
"z c white",
"x c #181818",
"c c #EFDECE",
/* pixels */
"                                                                ",
"                                                                ",
"                                                                ",
"                                                                ",
"                                                                ",
"                                                                ",
"                                                                ",
"                                                                ",
"                                                                ",
"                                                                ",
"                                                                ",
"                                                                ",
"                                                                ",
"                                                                ",
"                                                                ",
"                                                                ",
"                                                                ",
"                                                                ",
"                                                                ",
"                                                                ",
"                                                                ",
"                                                                ",
"                                                                ",
"                                                                ",
"                                                                ",
"                                                                ",
"                                                                ",
"                                                                ",
"                                                                ",
"                                                                ",
"                                                                ",
"                                                                ",
"                                                                ",
"                                                                ",
"                                                                ",
"                                                                ",
"                                                                ",
"                                                                ",
"                                                                ",
"                                                                ",
"                                                                ",
"                                                                ",
"                                                                ",
"                                                                ",
"                                                                ",
"                                                                ",
"                                                                ",
"                             .XoO+                              ",
"                            @#hjk$%                             ",
"                            &ljjkl*                             ",
"                            =kzhjk-                             ",
"                            ;lllkl:                             ",
"                            >ljhjl,                             ",
"                           @xlkjklx@                            ",
"                           <xlkjklx<                            ",
"                           1xlkjklx2                            ",
"                           3xkjhjkx3                            ",
"                           4jklllkj4                            ",
"                          %5kljhjlk5%                           ",
"                          6xlkjhjklx6                           ",
"                         78lkkjhjkkl89                          ",
"                      <0qjhcjkjhjkjchjq0<                       ",
"                     @wjjkkklkjhjklkkkjje@                      ",
"                      rtyuipasdfdsapiuygr                       "
};
