/* XPM */
static char *_[] = {
/* columns rows colors chars-per-pixel */
"64 64 103 2 ",
"   c black",
".  c white",
"X  c #DC0000",
"o  c #DD0000",
"O  c #DE0000",
"+  c #DF0000",
"@  c #DB0000",
"#  c #D90000",
"$  c #666699",
"%  c #E10000",
"&  c #DE0000",
"*  c #DE0000",
"=  c #63737D",
"-  c #63757D",
";  c #DC0000",
":  c #FF6000",
">  c #65777D",
",  c #DF0000",
"<  c #808080",
"1  c #63737B",
"2  c #DE0000",
"3  c #F35D0C",
"4  c #DF0000",
"5  c #647680",
"6  c #DE0000",
"7  c #DD0000",
"8  c #FF6D00",
"9  c cyan",
"0  c #DE0000",
"q  c #F75908",
"w  c #64747C",
"e  c #DF0000",
"r  c #D90000",
"t  c None",
"y  c #64737E",
"u  c #DE0000",
"i  c #F65A08",
"p  c gray40",
"a  c #DD0000",
"s  c #F85A07",
"d  c #556A80",
"f  c #EF7B18",
"g  c black",
"h  c #DE0000",
"j  c #DF0000",
"k  c #D50000",
"l  c #808080",
"z  c #F75A08",
"x  c #DE0000",
"c  c #DC0000",
"v  c #DE0000",
"b  c #DB0000",
"n  c #DF0000",
"m  c #555555",
"M  c #DE0000",
"N  c #DE0000",
"B  c #DE0000",
"V  c #668080",
"C  c #DE0000",
"Z  c #DD0000",
"A  c #61757A",
"S  c #DD0000",
"D  c #DE0000",
"F  c #63757C",
"G  c #63737D",
"H  c #647480",
"J  c #181818",
"K  c gray9",
"L  c gray9",
"P  c #68717B",
"I  c #181818",
"U  c #181818",
"Y  c #63737D",
"T  c #62747D",
"R  c #393939",
"E  c #5A5A5A",
"W  c #5A5A5A",
"Q  c #393939",
"!  c #393939",
"~  c #7B7B7B",
"^  c #5B5B5B",
"/  c #63737B",
"(  c #64747D",
")  c #191919",
"_  c gray9",
"`  c gray22",
"'  c #5A5A5A",
"]  c #7B7B7B",
"[  c #BCBCBC",
"{  c gray35",
"}  c #DE0000",
"|  c #F75A08",
" . c #EF7B18",
".. c #F7B521",
"X. c #EFBD9C",
"o. c #EFDECE",
"O. c white",
"+. c #EFA573",
"@. c gray74",
"#. c #7B7B7B",
"$. c #5A5A5A",
"%. c #393939",
"&. c #181818",
/* pixels */
"                                                                                                                                ",
"                                                                                                                                ",
"                                                                                                                                ",
"                                                                                                                                ",
"                                                                                                                                ",
"                                                                                                                                ",
"                                                                                                                                ",
"                                                                                                                                ",
"                                                                                                                                ",
"                                                                                                                                ",
"                                                                                                                                ",
"                                                                                                                                ",
"                                                                                                                                ",
"                                                                                                                                ",
"                                                                                                                                ",
"                                                                                                                                ",
"                                                                                                                                ",
"                                                                                                                                ",
"                                                                                                                                ",
"                                                                                                                                ",
"                                                                                                                                ",
"                                                                                                                                ",
"                                                                                                                                ",
"                                                                                                                                ",
"                                                                                                                                ",
"                                                                                                                                ",
"                                                                                                                                ",
"                                                                                                                                ",
"                                                                                                                                ",
"                                                                                                                                ",
"                                                                                                                                ",
"                                                                                                                                ",
"                                                                                                                                ",
"                                                                                                                                ",
"                                                                                                                                ",
"                                                    . X o O + @ # $                                                             ",
"                                                  % & } } } } } } | * = - ; :                                                   ",
"                                                > * } } } } } | | } } } } } } , <                                               ",
"                                              1 } } } } } } |  .| | | } } } | | 2 3                                             ",
"                                            4 } } | | | | | |  . . . . .} | } } } * 5                                           ",
"                                          6 } } } | | |  . . . . . . . . . .| } } } 7 8                                         ",
"                                        9 0 } } | |  . . ... ..... . . . . . .| | } | q                                         ",
"                                        w } } } }  .| ..........X........... . .} | } e                                         ",
"                                      r t | } | |  . .......o.o............... . .} } y                                         ",
"                                    . u } } | |  . .X.....o.o.o.o.o............. .| } i p                                       ",
"                                    a } } } |  .........o.o.O.O.O.o.o.....X.+... . .| | s                                       ",
"                                    d } }  . . .......o.o.O.@.@.@.O.o.o........... . . .f                                       ",
"                                    g u  . . .......o.o.O.@.@.#.$.@.O.o.O.....+. . .|  .h                                       ",
"                                      j |  . . . .....o.@.#.@.#.$.#.@.O.o.X..... .| | } k                                       ",
"                                      l z | |  . . .....#.$.O.@.#.$.#.o...........| | x                                         ",
"                                        c t }  . . . ...$.%.$.$.$.%.$. ....... . .| v g                                         ",
"                                          b } }  . . .+.%.%.#.@.#.%.%. . . . . .| n m                                           ",
"                                            M N  . . . .&.%.$.#.$.%.&. . . . .| B l                                             ",
"                                              V n | } } &.%.$.#.$.%.&.} | | C Z                                                 ",
"                                                g A S } &.%.$.#.$.%.&.} D 5 g                                                   ",
"                                                      F &.$.#.@.#.$.&.G                                                         ",
"                                                      H %.$.%.%.%.$.%.J                                                         ",
"                                                      K #.%.%.%.%.%.#.L g                                                       ",
"                                                    d &.%.%.$.#.$.%.%.&.P                                                       ",
"                                                    I &.%.$.#.@.#.$.%.&.U                                                       ",
"                                                g Y &.%.$.$.#.@.#.$.$.%.&.T g                                                   ",
"                                            m R E #.@.o.#.$.#.@.#.$.#.o.@.#.W Q m                                               ",
"                                          g ! #.#.$.$.$.%.$.#.@.#.$.%.$.$.$.#.#.! g                                             ",
"                                            ~ ^ / ( ) _ ` ' ] [ ] ' ` _ ) ( / { ~                                               "
};
