/* XPM */
static char *_[] = {
/* columns rows colors chars-per-pixel */
"63 64 114 2 ",
"   c black",
".  c black",
"X  c #804D33",
"o  c #835330",
"O  c #835430",
"+  c #855332",
"@  c #64757E",
"#  c #62747D",
"$  c #845131",
"%  c #855131",
"&  c #825432",
"*  c #83552E",
"=  c #8E5539",
"-  c #808080",
";  c #64737C",
":  c #835231",
">  c #845231",
",  c #825131",
"<  c #80552B",
"1  c #845331",
"2  c #845231",
"3  c #555555",
"4  c #80512E",
"5  c #EE7B18",
"6  c #855232",
"7  c #667380",
"8  c #845231",
"9  c #855231",
"0  c #608080",
"q  c #C6734A",
"w  c #855332",
"e  c #845231",
"r  c None",
"t  c #5D7474",
"y  c #825131",
"u  c #845231",
"i  c #845330",
"p  c #687480",
"a  c #845232",
"s  c #804020",
"d  c #885533",
"f  c #865131",
"g  c #874B2D",
"h  c #845332",
"j  c #607080",
"k  c #C6734A",
"l  c white",
"z  c #6A8080",
"x  c #C4764E",
"c  c #717171",
"v  c #CC7047",
"b  c #558080",
"n  c #F17C1C",
"m  c #F27C1A",
"M  c #855231",
"N  c #EF8018",
"B  c #697878",
"V  c #EE7B18",
"C  c #EF7B18",
"Z  c #F17C19",
"A  c #F07C19",
"S  c #855431",
"D  c #845331",
"F  c #657280",
"G  c #F85A08",
"H  c #845430",
"J  c #606080",
"K  c #835130",
"L  c #627689",
"P  c #894E3B",
"I  c #855130",
"U  c #83542F",
"Y  c #62737E",
"T  c #855331",
"R  c cyan",
"E  c #62737B",
"W  c blue",
"Q  c #6B7986",
"!  c #181818",
"~  c #668080",
"^  c gray9",
"/  c #62727C",
"(  c #66777D",
")  c #393939",
"_  c #5A5A5A",
"`  c #5A5A5A",
"'  c #393939",
"]  c #393939",
"[  c #7B7B7B",
"{  c #5B5B5B",
"}  c #63737B",
"|  c #64747D",
" . c #191919",
".. c gray9",
"X. c gray22",
"o. c #5A5A5A",
"O. c #7B7B7B",
"+. c #BCBCBC",
"@. c gray35",
"#. c #C6734A",
"$. c #EF7B18",
"%. c #845231",
"&. c #F75A08",
"*. c #F7B521",
"=. c #EFA573",
"-. c #5A5A5A",
";. c #EFBD9C",
":. c #EFDECE",
">. c white",
",. c gray74",
"<. c #7B7B7B",
"1. c #393939",
"2. c #181818",
"3. c #63747D",
/* pixels */
"                                                                                                                              ",
"                                                                                                                              ",
"                                                                                                                              ",
"                                                                                                                              ",
"                                                                                                                              ",
"                                                                                                                              ",
"                                                                                                                              ",
"                                                                                                                              ",
"                                                                                                                              ",
"                                                                                                                              ",
"                                                                                                                              ",
"                                                                                                                              ",
"                                                                                                                              ",
"                                                                                                                              ",
"                                                                                                                              ",
"                                                                                                                              ",
"                                                                                                                              ",
"                                                                                                                              ",
"                                                                                                                              ",
"                                                                                                                              ",
"                                                                                                                              ",
"                                                                                                                              ",
"                                                                                                                              ",
"                                                                                                                              ",
"                                                                                                                              ",
"                                                                                                                              ",
"                                                                                                                              ",
"                                                                                                                              ",
"                                                  . X o O + @ # $ % & * =                                                     ",
"                                              - ; : #.$.$.$.%.%.%.$.$.#.%.> ,                                                 ",
"                                            < 1 %.#.$.#.#.$.#.%.$.$.#.#.#.#.%.2 3                                             ",
"                                          4 5 #.#.#.#.$.$.#.&.$.&.*.*.$.#.#.%.%.6 -                                           ",
"                                        7 8 #.#.$.$.$.$.$.&.$.*.*.$.$.*.*.$.$.#.#.9                                           ",
"                                      0 q #.#.$.&.&.$.$.&.*.$.$.$.$.&.$.*.$.$.=.#.#.w                                         ",
"                                    . e #.$.$.$.&.$.$.&.&.&.#.$.$.$.#.#.&.$.$.#.#.#.r t                                       ",
"                                    y #.-.&.$.$.*.$.$.&.&.&.&.&.&.&.$.$.#.$.*.$.#.$.#.u                                       ",
"                                    i #.#.&.$.&.$.&.$.&.$.$.*.$.*.*.&.&.$.#.$.&.#.$.#.%.p                                     ",
"                                  - %.$.$.$.*.$.&.*.&.$.$.&.*.&.&.*.*.&.$.$.$.&.#.$.*.$.a                                     ",
"                                  X #.&.$.&.*.$.*.&.$.&.*.*.&.$.&.&.&.&.*.&.&.#.#.*.*.$.%.s                                   ",
"                                  d $.&.$.&.&.$.*.&.&.&.&.&.&.$.$.$.$.$.&.*.*.&.#.$.&.#.$.f                                   ",
"                                  g $.&.&.&.$.$.&.&.&.*.$.$.$.$.*.*.*.$.$.$.&.&.&.#.#.&.$.h                                   ",
"                                  j $.&.&.$.$.$.&.&.$.$.$.*.$.*.*.*.*.*.$.*.*.&.&.#.&.*.$.k l                                 ",
"                                  z %.&.$.$.*.*.$.$.*.*.*.*.*.*.;.*.*.*.*.*.$.*.&.#.#.$.*.$.x                                 ",
"                                  c %.&.$.&.*.&.*.*.$.*.*.*.:.:.*.*.*.*.*.*.*.$.$.*.#.#.#.$.v                                 ",
"                                  b $.&.&.$.*.*.*.$.;.*.*.:.:.:.:.:.*.*.*.*.*.*.*.$.&.#.$.#.n                                 ",
"                                  - $.$.#.#.*.$.*.*.*.*.:.:.>.>.>.:.:.*.*.;.=.*.$.*.&.#.#.$.m                                 ",
"                                    M $.*.*.*.*.*.$.*.:.:.>.,.,.,.>.:.:.*.*.*.*.*.*.*.$.#.#.N                                 ",
"                                    e #.&.#.*.*.*.*.:.:.>.,.,.<.-.,.>.:.>.*.*.=.$.*.*.$.#.$.B                                 ",
"                                    % #.$.&.*.*.*.*.*.:.,.<.,.<.-.<.,.>.:.;.*.*.*.*.&.$.$.V l                                 ",
"                                    X C $.$.*.#.$.*.*.*.<.-.>.,.<.-.<.:.*.*.*.*.*.&.*.$.%.Z                                   ",
"                                      O $.$.$.*.*.#.*.*.-.1.-.-.-.1.-.$.*.*.*.$.*.&.$.$.A .                                   ",
"                                        S %.$.$.$.%.#.=.1.1.<.,.<.1.1.*.$.*.&.&.&.$.$.D .                                     ",
"                                          F 5 &.$.#.&.%.2.1.-.<.-.1.2.$.$.*.&.*.-.G H                                         ",
"                                            J K $.$.$.%.2.1.-.<.-.1.2.&.&.&.*.%.i L                                           ",
"                                                P I U Y 2.1.-.<.-.1.2.3.%.%.T o .                                             ",
"                                                      R 2.-.<.,.<.-.2.2.E W                                                   ",
"                                                      Q 1.-.1.1.1.-.1.2..                                                     ",
"                                                      ! <.1.1.1.1.1.<.2.-                                                     ",
"                                                    ~ 2.-.1.-.<.-.1.1.2.Q                                                     ",
"                                                  . ^ 2.1.-.<.,.<.-.1.2.!                                                     ",
"                                                W / 2.1.-.-.<.,.<.-.-.1.2.(                                                   ",
"                                            3 ) _ <.,.:.<.-.<.,.<.-.<.:.,.<.` ' 3                                             ",
"                                          . ] <.<.-.-.-.1.-.<.,.<.-.1.-.-.-.<.<.] .                                           ",
"                                            [ { } |  ...X.o.O.+.O.o.X... .| } @.[                                             "
};
