/* XPM */
static char *_[] = {
/* columns rows colors chars-per-pixel */
"65 65 128 2 ",
"   c black",
".  c #434343",
"X  c #3F3F3F",
"o  c #668080",
"O  c #282828",
"+  c white",
"@  c #65747E",
"#  c None",
"$  c #5D7480",
"%  c #667380",
"&  c gray22",
"*  c #484848",
"=  c #555555",
"-  c #373737",
";  c gray28",
":  c gray25",
">  c gray29",
",  c gray25",
"<  c #484848",
"1  c #558080",
"2  c #505050",
"3  c #373737",
"4  c black",
"5  c #65777D",
"6  c #63747E",
"7  c #606060",
"8  c #667A7A",
"9  c #63737B",
"0  c gray22",
"q  c #608080",
"w  c gray22",
"e  c gray22",
"r  c blue",
"t  c #3A3A3A",
"y  c #3A3A3A",
"u  c gray28",
"i  c gray22",
"p  c #515151",
"a  c gray16",
"s  c gray28",
"d  c #282828",
"f  c gray29",
"g  c gray16",
"h  c #666699",
"j  c gray10",
"k  c #373737",
"l  c #6D6D6D",
"z  c #62747C",
"x  c cyan",
"c  c #63747C",
"v  c #666680",
"b  c #63747D",
"n  c #627180",
"m  c #63757D",
"M  c #808080",
"N  c gray22",
"B  c #494949",
"V  c #393939",
"C  c #606060",
"Z  c gray22",
"A  c gray37",
"S  c gray47",
"D  c #6F6F6F",
"F  c #505050",
"G  c gray17",
"H  c #767676",
"J  c #393939",
"K  c #5F5F5F",
"L  c gray22",
"P  c #808080",
"I  c #606060",
"U  c gray25",
"Y  c #62747D",
"T  c #6A8080",
"R  c #667777",
"E  c #3F3F3F",
"W  c #62767C",
"Q  c #714828",
"!  c #62757D",
"~  c #68717B",
"^  c #606060",
"/  c #815028",
"(  c #704828",
")  c #60717D",
"_  c #505050",
"`  c #674820",
"'  c #694820",
"]  c #69491F",
"[  c #667780",
"{  c #64747C",
"}  c #674720",
"|  c #684820",
" . c #67481F",
".. c #408080",
"X. c gray40",
"o. c #71718E",
"O. c #6D8080",
"+. c #63737D",
"@. c #637180",
"#. c #5555AA",
"$. c #704828",
"%. c #986038",
"&. c #282828",
"*. c #606060",
"=. c #505050",
"-. c #202020",
";. c gray47",
":. c #989898",
">. c gray22",
",. c #484848",
"<. c gray66",
"1. c #C0C0C0",
"2. c gray44",
"3. c #483818",
"4. c black",
"5. c #888888",
"6. c #480000",
"7. c #400000",
"8. c #B80000",
"9. c gray25",
"0. c gray19",
"q. c #684820",
"w. c #805028",
"e. c #503818",
"r. c #63747D",
"t. c #382810",
"y. c #282008",
"u. c white",
/* pixels */
"                                                                                                                                  ",
"                                                                                                                                  ",
"                                                                                                                                  ",
"                                                                                                                                  ",
"                                                                                                                                  ",
"                                                                                                                                  ",
"                                                                                                                                  ",
"                                                                                                                                  ",
"                                                                                                                                  ",
"                                                                                                                                  ",
"                                                                                                                                  ",
"                                                                                                                                  ",
"                                                                                                                                  ",
"                                                                                                                                  ",
"                                                                                                                                  ",
"                                                                                                                                  ",
"                                                                                                                                  ",
"                                                                                                                                  ",
"                                                                                                                                  ",
"                                                                                                                                  ",
"                                                                                                                                  ",
"                                                                                                                                  ",
"                                                                                                                                  ",
"                                                                                                                                  ",
"                                                                                                                                  ",
"                                                                                                                                  ",
"                                                                                                                                  ",
"                                                . X                                                                               ",
"                                            o O $.%.X                                                                             ",
"                                        + @ # &.*.*.=.$                                                                           ",
"                                      % & &.-.-.;.:.;.* =                                                                         ",
"                                    - >.&.&.,.;.<.1.:.2.;                                                                         ",
"                                  : 3.=.&.4.4.5.;.=.*.;.*.>                                                                       ",
"                                  , %.&.&.4.>.2.>.4.=.;.*.< 1                                                                     ",
"                                  1 2 ,.=.&.>.6.:.4.>.=.2.=.3 4                                                                   ",
"                                    5 ;.&.4.6.7.8.2.4.=.2.=.,.6                                                                   ",
"                                    7 ,.,.&.4.2.>.4.&.=.;.*.=.>.8                                                                 ",
"                                      9 >.&.&.4.4.-.&.,.*.;.2.2.0 q                                                               ",
"                                    4 w >.>.&.&.-.-.>.,.*.2.5.:.2.e r                                                             ",
"                                    t >.,.=.>.&.&.>.,.*.5.;.:.:.;.,.y                                                             ",
"                                    u *.*.2.,.,.,.*.;.:.;.;.5.;.*.>.i                                                             ",
"                                    p *.;.5.*.,.*.2.:.5.*.2.;.2.=.>.a                                                             ",
"                                    s *.;.:.;.>.,.=.2.*.*.2.2.*.9.&.d                                                             ",
"                                    f =.2.:.5.=.>.,.,.=.=.2.*.=.9.&.g                                                             ",
"                                    h ,.*.5.:.*.0.>.>.,.=.2.*.9.&.-.j                                                             ",
"                                      k =.;.:.5.,.&.0.>.*.2.=.9.&.-.l                                                             ",
"                                      z ,.*.;.;.=.-.&.>.*.2.=.&.-.-.x                                                             ",
"                                      $ >.,.=.2.:.-.-.&.*.*.,.&.-.c                                                               ",
"                                      v &.>.:.=.9.-.-.*.;.;.>.>.&.b                                                               ",
"                                      n &.&.=.9.&.4.*.5.:.*.:.,.>.m                                                               ",
"                                    M * *.>.>.&.&.4.:.=.:.>.,.=.=.N                                                               ",
"                                    B *.5.=.>.&.-.4.4.4.-.>.,.=.*.V                                                               ",
"                                    C 5.;.=.>.&.-.4.4.-.&.9.=.=.*.Z                                                               ",
"                                    A S D =.,.&.-.4.4.-.>.=.=.*.F G                                                               ",
"                                        H =.,.9.&.-.-.&.,.=.*.=.J                                                                 ",
"                                      K 2.*.=.,.>.-.-.>.9.,.,.L +                                                                 ",
"                                      P I 2.*.,.9.&.&.&.>.>.U h                                                                   ",
"                                        Y =.*.>.9.>.>.&.-.-.%                                                                     ",
"                                        T =.*.9.>.q.w.,.&.&.R                                                                     ",
"                                        h =.*.9.>.3.e.,.9.9.E W 4                                                                 ",
"                                        l =.*.9.r.r.3.e.,.=.=.e.Q ! ~ =                                                           ",
"                                        = ^ =.0.r.r.r.r.2.2.=.=.3.e.q.w./ ( ) R P                                                 ",
"                                          _ :.=.r.t.t.t.2.:.=.:.r.r.t.t.t.3.3.e.e.` ' ] [ h                                       ",
"                                            { } q.q.e.e.3.3.t.t.t.t.t.y.y.y.y.t.t.t.3.3.3.e.|  .                                  ",
"          4 4 4 4 x + + P P P P = ..X.1 o.O.8 9 r.q.q.q.q.q.e.e.3.3.3.3.3.3.3.3.e.e.q.q.q.q.q.+.@.O.1 #.P 4 4                     "
};
