/* XPM */
static char *_[] = {
/* columns rows colors chars-per-pixel */
"65 65 143 2 ",
"   c black",
".  c #808080",
"X  c #505050",
"o  c #505050",
"O  c #808080",
"+  c #697878",
"@  c #505050",
"#  c #4E4E4E",
"$  c #4E4E4E",
"%  c gray22",
"&  c #505050",
"*  c gray40",
"=  c #667380",
"-  c #282828",
";  c #63737E",
":  c #627676",
">  c gray16",
",  c #62727E",
"<  c #6D6D6D",
"1  c #282828",
"2  c #646F7A",
"3  c #5555AA",
"4  c #505050",
"5  c #505050",
"6  c #608080",
"7  c black",
"8  c gray28",
"9  c gray28",
"0  c gray28",
"q  c #414141",
"w  c cyan",
"e  c white",
"r  c gray44",
"t  c gray25",
"y  c #5D7474",
"u  c #505050",
"i  c #414141",
"p  c #61757D",
"a  c #3E3E3E",
"s  c #484848",
"d  c #3F3F3F",
"f  c #62737B",
"g  c gray25",
"h  c #66707A",
"j  c #373737",
"k  c #606060",
"l  c gray22",
"z  c #606060",
"x  c #6D8080",
"c  c gray75",
"v  c gray21",
"b  c #6D6D6D",
"n  c gray22",
"m  c #687880",
"M  c gray22",
"N  c #697887",
"B  c #393939",
"V  c #558080",
"C  c #373737",
"Z  c #3A3A3A",
"A  c #606060",
"S  c #373737",
"D  c #5F5F5F",
"F  c #606060",
"G  c #282828",
"H  c gray38",
"J  c #393939",
"K  c #667777",
"L  c #66777D",
"P  c #6F6F6F",
"I  c gray22",
"U  c #606060",
"Y  c #3C3C3C",
"T  c #606060",
"R  c gray25",
"E  c gray44",
"W  c #64737D",
"Q  c gray25",
"!  c #61737C",
"~  c #704928",
"^  c #55AAAA",
"/  c #885830",
"(  c #885830",
")  c #6D6D92",
"_  c #714828",
"`  c #657280",
"'  c #6A8080",
"]  c #684821",
"[  c #61757A",
"{  c #767676",
"}  c #63757D",
"|  c #637180",
" . c #555555",
".. c None",
"X. c #503818",
"o. c #694820",
"O. c #694821",
"+. c #65737D",
"@. c #63737B",
"#. c #5A7878",
"$. c #989898",
"%. c #515151",
"&. c #503818",
"*. c #684820",
"=. c #644E21",
"-. c blue",
";. c #408080",
":. c #71718E",
">. c #5B6D80",
",. c #617979",
"<. c #64747C",
"1. c #63747D",
"2. c #63757D",
"3. c #607080",
"4. c #717171",
"5. c #A06038",
"6. c gray22",
"7. c #484848",
"8. c black",
"9. c gray44",
"0. c #606060",
"q. c #505050",
"w. c #C80000",
"e. c gray66",
"r. c gray47",
"t. c #989898",
"y. c #282828",
"u. c #202020",
"i. c gray69",
"p. c #986038",
"a. c gray25",
"s. c #888888",
"d. c #C0C0C0",
"f. c gray19",
"g. c #382810",
"h. c #282008",
"j. c #63747D",
"k. c #584020",
"l. c #704828",
"z. c #503818",
"x. c #483818",
"c. c #684820",
"v. c white",
/* pixels */
"                                                                                                                                  ",
"                                                                                                                                  ",
"                                                                                                                                  ",
"                                                                                                                                  ",
"                                                                                                                                  ",
"                                                                                                                                  ",
"                                                                                                                                  ",
"                                                                                                                                  ",
"                                                                                                                                  ",
"                                                                                                                                  ",
"                                                                                                                                  ",
"                                                                                                                                  ",
"                                                                                                                                  ",
"                                                                                                                                  ",
"                                                                                                                                  ",
"                                                                                                                                  ",
"                                                                                                                                  ",
"                                                                                                                                  ",
"                                                                                                                                  ",
"                                                                                                                                  ",
"                                                                                                                                  ",
"                                      . X o O                                                                                     ",
"                                    + @ 5.5.#                                                                                     ",
"                                  $ % 6.6.7.& *                                                                                   ",
"                                = - 7.8.9.0.q.;                                                                                   ",
"                              : > 8.8.w.8.e.r.q.,                                                                                 ",
"                            < 1 8.6.r.e.t.r.0.9.q.2                                                                               ",
"                          3 4 y.6.r.t.r.q.7.y.q.9.5 6                                                                             ",
"                        7 8 q.u.y.8.r.q.8.i.u.y.q.0.9 3                                                                           ",
"                          0 p.7.8.8.q.8.0.u.u.q.y.q.0.q w                                                                         ",
"                          e r 7.a.q.6.r.8.8.u.u.7.y.7.q.t                                                                         ",
"                            y u 9.a.y.8.7.8.u.u.i.8.6.7.q.i                                                                       ",
"                              p q.9.q.y.8.q.8.q.y.8.7.7.0.q.a                                                                     ",
"                              7 s q.9.7.y.y.r.y.8.y.q.0.9.0.d .                                                                   ",
"                                f q.9.q.7.6.8.8.y.7.0.9.r.0.7.g                                                                   ",
"                                h q.0.0.q.7.6.y.7.0.9.9.r.9.q.a.j                                                                 ",
"                                k 0.9.9.q.q.7.7.0.9.0.q.9.r.0.7.l                                                                 ",
"                                z s.d.s.q.q.0.0.9.0.q.7.0.r.9.7.6.x                                                               ",
"                                c q.q.0.9.q.q.0.0.q.7.y.q.r.r.q.7.v                                                               ",
"                                b 7.q.q.q.6.7.q.q.q.6.y.q.r.s.q.7.n                                                               ",
"                                m d.a.a.a.y.6.7.7.7.f.u.6.s.t.9.q.M                                                               ",
"                                N 0.q.y.y.y.y.6.a.6.f.u.q.t.e.r.0.B                                                               ",
"                                V 0.q.7.6.y.y.y.6.f.f.6.r.d.9.d.q.C                                                               ",
"                                7 0.q.q.q.6.y.y.y.f.6.u.6.q.q.q.6.Z                                                               ",
"                                  A q.7.q.q.a.y.y.y.y.u.8.8.8.u.u.S                                                               ",
"                                  D q.q.7.7.f.y.y.y.u.u.8.8.8.u.y.<                                                               ",
"                                  F 0.q.a.a.y.y.y.y.u.u.8.8.u.y.G                                                                 ",
"                                  H 0.0.6.y.y.y.y.u.u.8.8.8.6.y.J                                                                 ",
"                                  K 9.0.6.u.y.y.u.u.8.8.8.u.q.6.L                                                                 ",
"                                  O 9.r.q.u.u.u.u.8.8.8.u.6.0.6..                                                                 ",
"                                    P r.q.y.u.8.8.8.8.u.6.q.q.I                                                                   ",
"                                    U r.q.6.y.u.8.8.u.6.q.0.7.Y                                                                   ",
"                                    T 9.0.6.6.u.u.u.y.7.0.7.R 7                                                                   ",
"                                    7 E 0.q.6.6.g.g.6.q.q.a.2                                                                     ",
"                                      W 9.q.6.6.h.g.6.q.7.Q                                                                       ",
"                                      x 9.0.6.6.h.h.6.7.a.!                                                                       ",
"                                      V 9.0.q.6.j.h.7.a.a.~                                                                       ",
"                                      ^ 9.0.q.6.j.j.7.a.a./ V                                                                     ",
"                                      . 9.0.6.j.j.j.7.a.a.a.( .                                                                   ",
"                                      ) 9.q.6.j.j.j.j.7.q.a.k._ `                                                                 ",
"                                      ' 9.q.6.j.j.j.j.q.0.q.g.k.l.] [ ^                                                           ",
"                                      { 0.q.f.j.j.j.j.9.s.s.q.g.z.z.z.l.} p | O                                                   ",
"                                       ...s.q.j.h.h.h.9.t.q.t.h.h.g.g.g.x.x.z.z.X.o.O.+.@.#.< e                                   ",
"                                        $.%.t.z.x.g.g.g.h.h.h.h.h.h.h.h.h.g.g.g.g.g.g.x.x.x.x.z.&.*.=.                            ",
"        7 7 7 -.w O O O O  .;.* V :.>.,.<.p 1.j.c.c.c.c.c.z.z.x.x.x.x.x.x.x.x.x.x.z.z.z.c.c.c.c.j.2.m 3.4.V .  .O O O w 7 7 7     "
};
