/* XPM */
static char *_[] = {
/* columns rows colors chars-per-pixel */
"65 65 150 2 ",
"   c black",
".  c gray32",
"X  c #555555",
"o  c #6B7986",
"O  c #505050",
"+  c #617380",
"@  c gray22",
"#  c gray47",
"$  c #646F7A",
"%  c gray16",
"&  c #505050",
"*  c #62727C",
"=  c gray82",
"-  c #65757A",
";  c #63747D",
":  c #808080",
">  c #606080",
",  c #282828",
"<  c #282828",
"1  c #64767C",
"2  c #6D6D6D",
"3  c gray25",
"4  c #607080",
"5  c #995E3C",
"6  c gray25",
"7  c gray25",
"8  c gray25",
"9  c #808080",
"0  c gray47",
"q  c gray25",
"w  c #5555AA",
"e  c #808080",
"r  c #66777D",
"t  c #3F3F3F",
"y  c black",
"u  c #3F3F3F",
"i  c #606060",
"p  c gray25",
"a  c #5F5F5F",
"s  c #505050",
"d  c white",
"f  c gray38",
"g  c #606060",
"h  c #5F5F5F",
"j  c #5F5F5F",
"k  c #5F5F5F",
"l  c #4C4C4C",
"z  c #71718E",
"x  c gray44",
"c  c gray47",
"v  c #989898",
"b  c blue",
"n  c #6F6F6F",
"m  c #606060",
"M  c #62737E",
"N  c #63747D",
"B  c #558080",
"V  c #667A7A",
"C  c #62747C",
"Z  c #6A8080",
"A  c gray22",
"S  c #64757E",
"D  c gray22",
"F  c #68717B",
"G  c #5D7480",
"H  c None",
"J  c #606060",
"K  c #484848",
"L  c #606060",
"P  c gray25",
"I  c #6D6D6D",
"U  c gray25",
"Y  c #6F6F6F",
"T  c #3F3F3F",
"R  c gray25",
"E  c #637180",
"W  c #647480",
"Q  c #608080",
"!  c #627680",
"~  c #583F20",
"^  c #5D7474",
"/  c #704828",
"(  c #627689",
")  c #704828",
"_  c #556A80",
"`  c #483818",
"'  c #594020",
"]  c #63727D",
"[  c #64737C",
"{  c #667780",
"}  c #666680",
"|  c #727272",
" . c gray31",
".. c #64757E",
"X. c #62727D",
"o. c #5E7979",
"O. c gray44",
"+. c #493817",
"@. c #473818",
"#. c #503818",
"$. c #513718",
"%. c #4F3919",
"&. c #734B28",
"*. c #6A4723",
"=. c #647A7A",
"-. c gray61",
";. c #505050",
":. c #503818",
">. c #513918",
",. c #674720",
"<. c #604020",
"1. c cyan",
"2. c #408080",
"3. c #666699",
"4. c #6D6D92",
"5. c #717171",
"6. c #6D8080",
"7. c #66707A",
"8. c #63747A",
"9. c #62747C",
"0. c #64757E",
"q. c #627676",
"w. c gray40",
"e. c #55AAAA",
"r. c #986038",
"t. c #606060",
"y. c gray22",
"u. c #505050",
"i. c #202020",
"p. c #282828",
"a. c #989898",
"s. c #484848",
"d. c black",
"f. c gray44",
"g. c #400000",
"h. c gray25",
"j. c #D0D0D0",
"k. c gray47",
"l. c gray19",
"z. c gray66",
"x. c #888888",
"c. c #282008",
"v. c #403018",
"b. c #382810",
"n. c #63747D",
"m. c #483818",
"M. c #584020",
"N. c #503818",
"B. c #684820",
"V. c white",
/* pixels */
"                                                                                                                                  ",
"                                                                                                                                  ",
"                                                                                                                                  ",
"                                                                                                                                  ",
"                                                                                                                                  ",
"                                                                                                                                  ",
"                                                                                                                                  ",
"                                                                                                                                  ",
"                                                                                                                                  ",
"                                                                                                                                  ",
"                                                                                                                                  ",
"                                                                                                                                  ",
"                                                                                                                                  ",
"                                                                                                                                  ",
"                                                                                                                                  ",
"                                                                                                                                  ",
"                                                                                                                                  ",
"                                                                                                                                  ",
"                                                                                                                                  ",
"                                                                                                                                  ",
"                                                                                                                                  ",
"                                  . X                                                                                             ",
"                                o r.O +                                                                                           ",
"                              X @ t.y.u.# $                                                                                       ",
"                              % i.p.u.a.s.u.& * =                                                                                 ",
"                            - y.d.f.y.f.g.d.h.u.; :                                                                               ",
"                          > , d.u.p.a.i.i.i.p.j.u.*                                                                               ",
"                          < p.d.u.f.i.d.u.d.i.y.s.u.1                                                                             ",
"                        2 u.s.u.p.i.d.i.d.i.i.p.h.s.3 4                                                                           ",
"                        5 u.f.a.i.i.d.d.d.i.p.p.y.h.u.6 >                                                                         ",
"                        : 7 u.f.i.p.i.i.d.p.y.y.s.s.h.u.8 9                                                                       ",
"                          o 0 h.s.y.y.i.i.y.s.u.t.u.s.u.s.q w                                                                     ",
"                            e r s.y.y.j.i.y.s.t.f.t.u.u.u.u.t X                                                                   ",
"                              y u.s.s.u.s.u.t.f.k.f.u.s.u.t.u.u :                                                                 ",
"                                i u.u.t.t.u.f.f.k.k.t.s.s.u.t.u.p :                                                               ",
"                                a u.t.t.t.s.u.t.f.f.t.s.p.s.u.k.t.s d                                                             ",
"                                f u.f.t.t.y.s.u.t.t.u.s.d.p.s.u.k.k.g y                                                           ",
"                                h u.f.t.u.s.y.s.s.u.s.s.p.d.p.s.f.a.k.j                                                           ",
"                                k u.f.f.u.s.l.s.u.s.s.y.y.i.d.p.u.z.x.k.l                                                         ",
"                                z f.k.k.f.u.l.l.s.s.y.y.y.p.d.p.u.a.k.s.x                                                         ",
"                                y c x.z.a.u.i.l.l.l.y.y.y.l.i.p.s.f.s.v b                                                         ",
"                                  n u.a.u.f.d.p.l.l.y.l.p.l.h.p.h.a.m y                                                           ",
"                                  M y.y.p.d.d.p.p.y.y.l.p.p.y.h.y.N B                                                             ",
"                                  V y.s.y.i.d.p.y.y.l.p.p.i.p.h.y.C                                                               ",
"                                  X y.s.s.y.i.i.y.l.p.p.i.d.p.h.y.Z                                                               ",
"                                    A u.t.y.i.i.p.p.p.i.i.d.y.s.A                                                                 ",
"                                    S t.f.s.i.d.i.i.i.i.d.d.s.u.D                                                                 ",
"                                    F f.k.u.i.d.i.d.i.d.i.d.u.u.G                                                                 ",
"                                    : H x.u.i.d.d.i.d.i.d.i.t.u.:                                                                 ",
"                                      J k.u.i.d.d.d.d.d.d.p.t.K                                                                   ",
"                                      L k.u.y.i.d.d.d.d.i.y.u.P                                                                   ",
"                                      I f.t.y.p.i.d.d.i.p.s.s.U                                                                   ",
"                                        Y t.s.y.p.i.i.i.y.u.T :                                                                   ",
"                                        - f.u.y.p.c.v.y.s.s.R                                                                     ",
"                                        E f.u.s.y.c.b.y.s.h.W                                                                     ",
"                                        Q f.t.s.y.c.c.s.s.h.!                                                                     ",
"                                        I f.t.s.y.n.c.s.h.h.~ ^                                                                   ",
"                                        I f.t.y.n.n.n.s.h.h.m./ -                                                                 ",
"                                        ( f.t.y.n.n.n.n.s.u.h.m.M.) _                                                             ",
"                                        V f.u.l.n.n.n.n.y.u.h.c.v.m.` '                                                           ",
"                                        ] f.u.l.n.n.n.n.y.u.u.[ { } :                                                             ",
"                                        | t.u.l.n.n.n.n.f.f.u. ...X.o.B y                                                         ",
"                                        O.u.u.u.n.c.c.c.f.a.u.a.c.c.b.b.b.+.@.#.$.%.&.*.=.( B :                                   ",
"                                        -.;.a.u.N.m.b.b.b.c.c.c.c.c.c.c.c.c.b.b.b.b.b.b.m.m.m.m.:.>.,.<.                          ",
"      y y 1.d : : X w 2.9 3.B 4.5.^ 6.o.7.8.9.n.n.B.B.B.B.B.N.N.m.m.m.m.m.m.m.m.m.m.N.N.N.B.B.B.B.n.0.V q.> w.e.X : : d b y y     "
};
