/* XPM */
static char *_[] = {
/* columns rows colors chars-per-pixel */
"65 65 158 2 ",
"   c black",
".  c #777777",
"X  c #A9A9A9",
"o  c #888888",
"O  c gray47",
"+  c #505050",
"@  c gray18",
"#  c gray47",
"$  c None",
"%  c gray15",
"&  c #627680",
"*  c #65777D",
"=  c #55AAAA",
"-  c #797979",
";  c #282828",
":  c #408080",
">  c gray48",
",  c #3A3A3A",
"<  c #777777",
"1  c #393939",
"2  c gray16",
"3  c #272727",
"4  c black",
"5  c gray13",
"6  c white",
"7  c #62747C",
"8  c #808080",
"9  c #6D6D92",
"0  c black",
"q  c #63757D",
"w  c #687880",
"e  c #606060",
"r  c #684820",
"t  c #A76840",
"y  c #A76741",
"u  c #714C26",
"i  c #A8663D",
"p  c cyan",
"a  c #C87848",
"s  c #694B2D",
"d  c #C77644",
"f  c #B87848",
"g  c #D08051",
"h  c #835125",
"j  c #4F3818",
"k  c #CC7A47",
"l  c gray40",
"z  c #E88759",
"x  c #64747C",
"c  c #E98958",
"v  c #6A4921",
"b  c #B87847",
"n  c #885730",
"m  c #B97949",
"M  c #895830",
"N  c #64767C",
"B  c #996039",
"V  c #666699",
"C  c #995E37",
"Z  c #F89E6F",
"A  c #62747C",
"S  c #403118",
"D  c #D78850",
"F  c #B17140",
"G  c #808080",
"H  c #A96941",
"J  c #557171",
"K  c #5E717B",
"L  c #905830",
"P  c #905831",
"I  c #905931",
"U  c #63757C",
"Y  c #60717D",
"T  c red",
"R  c #66707A",
"E  c yellow",
"W  c #8E5539",
"Q  c #684820",
"!  c #403017",
"~  c #202020",
"^  c #65757A",
"/  c #202020",
"(  c #666680",
")  c #64747D",
"_  c black",
"`  c #63747D",
"'  c black",
"]  c #63737E",
"[  c #62737E",
"{  c black",
"}  c #63747E",
"|  c black",
" . c black",
".. c black",
"X. c black",
"o. c black",
"O. c black",
"+. c #000060",
"@. c #63727D",
"#. c #6A8080",
"$. c #637180",
"%. c #62757D",
"&. c #64737C",
"*. c #63757D",
"=. c #66757C",
"-. c #687480",
";. c #5B6D80",
":. c #558080",
">. c gray66",
",. c #606060",
"<. c gray44",
"1. c #505050",
"2. c #484848",
"3. c #888888",
"4. c gray47",
"5. c gray22",
"6. c #282828",
"7. c #C0C0C0",
"8. c #D0D0D0",
"9. c black",
"0. c #A06038",
"q. c #0000F8",
"w. c #805028",
"e. c #202020",
"r. c #704828",
"t. c #F8A070",
"y. c #F8B898",
"u. c #D08050",
"i. c #B07040",
"p. c #483818",
"a. c #D88850",
"s. c #F89860",
"d. c #F09058",
"f. c #B87848",
"g. c #C87848",
"h. c #63747D",
"j. c #986038",
"k. c #F8B080",
"l. c #885830",
"z. c #A86840",
"x. c gray69",
"c. c #989898",
"v. c #905830",
"b. c #E88858",
"n. c #503818",
"m. c #282008",
"M. c #684820",
"N. c #382810",
"B. c #403018",
"V. c #584020",
"C. c #F8B890",
"Z. c #000060",
"A. c #000088",
"S. c #000040",
"D. c #000048",
"F. c #000078",
"G. c #0000A0",
"H. c white",
/* pixels */
"                                                                                                                                  ",
"                                                                                                                                  ",
"                                                                                                                                  ",
"                                                                                                                                  ",
"                                                                                                                                  ",
"                                                                                                                                  ",
"                                                                                                                                  ",
"                                                                                                                                  ",
"                                                                                                                                  ",
"                                                                                                                                  ",
"                                                                                                                                  ",
"                                                                                                                                  ",
"                                                                                                                                  ",
"                                                                                                                                  ",
"                                                                                                                                  ",
"                                                                                                                                  ",
"                                                                                                                                  ",
"                                                                                                                                  ",
"                                                          . X o O + @                                                             ",
"                                                        # >.,.<.1.2.$ %                                                           ",
"                                                      & 3.4.<.<.1.2.5.6.*                                                         ",
"                                                    = - 3.4.<.<.1.1.2.6.; :                                                       ",
"                                                    > 4.7.8.7.>.3.<.1.1.5.,                                                       ",
"                                                    < 2.9.0.q.0.w.q.w.9.e.1                                                       ",
"                                                    2 e.r.t.y.u.i.y.t.r.e.3                                                       ",
"                                                    4 5 p.a.s.d.d.s.a.p.e.6                                                       ",
"                                                      7 p.f.a.g.i.a.f.p.h.8                                                       ",
"                                                    9 0 9.j.s.k.k.s.p.9.9.q                                                       ",
"                                                  w e 9.1.1.p.l.i.p.1.1.9.9.r                                                     ",
"                                                t z.,.5.x.c.9.9.9.9.c.4.9.v.z.y                                                   ",
"                                              u a.b.i.,.n.9.2.p.m.p.9.9.i.a.a.a.i                                                 ",
"                                            p a b.u.u.5.,.v.b.b.j.a.a.a.a.u.g.g.f.s                                               ",
"                                            d a.b.f.i.i.5.5.v.u.j.u.v.v.w.r.0.v.0.f 4                                             ",
"                                            g b.f.z.w.g.v.e.5.v.n.u.v.u.u.r.r.M.v.w.h                                             ",
"                                          8 u.b.f.M.p.v.v.v.e.5.5.v.r.j.j.p.p.N.w.w.j                                             ",
"                                          k g.u.v.M.B.n.v.v.n.9.e.5.v.r.p.N.m.N.r.r.w.l                                           ",
"                                          z b.z.v.M.m.m.r.w.w.V.9.9.e.5.N.m.N.N.B.V.M.x                                           ",
"                                          c f.j.V.V.m.m.B.V.V.V.N.n.9.9.9.m.m.p.V.0.0.v                                           ",
"                                          b b.b.v.w.N.e.9.9.9.4.,.,.9.9.9.9.e.p.0.0.0.n                                           ",
"                                          m u.g.0.w.p.e.9.9.9.,.,.2.9.9.9.9.m.m.0.C.a.M                                           ",
"                                          N u.C.u.M.p.p.p.M.M.M.n.M.V.p.p.B.B.m.C.a.a.B                                           ",
"                                          V C.a.l.z.V.V.r.l.z.z.n.w.z.z.z.l.n.B.a.a.a.C                                           ",
"                                            Z t.a.z.r.V.V.r.v.l.w.0.f.f.f.0.l.A S D F G                                           ",
"                                            p H z.l.l.M.M.r.r.M.w.0.f.d.d.0.l.J                                                   ",
"                                                A j.j.j.r.r.r.n.w.r.l.l.w.M.V.6                                                   ",
"                                                K n.V.M.M.M.n.n.N.w.u.d.d.f.w.                                                    ",
"                                                6 L v.v.j.j.j.w.z.u.d.d.s.d.u.                                                    ",
"                                                  P i.i.i.0.0.w.z.u.d.d.t.b.u.                                                    ",
"                                                  I u.i.i.0.0.l.z.u.d.s.t.s.f.                                                    ",
"                                                  U u.i.i.0.0.l.v.g.t.t.t.t.t.4                                                   ",
"                                                  Y u.i.i.0.0.l.g.d.a.d.d.a.d.T                                                   ",
"                                                  R u.a.u.0.0.l.g.d.0.j.z.z.f.E                                                   ",
"                                                  W u.0.0.0.l.n.l.n.i.z.w.w.M.4                                                   ",
"                                                  T v.M.0.l.l.n.m.p.m.n.w.w.n.4                                                   ",
"                                                    Q M.M.M.M.p.p.B.m.B.B.B.B.                                                    ",
"                                                    ! m.B.p.p.p.m.e.9.m.m.m.~                                                     ",
"                                                    ^ 9.Z.e.9.9.9.A.Z.S.9.9./                                                     ",
"                                                    ( 9.Z.e.9.9.9.D.F.S.9.9.)                                                     ",
"                                                      _ A.S.9.9.9.9.9.9.9.9.`                                                     ",
"                                                      ' A.Z.9.9.9.9.9.9.9.9.]                                                     ",
"                                                      [ A.Z.9.9.9.9.A.S.9.9.{                                                     ",
"                                                      } 9.A.9.9.9.9.A.S.9.|  .                                                    ",
"                                                      ..A.G.G.D.9.h.9.X.o.O.                                                      ",
"                                                    4 +.A.A.Z.D.D.9.@.4                                                           ",
"                                        4 6 G V #.$.%.Z.e.e.e.9.9.9.&.*.=.-.;.J :.: G 6 4 4                                       "
};
