/* XPM */
static char *_[] = {
/* columns rows colors chars-per-pixel */
"65 65 157 2 ",
"   c black",
".  c white",
"X  c #AAAAAA",
"o  c gray54",
"O  c #797979",
"+  c #555555",
"@  c black",
"#  c #B1B1B1",
"$  c #D0D0D0",
"%  c gray22",
"&  c #272727",
"*  c #668080",
"=  c #888888",
"-  c #282828",
";  c gray47",
":  c #272727",
">  c gray47",
",  c #393939",
"<  c #797979",
"1  c gray22",
"2  c #494949",
"3  c gray13",
"4  c #65737E",
"5  c #62727C",
"6  c #64727B",
"7  c #64737C",
"8  c #808080",
"9  c black",
"0  c #64737D",
"q  c gray38",
"w  c #68491F",
"e  c #6D8080",
"r  c #935831",
"t  c #B77948",
"y  c #8D582C",
"u  c #AA552B",
"i  c #A86840",
"p  c #555555",
"a  c #B77A48",
"s  c #6E4727",
"d  c #D18051",
"f  c #704828",
"g  c #CF8050",
"h  c #584020",
"j  c #CF8050",
"k  c #584020",
"l  c #F8985F",
"z  c #885830",
"x  c #E78758",
"c  c #A86840",
"v  c #D08050",
"b  c #66471F",
"n  c #B17041",
"m  c #D08050",
"M  c #808080",
"N  c #63747D",
"B  c #63737B",
"V  c #AF7140",
"C  c #667780",
"Z  c #B17140",
"A  c #6D6D6D",
"S  c #AF7040",
"D  c #403018",
"F  c #6F4728",
"G  c #403018",
"H  c #9F6038",
"J  c #3F2F18",
"K  c #AF7041",
"L  c #483919",
"P  c #A96841",
"I  c #483919",
"U  c #65757A",
"Y  c #584020",
"T  c #58411E",
"R  c #5E4422",
"E  c #404000",
"W  c #202020",
"Q  c #684820",
"!  c #66757C",
"~  c #666699",
"^  c #402F19",
"/  c #64737E",
"(  c None",
")  c #68717B",
"_  c #0000A8",
"`  c #00005E",
"'  c #000040",
"]  c #000041",
"[  c #202020",
"{  c #63747D",
"}  c black",
"|  c gray40",
" . c black",
".. c #607580",
"X. c #63727E",
"o. c #000040",
"O. c black",
"+. c #00003F",
"@. c black",
"#. c #5B6D80",
"$. c #61727B",
"%. c #62747C",
"&. c #63757D",
"*. c #63747D",
"=. c #61727C",
"-. c #5E717B",
";. c #5D7474",
":. c cyan",
">. c #606060",
",. c gray44",
"<. c #505050",
"1. c #484848",
"2. c #888888",
"3. c gray22",
"4. c #C0C0C0",
"5. c #D0D0D0",
"6. c gray66",
"7. c #202020",
"8. c #A06038",
"9. c #0000F8",
"0. c #885830",
"q. c black",
"w. c #986038",
"e. c #F8A070",
"r. c #F8B898",
"t. c #D08050",
"y. c #F89860",
"u. c #483818",
"i. c #F09058",
"p. c #D88850",
"a. c #C87848",
"s. c #B07040",
"d. c #F8B080",
"f. c #403018",
"g. c #282828",
"h. c #905830",
"j. c #B87848",
"k. c #E88858",
"l. c #503818",
"z. c #282008",
"x. c #A86840",
"c. c #684820",
"v. c #704828",
"b. c #584020",
"n. c #382810",
"m. c #805028",
"M. c #F8B890",
"N. c #000060",
"B. c #000078",
"V. c #000040",
"C. c #0000A8",
"Z. c #000070",
"A. c #0000C8",
"S. c #000088",
"D. c #0000D0",
"F. c #0000A0",
"G. c white",
/* pixels */
"                                                                                                                                  ",
"                                                                                                                                  ",
"                                                                                                                                  ",
"                                                                                                                                  ",
"                                                                                                                                  ",
"                                                                                                                                  ",
"                                                                                                                                  ",
"                                                                                                                                  ",
"                                                                                                                                  ",
"                                                                                                                                  ",
"                                                                                                                                  ",
"                                                                                                                                  ",
"                                                                                                                                  ",
"                                                                                                                                  ",
"                                                                                                                                  ",
"                                                                                                                                  ",
"                                                                                                                                  ",
"                                                                                                                                  ",
"                                                                                                                                  ",
"                                                          . X o O + @                                                             ",
"                                                        # $ >.,.<.1.% &                                                           ",
"                                                      * = 2.,.,.,.1.3.- *                                                         ",
"                                                    @ ; 2.2.,.,.,.<.1.3.: @                                                       ",
"                                                    > 4.4.5.6.6.6.2.,.<.1.,                                                       ",
"                                                    < 7.1.8.9.8.8.9.0.q.7.1                                                       ",
"                                                    2 7.w.e.r.t.8.y.y.w.7.3                                                       ",
"                                                      4 u.y.y.i.i.p.p.u.5                                                         ",
"                                                      6 u.a.p.8.8.a.s.u.7                                                         ",
"                                                    8 9 q.w.y.d.d.p.w.q.q.0                                                       ",
"                                                    q q.<.<.q.f.s.3.g.<.>.q.w                                                     ",
"                                                  e >.3.,.4.6.q.q.q.6.6.7.h.j.r                                                   ",
"                                                  t k.>.l.3.7.0.z.0.q.7.s.j.x.x.y                                                 ",
"                                                u k.t.3.>.1.k.k.0.x.p.p.j.x.8.x.i p                                               ",
"                                                a p.y.t.t.7.1.t.s.c.x.w.w.0.0.u.8.s                                               ",
"                                                d y.y.j.u.g.7.g.0.c.0.v.s.t.0.u.v.f                                               ",
"                                                g y.p.x.u.w.g.g.3.f.c.b.v.w.u.z.n.h                                               ",
"                                                j k.y.8.8.b.m.v.c.g.l.c.0.u.v.z.b.k                                               ",
"                                                l y.j.y.k.s.a.y.s.l.q.7.l.c.f.b.0.z                                               ",
"                                                x y.y.y.y.y.d.M.M.w.7.q.q.z.f.b.x.c                                               ",
"                                                v t.k.i.y.x.e.e.p.x.q.q.q.q.q.n.t.b                                               ",
"                                                8 n s.s.s.s.p.e.p.x.q.q.q.q.q.n.m M                                               ",
"                                                  8 N w.w.m.m.m.m.l.b.u.u.z.n.c.B                                                 ",
"                                                    V w.0.v.v.m.l.8.x.x.8.0.l.c.C                                                 ",
"                                                    Z j.x.w.v.m.l.8.x.x.t.8.0.f.A                                                 ",
"                                                    S j.s.w.0.v.h.x.x.t.t.s.0.D                                                   ",
"                                                    F j.s.w.w.l.8.c.c.c.c.c.c.G                                                   ",
"                                                    H v.b.b.b.u.c.h.a.a.a.h.b.J                                                   ",
"                                                    K j.w.w.0.b.0.a.p.p.p.h.h.L                                                   ",
"                                                    P s.w.0.0.b.0.a.p.p.p.a.h.I                                                   ",
"                                                    7 m.8.0.0.b.h.a.p.p.p.a.c.U                                                   ",
"                                                    Y 8.c.m.m.c.b.a.t.t.t.t.c.C                                                   ",
"                                                    T c.c.c.c.l.0.t.t.t.j.t.c.e                                                   ",
"                                                    R f.l.l.l.u.t.8.a.a.x.h.s.E                                                   ",
"                                                    . W f.f.f.u.l.x.a.a.x.m.Q                                                     ",
"                                                      ! 7.7.7.f.c.x.s.s.x.m.G                                                     ",
"                                                      ~ q.q.q.7.l.c.0.m.m.c.^                                                     ",
"                                                      @ N.B.V.V.q.7.7.7.7.q./                                                     ",
"                                                        ( C.V.V.q.7.C.Z.7.q.)                                                     ",
"                                                        _ A.V.7.q.C.C.Z.7.q.M                                                     ",
"                                                        ` ' ] [ { V.S.Z.7.}                                                       ",
"                                                                | q.C.Z.7. .                                                      ",
"                                                                ..N.C.Z.q.X.                                                      ",
"                                                              @ o.N.C.D.Z.O.                                                      ",
"                                                              +.N.S.S.F.S.@.8                                                     ",
"                                          @ @ . 8 M A #.$.%.&.V.N.N.N.N.V.q.*.=.-.;.| 8 :.@                                       "
};
