/* XPM */
static char *_[] = {
/* columns rows colors chars-per-pixel */
"65 65 165 2 ",
"   c black",
".  c #777777",
"X  c #A9A9A9",
"o  c #888888",
"O  c gray47",
"+  c #505050",
"@  c gray18",
"#  c gray47",
"$  c #282828",
"%  c gray15",
"&  c #627680",
"*  c #65777D",
"=  c #55AAAA",
"-  c #797979",
";  c #282828",
":  c #408080",
">  c gray48",
",  c #3A3A3A",
"<  c #777777",
"1  c #393939",
"2  c gray16",
"3  c #272727",
"4  c black",
"5  c gray13",
"6  c white",
"7  c #64747E",
"8  c #808080",
"9  c #6D6D6D",
"0  c black",
"q  c #64737C",
"w  c #63737B",
"e  c #606060",
"r  c #684820",
"t  c #A6673F",
"y  c #A76741",
"u  c #704729",
"i  c #A8663D",
"p  c #808080",
"a  c #C87848",
"s  c #694B2D",
"d  c #C97849",
"f  c #B87848",
"g  c #D08150",
"h  c #835125",
"j  c #5E717B",
"k  c #4F3818",
"l  c #C87947",
"z  c gray40",
"x  c #E88758",
"c  c #64747C",
"v  c #E88858",
"b  c #B77848",
"n  c #674720",
"m  c #BA7948",
"M  c #694820",
"N  c #D08050",
"B  c #996039",
"V  c #D18052",
"C  c #995E37",
"Z  c #F8A171",
"A  c #63747D",
"S  c #413219",
"D  c #C87748",
"F  c #B06F40",
"G  c #6D6D92",
"H  c #A86840",
"J  c #666699",
"K  c #64737C",
"L  c #606080",
"P  c #282008",
"I  c #64747D",
"U  c None",
"Y  c #63747D",
"T  c #955D38",
"R  c #F38B5D",
"E  c #FF9966",
"W  c #558080",
"Q  c #674820",
"!  c #555500",
"~  c #805029",
"^  c #403118",
"/  c #202020",
"(  c #412F18",
")  c #202020",
"_  c #403119",
"`  c #63737D",
"'  c #61757D",
"]  c #63747D",
"[  c #63737D",
"{  c gray12",
"}  c black",
"|  c #222222",
" . c black",
".. c black",
"X. c #202020",
"o. c gray13",
"O. c #202020",
"+. c black",
"@. c #5D7480",
"#. c #63747D",
"$. c black",
"%. c black",
"&. c #0000B0",
"*. c black",
"=. c #555555",
"-. c #6D8080",
";. c #607379",
":. c #62747C",
">. c #63747D",
",. c #60717D",
"<. c #667380",
"1. c #668080",
"2. c gray66",
"3. c #606060",
"4. c gray44",
"5. c #505050",
"6. c #484848",
"7. c #888888",
"8. c gray47",
"9. c gray22",
"0. c #282828",
"q. c #C0C0C0",
"w. c #D0D0D0",
"e. c black",
"r. c #A06038",
"t. c #0000F8",
"y. c #805028",
"u. c #202020",
"i. c #704828",
"p. c #F8A070",
"a. c #F8B898",
"s. c #D08050",
"d. c #B07040",
"f. c #483818",
"g. c #D88850",
"h. c #F89860",
"j. c #F09058",
"k. c #B87848",
"l. c #C87848",
"z. c #63747D",
"x. c #986038",
"c. c #F8B080",
"v. c #885830",
"b. c #A86840",
"n. c gray69",
"m. c #989898",
"M. c #905830",
"N. c #E88858",
"B. c #503818",
"V. c #282008",
"C. c #684820",
"Z. c #382810",
"A. c #403018",
"S. c #584020",
"D. c #F8B890",
"F. c #000070",
"G. c #000048",
"H. c #000040",
"J. c #000078",
"K. c #000060",
"L. c #0000A8",
"P. c #0000C8",
"I. c #000088",
"U. c #0000B0",
"Y. c white",
/* pixels */
"                                                                                                                                  ",
"                                                                                                                                  ",
"                                                                                                                                  ",
"                                                                                                                                  ",
"                                                                                                                                  ",
"                                                                                                                                  ",
"                                                                                                                                  ",
"                                                                                                                                  ",
"                                                                                                                                  ",
"                                                                                                                                  ",
"                                                                                                                                  ",
"                                                                                                                                  ",
"                                                                                                                                  ",
"                                                                                                                                  ",
"                                                                                                                                  ",
"                                                                                                                                  ",
"                                                                                                                                  ",
"                                                                                                                                  ",
"                                                          . X o O + @                                                             ",
"                                                        # 2.3.4.5.6.$ %                                                           ",
"                                                      & 7.8.4.4.5.6.9.0.*                                                         ",
"                                                    = - 7.8.4.4.5.5.6.0.; :                                                       ",
"                                                    > 8.q.w.q.2.7.4.5.5.9.,                                                       ",
"                                                    < 6.e.r.t.r.y.t.y.e.u.1                                                       ",
"                                                    2 u.i.p.a.s.d.a.p.i.u.3                                                       ",
"                                                    4 5 f.g.h.j.j.h.g.f.u.6                                                       ",
"                                                      7 f.k.g.l.d.g.k.f.z.8                                                       ",
"                                                    9 0 e.x.h.c.c.h.f.e.e.q                                                       ",
"                                                  w e e.5.5.e.v.d.e.5.5.e.e.r                                                     ",
"                                                t b.3.9.n.m.e.e.e.e.m.8.e.M.b.y                                                   ",
"                                              u g.N.d.3.B.e.6.v.V.v.e.e.d.g.g.g.i                                                 ",
"                                            p a N.s.s.9.3.M.N.N.x.g.g.g.g.s.l.l.k.s                                               ",
"                                            d g.N.k.d.d.9.9.M.s.x.s.M.M.y.i.r.M.r.f 4                                             ",
"                                          4 g N.k.b.y.l.M.u.9.M.B.s.M.s.s.i.i.C.M.y.h                                             ",
"                                          j s.N.k.C.f.C.y.M.u.9.9.M.i.x.x.f.i.Z.y.y.k                                             ",
"                                          l l.N.s.C.A.B.C.C.B.e.u.9.M.i.f.i.B.Z.i.i.y.z                                           ",
"                                          x N.N.b.C.Z.A.B.B.A.B.e.e.u.9.M.B.Z.Z.A.S.C.c                                           ",
"                                          v k.x.S.S.Z.A.A.A.A.A.Z.B.e.e.e.V.V.f.S.y.y.r                                           ",
"                                          b N.N.l.y.Z.u.u.u.u.8.3.3.u.u.u.u.u.f.C.M.M.n                                           ",
"                                          m s.l.r.r.C.u.u.u.u.3.3.6.u.u.u.u.V.V.u.r.r.M                                           ",
"                                          : N s.D.s.C.f.f.C.C.C.B.C.S.f.f.A.A.V.d.l.r.B                                           ",
"                                            V D.g.v.b.i.y.v.b.b.B.y.y.y.C.S.B.A.d.l.r.C                                           ",
"                                              Z p.g.b.y.v.v.M.b.y.i.v.y.i.C.S.A S D F p                                           ",
"                                              G H b.v.v.v.v.M.M.y.i.v.v.y.C.S.J                                                   ",
"                                                K f.S.x.x.i.i.y.y.i.v.v.y.C.S.4                                                   ",
"                                                L z.d.s.j.j.b.i.Z.Z.B.C.C.A.P                                                     ",
"                                                  I s.p.p.p.j.b.S.S.C.i.y.C.U                                                     ",
"                                                  Y h.p.p.p.j.s.v.C.y.v.v.y.S.                                                    ",
"                                                  T p.p.p.p.p.x.v.C.y.v.v.y.S.                                                    ",
"                                                  R j.j.j.j.d.j.v.C.y.v.v.y.S.                                                    ",
"                                                  E x.b.b.x.y.x.l.C.y.v.x.y.S.                                                    ",
"                                                  W C.y.y.b.d.B.v.C.y.v.y.x.Q                                                     ",
"                                                  ! C.y.y.C.f.f.V.B.y.y.i.C.~                                                     ",
"                                                  4 A.C.S.B.A.A.f.B.B.B.B.B.^                                                     ",
"                                                    / V.V.V.e.u.f.f.B.B.B.B.(                                                     ",
"                                                    ) F.e.e.e.e.V.f.f.f.A.V._                                                     ",
"                                                    ` F.G.e.e.e.H.u.H.u.u.e.'                                                     ",
"                                                    ] e.e.e.e.e.H.u.H.u.u.e.j                                                     ",
"                                                    [ J.u.e.e.e.H.K.H.H.u.e.:                                                     ",
"                                                    { L.K.u.e.e.Y H.K.H.u.}                                                       ",
"                                                    | P.I.F.u. .: I.F.H.u...                                                      ",
"                                                      X.o.O.+.  @.I.F.F.e.#.                                                      ",
"                                                                $.U.L.J.H.%.                                                      ",
"                                                              4 &.J.K.H.H.e.*.4                                                   ",
"                                                4 4 p =.W -.;.:.u.u.u.u.u.e.e.>.[ ,.<.1.J p 6 4                                   "
};
