/* XPM */
static char *_[] = {
/* columns rows colors chars-per-pixel */
"65 65 161 2 ",
"   c black",
".  c #767676",
"X  c #A9A9A9",
"o  c #888888",
"O  c gray47",
"+  c #505050",
"@  c gray20",
"#  c gray47",
"$  c gray16",
"%  c #63727D",
"&  c #64737D",
"*  c #55AAAA",
"=  c #797979",
"-  c gray16",
";  c #777777",
":  c #393939",
">  c gray47",
",  c #373737",
"<  c #252525",
"1  c #282828",
"2  c black",
"3  c #202020",
"4  c #202020",
"5  c #63747D",
"6  c #64737C",
"7  c #606080",
"8  c black",
"9  c black",
"0  c #606060",
"q  c #808080",
"w  c #C77847",
"e  c #905830",
"r  c #5B6D80",
"t  c #C97847",
"y  c #A06038",
"u  c #AA5539",
"i  c #A16137",
"p  c #9E5E39",
"a  c #B77848",
"s  c #808000",
"d  c #A06137",
"f  c #724A28",
"g  c #B97949",
"h  c #503718",
"j  c #885830",
"k  c #C77848",
"l  c None",
"z  c #D07E4F",
"x  c #668080",
"c  c #F8A070",
"v  c #674820",
"b  c #F8B990",
"n  c #694820",
"m  c gray40",
"M  c #684720",
"N  c #805028",
"B  c #62737E",
"V  c #90582F",
"C  c #667777",
"Z  c #AF7041",
"A  c #483817",
"S  c #AF703F",
"D  c #3F3018",
"F  c #A05F37",
"G  c #403018",
"H  c #8F5731",
"J  c #413018",
"K  c #90572F",
"L  c #66777D",
"P  c #64757E",
"I  c #68717B",
"U  c #A96742",
"Y  c #B47644",
"T  c #663333",
"R  c #E88B5D",
"E  c #80552B",
"W  c #202020",
"Q  c #805028",
"!  c black",
"~  c #805029",
"^  c #63747D",
"/  c #64727B",
"(  c #64747C",
")  c #608080",
"_  c #000071",
"`  c #808080",
"'  c #000070",
"]  c #000060",
"[  c #65737E",
"{  c #63737C",
"}  c black",
"|  c gray12",
" . c gray12",
".. c gray10",
"X. c #62747C",
"o. c #697887",
"O. c cyan",
"+. c #000048",
"@. c black",
"#. c #393939",
"$. c #373737",
"%. c blue",
"&. c #62727D",
"*. c #63747D",
"=. c #63757D",
"-. c #62747C",
";. c #61727B",
":. c #6D6D6D",
">. c white",
",. c gray66",
"<. c #606060",
"1. c gray44",
"2. c #505050",
"3. c #484848",
"4. c #282828",
"5. c #888888",
"6. c gray47",
"7. c gray22",
"8. c #C0C0C0",
"9. c #D0D0D0",
"0. c black",
"q. c #A06038",
"w. c #0000F8",
"e. c #805028",
"r. c #202020",
"t. c #704828",
"y. c #F8A070",
"u. c #F8B898",
"i. c #D08050",
"p. c #B07040",
"a. c #483818",
"s. c #D88850",
"d. c #F89860",
"f. c #F09058",
"g. c #B87848",
"h. c #C87848",
"j. c #986038",
"k. c #F8B080",
"l. c #684820",
"z. c #503818",
"x. c #885830",
"c. c #584020",
"v. c #905830",
"b. c #E88858",
"n. c #A86840",
"m. c #403018",
"M. c #F8B890",
"N. c gray69",
"B. c #282008",
"V. c #63747D",
"C. c #000040",
"Z. c #000070",
"A. c #0000A8",
"S. c #000078",
"D. c #000060",
"F. c #000098",
"G. c #000088",
"H. c #0000D0",
"J. c #0000A0",
"K. c #000058",
"L. c white",
/* pixels */
"                                                                                                                                  ",
"                                                                                                                                  ",
"                                                                                                                                  ",
"                                                                                                                                  ",
"                                                                                                                                  ",
"                                                                                                                                  ",
"                                                                                                                                  ",
"                                                                                                                                  ",
"                                                                                                                                  ",
"                                                                                                                                  ",
"                                                                                                                                  ",
"                                                                                                                                  ",
"                                                                                                                                  ",
"                                                                                                                                  ",
"                                                                                                                                  ",
"                                                                                                                                  ",
"                                                                                                                                  ",
"                                                                                                                                  ",
"                                                                                                                                  ",
"                                                            . X o O + @                                                           ",
"                                                          # ,.<.1.2.3.4.$                                                         ",
"                                                        % 5.6.1.1.2.3.7.4.&                                                       ",
"                                                      * = 5.6.1.1.2.2.3.4.- *                                                     ",
"                                                      ; 6.8.9.8.,.5.1.2.2.7.:                                                     ",
"                                                      > 3.0.q.w.q.e.w.e.0.r.,                                                     ",
"                                                      < r.t.y.u.i.p.u.y.t.r.1                                                     ",
"                                                      2 3 a.s.d.f.f.d.s.a.4 2                                                     ",
"                                                        5 a.g.s.h.p.s.g.a.6                                                       ",
"                                                      7 8 0.j.d.k.k.d.a.0.9                                                       ",
"                                                    * 0 0.0.0.l.q.q.q.0.0.0.&                                                     ",
"                                                  q w <.7.1.9.0.0.0.0.9.1.0.e r                                                   ",
"                                                  t h.3.<.z.0.3.x.c.7.0.0.p.s.y q                                                 ",
"                                                u i.g.3.7.v.p.b.g.s.p.p.s.s.i.i.i                                                 ",
"                                                p b.v.p.7.7.v.p.g.q.v.v.p.b.i.g.a s                                               ",
"                                                d g.v.j.n.r.r.v.g.q.g.i.x.p.q.g.i.f                                               ",
"                                                g n.l.j.s.t.r.r.7.v.t.j.j.q.a.g.i.h                                               ",
"                                                g.i.n.j.g.s.t.m.0.r.s.k.M.i.t.g.i.j                                               ",
"                                                k i.n.l.n.h.h.l.m.m.k.f.s.s.p.p.j.l                                               ",
"                                                z i.c.a.q.h.e.i.l.v.k.f.s.s.p.p.p.l.                                              ",
"                                                x c q.7.2.1.2.8.N.7.m.i.p.B.x.x.x.v                                               ",
"                                                  b h.7.2.1.2.6.6.7.7.7.7.l.t.t.t.n                                               ",
"                                                  m V.c.l.e.e.e.e.z.e.e.c.c.l.l.M *                                               ",
"                                                    N p.i.i.i.g.n.t.q.v.x.t.z.B.B                                                 ",
"                                                    V i.d.f.s.i.n.x.q.v.x.t.c.z.C                                                 ",
"                                                    Z b.d.f.s.i.n.j.t.v.x.t.c.A 2                                                 ",
"                                                    S q.v.v.v.v.v.q.t.v.x.t.c.D                                                   ",
"                                                    F p.g.s.s.h.q.l.B.c.c.z.m.G                                                   ",
"                                                    H s.b.b.b.s.h.x.c.l.l.z.a.J                                                   ",
"                                                    K s.b.b.b.b.h.x.c.e.t.l.z.L                                                   ",
"                                                    P s.b.b.b.b.h.v.c.e.t.t.c.I                                                   ",
"                                                    U b.b.b.b.b.p.p.t.x.t.t.c.r                                                   ",
"                                                    Y b.n.b.b.b.s.x.x.j.t.z.t.T                                                   ",
"                                                    R n.h.h.h.h.j.h.t.z.z.z.m.2                                                   ",
"                                                    E e.h.h.h.h.n.t.m.z.a.m.W                                                     ",
"                                                      Q j.h.h.h.n.l.r.r.r.r.!                                                     ",
"                                                      ~ e.x.x.x.l.B.0.0.0.0.^                                                     ",
"                                                      / 0.r.r.r.r.0.C.C.C.r.(                                                     ",
"                                                      ) Z.A.Z.r.0.0.C.S.D.r.I                                                     ",
"                                                        _ A.Z.r.0.0.r.F.D.r.`                                                     ",
"                                                        ' A.Z.r.0.0.r.G.F.]                                                       ",
"                                                        [ A.Z.r.0.{ } |  ...                                                      ",
"                                                        X.0.Z.r.0.o.                                                              ",
"                                                      O.+.Z.H.S.C.@.2                                                             ",
"                                                      #.D.G.J.G.K.r.$.                                                            ",
"                                      2 %.q * 7 o.&.*.7.C.C.C.r.r.r.7.=.-.;.r :.` q >.2 2                                         "
};
