/* XPM */
static char *_[] = {
/* columns rows colors chars-per-pixel */
"64 64 31 1 ",
"  c None",
". c gray9",
"X c #191919",
"o c gray22",
"O c #555555",
"+ c #5A5A5A",
"@ c #6D6D6D",
"# c #627676",
"$ c #67757C",
"% c #68717B",
"& c #647A7A",
"* c #717171",
"= c #7B7B7B",
"- c #80552B",
"; c #855231",
": c #C6734A",
"> c #EFA573",
", c #F0A573",
"< c #6A6A80",
"1 c #667780",
"2 c #666699",
"3 c #608080",
"4 c #6A8080",
"5 c cyan",
"6 c #808080",
"7 c gray74",
"8 c #EFBD9C",
"9 c #FFFFBF",
"0 c #EFDECE",
"q c #F6E3D0",
"w c white",
/* pixels */
"                                                                ",
"                                                                ",
"                                                                ",
"                                                                ",
"                                                                ",
"                                                                ",
"                                                                ",
"                                                                ",
"                                                                ",
"                                                                ",
"                                                                ",
"                                                                ",
"                                                                ",
"                                                                ",
"                                                                ",
"                                                                ",
"                                                                ",
"                                                                ",
"                                                                ",
"                                                                ",
"                                                                ",
"                                                                ",
"                                                                ",
"                                                                ",
"                                                                ",
"                                                                ",
"                                                                ",
"                                                                ",
"                         Oo==oO                                 ",
"                        6+=w=+o6                                ",
"                        X+=w=+oX                                ",
"                        X+=0=+o.                                ",
"                        .+=7=+oX                                ",
"                       4X+=7=+oX<                               ",
"                       $X+=7=+oX$                               ",
"                      +7X=7777=X7+                              ",
"                     ++=X=w==w=X=++                             ",
"                    oo+=X70==0=X=++o                            ",
"                    oo+=X7=++==X=++o                            ",
"                    oo+=X7+oo+=X=+oo                            ",
"                    oo+=o=7777=o=+oo                            ",
"                    oo+=o+====+o=+oo                            ",
"                     o+=o++++++o=+oo6                           ",
"                    ooo+oXXXXXXo+oXX*                           ",
"                    oXX+oooooooooXXX$                           ",
"                   6oXXoo=++=7=ooXXX;:                          ",
"                   @oXXXo++=77=oXXXX;:,                         ",
"                   $oXXXoXXXXXXoXXXX;::2                        ",
"                   $oXXXoXXXXXXoXXXX;;:>                        ",
"                  ;;ooXXoXXooXXoXXoX;;:>&                       ",
"                 -;;o+oXoXXXXXXoXo+X;;:>8                       ",
"                 ;;;;=+XooXXXXooX+X;;;;:81                      ",
"                -;;;;;=XoooooooooX;;;;;:>0                      ",
"                ;;;::;;X++====++o;::;;;:>09                     ",
"               3;;:>>:;XXXXXXXXXX::>;;;:>0q                     ",
"               ;;;:>888;;;:>>:;;:88;;::>>08                     ",
"              5;;;;:>>>>;;;:88:::>;;:::>80,                     ",
"              $;:;;;:>>>888;;;>::;;:;::800$                     ",
"              ;:8:;;;:>8088>::;;;::;;:>800%                     ",
"             O;:8>:;;;:8>>::;;:::;;;;:>808#                     ",
"             $;>8>>:;;;>>::;;;;;;;;;:>>80>6                     ",
"             ;:>>>>::;;:>:;;;;;;;;;;:>>80;                      ",
"             ;:>>>:::;;;>>:;;;;;;;;;:>>80;                      ",
"             ;::::::;;;;;,>:;;;;;;;;:>>80;                      "
};
