/* XPM */
static char *_[] = {
/* columns rows colors chars-per-pixel */
"64 64 39 1 ",
"  c None",
". c #161616",
"X c #181818",
"o c #373737",
"O c #393939",
"+ c #555555",
"@ c #5A5A5A",
"# c #5F757C",
"$ c #6D6D6D",
"% c #627676",
"& c #63747E",
"* c #68717B",
"= c #667A7A",
"- c #697878",
"; c #717171",
": c #7B7B7B",
"> c #83542F",
", c #824F33",
"< c #855232",
"1 c #C6734A",
"2 c #C8754C",
"3 c #EFA573",
"4 c #606080",
"5 c #667380",
"6 c #627689",
"7 c #71718E",
"8 c #666699",
"9 c #558080",
"0 c #608080",
"q c #55AAAA",
"w c cyan",
"e c #808080",
"r c gray74",
"t c #EFBF97",
"y c #EFBD9C",
"u c #F1BE9E",
"i c #EFDECE",
"p c #F0E1D2",
"a c white",
/* pixels */
"                                                                ",
"                                                                ",
"                                                                ",
"                                                                ",
"                                                                ",
"                                                                ",
"                                                                ",
"                                                                ",
"                                                                ",
"                                                                ",
"                                                                ",
"                                                                ",
"                                                                ",
"                                                                ",
"                                                                ",
"                                                                ",
"                         +O::O+                                 ",
"                        w@:a:@Oe                                ",
"                        .@:a:@OX                                ",
"                        X@:i:@OX                                ",
"                        X@:r:@OX                                ",
"                       eX@:r:@OXe                               ",
"                       5X@:r:@OX5                               ",
"                       &X@:r:@OX&                               ",
"                      @rX:rrrr:Xr@                              ",
"                     @@:X:a::a:X:@@                             ",
"                    oO@:Xri::i:X:@@O                            ",
"                    OO@:Xr:@@::X:@@O                            ",
"                    OO@:Xr@OO@:X:@OO                            ",
"                    OO@:O:rrrr:O:@OO                            ",
"                    OO@:O@::::@O:@OO                            ",
"                    OO@:O@@@@@@O:@OO9                           ",
"                   wOOO@OXXXXXXO@OXX&                           ",
"                   eOXX@OOOOOOOOOXXX<12                         ",
"                   5OXXOO:@@:r:OOXXX<13u                        ",
"                   &OXXXO@@:rr:OXXXX<11ye                       ",
"                  <<OXXXOXXXXXXOXXXX<<13y                       ",
"                 <<<OOXXOXXOOXXOXXOX<<13yw                      ",
"                q<<<O@OXOXXXXXXOXO@X<<13y*                      ",
"                <<<<<:@XOOXXXXOOX@X<<<<1yy                      ",
"               e<<<<<<:XOOOOOOOOOX<<<<<13i                      ",
"               ,<<<11<<X@@::::@@O<11<<<13ir                     ",
"               <<<1331<XXXXXXXXXX113<<<13ip                     ",
"              0<<<13yyy<<<1331<<1yy<<1133it                     ",
"              <13<<13333<<<1yy1113<<1113yi3                     ",
"              <131<<1333yyy<<<311<<1<11yii5                     ",
"             +<1y31<<13yiyy311<<<11<<13yii=                     ",
"             5<1y331<<1y3311<<111<<<<13yiy%                     ",
"             >13y3311<<3311<<<<<<<<<133yi37                     ",
"             <13333111<131<<<<<<<<<<133yi<-                     ",
"            e<1333111<<<331<<<<<<<<<133yi<&                     ",
"            5<111111<<<O<331<<<<<<<<133yi<&                     ",
"            &<11111<<<OOO<111<<<<<<:::::::@&                    ",
"           4@:rrr::<<<XXXXO<11<<@:rrrrrrria:                    ",
"           @riiiiiiir:@OXO@&<<@:rrrrr::rrraa:                   ",
"          5riaaiiirr::@@@@& <@:rrr@OXO:::rrai$                  ",
"         wriaaaair:::@OOXXO &::ir:OX@@@rrrrai:                  ",
"         rrrriaaairr@XXXXX@ ;:ai@OXXX@@::rriai:                 ",
"        9riaaaaaaaair:OXXX@ e:a@OXX@:::::@@:rar8                ",
"        raaairrrrriir:@OXO@  ::OX@::@@@:rr:@@ri:                ",
"       6raairr::::@@@@OXX@9  :@X@:@@OXXO@:rr:@ri#               ",
"       rairr::ra:@OOOOXXO@   :O@:@@@:@OXXO@:rr:ire              ",
"      -aair:@@:rr:@@OXXX@5   :O:::rr::@@OXXO:raar:              ",
"      raair:@@@::r:OOXXO@    :::riiir::: O..O:raar              "
};
