/* XPM */
static char *_[] = {
/* columns rows colors chars-per-pixel */
"64 64 48 1 ",
"  c None",
". c gray9",
"X c #181818",
"o c #373737",
"O c #393939",
"+ c #555555",
"@ c #5A5A5A",
"# c #5D7474",
"$ c #5F757C",
"% c #5A7878",
"& c gray40",
"* c #6D6D6D",
"= c #646F7A",
"- c #627676",
"; c #62747C",
": c #617979",
"> c #697878",
", c #717171",
"< c #7B7B7B",
"1 c #DA0000",
"2 c #E30000",
"3 c #894E3B",
"4 c #825432",
"5 c #F75A08",
"6 c #F85A08",
"7 c #EF7B18",
"8 c #C6734A",
"9 c #C8744B",
"0 c #F7B521",
"q c #EFA573",
"w c #F1A675",
"e c #666680",
"r c #647680",
"t c #687480",
"y c #627689",
"u c #71718E",
"i c blue",
"p c #558080",
"a c #608080",
"s c #6D8080",
"d c cyan",
"f c #808080",
"g c gray74",
"h c #EFBC9B",
"j c #EFBD9C",
"k c #EFDECE",
"l c #F1E3C6",
"z c white",
/* pixels */
"                                                                ",
"                                                                ",
"                                                                ",
"                                                                ",
"                                                                ",
"                                                                ",
"                                                                ",
"                          1111                                  ",
"                         161511                                 ",
"                        e5151512                                ",
"                        11777651+                               ",
"                       1570707661                               ",
"                      f1507070755a                              ",
"                      1570kjkw0751                              ",
"                     a55qkjzkzjq55%                             ",
"                     155jkzzzzkj551                             ",
"                    f 57kzzggkzk555e                            ",
"                    1550z<<z<@<k0751                            ",
"                    157kX@<z<@OXk771                            ",
"                    170kX@<z<@OXk071                            ",
"                    170kX@<k<@OXk07e                            ",
"                    z150X@<g<@OX012                             ",
"                     i15X@<g<@OX1u                              ",
"                       ;X@<g<@OX;                               ",
"                      @0X<0zz0<X0@                              ",
"                     @@<X<z<<z<X<@@                             ",
"                    oO@<Xgk<<k<X<@@O                            ",
"                    OO@<Xg<@@<<X<@@O                            ",
"                    OO@<Xg@OO@<X<@OO                            ",
"                    OO@<O<gggg<O<@OO                            ",
"                    OO@<O@<<<<@O<@OOi                           ",
"                    OO@<O@@@@@@O<@OOa                           ",
"                   dOOO@OXXXXXXO@OXX;                           ",
"                   &OXX@OOOOOOOOOXXX09                          ",
"                   tOXXOO<@@<g<OOXXX00q                         ",
"                   ;OXXXO@@<gg<OXXXXq0qf                        ",
"                  a4OXXXOXXXXXXOXXXXqqqq                        ",
"                 f4qOOXXOXXOOXXOXXOXq88q#                       ",
"                 4qqO@OXOXXXXXXOXO@X8488j                       ",
"                38qq4<@XOOXXXXOOX@X44448qe                      ",
"                488444<XOOOOOOOOOX444448qk                      ",
"               &4848844X@@<<<<@@O4884448qk                      ",
"               4448jj84XXXXXXXXXX8844848qkl                     ",
"               4448qjkj8448qw8448j44q48qqkj                     ",
"              *44O48qjkkq888jj84844w848qjkw                     ",
"              4884O48qqjkkq8848444q8448qjk4                     ",
"              48j84X48qjkjjq88448q8448qqkk;                     ",
"             f48jj84X48jqq844488844448qjkj=                     ",
"             ;4qjjq44X4qq844444444448wwjkqs                     ",
"             48qqqq44OX8q844444444448wwjk4:                     ",
"            z48qqq8844XXqq84444444448qwjk4;                     ",
"            ;488888844XX4qq8444444448qwjk4;                     ",
"            ;488888444XXX488844444@<<<<<<<@r                    ",
"           -@<ggg<<444XXXXO48444@<gzzzzzzzg<                    ",
"           @gkkzzzkkgg@OXXO;44@<gzzzg<<ggzzg<                   ",
"          rgkzzkkkgg<<@@@@; 4@<gzg@OXO<<<gzzge                  ",
"         z@kzzzzkg<<@@OOXXO ;<gkg<OXO@@ggzzzk<                  ",
"         @gggkzzzkgg@XXXXX@ ,<zg@OXXXO@<<ggkzg<                 ",
"        *gkzzzzzzzzkg<OXXX@ f<g@OXXO<<<<<@@<gzgp                ",
"        @zzzzgggggkkg<@OXO@  <@OXO<<@@@<gg<@@gk<                ",
"       ygzzkgzzg<<@@@@OXX@p  <OXO<@@OXXO@<gg<@gg$               ",
"       @zkggO<gzg@OOXXXXO@   <OO<@@@<@OXXO@<gg<kgf              ",
"      >zzkg<XO<gzg@@OXXX@r   <O<<<gg<<@@OXXO<gzzg<              ",
"      @zzkg<XXO<<g<OOXXO@    <<<gkkkg<<<@O..O<gzzg              "
};
