/* XPM */
static char *_[] = {
/* columns rows colors chars-per-pixel */
"63 64 41 1 ",
"  c None",
". c gray9",
"X c #181818",
"o c gray14",
"O c #373737",
"+ c #393939",
"@ c #555555",
"# c #5A5A5A",
"$ c #5E7979",
"% c gray40",
"& c #627676",
"* c #63747D",
"= c #667A7A",
"- c #697878",
"; c #7B7B7B",
": c #924924",
"> c #804E31",
", c #845231",
"< c #C6734A",
"1 c #EFA573",
"2 c #F0A674",
"3 c #F2A872",
"4 c #556A80",
"5 c #6A6A80",
"6 c #637680",
"7 c #697887",
"8 c #627689",
"9 c #71718E",
"0 c blue",
"q c #408080",
"w c #558080",
"e c #608080",
"r c #55AAAA",
"t c #808080",
"y c gray74",
"u c #EFBD9C",
"i c #FFB692",
"p c #F0BE9B",
"a c #EFDECE",
"s c #F0DECF",
"d c white",
/* pixels */
"                         6++++4                                ",
"                        X+#d;#+.                               ",
"                       o #;d;#+XX                              ",
"                       .X#;a;#+XX                              ",
"                       .X#;y;#+XX                              ",
"                       XX#;y;#+X.                              ",
"                       XX#;y;#+X                               ",
"                       XX#;y;#+XX                              ",
"                      0XX#;y;#+XX0                             ",
"                      %XX#;y;#+XX%                             ",
"                      6XX#;y;#+XX=                             ",
"                      *XXydddd;XX*                             ",
"                     +;;Xydyyd;X;;+                            ",
"                    +;y#Xydyyd;X#y;+                           ",
"                   +#;y#Xyd;;d;X#y;+.                          ",
"                   +#;y#Xydyyd;X#y;+X                          ",
"                   +#;y#Xyd;;d;X#y;+X                          ",
"                   +#;y#Xya;;a;X#y;+Xt                         ",
"                   +#;y#Xy;##;;X#y;+X*                         ",
"                   +#;y#Xy#++#;X#y;+Xu8                        ",
"                   +#;y#+;yyyy;+#y;+X<1i                       ",
"                  t+#;y#+#;;;;#+#;#+X<<2                       ",
"                  w++#;#+######+##++X,<1u                      ",
"                  *+++##+XXXXXX+#++XX,<1u                      ",
"                  *+X++#++++++++++XXX,<<u7                     ",
"                 ,,+XX+++;##;y;++XXXX,,<1u                     ",
"                ,,,+XX+++##;yy;+X+XXX,,<1p@                    ",
"               :,,,+#+XX+XXXXXX+XX+#X,<<1u*                    ",
"               ,,,<,;#+X++XXXX++X+#X,,,,<uu                    ",
"               ,,<<<,;#X+++++++++#X,,,,,<1at                   ",
"              6,,<1d<,;X##;;;;##+X,<<,,,<1as                   ",
"              ,,,1uau<,XXXXXXXXXX,<<1,,<<1aa                   ",
"              ,,,,1uuu<,,,<11<,,<1uu,,<<<1ap                   ",
"             r,<,,<111u1<,,<uu<<<u1,,<1<<1a3                   ",
"             ><1<,,<111auuu<,,1<<<,,u1<<<1a-                   ",
"             ,<u1<,,<11aaau1u<,,,,uu1<<,<ua@                   ",
"             ,<u11<,,<1a11<<<1uuuu1<<,,,<au                    ",
"             <<u11<<,,<11<,,,<<11<<,,,,<1a1                    ",
"            5<1111<<<,,<1<,,,,,<<,,,,,,<ua*                    ",
"            ,<111<<<,,,<11<,,,,,,,,,,,<1ua6                    ",
"            ,<<<<<<,,,,,<11<,,,,,,,,,,<1ua6                    ",
"            ,,<<<<,,,,<<,<<1<,,,,,,,,<<1ua$                    ",
"           q,,,,,,,,,<,++XX<1<,,,,,,,<<1ua*                    ",
"           =,,,,,,,,<,++XXX+,1<,,,,;;;;;;;;                    ",
"           *dddddddyy,+XXXX+#<<,#;;yyyaday;&                   ",
"           ddyyyyyyyy;;#XX+#*,#;;yy;;;;addy#                   ",
"          @dddayyyyyy;#+++#*6#;yy;;####;;;y;e                  ",
"          6ddddddyyy;;##XX#*5;;ya;;;yyyy;;;y#                  ",
"          ddddyyyy;;####XX#qw;yaayyy;#;;yddy;t                 ",
"          dddyyy;;#####XXX# @;yay;#++###;;yy;@                 ",
"         wddddy;;#+++++XX+# d;y;#++##;;yyy##;;                 ",
"         ddddddyy;;;+XXXX+O  ;;#+##;;###;yy;##5                ",
"         ddaaaadddyy;+XXX#9  ;#++#;#######;yy;#                ",
"         aayyyyyyaddy;+XX#   ;++#;###++++##;yy;                ",
"        8yy#;;;;yyyady#XX#   ;+#y;#++#;;;;##;y;*               ",
"        ay#######;yyyy#X++   ;;yy#+##;yyyy;;##;#               ",
"        ydda;#+X++#;;;+X#*   ;d##+#;;yydddyyay;;t              ",
"       tydaydy;+XX++#+XX#6   ;#+X+#;y;;;yy##;yy;*              ",
"       6ddddydy;;+XXXXXX#5   ;+X+#;;;###;yy;;;yy;              ",
"       ydddyyyddyy;+XXXX+t   ;X+#;;#++XX##;yy;;y;@             ",
"       dayy;yyyddy;#+XXX+t   ;X+;;#+#;#+X+##;yy;a#             ",
"      wday;X#yyyy;;#+XXX+    ;X+#;;;yy;##+X+#;ydd;             ",
"      *day;#X#;;;;#+XXXX+    ;XX+#;yyyy;;#+XX#;ydy             ",
"      sdday;#XXX+++XXXXX+    #XXX+#;aayyy;;#+X#;yd             "
};
