/* XPM */
static char *_[] = {
/* columns rows colors chars-per-pixel */
"65 65 84 1 ",
"  c None",
". c black",
"X c gray12",
"o c #282008",
"O c #382810",
"+ c #3F3018",
"@ c #202020",
"# c #282828",
"$ c gray16",
"% c gray19",
"& c gray22",
"* c #400000",
"= c #480000",
"- c #500000",
"; c #600000",
": c #700000",
"> c #413017",
", c #403018",
"< c #403118",
"1 c #483818",
"2 c #503818",
"3 c #584020",
"4 c #684820",
"5 c #704828",
"6 c #004040",
"7 c #005858",
"8 c #007070",
"9 c gray25",
"0 c #484848",
"q c gray31",
"w c #505050",
"e c #515151",
"r c #606060",
"t c #63747C",
"y c #62747D",
"u c #63747D",
"i c #63747E",
"p c #64757E",
"a c gray44",
"s c gray47",
"d c #800000",
"f c #880000",
"g c #980000",
"h c #A00000",
"j c #B00000",
"k c #B80000",
"l c #C80000",
"z c #D00000",
"x c #F80000",
"c c #805028",
"v c #885830",
"b c #905830",
"n c #986038",
"m c #A06038",
"M c #B07040",
"N c #C87848",
"B c #D08050",
"V c #D88850",
"C c #F09058",
"Z c #F89860",
"A c #F8A070",
"S c #008080",
"D c #00B0B0",
"F c #00C8C8",
"G c #00E0E0",
"H c #20F8F8",
"J c #78F8F8",
"K c #79F8F8",
"L c #888888",
"P c #989898",
"I c #A7A7A7",
"U c gray66",
"Y c gray69",
"T c #F8B080",
"R c #F8C0A0",
"E c #F8C8B0",
"W c #F8D0B8",
"Q c #B8F8F8",
"! c #C0C0C0",
"~ c #D0D0D0",
"^ c #D8D8D8",
"/ c #D8F8F8",
"( c gray91",
") c #F8F8F8",
/* pixels */
"                                                                 ",
"                                                                 ",
"                                                                 ",
"                                                                 ",
"                               ##&#.                             ",
"                            #####0#....                          ",
"                           #####&0#......                        ",
"                          @#####&r#.......                       ",
"                  SSS   X@#L#Y#~0r&.r.r.0..uSSJSS                ",
"                 6@0#@7u@@####&00s0........SS6@0#@7              ",
"                6@0Ur#@6&@.3Sv30sY0.3vv3&..S6@0Ur#@              ",
"               S6@0r0#@60&.3H331m5vrLrAm&.aS6@0r0#@6             ",
"              fz76@##@6r!0.cJZRRTRr(A(rP~~).76@##@6zf            ",
"              zfu66666ura9.M/WTBmvLAEALPPP(.u66666ufz            ",
"              ;uuuSu6uur%%.MJTmCAVr(A(rb&.a.uuSu6uuuh-           ",
"             f--uuGu8uue%%.4JAmP~^~rLrN4&.@.uuGu8uu;--           ",
"    aI        ***uGuSuu0%%.4HAma===aMmm4&...uuGuSu;;*-      ##   ",
"    @#rr0##   ***8S8S8u0%%.1HAm=====MAB3&...@SG8S8***u00#####@   ",
"     @@&&&&#@@u*8QFFFQF@@@.1HAM0ljx0MAm2&...FQFFFQ8**r0##@@@@    ",
"     @@@@@@@&@@@S7777777...1HAMLllxLMAm2&..%77777767P#@@@....    ",
"    @@0@@@.....@66666666@@@&SBMMY^YMMn&&...%6666666#@@@@.@.@..   ",
"   @&r&@@@@@@.@%%###&&&##@@@@&&e444e&&....@%%%6%6%%@@@#@@@@.@.@  ",
"   Ir&@@#@@@@.@#####0@0##@.@@@@@@........@##%#######.@&@@@@@.@@  ",
"   @a0#&@@@@@.@#%##&e&#####@...........@%%%#########.@r@@@@@@@@  ",
"   .@&&&eeeee0&%%%%%%%%%%%%%6%%%@Ure0999%%%%%%%%%%%eeeee0&@#@@.  ",
"   ...reeeeee0&&&@@@&&&@@@@@@@@@.##@@@@@@@@@@@@@@reeeeee0&&&...  ",
"   #.sreeeeee0&&&@@@0.0@@@@@@@@..##@@@@@@@@@@@@@sreeeeee0&&&@.#  ",
"   #rsre&@JD7@@&&@@@&e&@@@@@@@@..##@@@@&&&@@@@@rsre&@JD7@@&&@@#  ",
"   erU&@@D6667@@@@@@@@@@@&&&@@@..###@@@0.0@@@@erU&@@D6667@@@@@@  ",
"  uer&@@@6@.@6@@@@@@@@@@@0.0@@@..###@@@&e&@@@@er&@@@6@.@6@@@@@@u ",
"  ee&JD7@6...6@S77@@.@@@@&e&@@@..###@@@@@@@@@ee&JD7@6...6@S77@@. ",
"  eeD66676@.@6S6667@.@@@@@@@@@@..=##@@@@@@@@@eeD66676@.@6S6667@. ",
"  e&6@.@6@666@6@.@6@............*;##.........e&6@.@6@666@6@.@6@. ",
"  e&6...6@S77@6...6@...........*;;;..........e&6...6@S77@6...6@. ",
"  0&6@.@6S66676@.@6@.==========;ffff;====****e&6@.@6S66676@.@6@. ",
"  e&@666@6@.@6@666@@.==;;gkkxkggfffdddd;=**==e&@666@6@.@6@666@@. ",
"  e@@G87@6...6@877@@..==;:gxkgxgffffdfd;;*;==e@@G87@6...6@877@@. ",
"   @D66676@.@686667@.0Us@@&ee&@@@@@@@@@@@@0U^e@D66676@.@686667@  ",
"   @6@.@66666@6@.@6@.&e&e0###@@@@@@@@@@@&rssre@6@.@66666@6@.@6@  ",
"   @6...6@877@6...6......@0...........&0e0&##0@6...6@877@6...6.  ",
"    6@.@6866676@.@6.0r@@@.@@@@@@@@@@@@0&##@...@6@.@6866676@.@6   ",
"     666@6@.@6@666.&0sar##.@@@.@@@@@@&##@..##&&@666@6@.@6@666.   ",
"     @@@@6...6@@@.%00ar##@@@@@@.@@@@@##@.#@##%&e@@@@6...6@@@.    ",
"      @@@6@.@6@..#%0ar##@@@@@@@.....@@@..#@###&e&@@@6@.@6@.      ",
"       @@@666@#@#%9Pre#@@@@@@@@@....@@..@#@###%&e&@@@666@        ",
"        @##@#####%~sr#@@@@@@@@@.....@.@.@@#@###&e&@@.@...        ",
"        @#&&@@@@@999r@@@@@@@@@@.u  ....@.@#@###%&e0@@.@..        ",
"         @@&&.............@@@@..   .@....@@#@###&0ee#.@..        ",
"         .@#&00&.....@####@@@@.     .....@@@@@@@@@@@@@@.@        ",
"         @..@#0eaLarre0&#@@@@..      .@@@.#0&#......#0#@.X       ",
"         #&@.@@@@@@@@@@@...@..        .@##..0raaUare&%@.@        ",
"         @@&#@............@...        ..@##..@@@@@@@@..#@        ",
"          @@&&&#@....@###@@..         ....@##..........@         ",
"          ..@&00eeer0&#@@@...          ..@.#%%&9009&%##          ",
"           .................           .....@@@@@@@@@@           ",
"           @@@@.............           ..............u           ",
"            ................           ..............            ",
"            u@@#####@@@@...             .............            ",
"            ...............             ............             ",
"            &######@@@##@..u            ...........              ",
"            #@@@@@@@@@@@#..,,,>         u.........               ",
"           X@.......@@..@..oooooo,,,1111,,O......                ",
"            ..............ooooooooooooooooooooooooooooooOO+      ",
"                   ,,+,,,,,,,,,ooooooooooooOOOOOOOOOOOOOOO,,2    ",
"                           uu,,,,,,,,,,,,,,,,1111112222255u      "
};
