/* XPM */
static char *_[] = {
/* columns rows colors chars-per-pixel */
"65 65 200 2 ",
"   c black",
".  c #202020",
"X  c #2A2A2A",
"o  c #282828",
"O  c #282828",
"+  c #484848",
"@  c #282828",
"#  c black",
"$  c black",
"%  c black",
"&  c #808080",
"*  c #222222",
"=  c #282828",
"-  c black",
";  c black",
":  c #408080",
">  c #202020",
",  c black",
"<  c #555555",
"1  c #202020",
"2  c black",
"3  c black",
"4  c #202020",
"5  c black",
"6  c #637180",
"7  c #00B3B3",
"8  c #77F9F9",
"9  c #77F8F8",
"0  c #00DFDF",
"q  c #00AEAE",
"w  c #5555AA",
"e  c gray12",
"r  c #005858",
"t  c #00B1B1",
"y  c #78F7F7",
"u  c #78F8F8",
"i  c #00DFDF",
"p  c #007C7C",
"a  c #78F7F7",
"s  c #005757",
"d  c #5E717B",
"f  c #005858",
"g  c #808080",
"h  c #00B1B1",
"j  c #004040",
"k  c #880000",
"l  c #860000",
"z  c #5D7474",
"x  c #880000",
"c  c #980000",
"v  c #500000",
"b  c #B10000",
"n  c #500000",
"m  c blue",
"M  c #66707A",
"N  c #62747D",
"B  c #C0C0C0",
"V  c #505050",
"C  c #515151",
"Z  c #393939",
"A  c #60717D",
"S  c #647A7A",
"D  c #668080",
"F  c #55AAAA",
"G  c #687880",
"H  c #393939",
"J  c #62747C",
"K  c #627680",
"L  c #637180",
"P  c #272727",
"I  c gray16",
"U  c gray28",
"Y  c #282828",
"T  c #282828",
"R  c #484848",
"E  c gray22",
"W  c #484848",
"Q  c #484848",
"!  c gray22",
"~  c #64767C",
"^  c #62757E",
"/  c #64737D",
"(  c gray25",
")  c #202020",
"_  c black",
"`  c #717171",
"'  c #626262",
"]  c #202020",
"[  c #505050",
"{  c gray12",
"}  c #222222",
"|  c #64747C",
" . c #63757E",
".. c #65747E",
"X. c #63737D",
"o. c #63737E",
"O. c #64737C",
"+. c black",
"@. c #64747E",
"#. c black",
"$. c black",
"%. c black",
"&. c black",
"*. c black",
"=. c black",
"-. c black",
";. c black",
":. c black",
">. c gray22",
",. c #63747C",
"<. c cyan",
"1. c gray31",
"2. c #62747D",
"3. c white",
"4. c #505050",
"5. c black",
"6. c black",
"7. c #505050",
"8. c black",
"9. c #505050",
"0. c black",
"q. c #666699",
"w. c #515151",
"e. c black",
"r. c #6D6D6D",
"t. c #505050",
"y. c black",
"u. c #666680",
"i. c #202020",
"p. c black",
"a. c #5B6D80",
"s. c gray13",
"d. c None",
"f. c #667380",
"g. c #202020",
"h. c black",
"j. c #63737B",
"k. c #202020",
"l. c #63747D",
"z. c #63757C",
"x. c #64747D",
"c. c #4F3718",
"v. c #503818",
"b. c #503A16",
"n. c #63747D",
"m. c #63747D",
"M. c #667780",
"N. c #282828",
"B. c gray22",
"V. c #505050",
"C. c black",
"Z. c #202020",
"A. c #484848",
"S. c gray47",
"D. c #63747D",
"F. c #00B0B0",
"G. c #009898",
"H. c #005858",
"J. c #78F8F8",
"K. c #00E0E0",
"L. c #008080",
"P. c #004040",
"I. c #D0D0D0",
"U. c #606060",
"Y. c #880000",
"T. c #D00000",
"R. c gray66",
"E. c gray19",
"W. c #584020",
"Q. c #403018",
"!. c #600000",
"~. c #885830",
"^. c #A00000",
"/. c #500000",
"(. c #483818",
"). c #A06038",
"_. c #704828",
"`. c gray44",
"'. c #805028",
"]. c #00C8C8",
"[. c #B07040",
"{. c #D88850",
"}. c #C0C0C0",
"|. c #F8A070",
" X c #989898",
".X c #400000",
"XX c #684820",
"oX c #D08050",
"OX c #905830",
"+X c #888888",
"@X c #007070",
"#X c #800000",
"$X c #480000",
"%X c #B00000",
"&X c #D8D8D8",
"*X c gray69",
"=X c #282008",
"-X c #503818",
";X c #382810",
":X c white",
/* pixels */
"                                                                                                                                  ",
"                                                                                                                                  ",
"                                                                                                                                  ",
"                                                                                                                                  ",
"                                                                                                                                  ",
"                                                                                                                                  ",
"                                                                                                                                  ",
"                                                                                                                                  ",
"                                                                                                                                  ",
"                                                                                                                                  ",
"                                                                                                                                  ",
"                                                                                                                                  ",
"                                                                                                                                  ",
"                                                                                                                                  ",
"                                                                                                                                  ",
"                                                                                                                                  ",
"                                                                                                                                  ",
"                                                          . X o O + @ # $ % &                                                     ",
"                                                      * = N.N.B.B.V.N.C.C.C.- ;                                                   ",
"                                                  : > Z.N.N.B.B.A.S.N.C.C.C.C.C.,                                                 ",
"                                                < 1 Z.Z.N.N.N.B.A.V.N.C.C.C.C.C.C.2 3                                             ",
"                                                4 Z.Z.N.N.N.N.N.B.B.N.C.C.C.C.C.C.C.5 6                                           ",
"                                  7 8 9 0 q w   e Z.Z.N.N.N.N.N.B.B.N.C.C.C.C.C.C.C.C.D.r t y u i p                               ",
"                              3 a F.F.F.G.G.s d Z.Z.Z.N.N.N.N.N.B.B.N.C.C.C.C.C.C.C.C.H.G.G.J.K.G.G.f g                           ",
"                            g h J.F.L.F.L.L.H.P.Z.Z.Z.I.N.N.N.N.N.N.Z.C.C.C.C.C.A.C.C.H.L.G.F.G.L.L.H.j 3                         ",
"                            k F.J.F.L.F.L.L.H.P.Z.Z.C.C.Z.U.Z.Z.Z.Z.Z.C.C.C.U.C.C.C.C.H.L.L.F.L.L.L.H.P.l                         ",
"                          z Y.F.F.P.Z.A.N.Z.H.P.B.Z.C.C.C.C.Z.U.Z.Z.C.C.A.C.C.C.C.C.C.H.L.P.Z.A.N.Z.H.P.x <                       ",
"                          c T.F.P.Z.A.R.U.N.Z.P.A.E.C.W.P.C.C.C.C.C.C.C.C.C.Q.W.Z.C.C.H.P.Z.A.R.U.N.Z.P.T.v                       ",
"                          b !.L.P.Z.A.U.A.N.Z.U.E.E.C.W.L.H.W.C.C.C.C.C.W.~.~.W.Z.C.C.H.P.Z.A.U.A.N.Z.T.^.n m                     ",
"    3 g                   M /.T.H.P.Z.N.N.Z.P.U.E.Z.C.W.G.L.W.(.)._.~.U.`.U.).'.Z.C.`.C.H.P.Z.N.N.Z.P.Y./.N.N                     ",
"    & A.B V C Z A S D F g G B.Y.Z.P.P.P.P.P.Z.U.E.Z.C.'.].L.[.[.).{.U.}.|. XU.`.`.`.A.C.Z.P.P.P.P.P.Z.!..XN.H J K L P I U Y T     ",
"      R `.`.U.V.A.A.A.B.Z.B.Z.Z.N.H.P.P.P.P.Z.V.E.Z.C.XX].L.oX).OXOX+XU.`.U.'.XXZ.C.Z.C.Z.H.P.P.P.P.Z.Z.Z.B.A.A.B.N.N.N.N.N.E     ",
"      W `.U.V.A.B.B.B.N.Z.Z.Z.N.B.@XP.H.P.H.P.Z.E.Z.C.(.].L.OX#X$X$X$X#XOX'.(.(.Z.C.C.C.Z.@XP.H.P.H.Z.Z.Z.A.B.N.N.N.N.N.N.B.Q     ",
"      ! V.`.V.A.B.N.N.N.Z.Z.Z.B.@X@XP.H.P.H.@XZ.Z.C.C.(.L.L.XXU.Y.Y.%XU.XX'.(.Z.Z.C.C.C.@X@XP.H.P.H.@XZ.N.B.N.N.N.N.N.N.B.A.~     ",
"      ^ A.B.`.V.A.N.N.N.Z.Z.Z.A.H.G.H.H.H.G.H.N.Z.Z.C.Z.P.H.XXOX X X XOX(.XXZ.Z.C.C.C.C.H.G.H.H.H.G.H.Z.Z.N.N.N.N.N.B.B.A.Z./     ",
"    ( A.U.Z.Z.B.`.V.B.N.Z.Z.Z.A.V.N.P.P.P.P.N.N.B.N.Z.C.Z.Z.(.(.(.(.(.(.Z.Z.C.C.C.Z.Z.Z.N.P.P.P.P.P.N.N.Z.`.Z.Z.B.B.A.Z.Z.C.) _   ",
"    ` U.A.B.C.C.C.Z.V.B.B.C.N.B.A.V.U.A.B.N.N.N.B.A.N.Z.C.C.Z.Z.Z.Z.Z.Z.Z.C.C.C.Z.Z.N.Z.N.N.N.N.N.N.N.N.Z.V.R.V.A.N.Z.C.C.C.C..   ",
"    ' A.A.N.Z.C.C.C.C.C.C.C.N.E.E.B.B.N.N.Z.Z.N.N.B.A.N.Z.C.C.C.C.C.C.C.C.C.C.Z.Z.N.B.B.B.B.N.N.N.N.N.Z.C.C.N.Z.Z.C.C.C.C.C.Z.]   ",
"    [ A.B.Z.Z.C.C.C.C.C.C.C.N.Z.N.N.N.N.Z.B.B.B.Z.N.B.A.B.N.Z.C.C.C.C.C.C.C.Z.Z.N.B.A.A.A.B.B.B.B.B.N.Z.C.C.N.Z.C.C.C.C.C.Z.Z.{   ",
"    } A.B.Z.Z.C.C.C.C.C.C.C.N.Z.Z.Z.Z.Z.Z.A.C.A.Z.Z.Z.N.B.A.N.Z.C.C.C.C.C.Z.N.N.B.A.A.V.V.A.A.A.B.B.N.Z.C.C.B.Z.C.C.C.C.Z.Z.Z.|   ",
"     .Z.A.N.Z.C.C.C.C.C.C.C.N.Z.Z.Z.Z.Z.Z.B.V.B.Z.Z.Z.N.N.N.B.N.Z.C.C.Z.Z.N.N.B.A.A.V.V.V.V.A.A.B.B.N.Z.C.C.A.Z.Z.Z.Z.N.Z.Z.C...  ",
"    X.C.Z.B.N.Z.C.C.C.C.Z.C.C.N.N.N.N.N.N.N.N.N.N.B.B.A.A.V.V.A.B.Z.C.S.&X*X`.V.V.V.V.V.V.V.V.V.V.A.N.Z.C.C.A.A.B.N.N.Z.C.C.C.o.  ",
"    O.C.C.Z.N.N.N.Z.Z.Z.Z.C.C.C.C.C.C.C.C.C.C.C.C.C.C.C.C.C.C.C.Z.C.C.V.N.Z.Z.C.C.C.C.C.C.C.C.C.C.C.C.C.C.C.C.C.C.C.C.C.C.C.C.+.  ",
"    @.C.N.C.C.C.C.C.C.C.C.C.C.C.C.C.C.Z.C.Z.C.C.C.C.C.C.C.C.C.C.Z.C.C.B.N.Z.C.C.C.C.C.C.C.C.C.C.C.C.C.C.C.C.N.N.C.N.C.C.C.C.C.#.  ",
"    $.C.N.C.C.B.V.+XR.R.+XV.B.Z.C.C.C.C.Z.C.C.Z.C.C.Z.C.C.C.C.C.C.C.C.B.N.Z.C.C.C.C.C.C.C.C.C.C.C.C.C.C.C.C.N.N.C.N.C.C.C.C.C.%.  ",
"    &.N.V.B.U.V.V.U.S.`.V.A.B.B.B.C.C.C.C.C.C.C.Z.Z.C.C.C.C.C.C.C.C.C.N.N.Z.C.C.C.Z.C.Z.C.C.C.C.C.C.B.V.V.V.V.V.A.B.N.C.C.C.C.*.  ",
"    =.N.B.S.U.V.B.N.J.F.H.Z.Z.N.B.B.C.C.C.C.C.C.C.C.C.C.C.C.C.C.C.C.C.C.N.Z.C.C.C.C.Z.Z.C.C.C.C.B.U.V.V.V.V.V.V.A.B.B.B.C.C.C.-.  ",
"  3 ;.B.U.S.B.N.Z.F.P.P.P.H.Z.Z.Z.N.B.C.Z.C.C.C.C.C.C.C.C.C.C.C.C.C.C.C.Z.Z.C.C.C.C.C.C.C.C.C.B.S.U.V.B.Z.J.F.H.Z.Z.B.B.Z.C.C.-.  ",
"  3 :.V.U.B.Z.Z.Z.P.Z.C.Z.P.Z.Z.Z.Z.N.N.Z.Z.N.N.N.N.N.N.N.N.Z.Z.C.C.C.C.C.Z.N.N.N.N.N.N.N.N.B.U.S.B.Z.Z.F.P.P.P.H.Z.Z.Z.Z.Z.C.*.  ",
"  3 >.V.B.J.F.H.Z.P.C.C.C.P.Z.L.@XH.Z.N.Z.Z.Z.Z.C.C.C.C.C.C.C.C.C.C.C.C.C.C.C.C.C.C.C.C.C.B.V.U.B.Z.Z.Z.P.Z.C.Z.P.Z.Z.Z.Z.Z.Z.,.  ",
"  <.1.V.F.P.P.P.H.P.Z.C.Z.P.L.H.P.P.L.Z.C.C.C.Z.Z.N.Z.C.C.C.C.C.C.C.C.C.C.C.C.C.C.C.C.C.C.A.V.B.J.F.H.Z.P.C.C.C.P.Z.L.H.H.Z.Z.2.  ",
"  3.1.B.P.Z.C.Z.P.Z.P.P.P.Z.P.Z.C.Z.@XZ.C.C.C.C.C.C.Z.N.Z.C.Z.Z.Z.Z.Z.Z.Z.Z.B.N.C.C.C.C.B.V.V.F.P.P.P.H.P.Z.C.Z.P.L.P.P.P.H.Z.2   ",
"  g 4.B.P.C.C.C.P.Z.L.H.H.Z.P.C.C.C.P.Z.C.C.C.C.C.C.Z.Z.N.Z.C.C.C.C.C.Z.B.B.N.C.C.C.C.C.N.V.B.P.Z.C.Z.P.Z.P.P.P.Z.P.Z.C.Z.P.Z.5.  ",
"  g V B.P.Z.C.Z.P.L.P.P.P.H.P.Z.C.Z.P.Z.C.C.C.C.C.C.Z.C.C.Z.Z.C.C.C.C.B.N.C.C.C.C.C.C.C.N.V.B.P.C.C.C.P.Z.L.H.H.Z.P.C.C.C.P.Z.6.  ",
"  < 7.B.Z.P.P.P.Z.P.Z.C.Z.P.Z.P.P.P.Z.Z.C.C.C.C.C.C.Z.C.C.C.C.C.C.C.Z.C.C.C.Z.C.C.C.C.C.N.V.B.P.Z.C.Z.P.L.P.P.P.H.P.Z.C.Z.P.Z.8.  ",
"  : 9.Z.Z.K.@XH.Z.P.C.C.C.P.Z.@XH.H.Z.Z.C.C.C.C.C.Z.Z.C.C.C.C.C.C.C.C.C.C.C.Z.C.C.C.C.C.N.V.B.Z.P.=XP.Z.P.Z.C.Z.P.Z.P.P.P.Z.Z.0.  ",
"  q.w.Z.F.P.P.P.H.P.Z.C.Z.P.@XP.P.P.H.Z.C.C.C.C.C.Z.C.C.C.C.C.C.C.C.C.C.C.C.N.C.C.C.C.C.N.V.Z.Z.K.=XH.Z.P.C.C.C.P.Z.@XH.H.Z.Z.e.  ",
"  r.t.Z.P.Z.C.Z.P.P.P.P.P.Z.P.Z.C.Z.P.Z.C.C.C.C.C.Z.C.C.C.C.C.C.D.C.C.C.C.C.Z.Z.C.C.C.C.N.V.Z.F.P.P.P.H.P.Z.C.Z.P.@XP.P.P.H.Z.y.  ",
"  u.g i.P.C.C.C.P.Z.@XH.H.Z.P.C.C.C.P.C.C.C.C.C.Z.Z.C.C.C.C.C.C.D.C.C.C.C.C.Z.N.C.C.C.C.N.B.B.P.Z.C.Z.P.P.P.P.P.Z.P.Z.C.Z.P.Z.p.  ",
"  a.  s.P.Z.C.Z.P.@XP.P.P.H.P.Z.C.Z.P.C.C.C.C.C.N.Z.C.C.C.C.C.C.D.C.C.C.C.C.C.N.C.C.C.C.Z.B.Z.P.C.C.C.P.Z.@XH.H.Z.P.C.C.C.P.d.g   ",
"  f.    g.P.P.P.Z.P.Z.C.Z.P.Z.P.P.P.C.C.C.C.C.C.B.Z.Z.C.C.C.C.C.-X-XC.C.C.Z.C.N.N.C.C.Z.C.N.Z.P.Z.C.Z.P.@XP.P.P.H.P.Z.C.Z.P.h.    ",
"  j.    & k.Z.Z.Z.P.C.C.C.P.Z.Z.Z.C.Z.Z.N.B.B.N.Z.Z.Z.C.C.Z.=X=XQ.Q.C.C.C.C.Z.N.B.B.Z.C.N.C.C.Z.P.P.P.Z.P.Z.C.Z.P.Z.P.P.P.C.G     ",
"  /       l.Z.Z.Z.P.Z.C.Z.P.Z.C.C.C.C.C.C.C.C.C.C.C.C.C.Z.=X=X=X=X=X=XC.C.C.C.C.C.C.C.C.C.N.N.N.Z.Z.Z.Z.P.C.C.C.P.Z.Z.Z.C.-Xz.    ",
"  x.  c.v.(.Q.Q.=X=XP.P.P.C.C.C.C.C.C.C.C.C.C.C.C.C.Z.Z.=X=X=X=X=X=X=X=XC.C.C.C.C.C.C.C.C.C.Z.N.Z.Z.Z.Z.P.Z.C.Z.P.Z.C.C.Q.-X-Xb.  ",
"  n.g | -X-X-X(.Q.;X;X;X;X;X;X;X;X;X;X;X;X;X;X;X;X;X;X;X;X;X;X;X;X;X;X;X;X;X;X;X;X;X;X;X;X;X;X;X;X;X;X;X;X;X;X;XQ.(.-X-X-Xm.M.g   "
};
