/* XPM */
static char *_0[] = {
/* columns rows colors chars-per-pixel */
"65 65 107 2 ",
"   c black",
".  c cyan",
"X  c #E10000",
"o  c #AF0000",
"O  c #B00000",
"+  c #B00000",
"@  c #AF0000",
"#  c #808080",
"$  c #E10000",
"%  c #B10000",
"&  c #AF0000",
"*  c #AF0000",
"=  c #B30000",
"-  c #808080",
";  c #E10000",
":  c #800000",
">  c #64757D",
",  c #6B7986",
"<  c #666699",
"1  c black",
"2  c #555555",
"3  c #666680",
"4  c #647680",
"5  c #62737E",
"6  c #E00000",
"7  c #510000",
"8  c #720000",
"9  c #E00000",
"0  c #282828",
"q  c #282828",
"w  c gray22",
"e  c gray22",
"r  c gray22",
"t  c gray22",
"y  c #64737C",
"u  c #62757E",
"i  c #63747D",
"p  c #62727C",
"a  c #63737C",
"s  c #62747D",
"d  c #62757D",
"f  c #282828",
"g  c #282828",
"h  c #282828",
"j  c gray16",
"k  c #282828",
"l  c None",
"z  c #6F0000",
"x  c #B00000",
"c  c #700000",
"v  c #60757C",
"b  c #64737E",
"n  c gray40",
"m  c #627680",
"M  c gray22",
"N  c #63747D",
"B  c #606080",
"V  c #C0C0C0",
"C  c #989898",
"Z  c #606060",
"A  c #606060",
"S  c #979797",
"D  c gray37",
"F  c #C0C0C0",
"G  c #606060",
"H  c #4B4B4B",
"J  c #1E1E1E",
"K  c gray31",
"L  c #202020",
"P  c gray16",
"I  c gray12",
"U  c #282828",
"Y  c gray13",
"T  c gray16",
"R  c #202020",
"E  c #202020",
"W  c black",
"Q  c black",
"!  c #800000",
"~  c #B00000",
"^  c #500000",
"/  c #C80000",
"(  c #700000",
")  c #282828",
"_  c #F80000",
"`  c #880000",
"'  c gray22",
"]  c #78F8F8",
"[  c #00B0B0",
"{  c #008080",
"}  c #505050",
"|  c #484848",
" . c black",
".. c #202020",
"X. c #009898",
"o. c #63747D",
"O. c gray44",
"+. c #00E0E0",
"@. c #007070",
"#. c #004040",
"$. c #989898",
"%. c #005858",
"&. c #606060",
"*. c #00C8C8",
"=. c #400000",
"-. c #483818",
";. c white",
/* pixels */
"                                                                                                                                  ",
"                                                                                                                                  ",
"                                                                                                                                  ",
"                                                                                                                                  ",
"                                                                                                                                  ",
"                                                                                                                                  ",
"                                                                                                                                  ",
"                                                                                                                                  ",
"                                                                                                                                  ",
"                                                                                                                                  ",
"                                                                                                                                  ",
"                                                                                                                                  ",
"                                                                                                                                  ",
"                                                                                                                                  ",
"                                                                                                                                  ",
"                                                                                                                                  ",
"                                                                                                                                  ",
"                                                                                                                                  ",
"                                                                                                                                  ",
"                                                                                                                                  ",
"                                                                                                                                  ",
"                                                                                                                                  ",
"                                                                                                                                  ",
"                                                                                                                                  ",
"                                                                                                                                  ",
"                                                                                                                                  ",
"                                                                                                                                  ",
"                                                                                                                                  ",
"                                                                                                                                  ",
"                                                                                                                                  ",
"                                                                                                                                  ",
"                                                                                                                                  ",
"                                                                                                                                  ",
"                                                                                                                                  ",
"                                                                                                                                  ",
"                                                                                                                                  ",
"                                                                                                                                  ",
"                                                                                                                                  ",
"                                                                                                                                  ",
"                                                                                                                                  ",
"                                                                                                                                  ",
"                                                                                                                                  ",
"                          . X o O + @ #                                                       # $ % & * =                         ",
"                        - ; ! ! ! ! ~ : > , < 1                                       2 3 4 5 6 ~ ! ^ ^ 7 8                       ",
"                        9 ~ ! ^ ^ ^ / ! ( ) ) ) 0 q w e r t y u i p a s d f g h j k l ) ) ) ) _ ! ^ ( ( ^ ^ z                     ",
"                        x ` ^ ' ' ] [ [ [ { ' } ' ' ' ' ' ) ) ) ) | )  . . .' ' ' ' ....[ [ ] X.X.{ o.o.( ^ c 1                   ",
"                      v ` ! ^ ' ] [ [ [ [ [ { ' O.} ' ..) ) ) ' | } )  . . . . .' ' } [ [ [ +.X.{ { { ' ^ ^ ^ b                   ",
"              1 n m M ) ` ! ^ [ ] [ { [ { @.[ #.' ' ..) ) ) ' | } $.)  . . . . . .' ' [ X.X.+.{ { { %.#...^ ^ ..N B 1             ",
"      # V C Z } | | | ) ) ' ' [ ] [ { [ { @.%.#.' ....) ) ) ' | } } )  . . . . . . .' X.{ { +.{ { @.%.#.........' ' | A S D .     ",
"      F &.' ' ' ' ' ' ) ' | } [ ] [ { [ { @.%.#. .....) ) ) ' ' | } )  . . . . . . . .{ @.{ +.{ { @.%.#. . .....' ' ' ' ' | G     ",
"    H $. . . . . . . . .) | | [ ] [ { [ { { %.#. .....) ) ) ) ' ' ' )  . . . . . . . .@.@.{ +.{ { @.%.#. . . . . . . . . .' | J   ",
"    K &. . . . . . . . . .' ' [ ] [ { [ { { %.#. .......) ) ) ) ' ' )  . . . . . . . .%.@.{ *.{ { @.%.#. . . . . . . . . .' ' L   ",
"    P } .. . . . . . . . .' ' [ ] [ { [ { { %.#. .........) ) ) ) ) .. . . . . . . . .%.@.{ *.{ { @.%.#. . . . . . . . . ...' I   ",
"    U } .. . . . . . . . .' ' [ ] [ { [ { { %.#. ..................... . . . . . . . .%.@.{ *.{ { @.%.#. . . . . . . . . . ...Y   ",
"    T '  . . . . . . . . .' ' [ ] [ { [ { { %.#. . ................... . . . . . . . .%.@.{ [ { { @.%.#. . . . . . . . .'  . .R   ",
"    E )  . ... . . . . . ... .[ ] [ { [ { { %.#. . . . ............. . . . . . . . . .%.@.{ [ { { @.%.#. . . . . . ...' )  . .W   ",
"    Q )  . .' ' .. . . . ... .[ ] [ { [ { { %.#. . . . . . . . . . . . . . . . . . . .%.@.{ [ { { @.%.#. . . . ...) ) .. . . .Q   ",
"     ... . . . .' ' } ' .. . .[ ] [ { [ { { %.#. . . . . . . . . . . . . . . . . . . .%.@.{ [ { { @.%.#. . . . .) .. . . . . . .  ",
"     . . . . . . . . . . . . .[ ] [ { [ { { %.#. . . . . . . . . . . . . . . . . . . .%.@.{ [ { { @.%.#. . . . . . . . . . . . .  ",
"     . . . . . . . . . . . . .@.@.%.%.%.%.%.%.)  . . . . . . . . . . . . . . . . . . .#.%.%.%.%.%.%.%.)  . . . . . . . . . . . .  ",
"     . . . . . . . . . . . . . . .=.) ' )  . . . . . . . . . . . . . . . . . . . . . . . . .) ' )  . . . . . . . . . . . . ... .  ",
"     . . . . . . . . . . . . . . . . . . . . . . . . . . . . . . . . . . . . . . . . . . . . . . . . . . . . . . . . . . . . . .  ",
"    -. . . . . . . . . . . . . . . . . . . . . . . . . . . . . . . . . . . . . . . . . . . . . . . . . . . . . . . . . . . . .-.  ",
"    -.-.-.-.-.-.-.-.-.-.-.-.-.-.-.-.-.-.-.-.-.-.-.-.-.-.-.-.-.-.-.-.-.-.-.-.-.-.-.-.-.-.-.-.-.-.-.-.-.-.-.-.-.-.-.-.-.-.-.-.-.-.  ",
"                                                                                                                                  "
};
