/* XPM */
static char *_[] = {
/* columns rows colors chars-per-pixel */
"65 65 202 2 ",
"   c black",
".  c #666680",
"X  c #EF5151",
"o  c #F70000",
"O  c #E10000",
"+  c #DF0000",
"@  c #E00000",
"#  c #A20000",
"$  c #E00000",
"%  c black",
"&  c #555555",
"*  c #9E0000",
"=  c black",
"-  c white",
";  c gray22",
":  c black",
">  c gray22",
",  c #393939",
"<  c black",
"1  c #55AAAA",
"2  c gray22",
"3  c gray75",
"4  c black",
"5  c #63757D",
"6  c #63727D",
"7  c #71718E",
"8  c black",
"9  c #558080",
"0  c #62757C",
"q  c #202020",
"w  c #808080",
"e  c #63737B",
"r  c gray47",
"t  c #617979",
"y  c #808080",
"u  c gray97",
"i  c black",
"p  c #627680",
"a  c white",
"s  c #F8F8F8",
"d  c #5F5F5F",
"f  c gray97",
"g  c #767676",
"h  c #F9B991",
"j  c #989898",
"k  c gray44",
"l  c #F8B890",
"z  c gray60",
"x  c #5555AA",
"c  c #F8B692",
"v  c #888888",
"b  c cyan",
"n  c gray66",
"m  c #505050",
"M  c #63747C",
"N  c #64757D",
"B  c #898989",
"V  c gray44",
"C  c gray31",
"Z  c gray69",
"A  c None",
"S  c #556A80",
"D  c #607580",
"F  c #797979",
"G  c gray69",
"H  c #64747E",
"J  c #606060",
"K  c gray47",
"L  c gray44",
"P  c #5D7474",
"I  c #606060",
"U  c #D08150",
"Y  c #6D6D6D",
"T  c #63757D",
"R  c #627680",
"E  c #484848",
"W  c #AE703F",
"Q  c #62737D",
"!  c gray22",
"~  c gray30",
"^  c #B07040",
"/  c #B07140",
"(  c #63747D",
")  c #5F5F5F",
"_  c #D8D8D8",
"`  c #5F5F5F",
"'  c gray66",
"]  c #5B6D80",
"[  c #408080",
"{  c #515151",
"}  c #646F7A",
"|  c gray44",
" . c #C0C0C0",
".. c gray75",
"X. c gray31",
"o. c #989898",
"O. c #627676",
"+. c gray47",
"@. c #515151",
"#. c #637680",
"$. c #64747C",
"%. c #697878",
"&. c gray31",
"*. c #F9F9F9",
"=. c #989898",
"-. c #D0D0D0",
";. c #515151",
":. c white",
">. c #63737C",
",. c #505050",
"<. c white",
"1. c #606060",
"2. c #000040",
"3. c #505050",
"4. c #66757C",
"5. c gray32",
"6. c #63757E",
"7. c #4C4C4C",
"8. c #63737B",
"9. c #606060",
"0. c #00003B",
"q. c black",
"w. c #000040",
"e. c #393939",
"r. c #000040",
"t. c black",
"y. c #000040",
"u. c black",
"i. c #000040",
"p. c black",
"a. c #61727B",
"s. c black",
"d. c #00003F",
"f. c #62737E",
"g. c #000040",
"h. c #00003F",
"j. c #65757A",
"k. c black",
"l. c #62757C",
"z. c black",
"x. c black",
"c. c black",
"v. c black",
"b. c black",
"n. c black",
"m. c #607080",
"M. c black",
"N. c blue",
"B. c #000058",
"V. c black",
"C. c #64707C",
"Z. c #63747D",
"A. c #64737C",
"S. c #627689",
"D. c #A00000",
"F. c gray22",
"G. c #282828",
"H. c black",
"J. c #0000A8",
"K. c #984800",
"L. c #F89860",
"P. c #A8A800",
"I. c #F8A070",
"U. c #885830",
"Y. c #584020",
"T. c #F8B080",
"R. c #E88858",
"E. c #B87848",
"W. c #C87848",
"Q. c #905830",
"!. c #D88850",
"~. c #F8B890",
"^. c #F8D8C0",
"/. c #B07040",
"(. c #805028",
"). c #202020",
"_. c #503818",
"`. c gray47",
"'. c #484848",
"]. c gray91",
"[. c #C0C0C0",
"{. c #F8F8F8",
"}. c gray69",
"|. c #888888",
" X c #D0D0D0",
".X c #989898",
"XX c #D8D8D8",
"oX c #986038",
"OX c gray66",
"+X c #505050",
"@X c #606060",
"#X c gray44",
"$X c #F8F850",
"%X c #F8A858",
"&X c #D08050",
"*X c #F87800",
"=X c #A85000",
"-X c #684820",
";X c #000040",
":X c #000058",
">X c #63747D",
",X c white",
/* pixels */
"                                                                                                                                  ",
"                                                                                                                                  ",
"                                                                                                                                  ",
"                                                                                                                                  ",
"                                                                                                                                  ",
"                                                                                                                                  ",
"                                                                                                                                  ",
"                                                                                                                                  ",
"                                                                                                                                  ",
"                                                                                                                                  ",
"                                                                                                                                  ",
"                                                                                                                                  ",
"                                                                                                                                  ",
"                                                                                                                                  ",
"                                                                                                                                  ",
"                                                                                                                                  ",
"                                                                                                                                  ",
"                                                            . X o O + @ #                                                         ",
"                                                          $ D.F.G.H.H.H.H.% &                                                     ",
"                                                        * H.J.H.H.H.H.H.H.H.= -                                                   ",
"                                                        ; J.K.L.P.I.I.I.U.H.H.:                                                   ",
"                                                        > Y.P.T.R.I.E.E.T.W.Y.%                                                   ",
"                                                        , Q.P.!.T.T.~.~.T.T.Q.<                                                   ",
"                                                        1 2 Q.!.T.T.I.^.^.W.3 4                                                   ",
"                                                          5 !.R.T.T.T.T.R.W.6                                                     ",
"                                                        7 8 T.!././././.R.(.9                                                     ",
"                                                    - 0 q ).F./.T.R././.E._.w                                                     ",
"                                                  e r `.'.).].[.H.H.H.H._.].t                                                     ",
"                                              y u {.{.{.`.).F.H.H.H.].H.H.H.i p                                                   ",
"                                            a s {.{.{.{.}.|.).).).].[.]. X X X.Xd                                                 ",
"                                        4 f {.{.{.XXXX{.].].].).).).]..X X{.{.}..Xg                                               ",
"                                      & h !.!.|.{.XX}..X.X].].].).).)..X[. X.X{.|.j k                                             ",
"                                    w l !.oXY.!.|..X}.`.OX].].].].).).).[.[. X.X`..Xz x                                           ",
"                                    c oXU.Y.Y.+X@X@X`..XOX X].].].|.).).).OX[.|.@X#X|.v                                           ",
"                                    b n Y.Y.Y.m M `.|..X.XOX X X.X|.@X).).'..X|.@X#X@X@XN                                         ",
"                                      w B V C 4   Z `.|..X.X}.OX.X.X`.'.).).'..X+X@X#X`.A S                                       ",
"                                                  D }.|.|.|..X|..X.X`.|.).).).+X+X+X@X#X`.F 4                                     ",
"                                                  4 G }.|.+X).).).).$X%X%X).).F.H J +X@X&X&XK                                     ",
"                                                    L @XH.).).).).).*X=X-X).).H.P 9 I &X'./.U Y                                   ",
"                                                    T H.+X`.}.}.}..X}.OXOX|.+XH.R   w E './.&XW                                   ",
"                                                    Q #X}.XXXXXXXXXX}.XXXXXX|.#X!       ~ E ^ /                                   ",
"                                                    ( #XXX].].].XX[.}.OXXXXXXX|.@X9                                               ",
"                                                    ) XX].].].].XXXX@X@X}.}..XXX#Xd                                               ",
"                                                    _ OX}.}.}.OXOX@X@X@XOXOX|.`.#X`                                               ",
"                                                    ' [.{.{.{.{.OXOX'.#X@X@X+XG.H.).]                                             ",
"                                                  [ [.{.{.{.{.{.}..X+X#X`..X.X`.@X#X{                                             ",
"                                                  } [.{.{.{.{.XX}..X#X`.|.OXOXOX|.#X|                                             ",
"                                                   .{.{.{.{.{. X}..X#X|.OXOXOXOX|.#X#XP                                           ",
"                                                  ..{.{.{.{.{. X}..X#X|.OX XOXOX|.#X#XX.                                          ",
"                                                y [.{.{.{.{.XX X}.o.O.+.OX]. XOXOX#X#X@.                                          ",
"                                                #.{.{.{.{.{.XX}..X$.  %.|.OX].].OX`.@X&.                                          ",
"                                                *.{.{.{.{.{.XX.X=.-     -.].].].].OX#X;.                                          ",
"                                              :.{.{.{.{.{.{.].`.6       >.OXOX].|.|.#X,.                                          ",
"                                              <.}. X X X}.].].1.4     4 2.H.|.|.#X#X+X3.                                          ",
"                                              4.OX X X X X#X#X5.      6.;X;XH.H.+X+X+X7.                                          ",
"                                              8.`.}. X X X`.9.b     0.;XH.;XH.H.H.H.q.                                            ",
"                                              w.`.`..X X`.+Xe.      r.;XH.H.;XH.H.t.                                              ",
"                                              y.:X;XH.H.H.u.w       i.;XH.H.H.p.a.                                                ",
"                                              i.;X;X;XH.H.s.        d.;XH.H.H.f.                                                  ",
"                                              g.;X;XH.H.H.Y         h.;XH.H.H.j.                                                  ",
"                                              k.H.H.H.H.l.          z.H.H.H.H.x.                                                  ",
"                                            y ;X;X;XH.H.>.            c.v.b.n.s.                                                  ",
"                                            m.;X;X;X;XH.M.                                                                        ",
"                                          N.B.;X;X;X;XH.V.O.                                                                      ",
"                                  4 & . C.Z.;X;X;X;X;X).H.>XA.N a.S.Y 1 w b 4                                                     "
};
