/* XPM */
static char *_[] = {
/* columns rows colors chars-per-pixel */
"65 65 165 2 ",
"   c black",
".  c #555555",
"X  c #494949",
"o  c gray22",
"O  c gray22",
"+  c #282828",
"@  c #AF0000",
"#  c #000042",
"$  c gray22",
"%  c #800000",
"&  c #55AAAA",
"*  c #282828",
"=  c #000040",
"-  c black",
";  c #000040",
":  c black",
">  c #000041",
",  c black",
"<  c #000040",
"1  c black",
"2  c white",
"3  c black",
"4  c #62727C",
"5  c #607580",
"6  c gray91",
"7  c #E7E7E7",
"8  c gray91",
"9  c blue",
"0  c #64767C",
"q  c gray91",
"w  c #9B9B9B",
"e  c #62737B",
"r  c None",
"t  c #979797",
"y  c gray40",
"u  c gray82",
"i  c gray60",
"p  c #617979",
"a  c gray81",
"s  c #637180",
"d  c black",
"f  c #808080",
"g  c #62747C",
"h  c gray60",
"j  c #F89860",
"k  c #6D6D6D",
"l  c #D0D0D0",
"z  c #A7A7A7",
"x  c #5D7474",
"c  c #558080",
"v  c #F99861",
"b  c #AF7040",
"n  c #A9A9A9",
"m  c #D0D0D0",
"M  c gray66",
"N  c cyan",
"B  c #63757D",
"V  c #B07040",
"C  c gray66",
"Z  c gray47",
"A  c #C77748",
"S  c #AF703F",
"D  c #AAAAAA",
"F  c gray44",
"G  c gray44",
"H  c #6D6D92",
"J  c #805129",
"K  c #A2A2A2",
"L  c gray44",
"P  c #60757C",
"I  c #62757C",
"U  c gray30",
"Y  c #808080",
"T  c #D88850",
"R  c gray44",
"E  c #71718E",
"W  c #63737D",
"Q  c #505050",
"!  c #D5884D",
"~  c #65777D",
"^  c #AF7040",
"/  c #6F6F6F",
"(  c black",
")  c #666699",
"_  c #DA8951",
"`  c gray44",
"'  c black",
"]  c gray38",
"[  c black",
"{  c #606060",
"}  c #606060",
"|  c #64737D",
" . c #606060",
".. c black",
"X. c gray38",
"o. c black",
"O. c #606060",
"+. c #00003C",
"@. c #606060",
"#. c #00003F",
"$. c black",
"%. c gray28",
"&. c #63747D",
"*. c #00003F",
"=. c #000041",
"-. c black",
";. c black",
":. c #464646",
">. c #627689",
",. c #484848",
"<. c black",
"1. c #282828",
"2. c #6A6A80",
"3. c #000040",
"4. c black",
"5. c black",
"6. c #63747D",
"7. c black",
"8. c black",
"9. c black",
"0. c #000040",
"q. c black",
"w. c #000042",
"e. c black",
"r. c #00003F",
"t. c #202020",
"y. c black",
"u. c #B00000",
"i. c #584020",
"p. c gray22",
"a. c #B87848",
"s. c #A86840",
"d. c #D88850",
"f. c #F8B890",
"g. c #F8A070",
"h. c #F8D0B8",
"j. c #F8B080",
"k. c #F09058",
"l. c #A06038",
"z. c #885830",
"x. c #000040",
"c. c gray47",
"v. c #805028",
"b. c #986038",
"n. c #989898",
"m. c #D8D8D8",
"M. c gray91",
"N. c #C0C0C0",
"B. c #F8F8F8",
"V. c gray66",
"C. c gray69",
"Z. c #D0D0D0",
"A. c gray44",
"S. c #606060",
"D. c #505050",
"F. c #F89860",
"G. c #B05000",
"H. c #888888",
"J. c #F8F850",
"K. c #A85000",
"L. c #63747D",
"P. c #484848",
"I. c #B07040",
"U. c #282828",
"Y. c white",
/* pixels */
"                                                                                                                                  ",
"                                                                                                                                  ",
"                                                                                                                                  ",
"                                                                                                                                  ",
"                                                                                                                                  ",
"                                                                                                                                  ",
"                                                                                                                                  ",
"                                                                                                                                  ",
"                                                                                                                                  ",
"                                                                                                                                  ",
"                                                                                                                                  ",
"                                                                                                                                  ",
"                                                                                                                                  ",
"                                                                                                                                  ",
"                                                                                                                                  ",
"                                                                                                                                  ",
"                                                                                                                                  ",
"                                                                                                                                  ",
"                                                                                                                                  ",
"                                                                                                                                  ",
"                                                                                                                                  ",
"                                                      . X o O + @ #                                                               ",
"                                                    . $ t.y.y.y.y.u.% &                                                           ",
"                                                    * y.y.y.y.y.y.y.u.=                                                           ",
"                                                    - y.y.y.i.i.i.y.p.i.;                                                         ",
"                                                    : y.i.a.s.s.d.a.s.i.>                                                         ",
"                                                    , y.a.f.g.h.j.k.s.s.<                                                         ",
"                                                    1 y.g.l.l.z.z.s.s.s.x.2                                                       ",
"                                                    . 3 l.l.d.z.z.y.y.y.c.4 .                                                     ",
"                                                      5 v.b.b.b.y.n.n.m.M.M.N.N.6 7 8 9                                           ",
"                                                      0 b.n.n.n.B.n.n.m.m.M.N.M.M.M.M.q w                                         ",
"                                                    e r y.y.c.c.c.c.N.V.V.c.n.C.n.n.n.M.M.t                                       ",
"                                                y u Z.Z.A.y.y.A.A.p.p.p.S.D.n.n.n.n.n.n.M.M.i                                     ",
"                                              p a Z.Z.Z.A.A.y.y.y.D.p.y.D.D.S.s d f g h F.F.j k                                   ",
"                                            l z V.n.Z.Z.Z.Z.y.G.y.y.n.B.B.B.n.x       c v v.F.b                                   ",
"                                          n Z.c.S.n.Z.Z.H.y.G.J.n.B.m.m.m.B.B.m M       N B F.V                                   ",
"                                        C Z.n.n.S.S.Z.Z.y.D.K.n.B.m.m.m.m.m.V.c.Z         d A S                                   ",
"                                      D Z.n.c.A.F G L.Z.P.P.m.m.B.C.m.m.m.n.C.Z.D.H           J                                   ",
"                                    K I.I.c.L P     I P.S.m.m.m.B.C.V.m.c.c.H.c.A.U                                               ",
"                                  Y T d.I.R E       W S.C.m.H.V.B.c.m.H.c.c.c.c.A.Q                                               ",
"                                  ! d.~ ^ Y         / C.m.m.B.V.N.c.c.A.c.c.c.A.D.(                                               ",
"                                  ) _               ` C.m.m.C.C.A.S.c.A.c.c.P.y.y.'                                               ",
"                                                    ] C.m.N.C.C.A.S.y.y.y.y.y.y.y.[                                               ",
"                                                    { C.m.N.C.C.A.S.P.x.x.y.y.y.y.[                                               ",
"                                                    } C.m.N.C.C.A.P.P.x.x.x.x.y.y.|                                               ",
"                                                     .C.m.C.C.V.S.P.P.L.y.y.y.y.y...                                              ",
"                                                    X.C.m.C.C.V.S.P.P.L.y.y.y.y.x.o.                                              ",
"                                                    O.C.m.C.m.m.P.p.U.L.y.y.x.x.x.+.                                              ",
"                                                    @.C.C.n.c.c.c.P.P.L.y.x.x.x.#.$.                                              ",
"                                                    %.c.c.c.c.S.D.P.P.y.&.*.=.-.;.                                                ",
"                                                    :.c.S.S.S.S.D.P.P.y.>.                                                        ",
"                                                    Y ,.P.D.D.D.P.P.U.<.                                                          ",
"                                                      f 1.P.P.P.P.U.y.y.2.                                                        ",
"                                                        Y 3.y.y.y.y.y.y.- 2                                                       ",
"                                                          Y 4.y.x.y.y.y.y.5.                                                      ",
"                                                            f 6.y.y.y.y.y.7.                                                      ",
"                                                              5 y.x.y.y.y.4.                                                      ",
"                                                                8.x.y.y.y.9.                                                      ",
"                                                                ) 0.y.y.y.q.                                                      ",
"                                                                  w.x.y.y.e.                                                      ",
"                                                                    =.r.(                                                         ",
"                                                                                                                                  ",
"                                                                                                                                  ",
"                                                                                                                                  ",
"                                                                                                                                  "
};
