/* XPM */
static char *_[] = {
/* columns rows colors chars-per-pixel */
"65 65 139 2 ",
"   c black",
".  c black",
"X  c black",
"o  c black",
"O  c black",
"+  c black",
"@  c cyan",
"#  c black",
"$  c black",
"%  c #555555",
"&  c black",
"*  c #000040",
"=  c #808080",
"-  c black",
";  c #000040",
":  c #373737",
">  c #000040",
",  c black",
"<  c #558080",
"1  c black",
"2  c #62747C",
"3  c #808080",
"4  c #62757C",
"5  c #61757D",
"6  c #64747C",
"7  c gray97",
"8  c gray97",
"9  c #63737D",
"0  c #666699",
"q  c #55AAAA",
"w  c gray98",
"e  c #F9F9F9",
"r  c #989898",
"t  c #E9E9E9",
"y  c #408080",
"u  c #6D6D92",
"i  c #F8F8F8",
"p  c #F9F9F9",
"a  c gray91",
"s  c #E6E6E6",
"d  c black",
"f  c #D8864E",
"g  c #B07040",
"h  c gray91",
"j  c white",
"k  c #D88850",
"l  c #F8995F",
"z  c #E38E55",
"x  c #647480",
"c  c #AF7341",
"v  c #64707C",
"b  c #627680",
"n  c #667777",
"m  c #6A6A80",
"M  c #B26F3F",
"N  c #62757D",
"B  c #B07140",
"V  c gray97",
"C  c #B07040",
"Z  c #C1C1C1",
"A  c #63757D",
"S  c #805029",
"D  c #F9F9F9",
"F  c #505050",
"G  c #62747D",
"H  c #608080",
"J  c #68717B",
"K  c #000040",
"L  c black",
"P  c #979797",
"I  c #505050",
"U  c #666680",
"Y  c #61727B",
"T  c black",
"R  c black",
"E  c #484848",
"W  c #505050",
"Q  c black",
"!  c black",
"~  c #494949",
"^  c black",
"/  c #000041",
"(  c black",
")  c black",
"_  c #000041",
"`  c black",
"'  c #637180",
"]  c #64747D",
"[  c #65737D",
"{  c black",
"}  c #5D7474",
"|  c #00003F",
" . c #65747E",
".. c black",
"X. c #000040",
"o. c black",
"O. c #00003F",
"+. c black",
"@. c black",
"#. c None",
"$. c black",
"%. c gray40",
"&. c black",
"*. c black",
"=. c black",
"-. c black",
";. c #000040",
":. c #885830",
">. c #B87848",
",. c #805028",
"<. c gray22",
"1. c #584020",
"2. c #D88850",
"3. c #C87848",
"4. c #F8B890",
"5. c #E88858",
"6. c #F8A070",
"7. c #A06038",
"8. c #A86840",
"9. c #D8D8D8",
"0. c #F8F8F8",
"q. c #D0D0D0",
"w. c #704828",
"e. c gray91",
"r. c gray69",
"t. c #C0C0C0",
"y. c #505050",
"u. c #989898",
"i. c gray66",
"p. c #888888",
"a. c #606060",
"s. c #B07040",
"d. c gray44",
"f. c gray47",
"g. c #484848",
"h. c #63747D",
"j. c #F89860",
"k. c #282828",
"l. c white",
/* pixels */
"                                                                                                                                  ",
"                                                                                                                                  ",
"                                                                                                                                  ",
"                                                                                                                                  ",
"                                                                                                                                  ",
"                                                                                                                                  ",
"                                                                                                                                  ",
"                                                                                                                                  ",
"                                                                                                                                  ",
"                                                                                                                                  ",
"                                                                                                                                  ",
"                                                                                                                                  ",
"                                                                                                                                  ",
"                                                                                                                                  ",
"                                                                                                                                  ",
"                                                                                                                                  ",
"                                                                                                                                  ",
"                                                                                                                                  ",
"                                                                                                                                  ",
"                                                                                                                                  ",
"                                                                                                                                  ",
"                                                                                                                                  ",
"                                                                                                                                  ",
"                                                                                                                                  ",
"                                                                                                                                  ",
"                                                                                                                                  ",
"                                                                                                                                  ",
"                                                                                                                                  ",
"                                                                                                                                  ",
"                                                                                                                                  ",
"                                                                                                                                  ",
"                                                              . X o O + @                                                         ",
"                                                            # -.-.-.-.-.$ %                                                       ",
"                                                          & -.-.-.-.-.;.-.*                                                       ",
"                                                        = - -.:.>.>.:.,.<.,.;                                                     ",
"                                                        : -.1.>.2.2.2.>.3.,.>                                                     ",
"                                                        , -.>.4.5.5.>.3.3.,.;.<                                                   ",
"                                                        1 -.6.5.7.7.7.7.8.,.;.2                                                   ",
"                                                      3 4 -.>.:.:.:.:.9.9.0.0.0.5                                                 ",
"                                                = 6 7 8 0.q.w.w.w.w.9.e.e.e.r.r.0.9 0                                             ",
"                                          q w e t.0.0.0.9.9.9.y.-.0.r.e.e.e.9.9.t.0.r t y                                         ",
"                                      u i p 0.9.u.i.q.q.q.9.y.-.y.0.r.e.e.9.t.p.a.a.i.u.a s                                       ",
"                                  d f g s.r.r.i.d.u.u.q.q.y.-.f.q.0.r.e.9.9.g.;.;.;.-.r.r.e.h j                                   ",
"                                  k 2.2.s.d.d.d.d.d.d.q.q.-.0.0.9.0.p.r.9.p.;.;.;.-.-.h.u.j.j.l d                                 ",
"                                  z x c v b n < 3 3 m d.0.0.0.0.9.i.9.r.t.;.;.;.;.-.-.-.h.j.h.j.M                                 ",
"                                                    N 0.0.0.0.9.q.i.i.f.i.;.;.;.-.-.-.-.h.h.h.j.B                                 ",
"                                                  V 0.0.0.0.0.9.r.p.f.a.a.-.;.-.;.-.-.-.-.-.h.,.C                                 ",
"                                                Z t.0.0.0.0.0.0.f.f.a.y.g.g.-.-.-.-.;.;.;.;.-.A S                                 ",
"                                              = D 0.e.0.0.0.f.9.i.a.F G H d J K -.;.;.;.;.;.L d                                   ",
"                                              P 0.0.9.q.q.i.p.f.a.I U         Y ;.;.;.;.;.T d                                     ",
"                                            R E 0.9.q.u.u.i.a.<.W d           3 K ;.;.;.Q 3                                       ",
"                                            ! k.g.u.u.u.f.f.g.~                 ^ / ( ) d                                         ",
"                                            _ -.k.k.g.g.g.g.G                                                                     ",
"                                          @ ` ;.-.-.-.-.-.9                                                                       ",
"                                          ' -.-.;.-.-.-.] @                                                                       ",
"                                          [ ;.-.-.-.-.{ }                                                                         ",
"                                          | ;.-.-.-.-. .                                                                          ",
"                                          * ;.;.-.-...%                                                                           ",
"                                          X.;.;.-.-.o.                                                                            ",
"                                          O.;.;.-.+.3                                                                             ",
"                                          @.-.-.#.$.                                                                              ",
"                                          %.&.*.=.                                                                                ",
"                                                                                                                                  ",
"                                                                                                                                  ",
"                                                                                                                                  "
};
