/* XPM */
static char *_[] = {
/* columns rows colors chars-per-pixel */
"65 65 101 2 ",
"   c black",
".  c black",
"X  c black",
"o  c black",
"O  c black",
"+  c black",
"@  c black",
"#  c black",
"$  c black",
"%  c blue",
"&  c black",
"*  c black",
"=  c #808080",
"-  c #63727E",
";  c #63747D",
":  c #60757C",
">  c #667777",
",  c #63747D",
"<  c #888888",
"1  c #62747C",
"2  c #608080",
"3  c #667A7A",
"4  c #717171",
"5  c gray66",
"6  c gray53",
"7  c gray53",
"8  c #667780",
"9  c #558080",
"0  c #AF7040",
"q  c #F79861",
"w  c None",
"e  c black",
"r  c #63757D",
"t  c black",
"y  c #00003F",
"u  c black",
"i  c black",
"p  c black",
"a  c #B97949",
"s  c black",
"d  c #555555",
"f  c #000040",
"g  c black",
"h  c #000040",
"j  c black",
"k  c #000040",
"l  c gray44",
"z  c #505050",
"x  c #63757D",
"c  c #64707C",
"v  c #67757C",
"b  c #60717D",
"n  c #64747C",
"m  c #62757D",
"M  c #505050",
"N  c gray31",
"B  c black",
"V  c black",
"C  c gray44",
"Z  c #6D6D6D",
"A  c #64747C",
"S  c #515151",
"D  c black",
"F  c black",
"G  c black",
"H  c black",
"J  c black",
"K  c #808080",
"L  c #646F7A",
"P  c black",
"I  c black",
"U  c black",
"Y  c #606080",
"T  c black",
"R  c black",
"E  c black",
"W  c black",
"Q  c black",
"!  c black",
"~  c #684820",
"^  c #885830",
"/  c #704828",
"(  c #D08050",
")  c gray66",
"_  c #F8F8F8",
"`  c #F8C8B0",
"'  c #989898",
"]  c #D8D8D8",
"[  c gray91",
"{  c #888888",
"}  c #000048",
"|  c #000040",
" . c #B87848",
".. c #F89860",
"X. c #505050",
"o. c #D0D0D0",
"O. c #606060",
"+. c gray47",
"@. c gray22",
"#. c gray44",
"$. c white",
/* pixels */
"                                                                                                                                  ",
"                                                                                                                                  ",
"                                                                                                                                  ",
"                                                                                                                                  ",
"                                                                                                                                  ",
"                                                                                                                                  ",
"                                                                                                                                  ",
"                                                                                                                                  ",
"                                                                                                                                  ",
"                                                                                                                                  ",
"                                                                                                                                  ",
"                                                                                                                                  ",
"                                                                                                                                  ",
"                                                                                                                                  ",
"                                                                                                                                  ",
"                                                                                                                                  ",
"                                                                                                                                  ",
"                                                                                                                                  ",
"                                                                                                                                  ",
"                                                                                                                                  ",
"                                                                                                                                  ",
"                                                                                                                                  ",
"                                                                                                                                  ",
"                                                                                                                                  ",
"                                                                                                                                  ",
"                                                                                                                                  ",
"                                                                                                                                  ",
"                                                                                                                                  ",
"                                                                                                                                  ",
"                                                                                                                                  ",
"                                                                                                                                  ",
"                                                                                                                                  ",
"                                                                                                                                  ",
"                                                                                                                                  ",
"                                                                                                                                  ",
"                                                                                                                                  ",
"                                                                                                                                  ",
"                                                                                                                                  ",
"                                                                                                                                  ",
"                                                                                                                                  ",
"                                                                                                                                  ",
"                                                                                                                                  ",
"                                                                                                                                  ",
"                                                                                                                                  ",
"                                                                                                                                  ",
"                                                                                                                                  ",
"                                                                                                                                  ",
"                                                                                                                                  ",
"                                                                                                                                  ",
"                                                                                                                                  ",
"                                                        . X o O + @                                                               ",
"                                                      # ! ! ! ! ! $ %                                                             ",
"                                                    & ! ~ ^ ^ ^ ~ ! * =                                                           ",
"                                                  - ! / / ( ( ( / / ! ; : @                                                       ",
"                                              > , ) ) ) ) ) ) ) ) ) ) ) ) < 1 2                                                   ",
"                                      = 3 4 5 _ _ _ _ ` ' ' _ ] _ _ _ _ _ [ ] { 6 7 8 9                                           ",
"                                  0 q w ' ' ) _ _ _ _ _ _ _ ' ] _ _ _ _ _ _ _ { } } | ! e r t y u i p                             ",
"                              = a  . ...| | | X.] ] ] o.o.) ) O.o.o.o.+.[ { { ! } | ! | | | | ! ! ! e s                           ",
"                            d f | | | ! ! | | ! @.' ) ) ) ) #.X.+.' ' O.O.{ { | | ! ! | | ! ! ! ! ! ! g                           ",
"                            h | ! ! ! | | ! ! | ! @.) ) #.X.X.X.O.+.+.+.O.O.{ ! ! ! ! | ! ! ! ! ! ! j                             ",
"                            k ! ! ! ! ! ! | ! ! ! @.#.l z x c v b n m M N X.{ ! ! ! ! ! ! ! ! ! ! # @                             ",
"                            B V ! ! ! ! ! ! ! ! ! C 8                     Z A S D ! ! ! ! ! ! F G                                 ",
"                              d H V ! ! ! ! ! ! J K                               d L P I t U Y                                   ",
"                                  @ 3 T R E W Q =                                                                                 ",
"                                                                                                                                  "
};
