/* XPM */
static char *out[] = {
/* columns rows colors chars-per-pixel */
"29 13 113 2 ",
"   c None",
".  c #242C31",
"X  c #282D33",
"o  c #292E33",
"O  c #292E34",
"+  c #292F35",
"@  c #293137",
"#  c #2D353D",
"$  c #2F3740",
"%  c #333944",
"&  c #313D44",
"*  c #323D44",
"=  c #323D46",
"-  c #333E46",
";  c #343F47",
":  c #373E49",
">  c #67014B",
",  c #69014D",
"<  c #68024E",
"1  c #69024F",
"2  c #6A0350",
"3  c #6B0351",
"4  c #6C0352",
"5  c #6E0455",
"6  c #7B0257",
"7  c #374048",
"8  c #374049",
"9  c #36414A",
"0  c #38414A",
"q  c #38404B",
"w  c #39404B",
"e  c #3A434E",
"r  c #3A4650",
"t  c #3D4553",
"y  c #3C4752",
"u  c #3D4752",
"i  c #3E4654",
"p  c #3F4955",
"a  c #424D59",
"s  c #434C5A",
"d  c #424D5A",
"f  c #444E5D",
"g  c #46515E",
"h  c #4F5662",
"j  c #495364",
"k  c #4C5668",
"l  c #4E596C",
"z  c #556075",
"x  c #576177",
"c  c #576276",
"v  c #596378",
"b  c #586478",
"n  c #596479",
"m  c #59657A",
"M  c #5A647A",
"N  c #5B647A",
"B  c #5B647B",
"V  c #5A657B",
"C  c #5B657B",
"Z  c #5D657C",
"A  c #5D667E",
"S  c #676E78",
"D  c #86025E",
"F  c #87025E",
"G  c #88025E",
"H  c #910364",
"J  c #920365",
"K  c #9C036A",
"L  c #9D1A73",
"P  c #616C83",
"I  c #626D83",
"U  c #616D84",
"Y  c #626D84",
"T  c #636F88",
"R  c #667188",
"E  c #677189",
"W  c #69748D",
"Q  c #6B758F",
"!  c #6D7591",
"~  c #6A7892",
"^  c #717E9A",
"/  c #737F9D",
"(  c #CD0685",
")  c #CD0686",
"_  c #73809D",
"`  c #798198",
"'  c #78839F",
"]  c #7B86A2",
"[  c #7D86A3",
"{  c #7F87A5",
"}  c #7F88A5",
"|  c #8088A6",
" . c #8289A7",
".. c #868FAA",
"X. c #9EA5BB",
"o. c #9FA8BC",
"O. c #A0A6BC",
"+. c #A3AABE",
"@. c #A6ADC1",
"#. c #ABB0C4",
"$. c #ABB1C4",
"%. c #ACB2C4",
"&. c #ACB2C5",
"*. c #ADB3C6",
"=. c #ADB5C5",
"-. c #B6BACC",
";. c #B8BCCD",
":. c #BEC2D1",
">. c #BFC4D3",
",. c #C4C8D7",
"<. c #C6C8D7",
"1. c #DCDCE6",
"2. c #DEDEE8",
/* pixels */
"                                            ,.,.          ",
"                                          $.7 7 ,.        ",
"                                        &.b < R 8 %.      ",
"                                      W % 2 { 2 n 0 %.    ",
"                            :.  2.  W O 2 | 4 | 3 M 8 %.  ",
"x ..-...+.*.>.#.X.@.O.<.;.S :.( o.) Y 2 | K  .F | 2 v # 1.",
"x / ] _ ] ] ' ] / ] ] ] E i ` J =.H A Q G  .L  .6 } 1 b $.",
"a f y d p s g 9 = & * - * ; z > c , A 2 ! 5  .D | 3 n [ h ",
"  $ $ $ e $ $               u   r   + C 3 | G | 4 N Y w   ",
"  ^ ~ j U k ^                         X Z 2 } 3 N Y :     ",
"  l V   m   T                           o v 1 B I t       ",
"                                          @ b P w         ",
"                                            . q           "
};
