/* XPM */
static char *out[] = {
/* columns rows colors chars-per-pixel */
"29 13 107 2 ",
"   c None",
".  c #242C31",
"X  c #2B2F36",
"o  c #2E2F38",
"O  c #2A3037",
"+  c #2C3036",
"@  c #2C3138",
"#  c #2D353D",
"$  c #2F3740",
"%  c #373A46",
"&  c #313D44",
"*  c #323D44",
"=  c #323D46",
"-  c #333E46",
";  c #343F47",
":  c #383F4A",
">  c #67014B",
",  c #6A024E",
"<  c #6B0351",
"1  c #6E0454",
"2  c #6E0455",
"3  c #374049",
"4  c #36414A",
"5  c #38414A",
"6  c #38404B",
"7  c #39404C",
"8  c #3B414C",
"9  c #3A434E",
"0  c #3B4550",
"q  c #3C4752",
"w  c #3D4752",
"e  c #3E4654",
"r  c #3F4955",
"t  c #424D59",
"y  c #434C5A",
"u  c #424D5A",
"i  c #444E5D",
"p  c #46515E",
"a  c #4F5662",
"s  c #495364",
"d  c #4C5668",
"f  c #4E596C",
"g  c #556075",
"h  c #576177",
"j  c #586377",
"k  c #596378",
"l  c #59657A",
"z  c #5B647A",
"x  c #5A657B",
"c  c #5C657B",
"v  c #5D657B",
"b  c #5D657D",
"n  c #5F667D",
"m  c #676E78",
"M  c #87025E",
"N  c #88025E",
"B  c #920365",
"V  c #920465",
"C  c #9A0369",
"Z  c #9C036A",
"A  c #9D036A",
"S  c #5F6780",
"D  c #5F6880",
"F  c #626D83",
"G  c #616D84",
"H  c #646D85",
"J  c #636F88",
"K  c #677189",
"L  c #687289",
"P  c #6B758F",
"I  c #6F7692",
"U  c #6A7892",
"Y  c #727794",
"T  c #717E9A",
"R  c #737F9D",
"E  c #BF2A8C",
"W  c #CD0685",
"Q  c #CE0786",
"!  c #73809D",
"~  c #798198",
"^  c #78839F",
"/  c #7B86A2",
"(  c #7D86A3",
")  c #8289A7",
"_  c #848AA9",
"`  c #868AAA",
"'  c #868FAA",
"]  c #9EA5BB",
"[  c #9FA8BC",
"{  c #A0A6BC",
"}  c #A3AABE",
"|  c #A6ADC1",
" . c #ABB0C4",
".. c #ABB1C4",
"X. c #ACB2C5",
"o. c #ADB2C6",
"O. c #ADB3C6",
"+. c #ADB5C5",
"@. c #B6BACC",
"#. c #B8BCCD",
"$. c #BEC2D1",
"%. c #BFC4D3",
"&. c #C4C8D7",
"*. c #C5C9D7",
"=. c #C6C8D7",
"-. c #DCDCE6",
";. c #DEDEE8",
/* pixels */
"                                            &.&.          ",
"                                          X.5 3 *.        ",
"                                        o.z < L 8 X.      ",
"                                      P % 1 ) 1 v 8 X.    ",
"                            $.  ;.  P o 2 _ M _ 2 c 8 X.  ",
"h ' @.' } O.%. .] | { =.#.m $.W [ Q H 1 _ Z ` M _ 1 z # -.",
"h R / ! / / ^ / R / / / K e ~ B +.V D I N ` E ` M ) < k ..",
"t i q u r y p 4 = & * - * ; g > j , S 1 Y N ` C _ 1 z ( a ",
"  $ $ $ 9 $ $               w   0   @ n 2 _ A _ 2 v H 7   ",
"  T U s G d T                         X n 1 ) 1 v H :     ",
"  f x   l   J                           + z < b H e       ",
"                                          O k F 7         ",
"                                            . 6           "
};
