/* XPM */
static char *out[] = {
/* columns rows colors chars-per-pixel */
"29 13 125 2 ",
"   c None",
".  c #2E2F39",
"X  c #2F3740",
"o  c #3C3344",
"O  c #3B3444",
"+  c #3A3544",
"@  c #3D3444",
"#  c #3F3446",
"$  c #313D44",
"%  c #323D44",
"&  c #323D46",
"*  c #333E46",
"=  c #343F47",
"-  c #3D394A",
";  c #69024E",
":  c #75065B",
">  c #75065D",
",  c #7B015A",
"<  c #453E53",
"1  c #780860",
"2  c #790862",
"3  c #7B0964",
"4  c #36414A",
"5  c #3A434E",
"6  c #3C4752",
"7  c #3E4652",
"8  c #3E4654",
"9  c #3F4955",
"0  c #404351",
"q  c #414352",
"w  c #414353",
"e  c #464356",
"r  c #464456",
"t  c #464457",
"y  c #404855",
"u  c #494658",
"i  c #48445A",
"p  c #424D59",
"a  c #434C5A",
"s  c #424D5A",
"d  c #444E5D",
"f  c #46515E",
"g  c #4C4A60",
"h  c #495364",
"j  c #4C5668",
"k  c #4E596C",
"l  c #575869",
"z  c #566176",
"x  c #576177",
"c  c #59657A",
"v  c #5A657B",
"b  c #5E647B",
"n  c #676E78",
"m  c #8E0362",
"M  c #920364",
"N  c #940364",
"B  c #940467",
"V  c #9A0870",
"C  c #A1036E",
"Z  c #A2046C",
"A  c #AA0471",
"S  c #AD0474",
"D  c #BE057D",
"F  c #C0057E",
"G  c #656782",
"H  c #676883",
"J  c #616D84",
"K  c #696986",
"L  c #6A6986",
"P  c #6B6A87",
"I  c #636F88",
"U  c #6C6A89",
"Y  c #6D6A89",
"T  c #6B6C8A",
"R  c #677189",
"E  c #6E718D",
"W  c #70718E",
"Q  c #71728F",
"!  c #6A7892",
"~  c #737291",
"^  c #737592",
"/  c #747896",
"(  c #767997",
")  c #717E9A",
"_  c #737F9D",
"`  c #7C7A9C",
"'  c #7F7C9E",
"]  c #CE0787",
"[  c #D10B8E",
"{  c #EF069B",
"}  c #F6079D",
"|  c #FA089E",
" . c #FE6FC7",
".. c #73809D",
"X. c #7A8198",
"o. c #78839F",
"O. c #7B86A2",
"+. c #868AAA",
"@. c #868FAA",
"#. c #8C8DAE",
"$. c #8E8EAF",
"%. c #908FB1",
"&. c #918FB1",
"*. c #928FB2",
"=. c #9EA5BB",
"-. c #A0A6BC",
";. c #A3AABE",
":. c #A3AABF",
">. c #A6ADC1",
",. c #ABB0C4",
"<. c #ADB3C6",
"1. c #B0B4C7",
"2. c #B0B7C7",
"3. c #B1B5C8",
"4. c #B2B6C9",
"5. c #B6BACC",
"6. c #B8BCCD",
"7. c #BEC2D1",
"8. c #BFC2D1",
"9. c #BFC4D3",
"0. c #C6C8D7",
"q. c #C6CAD8",
"w. c #C7CBD9",
"e. c #DEDEE7",
"r. c #DFDFE9",
/* pixels */
"                                            q.q.          ",
"                                          1.q 0 w.        ",
"                                        4.H > ^ r 3.      ",
"                                      ( < 1 #.2 L u 4.    ",
"                            8.  r.  / # N $.} $.S K u 3.  ",
"x @.5.@.;.<.9.,.=.>.-.0.6.n 7.] :.[ W M %.} *.} %.C L - e.",
"x _ O...O.O.o.O._ O.O.O.R 8 X.B 2.V T ` | *. .*.D $.M G 1.",
"p d 6 s 9 a f 4 & $ % * % = z ; b : T N ' | *.{ &.A L +.l ",
"  X X X 5 X X               7   y   O Y Z %.F &., P Q i   ",
"  ) ! h J j )                         o Y N $.3 P ~ e     ",
"  k v   c   I                           @ L m U Q g       ",
"                                          + G E t         ",
"                                            . w           "
};
