/* XPM */
static char *out[] = {
/* columns rows colors chars-per-pixel */
"29 13 119 2 ",
"   c None",
".  c #2F2F39",
"X  c #2F3740",
"o  c #3A3544",
"O  c #3D3444",
"+  c #3D3546",
"@  c #3F3446",
"#  c #313D44",
"$  c #323D44",
"%  c #323D46",
"&  c #333E46",
"*  c #343F47",
"=  c #6A024F",
"-  c #75065B",
";  c #7B015A",
":  c #403447",
">  c #403B4C",
",  c #4C3F58",
"<  c #780860",
"1  c #7C0965",
"2  c #36414A",
"3  c #3A434E",
"4  c #3C4752",
"5  c #3E4652",
"6  c #3E4654",
"7  c #3F4955",
"8  c #414353",
"9  c #464456",
"0  c #424857",
"q  c #494358",
"w  c #4A4659",
"e  c #48445A",
"r  c #4D465C",
"t  c #424D59",
"y  c #434C5A",
"u  c #424D5A",
"i  c #444E5D",
"p  c #46515E",
"a  c #4E4A62",
"s  c #495364",
"d  c #4C5668",
"f  c #4E596C",
"g  c #58586A",
"h  c #566176",
"j  c #576177",
"k  c #59657A",
"l  c #5A657B",
"z  c #5E647B",
"x  c #676E78",
"c  c #940468",
"v  c #9A0870",
"b  c #A1046C",
"n  c #A70470",
"m  c #AF0574",
"M  c #B10475",
"N  c #B20475",
"B  c #676883",
"V  c #616D84",
"C  c #6A6986",
"Z  c #6B6A87",
"A  c #636F88",
"S  c #6C6A89",
"D  c #6D6A89",
"F  c #6F6B8B",
"G  c #6D6C8B",
"H  c #677189",
"J  c #6E718D",
"K  c #71728F",
"L  c #6A7892",
"P  c #737291",
"I  c #767794",
"U  c #777998",
"Y  c #717E9A",
"T  c #737F9D",
"R  c #7D7B9D",
"E  c #C70484",
"W  c #CE0685",
"Q  c #CE0787",
"!  c #D5068A",
"~  c #DB068E",
"^  c #D10A90",
"/  c #EF069B",
"(  c #F6079D",
")  c #FA089E",
"_  c #807C9F",
"`  c #FE6FC7",
"'  c #73809D",
"]  c #7A8198",
"[  c #78839F",
"{  c #7B86A2",
"}  c #868FAA",
"|  c #888CAB",
" . c #908FB1",
".. c #918FB1",
"X. c #928FB2",
"o. c #9591B4",
"O. c #9EA5BB",
"+. c #A0A6BC",
"@. c #A3AABE",
"#. c #A3AABF",
"$. c #A6ADC1",
"%. c #ABB0C4",
"&. c #ADB3C6",
"*. c #B0B5C7",
"=. c #B2B6C9",
"-. c #B3B7CA",
";. c #B4B7CA",
":. c #B1B8C8",
">. c #B6BACC",
",. c #B8BCCD",
"<. c #BEC2D1",
"1. c #BFC2D1",
"2. c #BFC4D3",
"3. c #C6C8D7",
"4. c #C6CAD9",
"5. c #C7CBD9",
"6. c #C9CDDA",
"7. c #DEDEE7",
"8. c #DFDFE9",
/* pixels */
"                                            5.4.          ",
"                                          =.9 9 6.        ",
"                                        ;.C < I w -.      ",
"                                      U , b  .; D r -.    ",
"                            1.  8.  U : N ..( X.~ S r =.  ",
"j } >.} @.&.2.%.O.$.+.3.,.x <.Q #.^ P M ..( o.( X.E Z > 7.",
"j T { ' { { [ { T { { { H 6 ] c :.v G R ) o.` o.(  .m B *.",
"t i 4 u 7 y p 2 % # $ & $ * h = z - G N _ ) o./ X.! C | g ",
"  X X X 3 X X               5   0   + F W X.) X.; D K e   ",
"  Y L s V d Y                         @ F N  .1 D P q     ",
"  f l   k   A                           O C n S K a       ",
"                                          o B J e         ",
"                                            . 8           "
};
