/* XPM */
static char *out[] = {
/* columns rows colors chars-per-pixel */
"29 13 125 2 ",
"   c None",
".  c #33303D",
"X  c #2F3740",
"o  c #3C3547",
"O  c #3F3446",
"+  c #313D44",
"@  c #323D44",
"#  c #323D46",
"$  c #333E46",
"%  c #343F47",
"&  c #6A024F",
"*  c #75065B",
"=  c #403546",
"-  c #403548",
";  c #433549",
":  c #403B4C",
">  c #36414A",
",  c #3A434E",
"<  c #3C4752",
"1  c #3E4652",
"2  c #3E4654",
"3  c #3F4955",
"4  c #434355",
"5  c #424857",
"6  c #4A4359",
"7  c #4D405A",
"8  c #494658",
"9  c #48445A",
"0  c #4B465C",
"q  c #4D465C",
"w  c #4E475D",
"e  c #424D59",
"r  c #434C5A",
"t  c #424D5A",
"y  c #444E5D",
"u  c #46515E",
"i  c #4E4A62",
"p  c #495364",
"a  c #4C5668",
"s  c #4E596C",
"d  c #58586A",
"f  c #566176",
"g  c #576177",
"h  c #59657A",
"j  c #5A657B",
"k  c #60657D",
"l  c #676E78",
"z  c #940468",
"x  c #9B0972",
"c  c #A1046C",
"v  c #AD0475",
"b  c #AF0574",
"n  c #B10475",
"m  c #B20576",
"M  c #B50478",
"N  c #BA047C",
"B  c #676883",
"V  c #616D84",
"C  c #686985",
"Z  c #6B6A87",
"A  c #636F88",
"S  c #6D6A89",
"D  c #6E6B8A",
"F  c #6F6B8A",
"G  c #6F6B8B",
"H  c #6D6C8B",
"J  c #6F6D8C",
"K  c #706B8C",
"L  c #677189",
"P  c #70718E",
"I  c #6A7892",
"U  c #737291",
"Y  c #747292",
"T  c #797897",
"R  c #717E9A",
"E  c #737F9D",
"W  c #79799A",
"Q  c #7F7C9E",
"!  c #C70484",
"~  c #CE0685",
"^  c #CE0787",
"/  c #D00687",
"(  c #D5068A",
")  c #D6068A",
"_  c #DB068E",
"`  c #D10A90",
"'  c #E40791",
"]  c #EF069B",
"[  c #F6079D",
"{  c #FA089E",
"}  c #827DA0",
"|  c #FE6FC7",
" . c #73809D",
".. c #7A8199",
"X. c #78839F",
"o. c #7B86A2",
"O. c #868FAA",
"+. c #888CAB",
"@. c #918FB1",
"#. c #928FB2",
"$. c #9390B3",
"%. c #9691B5",
"&. c #9EA5BB",
"*. c #A0A6BC",
"=. c #A3AABE",
"-. c #A4AABF",
";. c #A6ADC1",
":. c #ABB0C4",
">. c #ADB3C6",
",. c #B1B4C8",
"<. c #B3B7CA",
"1. c #B4B7CA",
"2. c #B5B7CB",
"3. c #B1B8C8",
"4. c #B6BACC",
"5. c #B8BCCD",
"6. c #BEC2D1",
"7. c #BFC2D1",
"8. c #BFC4D3",
"9. c #C6C8D7",
"0. c #C7CBD9",
"q. c #C8CCDA",
"w. c #C9CDDA",
"e. c #DEDEE7",
"r. c #DFDFE9",
/* pixels */
"                                            q.0.          ",
"                                          <.8 8 w.        ",
"                                        2.Z m T q <.      ",
"                                      W 7 c @.v F w 1.    ",
"                            7.  r.  W ; ~ $.[ $._ D q <.  ",
"g O.4.O.=.>.8.:.&.;.*.9.5.l 6.^ -.` U ~ #.[ %.[ $.! S : e.",
"g E o. .o.o.X.o.E o.o.o.L 2 ..z 3.x J Q { %.| %.[ @.b C ,.",
"e y < t 3 r u > # + @ $ @ % f & k * H ) } { %.] $.( S +.d ",
"  X X X , X X               1   5   - G ' $.{ $.N F U 0   ",
"  R I p V a R                         O K n @.M F Y 6     ",
"  s j   h   A                           = Z / G U i       ",
"                                          o B P 9         ",
"                                            . 4           "
};
