/* XPM */
static char *out[] = {
/* columns rows colors chars-per-pixel */
"240 240 6 1 ",
"  c None",
". c black",
"X c #020000",
"o c #020200",
"O c #000202",
"+ c #020202",
/* pixels */
"                                                                                                                                                                                                                                                ",
"                                                                                                                                                                                                                                                ",
"                                                                                                                                                                                                                                                ",
"                                                                                                                                                                                                                                                ",
"                                                                                                                                                                                                                                                ",
"                                                                                                                                                                                                                                                ",
"                                                                                                                                                                                                                                                ",
"                                                                                                                                                                                                                                                ",
"                                                                                                                                                                                                                                                ",
"                                                                                                                                                                                                                                                ",
"                                                                                                                                                                                                                                                ",
"                                                                                                                                                                                                                                                ",
"                                                                                                                                                                                                                                                ",
"                                                                                                                                                                                                                                                ",
"                                                                                                                                                                                                                                                ",
"                                                                                                                                                                                                                                                ",
"                                                                                                                                                                                                                                                ",
"                                                                                                                                                                                                                                                ",
"                                                                                                                                                                                                                                                ",
"                                                                                                                                                                                                                                                ",
"                                                                                                                                                                                                                                                ",
"                                                                                                                                                                                                                                                ",
"                                                                                                                                                                                                                                                ",
"                                                                                                                                                                                                                                                ",
"                                                                                                                                                                                                                                                ",
"                                                                                                                                                                                                                                                ",
"                                                                                                                                                                                                                                                ",
"                                                                                                                                                                                                                                                ",
"                                                                                                                                                                                                                                                ",
"                                                                                                                                                                                                                                                ",
"                                                                                                                                                                                                                                                ",
"                                                                                                                                                                                                                                                ",
"                                                                                                                                                                                                                                                ",
"                                                                                                                                                                                                                                                ",
"                                                                                                                                                                                                                                                ",
"                                                                                                                                                                                                                                                ",
"                                                                                                                                                                                                                                                ",
"                                                                                                                                                                                                                                                ",
"                                                                                                                                                                                                                                                ",
"                                                                                                                                                                                                                                                ",
"                                                                                                                                                                                                                                                ",
"                                                                                                                                                                                                                                                ",
"                                                                                                                                                                                                                                                ",
"                                                                                                                                                                                                                                                ",
"                                                                                                                                                                                                                                                ",
"                                                                                                                                                                                                                                                ",
"                                                                                                                                                                                                                                                ",
"                                                                                                                                                                                                                                                ",
"                                                                                                                                                                                                                                                ",
"                                                                                                                                                                                                                                                ",
"                                                                                                                                                                                                                                                ",
"                                                                                                                                                                                                                                                ",
"                                                                                                                                                                                                                                                ",
"                                                                                                                                                                                                                                                ",
"                                                                                                                                                                                                                                                ",
"                                                                                                                                                                                                                                                ",
"                                                                                                                                                                                                                                                ",
"                                                                                                                                                                                                                                                ",
"                                                                                                                                                                                                                                                ",
"                                                                                                                                                                                                                                                ",
"                                                                                                                                                                                                                                                ",
"                                                                                                                                                                                                                                                ",
"                                                                                                                                                                                                                                                ",
"                                                                                                                                                                                                                                                ",
"                                                                                                                                                                                                                                                ",
"                                                                                                                                                                                                                                                ",
"                                                                                                                                                                                                                                                ",
"                                                                                                                                                                                                                                                ",
"                                                                                                                                                                                                                                                ",
"                                                                                                                                                                                                                                                ",
"                                                                                                                                                                                                                                                ",
"                                                                                                                                                                                                                                                ",
"                                                                                                                                                                                                                                                ",
"                                                                                                                                                                                                                                                ",
"                                                                                                                                                                                                                                                ",
"                                                                                                                                                                                                                                                ",
"                                                                                                                    ++++++++                                                                                                                    ",
"                                                                                                              ++++OOOOOOOOOOOO++++                                                                                                              ",
"                                                                                                          +++OOOO++++++++++++++OOOO++.                                                                                                          ",
"                                                                                                        ++OO++++................+++OOO++                                                                                                        ",
"                                                                                                     ++OO+++........................++OOO++                                                                                                     ",
"                                                                                                   ++O+++..............................++OO++                                                                                                   ",
"                                                                                                 ++O++...................................++OO+                                                                                                  ",
"                                                                                                +OO+.......................................++OO+                                                                                                ",
"                                                                                              ++O++.................OO+oo+O..................+OO+.                                                                                              ",
"                                                                                             +OO+..............Oooo++++++++++ooo...............+OO+                                                                                             ",
"                                                                                            +O++............ooo++++++++++++++++++oo.............+OO+                                                                                            ",
"                                                                                           +O+...........+o+++++++++........++++++++oo............+O+                                                                                           ",
"                                                                                         ++O+..........+o++++++..................++++++o...........+O+                                                                                          ",
"                                                                                        ++++.........Oo+++++........................+++++o..........+O+                                                                                         ",
"                                                                                        +++.........o+++++............................+++++..........+O+                                                                                        ",
"                                                                                       +++........Oo++++................................++++o.........+O+                                                                                       ",
"                                                                                      +O+........+++++....................................+++o.........+O+                                                                                      ",
"                                                                                     +O+.......Oo++++......................................++++.........+O+                                                                                     ",
"                                                                                    +O+.......Oo+++....................++...................++++o........OO.                                                                                    ",
"                                                                                    +++......Oo+++.X..............++++++++++++................+++o.......+O+                                                                                    ",
"                                                                                   +O+......Oo+++..............+++OOOOOOOOOOOO+++..............+++........+O+                                                                                   ",
"                                                                                  +O+.......o+++............+++OOOO++++++++++OOOO++.............+++........OO                                                                                   ",
"                                                                                  +++......++++...........+++OOO+++++......+++++OOO++............++o.......+O+                                                                                  ",
"                                                                                 +O+......Oo++...........++OO++++..............++++OO+...........+++o.......+O+                                                                                 ",
"                                                                                 ++.......o+++.........++OOO++...................+++OO++..........+++.......+O+                                                                                 ",
"                                                                                +O+......++++.........++OO++.......................+++OO+..........+++.......+O+                                                                                ",
"                                                                                ++......O+++.........++OO++..........................++OO+..........++o......+O+                                                                                ",
"                                                                               +O+......o+++........++OO++.........XX......XX.........++OO+.........+++.......+O                                                                                ",
"                                                                               +++.....O+++........++OO++.......XX............XX.......++OO+.........++o......+O+                                                                               ",
"                                                                               O+......++++........+OO++......XX................X.......++O+.........+++.......O+                                                                               ",
"                                                                              +O+.....Oo++........++O++......X....................X......++O+.........++o......+O.                                                                              ",
"                                                                              ++......O+++X......++OO+......X......................X......+OO+........++o......+O+                                                                              ",
"                                                                              ++......o++........++O+......X........................X.....++O+.........++.......O+                                                                              ",
"                                                                             +O+.....Oo++.......++O++.....X..........................X.....++O+........++o......+O                                                                              ",
"                                                                             +O+.....O+++X......++O+.....X.................................++O+........++o......+O.                                                                             ",
"                                                                             ++......o++........+O++.....X............................X.....+OO.........++......+O+                                                                             ",
"                                                                             ++.....Oo++.......++O++....X............+++++..................++O+........++.......O+                                                                             ",
"                                                                             O+.....O+++.......++O+.....X..........+++++++++...........X.....+O+........++o......O+                                                                             ",
"                                                                             O+.....O+++.......+O++...............+++++++++++................+OO........++o......+O                                                                             ",
"                                                                            +O+.....+++.......++O++....X.........+++++++++++++..........X....+OO+.......+++......+O                                                                             ",
"                                                                            +++.....+++.......++O++....X.........+++++++++++++..........X....++O+........++......+O+                                                                            ",
"                                                                            +++....+o++.......++O+..............+++++++++++++++.........X.....+O+........++......+O+                                                                            ",
"                                                                            +++....+o++.......++++..............+++++++++++++++...............+O+........++......+O+                                                                            ",
"                                                                            +++....Oo++.......++++..............++++++++++++++++..............+O+........++o.....+O+                                                                            ",
"                                                                            +++....Oo++.......++++..............++++++++++++++++..............+O+........++o.....+O+                                                                            ",
"                                                                            +++....+o++.......++++..............+++++++++++++++...............+O+........++......+O+                                                                            ",
"                                                                            +++....+o++.......++++..............+++++++++++++++.........X.....+O+........++......+O+                                                                            ",
"                                                                            +++....++++.......++O++....X........+++++++++++++++.........X....++O+........++......+O+                                                                            ",
"                                                                            +O+....++++.......++O++....X.........+++++++++++++..........X....+OO+.......+++......+O                                                                             ",
"                                                                             O+.....O+++.......+O++...............+++++++++++................+OO........++o......+O                                                                             ",
"                                                                             O+.....O+++X......++O+.....X..........+++++++++...........X.....+O+........++o......O+                                                                             ",
"                                                                             ++.....Oo++.......++O+.....X............+++++..................++O+........++.......O+                                                                             ",
"                                                                             ++.....+o++.......++O++.....X............................X.....+OO.........++......+O+                                                                             ",
"                                                                             +O+.....++++.......++O+.....X.................................++O+........++o......+O.                                                                             ",
"                                                                             +O+.....Oo++.......++O++.....X..........................X.....++O+........++o......+O                                                                              ",
"                                                                              ++.....Oo++.......+++O+......X........................X.....++O+.........++.......O+                                                                              ",
"                                                                              ++......++++.......++O++......X......................X......+OO+........++o......+O+                                                                              ",
"                                                                              +O+.....O+++........++O++......X....................X......++O+.........++o......+O.                                                                              ",
"                                                                               O+.....Oo+++.......++OO++......XX................X.......++O+.........+++.......O+                                                                               ",
"                                                                               +++.....++++........++O+++.......XX............XX.......++OO+.........++o......+O+                                                                               ",
"                                                                               +O+.....Oo+++X.......++O+++.........XX......XX.........++OO+.........+++.......+O                                                                                ",
"                                                                                ++......O+++.........++OO++..........................++OO+..........++o......+O+                                                                                ",
"                                                                                +++.....O++++.........++OO++.......................+++OO+..........+++.......+O.                                                                                ",
"                                                                                 ++......Oo+++X........++OO+++...................+++OO++..........+++.......+O+                                                                                 ",
"                                                                                 +++......O+++..........+++OO++++..............++++OO+...........+++o.......+O+                                                                                 ",
"                                                                                  ++......+++++...........+++OOO+++++......+++++OOO++............++o.......+O+                                                                                  ",
"                                                                                  +O+......Oo+++...........++++OOOO++++++++++OOOO++.............+++........OO                                                                                   ",
"                                                                                   +++......Oo+++.............++++OOOOO++OOOOO+++..............+++........+O+                                                                                   ",
"                                                                                    ++.......+++++...............+++++++++++++................+++o.......+O+                                                                                    ",
"                                                                                    +O+.......+++++.X................+++++..................++++o........OO                                                                                     ",
"                                                                                     +O+.......Oo++++......................................++++.........+O+                                                                                     ",
"                                                                                      +++.......Oo++++.X..................................+++o.........+O+                                                                                      ",
"                                                                                       +++.......O++++++................................++++o.........+O+                                                                                       ",
"                                                                                       ++++........Oo+++++.X.......................X..+++++..........+O+                                                                                        ",
"                                                                                        ++++........O+++++++..X.................X...+++++o..........+O+                                                                                         ",
"                                                                                         ++++.........Oo+++++++...X..............++++++o...........+O+                                                                                          ",
"                                                                                          ++++..........O+o+++++++++........++++++++oo............+O+                                                                                           ",
"                                                                                            +O++...........Ooo+++++++++++++++++++oo.............+OO+                                                                                            ",
"                                                                                             +O++.............O+oo+++++++++++ooo...............+OO+                                                                                             ",
"                                                                                              ++O++...............OOO++oo+OO.................+OO+.                                                                                              ",
"                                                                                                +O++.......................................++OO+                                                                                                ",
"                                                                                                 ++O++...................................++OO+                                                                                                  ",
"                                                                                                   ++O+++..............................++OO++                                                                                                   ",
"                                                                                                     ++OO++.........................++OOO++                                                                                                     ",
"                                                                                                       ++OOO+++.................+++OOO++                                                                                                        ",
"                                                                                                          +++OOO+++++++++++++++OOOO++.                                                                                                          ",
"                                                                                                             +++++OOOOOOOOOOOO++++                                                                                                              ",
"                                                                                                                    ++++++++                                                                                                                    ",
"                                                                                                                                                                                                                                                ",
"                                                                                                                                                                                                                                                ",
"                                                                                                                                                                                                                                                ",
"                                                                                                                                                                                                                                                ",
"                                                                                                                                                                                                                                                ",
"                                                                                                                                                                                                                                                ",
"                                                                                                                                                                                                                                                ",
"                                                                                                                                                                                                                                                ",
"                                                                                                                                                                                                                                                ",
"                                                                                                                                                                                                                                                ",
"                                                                                                                                                                                                                                                ",
"                                                                                                                                                                                                                                                ",
"                                                                                                                                                                                                                                                ",
"                                                                                                                                                                                                                                                ",
"                                                                                                                                                                                                                                                ",
"                                                                                                                                                                                                                                                ",
"                                                                                                                                                                                                                                                ",
"                                                                                                                                                                                                                                                ",
"                                                                                                                                                                                                                                                ",
"                                                                                                                                                                                                                                                ",
"                                                                                                                                                                                                                                                ",
"                                                                                                                                                                                                                                                ",
"                                                                                                                                                                                                                                                ",
"                                                                                                                                                                                                                                                ",
"                                                                                                                                                                                                                                                ",
"                                                                                                                                                                                                                                                ",
"                                                                                                                                                                                                                                                ",
"                                                                                                                                                                                                                                                ",
"                                                                                                                                                                                                                                                ",
"                                                                                                                                                                                                                                                ",
"                                                                                                                                                                                                                                                ",
"                                                                                                                                                                                                                                                ",
"                                                                                                                                                                                                                                                ",
"                                                                                                                                                                                                                                                ",
"                                                                                                                                                                                                                                                ",
"                                                                                                                                                                                                                                                ",
"                                                                                                                                                                                                                                                ",
"                                                                                                                                                                                                                                                ",
"                                                                                                                                                                                                                                                ",
"                                                                                                                                                                                                                                                ",
"                                                                                                                                                                                                                                                ",
"                                                                                                                                                                                                                                                ",
"                                                                                                                                                                                                                                                ",
"                                                                                                                                                                                                                                                ",
"                                                                                                                                                                                                                                                ",
"                                                                                                                                                                                                                                                ",
"                                                                                                                                                                                                                                                ",
"                                                                                                                                                                                                                                                ",
"                                                                                                                                                                                                                                                ",
"                                                                                                                                                                                                                                                ",
"                                                                                                                                                                                                                                                ",
"                                                                                                                                                                                                                                                ",
"                                                                                                                                                                                                                                                ",
"                                                                                                                                                                                                                                                ",
"                                                                                                                                                                                                                                                ",
"                                                                                                                                                                                                                                                ",
"                                                                                                                                                                                                                                                ",
"                                                                                                                                                                                                                                                ",
"                                                                                                                                                                                                                                                ",
"                                                                                                                                                                                                                                                ",
"                                                                                                                                                                                                                                                ",
"                                                                                                                                                                                                                                                ",
"                                                                                                                                                                                                                                                ",
"                                                                                                                                                                                                                                                ",
"                                                                                                                                                                                                                                                ",
"                                                                                                                                                                                                                                                ",
"                                                                                                                                                                                                                                                ",
"                                                                                                                                                                                                                                                ",
"                                                                                                                                                                                                                                                ",
"                                                                                                                                                                                                                                                ",
"                                                                                                                                                                                                                                                ",
"                                                                                                                                                                                                                                                ",
"                                                                                                                                                                                                                                                ",
"                                                                                                                                                                                                                                                ",
"                                                                                                                                                                                                                                                ",
"                                                                                                                                                                                                                                                "
};
