/* XPM */
static char *out[] = {
/* columns rows colors chars-per-pixel */
"94 94 256 2 ",
"   c None",
".  c #0B0B0C",
"X  c #080506",
"o  c #130B0B",
"O  c #150C05",
"+  c #15120C",
"@  c #1C140C",
"#  c #1A1805",
"$  c #090C14",
"%  c #0C1418",
"&  c #141313",
"*  c #1B1513",
"=  c #1C1C1B",
"-  c #171918",
";  c #11100D",
":  c #221D0C",
">  c #231A07",
",  c #231B14",
"<  c #231C1A",
"1  c #271B15",
"2  c #1C2417",
"3  c #192405",
"4  c #25230C",
"5  c #292706",
"6  c #332C0D",
"7  c #312A07",
"8  c #3C3B0C",
"9  c #373707",
"0  c #252212",
"q  c #2B2513",
"w  c #2D2A14",
"e  c #2B231B",
"r  c #2D2B1B",
"t  c #25251B",
"y  c #322D14",
"u  c #32251C",
"i  c #332B1C",
"p  c #332815",
"a  c #353214",
"s  c #3C3B14",
"d  c #35321B",
"f  c #3B351C",
"g  c #3B3818",
"h  c #2C3310",
"j  c #161B24",
"k  c #0C1622",
"l  c #1A2428",
"z  c #1A2833",
"x  c #2D2B24",
"c  c #282727",
"v  c #332B22",
"b  c #362D27",
"n  c #2B3229",
"m  c #3B3523",
"M  c #393528",
"N  c #2A3436",
"B  c #373937",
"V  c #272B36",
"C  c #251F24",
"Z  c #423C1C",
"A  c #433C14",
"S  c #433E0C",
"D  c #423D24",
"F  c #423C2B",
"G  c #423D36",
"H  c #402E27",
"J  c #3D4218",
"K  c #3D4203",
"L  c #3C413A",
"P  c #464809",
"I  c #4D5307",
"U  c #555909",
"Y  c #444314",
"T  c #4B4B14",
"R  c #44431B",
"E  c #4A451D",
"W  c #4C4B1B",
"Q  c #484616",
"!  c #524C1B",
"~  c #4E5119",
"^  c #53531B",
"/  c #5A5C1D",
"(  c #565817",
")  c #554F02",
"_  c #5C6317",
"`  c #5B6308",
"'  c #646A09",
"]  c #646919",
"[  c #6B7418",
"{  c #737B1A",
"}  c #6B7609",
"|  c #4B4424",
" . c #4D4B23",
".. c #494629",
"X. c #524D23",
"o. c #534C2B",
"O. c #554A26",
"+. c #545424",
"@. c #5C5B23",
"#. c #54532B",
"$. c #5A542B",
"%. c #5C5C2B",
"&. c #585725",
"*. c #484636",
"=. c #544D33",
"-. c #5A5633",
";. c #4E5228",
":. c #625D23",
">. c #625D2B",
",. c #645C36",
"<. c #5C6225",
"1. c #5B6232",
"2. c #636424",
"3. c #63632C",
"4. c #696A28",
"5. c #6C7223",
"6. c #6D732A",
"7. c #747B24",
"8. c #73752C",
"9. c #757A2C",
"0. c #777A29",
"q. c #646333",
"w. c #6C6B34",
"e. c #696838",
"r. c #726D38",
"t. c #6D7335",
"y. c #7A7D32",
"u. c #767737",
"i. c #71692C",
"p. c #615E18",
"a. c #353A46",
"s. c #2B3A48",
"d. c #1A3046",
"f. c #3C4445",
"g. c #3A4A5A",
"h. c #324655",
"j. c #3A4E65",
"k. c #464846",
"l. c #5A5845",
"z. c #495358",
"x. c #4C4E52",
"c. c #686646",
"v. c #777645",
"b. c #6E714E",
"n. c #495866",
"m. c #555D68",
"M. c #475468",
"N. c #57666F",
"B. c #6A716F",
"V. c #5A614A",
"C. c #827D35",
"Z. c #827C46",
"A. c #847E52",
"S. c #79841B",
"D. c #77820C",
"F. c #7B8424",
"G. c #7C842C",
"H. c #7E8928",
"J. c #7D8333",
"K. c #7D8539",
"L. c #7B8455",
"P. c #858E1C",
"I. c #828C2C",
"U. c #838C25",
"Y. c #8B952C",
"T. c #889427",
"R. c #939B2B",
"E. c #848C34",
"W. c #858C3B",
"Q. c #858838",
"!. c #8A9434",
"~. c #8E9934",
"^. c #8C943B",
"/. c #8B9638",
"(. c #939C34",
"). c #939C3C",
"_. c #94983A",
"`. c #97A32A",
"'. c #9CA53C",
"]. c #99A538",
"[. c #A2AC3B",
"{. c #A7B33B",
"}. c #AAB433",
"|. c #888946",
" X c #8D9345",
".X c #949C44",
"XX c #959C4A",
"oX c #979948",
"OX c #928B56",
"+X c #989856",
"@X c #8F8E50",
"#X c #9BA443",
"$X c #9AA547",
"%X c #9DA556",
"&X c #A3AC43",
"*X c #A3AC4B",
"=X c #A6A94A",
"-X c #AAB444",
";X c #ABB54C",
":X c #AAB648",
">X c #B3BD4C",
",X c #B1BD44",
"<X c #A5AA56",
"1X c #ABB453",
"2X c #AAB657",
"3X c #B3BC54",
"4X c #B2BB5B",
"5X c #B4B857",
"6X c #B1AD53",
"7X c #8E946D",
"8X c #9EA768",
"9X c #A8A964",
"0X c #B5BB66",
"qX c #AEB570",
"wX c #A19C5F",
"eX c #B5C24B",
"rX c #B9C54A",
"tX c #BAC453",
"yX c #BDCA52",
"uX c #B9C459",
"iX c #BBC465",
"pX c #B9C576",
"aX c #BDD17F",
"sX c #C2CC5C",
"dX c #C2CC55",
"fX c #CAD55D",
"gX c #C6D35A",
"hX c #C5CF4F",
"jX c #C3CC63",
"kX c #C5CC6A",
"lX c #CAD563",
"zX c #CBD46B",
"xX c #CAD766",
"cX c #D2DC69",
"vX c #CCD676",
"bX c #D4DC78",
"nX c #C4CA75",
"mX c #D6E36A",
"MX c #D9E477",
"NX c #CFE079",
"BX c #E2EB7C",
"VX c #E6F27B",
"CX c #B1C13F",
"ZX c #647582",
"AX c #778687",
"SX c #A8B38C",
"DX c #93A19C",
"FX c #D0D88E",
"GX c #DCE786",
"HX c #DBE396",
"JX c #E2EB86",
"KX c #E8F388",
"LX c #E9F596",
"PX c #EDF595",
"IX c #DFE5A6",
"UX c #AEC2A4",
/* pixels */
"                                                                                                                                                                                            ",
"                                                                              ; % l 2 2 2 2 q e # 3 3 3 2 2                                                                                 ",
"                                                                    2 2 h J 7XSXL.% X V.FXIXUXnX8X<.t.SX7X9 5 # h n                                                                         ",
"                                                              2 3 K aXFXFXFXLXLXFXJ # qXFXFXiXzXvX2X%XpXaXnXpX4.W 9 4 t 2                                                                   ",
"                                                          3 3 7XFXFXGXHXiXxXuXaX0XA 5 @X9X_.5XlXVXGXJX2X2X2XvXjX0X9XqXQ h # 3 n                                                             ",
"                                                      3 3 iXvXaXL.9.5./.$XNXiX[.iX0XXX<.qX5X5X6X~.NXbXGXHX*XvX>X-X6X<X0X X/ 3 5 4 x                                                         ",
"                                                    3 8XNXxXxX~.K I P 2XGXBXNXMXkXGXLX0XHXJX^.[ I D.I.iXNXGXPXjXS.' ~.0XiX XW.8.u.5 # *                                                     ",
"                                                  3 pXiXxXmXfXyX!.5.K uXLXJXMXMXkXLXPX0XGXvX[ I.&XBXPXMXY.2XvXLXJX*XPXI.[ ` G.[ XX|.Y 5 5 0                                                 ",
"                                              h L.FXjXcXmXgXmXxXkX<XU 2XnXMXKX-X#XNXKXvXkX=XW.6X.XuX:X~.H.NXLXLXGXnXGXLXFXp.nX' _.%XXX|.S O # n                                             ",
"                                            J _ 2X5X~.zXMXlXdXMXzXJX2X2XNXMXxXxXxXNXuXzXkXoX0X2X7. XF.].eXpXHXHXFXFXHXHXHXFXHXGXF.H.^.3X;X_ # O r                                           ",
"                                          J aX<XuXsX} 5XjXlXlXcXeXH.~.2XNXNXcXVXJXmXlXGXbX<XnX<XU 5.[ H.$X$X*XaXHXHXHXIXIXHXIXGXFXI F.P.,XuX9X5 3 n                                         ",
"                                      h J aXqXH.bXBXbXzXlXzXmXxXyX&XiXuXLX&XuXVXxX{.yXNXvXXX0X|._ K.aXHX2XeX[.H.I.U.S.3XbXkXGXGXLXF.I D.fXuXiX@X# e l f.                                    ",
"                                    n t.pXiX~.' bXKXbXsXcXcX>XlXmXeXNXGXGX].dXKXmXeXcXBXNX[ ( P K.FXFXiXaXMXyXT.D.T.D.H.Y.&X6X3XNXXXW.iXyXS.S.5.^ # X 2 f.                                  ",
"                                  3 <.aXiX#X[ I ;XtXcXfX:XMXGXMXKXGXKXLXGX).yXKXcXeXyXNXvXGXGX=XvXGXNXNXJXNXmXNXeX].CXyXdX,X>XdX.X.X.XuXuXuXuX^.t.s * =.x L                                 ",
"                                3 8XFXkX;X9 ) T.T.tXMXsXgXxXKXPXJXNXKXKXaXeXyXiXeX].xXxXNXkXbXjXGXMXJXzX*X:XyXNXNXxXmXyXCX`.[.lXeXF.` S.$XzX*X[ K 3 4 g l.M N                               ",
"                              O c.iXiX>X-X9 [.cXyXNXPXsX:XuXKXPXGXxXmXiXiXmXMXcXyXyXMXMXKXlXBX5XzXmXiX>X`.:XuXxXyXNXmXfXrX}.].].eXY.D.S.~.*X'.{ E.<.s a ;.l.q x                             ",
"                            g 8X8X%XuXxXyXP.}.rXyXGXHXNXiXeXNXvXjXtXsXjXBXmXfXhXrXhXBXlXcXPXBXzX&XjX3X>X[.gXyXuX].&XeXuXxXCXuXH.eX:XH.S.H.:X].` K.t.J 3 h R 7 h M                           ",
"                          8X7XK.qXiXuXeX`.`.rXrXxXKXLXNXvXGXPXGXbXzXcXxXhX{.gXhXrXcXfXsXzXBXBXsX].[.P.{.CXxXeXH.S.(.].D.:XxXmXH.-X2X~.H./.[.H.[ S.K.K.K ;.+XJ.q.J r                         ",
"                        n J _ K uX&XiXrXhXhX`.fXGXJXGXjXiXNXGXGXbXzXcXlXMXmXfXhXfXVXcXMXKXzXkXJX>XjX(.-XxXmXyXyXeXCXgXeXyXgXH.[.:X/.K.S.).eXH.H.[ ] ~ I K.K.6.K.|.r n                       ",
"                      2 7XqXpX2XiXNXyX{.`.}.hXmXmXmXxXfXxXcXNXNXGXmXMXcXmXfXdXdXcXfX5XBXJXMXMXuX!.'.zXBX-X{.yXyXH.yXmXxXyXH.eX[.*XH.H.).$XH./.F.5.H._ K.K.6.F.G.L.J + 2                     ",
"                    n 3 J K.iXiX'.>X[.tX,XfXtXcXyXtXlXcXVXMXBXMXKXKXBXmXcXsXlXVXKXBXKXbXGXGXLXvX=X].xXKXyX[.`.yXgXCXeXyXeX].gX$X.X/.K.K./.F.7.[ I _ ` G.F.XX XG.XX8X4 n                     ",
"                    X ;.L.I 0XGX=XP.fXsXsXBX-X=XY.(.dX[.{.sXcX>XyXyX,X{.fXBXBXMXPXmXkXbXGXGXNXMX1X'.iXGXMXgXrXrXCXxXyXeXeX2X{.L.^.%XU 5.U I 7.[ _ ` _ J _ G.uXH.K.|.1.4 t                   ",
"                  h V.qXJ.U aXuXR.'.sXsX=XbX'.{ F.' S.T.R.`.sXMXcX'.yX,XfXsXKXKXVXzX6XzXLXvXiXiX#X:XuXMXKXgX`.}.CXgXCXgXuXeX:XK.U ] XX$XXX$X2X XI ] [ _ K K H.).G.y.w.4 @ l                 ",
"                  L.L.qX.XiXpXiX'.'.lX6X_._.Y.[ zX3XU [ S.[ -X5XuXuXgX,XfXfXBXVXcX-X6X5XxXuXyXcXU.R.xXMXyX`.`.mXgXH.yXeX:X].eXyX!._ _ _ <XiX<XXX] K G.K.<.3 K.H.W.J.t.E # -                 ",
"                  FX8XpX*X$X2X2XC.) [.=XC.{ C.P.I._.[ <X$X=X&X.X{ '.;X>XcXfXsXgXrX{.sXmX>XuXxXeXD.{.xXCXCXCXhXmXCX{.CXS.`.H.CX:XuXF._ ` ).uX2X2X%X5.U 7.5.K 4.G.J.2.<.W 5 + -               ",
"              2 SXpX$XK.GXK.XXG.) S S [ Y.(.,XcXzX[.=X` =XjX[.uX>XKXjXdXgX>XgXdXeXfXMXfXcXfXyXrX].{.{.CXhXhXmXmXgXCX`.].CX{.].].'.).I S.).$XuX*X4X$XW.G.[ ` 7.F.[ _ ~ / #.# %               ",
"            z e.8X2XS.L.aX$X$XK.p.wXI.kXdX&XlXsX6X&X5XY..XzX[.>XdX3XY.-X[.{.dXdXCXCXyXyXgX}.yXrXH.rXCXrXyXrXgXfXgXCXCXeXeXeX:XH.~.&XS.2X2XD.~.eX;X~.$XI.[ _ 5.' ` <.u.t.@.5 # -             ",
"          DX2 DXL.L.S.$X:X~.K.*XkXvX6XsXMX,XfX>XhX,X>XsX=X' 4X6XuXU.P.-XY.6XjXcXMXmXcXfXfXrXgXeXCXCX}.hX}.H.`.}.{.[.:X{.*X:XeX].uXiX/.' [ [ ' (.:XY.Y.).[ J.[ _ ] u.@XK./ a # +             ",
"          % 3 *.K.FXH.` H.yX$XH.=X4X(.rXcXrX}.,XhX,XhXdX5XP E.sXzXtXcXbXsX[.sXbXxXVXVXCXeXxXgX`.:XeXuX`.hXeXH.H.`.].:X:XH.:XxXxX:XeX2XK.G.H.S.H.].U.T.~.H.J.U J ( _ 2.7.t.A.y * %           ",
"        N 2 UXSXL.K.$X$XD.:X].].sX>X>XdX}.[.P.`.}.R.dXsXdX,X-XbXtXjXzXkX5XbXlX>XeXyXfXrX{.CX[.[.yXNXH.$XH.H.D.H.].:X:XeX[.H.[.H.H.&XeX%X).F.} { ].T.~.-X).W.U 4.6.u.4.~ 4.>. .# +           ",
"        X AXDXt.1.2XpX&XH.D.H.:X,X-X>XtX,XR.D.[.[.R.,XhXdXtX,X[.jX5XMXPXMXsXcX>XrXmXfXrXCX{.{.:XeX2XH.H.H.H.S.H.:X:XaXeX{.[.H.H.(.].].#X*XS.[ S.#X].&XY.} XXK.<.<.u.I / ^ W -.r +           ",
"        DXL.<. X$XK.H.$XH.H.H.:XjX'.{.tX>X[.}.-XR.R.hX{.hXdXdX(.6X6XvXzXzX[.>XtXmXgXgXmXCXH.{.:X2X[.(.yXNXiXyXeXaXeX{.uXH.`.H.`.`.H.~..X.XH.} } ' S.Y.{ U  XJ.4.I w.9 2.2.^ +.4 + 2         ",
"      d.AXL.;.8X%X%X*X$X4X$X2XiXkX&X'.tXfX{.}.rXtX-X[.hXhX}.,X'.{ 6X1XjX5X-XP.uXbXBXfXhX{.T.].[.3X'.&XkXiXaXiXiXiXuXuX).H.H.T.`.Y.S.!.)././.K.*X].H.H.H.' 7.K.8.( 2.3 <.<.;. .m 0 +         ",
"      AXL.SX3 K.K.pXaXK. XvXiXXXE.&X5X]._.R.=X6X&XlXdXgXhXrX-XuX&X[.5XBX;XR.[.R.R.dXgX{.{.&XT.'.&X(.iXMXeX2X].xX2X~.].H.(.H.].*X).!.)..XH./.uXuX*XS.~..X7.0.0.4.<.( Y W #.| w 4 t + l       ",
"      UXAXUXqXK J.qXqX5._ $X2X|.9 _.5XP.T.R.'.`.-XdXsX>X>X,XdX5X!.!._.5X[.sXfX>XR.tX{.} &X&X(.Y.S.&XuX;X*X:XH.eX'.S.H.H.uX:X$X$X#X].!.U ] K./.H.$XH.~.].E.7.5.] / 4.1.J a > @ # n & %       ",
"    d.UXUXUX1.J J K.pX2.@XiX2X X9 oX'.C.}.6XR.'.(.;X[.U.[.R.;X(.=X6X_.#X{ _.U._.Y.-X{.{ !.U.(.Y.#X&XU.:XeX(.].(.#XS.F.!.).K.].H.!./.I.[ S.K.K.S.H.I.!.).F.6._ K ~ 4.4. .4 # w m h # ;       ",
"    d.DXUXDXt.J +X8XXX<._ <X%XJ.I J.{ =XR.'.'.5X5X~.T.'.=X5X6X6XQ._._.!.7.=X&XiX=XF.1X*X(.[ ].Y.MXGX*XeX:XY.].#XeXH.H.:X$XF.F.K.E.H.^.^.] 9.[ 7.J.!._.I.1Xy.I ~ <.T ~ Q 7 M -.c.=.# .       ",
"    s.AXL.L.8Xt.K.pXG.J 9 9.9X|.8.^._.U.' C.6XlX[.'.#XR.-X&X6X5X0.] C.I.[ _.5XzX1XE.=X1X#X!.4X/.vXGX~.].*X!.).uX4X$X].K.H.H.K.H.5./.E._ K.9.] 7..X~.=X{ J.i.^ 3.^ Q J h s  .=.-.b.2 X %     ",
"    B 2 V.XXiXK.F._ _ _ 6.G.K._ 4.6XQ.=X6X=X'.6X_.I.oXR.=X5XnXoX[ ) C.C._.=X6XkX=XU..X1X1X#X2X$X#X$XF.I.~.~.S.$X*X$X*X].K.).].H.[ E.G._ J.6.U U ] [ 7.E.6.@.P W Y J J 9 R #.b.^ e.r X .     ",
"  % f.7XL.%X$XK.XX.X8XJ.P [ G.K.+XoXoX_._.6XQ.[ C.) ' { T.6X6X6X Xu.@X<X6X5X_.~._.I.^._.4X#X4X2X[ !.$XH.$X).~.$XK.H.H.H.H.K.H.H.[ ^.5.5.9._ I ( _ ] 0.G.I 2.W 8 K ;.#.8  .J $.%.1.;.. .     ",
"  l B.V.c.2XH.*X2XiX%X[ ] H..XK.Q.) p.' C.oX=XQ.C.] ' '.R.kXjX6X0X] FX=XiX6X{ _.#XJX0X5XPX7.kX4X:XK.2XH.:X$XH.:XD.H.H.H.H.H.H.K.0.Q.] |.W.( 2.] 2.( 0.U U <.+.W 5 J ;.~ ~ 9 ;.+.Q V.O X     ",
"  j L.b.t.K.S.K.#X%X2X*X'.].uX2X$XI 7.U ) C.C.wXwXoXC.} P._._.C.0Xi.C.9X5XC._.'.#X6X<X5XbXI..X!.H.:X2XuXK.iX{.H.K.H.H.H.H.H.$XK./.^.J.W.K. XP P U U y.p.4.&.W %.9 J J ;.~ 5 Q J Q V.4 ; $   ",
"  l DX=.h K.` _ 9. X.X>X&XT.`.:X2X*X=X.Xp.C.wX6X0X=XC.Y.=X=XU.oX6X0.C.oXW.Y.=X_..X6XoXE.$X7./.H.$X:X:XK.H.eX].K.H.H.].$XH.H.H.H.*XK.G.|.K.t.P 9 S T t.( 4.&.Y q.g J Q ~ Y 5 s 9 %.V.r ; X   ",
"  - L.*.L.I K.<._ 9.XX;X&XY.(.S.T.!.S.6XC.p.Q.+XoXkX_.&X[._._._.C.i.i.oX{ ' _.!.#X#XoX X.X/.$X!.K.].:XH.].$XK.H.H.H.:XK.K.K.G.F.^.J.W. X@.t.w.P P T 2.( u.&.s $.-.;.J ;.J h a s -.V.*.; $   ",
"  2 N.1.L.;.K.L.<.3.K [ I._.P.C.`.C.C.oX=X) C.Z.Q.oX_.6X6X6X6X6X0.i.C.6X<X7.E.&X!._.2X<X.XG._.$XH.].$XH.$XH.H.{.K.:XK.H.$XH.H.K.W.J.9.5.t.u./ Y ! @.w.4.w.Y # R ..h R W h a 5 ..J =.M . $   ",
"  l b.N.1.J 1.1.^ P 3 9 2.[ C.oX[.}.C.6X_.C.oXC.@XC.Z._.=XC.wXA.C.] C.oX6XC.oX!./._.*X.X$X^.^.4X].H.H.:X:XS.2XH.].:XH.K.K.H.S.H.[ W.K.9.9.6.6.T 3.! P <.u.R # g J Q #.J | g 4 g *.*.*.+ .   ",
"$ L L.L.L.L 3 L.c.L.v.<.( 4.Q.^.C.Y.oX:.A.wXOXC.OXC.S wXC.i.) C.p.i.oXoX^.%X_.I.^.$X.X.X%X$X/.!.$XH.H.H.[.H.:XH.K.H.H.H.K.H.H._ 5._ 9.J.Q.2.9X2.W @.! q.w.h # O *...+.-.....g w ..*.=.@ . z ",
"% n L 1.L.K.J K.8X+X+X2.u.|.Q.|.@XC.A.! C.wXqXOXOXZ.! ,.Z.C.C.C.:.@X9X=X<XXXoX.X!.J.#X^.$X^././.K.H.K.S.H.H.K.H.$XH.H.H.H.K.K.H.9.[ 9.pX|.] K.6.T 3.t.q.q.# X X m ;.;.| h g g w w r *.* . j ",
"N 2 h 1.J K.L.u.8X|.6.~ _ |. X|.( @.r.a 6 wXwXOXA.Z.S H O.A.A.Z.:.@X<XoXnXXX2X*XW.H.H./.^.!.W.H.].H.H.H.E.E.H.^.J.7.H.7.K. XXXW.5. X|.+X6.t.<.T P P W e. .# X X # a c.=.O > m 5 d r G t . k ",
"k l 3 L J ~ |.8Xt.w.K Q &.t.t.u.w.i.v.6 p A.OXr.A.C.A 7 O.C.wXA.) C.%X X^.XX XXXG.{ J.K.K.J./.$X$X$XK.K.!.$X^.XX7.7.K.7.H.W.5.5._ 5.XXK.<.2.<.@.~ J E ;.g =.g 5 g h =.D O # M r X x =.M . k ",
"z n.*.1.%.<.t.K.1.T <.<.^ <.6.K.|.C.e.# > $.OX,.O.>.C.7 A Z.A.Z.r.%X=XQ.Q.^./.^.H.7.7.[ F.G.W.W.H.2X$XK.^. X XW.J.9.G.8.K.J.5.9._ 9.W.|.] I @XQ J Q X 7 ;.1.g ..-.d g w 3 # *.m : i l.M X k ",
"l N.L.J 1.t.<.1.&.J J <.<.P u.u.u.|.,.p > p wXA.! C.C.A :.A.A.C.i.wX XJ. X%XJ.7.G.!.E.F.] J.oX XK.L.H.H. XXX X|.K.5._ 9.J._ U 6.( t.K.y.] 4.t.8 9 6 7 5 -.-.J =.=.g a X 4 4 m 0 q k.k.n . j ",
"l B.L h e.t.1.<.J W W +./ _ t.4.:.( >.,.O H SXA.C.i.:.O.A.C.C.A / y.|. XK.W. XJ.W.W.G.7.7.0. Xy.K.K.] 6.K.K.|. X6._ ( 9.6._ / 6.U u.|.8.] t.^ v.Y a w s -. .s ;.;.i w X i m # # i *.l.c . l ",
"l z B.3 f 1.e.t.q.;.&.%.<.&.~ P ( ( w.b.A H wXA.A.C.C.Z.A.Z.A.C.2.y.XX^.G. X|.^.W.E.9.0.C.Q. XQ.K.H.G.K.5.K.K.K.( I K.K.~ _ @./ 3.t.u.9.6.( ( @X3.8 5 | -.R J ..M 0 : # 0 m t , M b k.< .   ",
"z % B.n w R %.&.J ~ %.e.t.<.~ 5.i.! ,.Z H O.r.v.>.:.C.wXZ.A.0X:.:.oXy. X9.K.|.K.XXQ.G.8.y. Xi.Q._ _ F.K.K.<.<.6._ u.6.2.T t.1./ 2.2.T ( 4.3.u./ |.%.s ;.4 6 ..d r 1 0 , r d 1 < G < * * X   ",
"  % AX*.h ;.%.~ ~ t.<.&.1.@.^ u.C.:.,.7 S Z ,.A.C.A.wXA.Z.Z.C.:.i.Q.5.W.E.J.Q.|.XXQ.0.] 0.8.8.i.S.J K.;.<.~ _ <.t.4.2.~ / <.@.Y ( ( 8 ( @.^ @.4.^ +.Z ..X g | w 0 0 t e u v u , G C = = X   ",
"  j L.V.J 5 5 ;.1.t.T <.~ ~ 1.<.<.T @.-.6 -.v.c.^ Z.pXC.wXC.>.C.Z.p.u. XQ.5.Q.y.C.Z.p.p.C.p.i.i.:.i.3.P P T 2.<.|.w./ 3.+.@.P Y ^ @.^ ^ ^ Q >.@.8 R  .a # ..a # # : r v r m t 0 B k.a.. X   ",
"  k B.l.L g # J b.1.J ;.%.~ 9 9 T ~ ^ o.Z | e.r.:.i.Z.:.OX>.O.,.e.:.r.C.C.0.C.Q.C.C.i.p.:.p.:.:.2.C.T &.S ~ 8.4.|.K.<.r.<.Y 8 &.<.3.^ ^ &.@.3.^ T X.;.h w ..4 # d m M v r x r r B m.x.X $   ",
"  % - m...i m ;.t.&.K J ;.<.( T 9 T %.R X.A ,.i.r.i.] i.wXe.$.>.>.! ! C.i.oXQ.C.C.,.:.O.! >.:.i.4./ S ! >.w.8.0.K.6.@.u.e.^ 2.t.w.Y T W Y 8 3.w.r.$.o.m g ..d m ..m m r t *.B n a.ZXm.& $   ",
"  k % B b t w =.b.;.J  .%.&.^ ~ Y 9 Q q.r.e.:.>.r.>.! OXA.>.Z.$.O.X.! ^ p.:.C.|.C.C.C.C.! p.:.:.:.@.3.$.@.( 6.5.8._ P Y 9 8 3.v.w.7 8 %.%.Q q.v.<.7 R *...r F v # q w q r M x B a.B.a.&     ",
"  k j l = O w g J ;.;.h  .w.<.1.%.+.8 T e.>.+.@.i.Q P Z.A.i.A >.Z A ! ! S i.Z.i.:.:.:.C.:.S ! &.@.:.q.+.Q / y.8.5.( ( X.A S w.t.&.9 5 X.W E e.W E 7 h y 4 i v q q i w M *.w - a.V M.j j     ",
"  k % B.k.t a 3 3 J W h J ;.q.@.1.W Y Q +.X.&.$.$.3.^ C.Z.v.>.O.A Z C.O.>.:.C.C.:.! S O.! S ! :.! ! :.&.9 @.w.2.t.( / &.9 8 W v.%.W P R $.Y e.Q $.R 5 # r @ x 4 i r m -.G * l B.z.n.z z     ",
"    % C 2 2 *.g 3 h J  .;.&.q.<.v. .R ;.X.R E %.>.q.w.u.r.i.,.A 7 $.,.O.A ! v.r.:.C.! A ,.S :.:.^ ^ >.&.8 @.3.@.4.:.@.3.A W T %.3.e.&.8 | ^ &.Y &.-.a 4 r * 0 u m x ..L M - l z.M.k j       ",
"    $ $ . m.B.n 5 L h ;.e.+.1.e.%.8 Y 1.W 7 A $.,.w.r.r.r.C.i.c.S ,.i.:.A ! $.A.,.C.:.>.A i.:.3.T %.&.! Y @.%.T %.@.T T Y @.W E $.$.%.5 g  .$.R o.R f : @ 0 v b t x *.L n f.z.g.z k k       ",
"    k % C B.ZXx.3 r h ..b.&.<.%.R 9 3 s 8 5 R $.,.v.r.Z.v.:.v.,.F ,.r.$.O.S A :.C.Z.D O.,.C.O.O.,.,.! ! >.7 T Q ^ 8 8 W %.q.W 5 E 7 8 g E 7 7 8 ..;.m X # m M + e l.M , N m.N.N.h.$ V       ",
"    j % m.DXDXAXl 2 4 ;.;.;.;.W 8 5  . .7 a 8  .-.,.q.>.w.P Q D A $.,.O.>.O.S O.,.,.A 7 ,.Z.C.O.C.:.A O.>.7 $.X.A J W q.c.%. .R 8 7 R -.#.| a ;.=.g y O F *.M @ c x * = N.N.N.AXg.%         ",
"      % c AXDXZXV.2 h d h ;. .J W J  .#.| #.R -.-.! W :.>.! $.| 7 D ,.>.O.O.,.D H A 7 O.,.O.C.i.O.A A A  . .X. .Z  .-.$.c.Z >.$.-.$.E q.+.a g -.g # w F m ..i * b < & f.N.n.n.V j l         ",
"      $ & l x.a.l n L r 4  .J J +.@.J | a o.D .. .&.W e.>.Q E Z H 7 $.,.>.O.,.$.O.p > ,.Z.,.D O.S S A 7 | X.o.g | -.g 6 e.R g  . .Y R v.$.a M ..y w M c.d t 0 , * * V s.N.n.j.c %           ",
"      l j l l L k.V.V.b.n m h W +.&.J Z R Z ,.-.Z 9 8 $.>.S $.E 6 Z Z A O.$.=.o.,.,.> O.Z.,.>.O.X.Y A g R D a y 7 f w D | ..6 R Z o.E X.R g ..m w q ..*.m @ e 0 , x.B.n.n.ZXn.. l           ",
"        % - % L k.g.N.N.*.h h h ;.+.+.D g a  .c.X.7 X.Q 3.Q Q -.6 7 O.A $.O.-.A O.O.7 7 =.O.Z O.E A Z $.e.-.7 D p 1 p ..=.D g a | -.a 6 a g F d 0 r M 2 + O @ e v B.m.ZXM.ZXs.%             ",
"        z . . - n x.m.m.k.M w 5 J  .;.5 > a ,.o.o.a A T &.+.+.E A O.Z Z O.>.O.A p $.=.7 =.O.O.A E E X.,.-.o.D d p 1 l...f w i y -.g # ..5 w r d r r r 2 & X + r t b n.g.M.N.z z             ",
"          % % - c k.V.z.f.n n 4 d -.;.y 4 g Z -.Z 6 a %.>.&.X.E p Z $.$.b.-.7 6 H $.H 7 H H H S A ,.,.=.| 6 y p X u M v e > w ..D M d F r @ : r r @ + + t @ . + V l n.m.j.z z               ",
"          l % j - a.x.x.k.f.L L M *.w 4 y ..y a =.a > s -.J #.g | Z 6 D O.O.7 O.O.D Z 7 p A D 6 Z Z | 6 A 5 5 F u H u > y O 0 F ....m i : @ , O @ . @ c = & = z.z.z z M.n.k                 ",
"            - - & c a.k.f.B B c n r : + m w m d *.D d J | | g g y =.6 6 o...Z F o.Z D D p F Z Z | $.5 5 6 D =.q H d 1 y 0 : > y i : q @ @ @ * . X o * - - & f.m.g.N.g.M.j k                 ",
"            s.% c % & c B N N 2 n M M *.t # w 4 d g q 5 a ....f q Z > w D Z D O.F ,.=.m p =.Z o.D a > 7 D =.=.5 : u @ 5 f D w q > @ O X * * , & & & + = l s.j.j.n.N.n.% X                   ",
"              l - 2 N f.f.f.L N B f.x.*.t r 3 q w M m 0 d F *.m y q q d w D a | D Z o.| H O.F D Z a 6 A O.Z f p > @ : q F =.> q @ # @ > t @ * * & X - V l s.s.s.N.n.V . a.                  ",
"                l N c N f.f.L n L f.L n M B m 0 w r m w : q : : w > > q q ..D f a D f =.Z 1 F =.O.Z 6 | -.l.w H O > 1 b l.G > : M q 4 v e X & , = c f.z s.h.z j.ZXa.% N                     ",
"                  z h.B f.z.z.L L B B x M B M M 4 r m M # # w w m 0 w q 1 1 D m p p f b d 1 F F m : y H D F , 1 o o o G *.: O 4 G *.B b * & c . = N a.z h.j.h.N.n.% j                       ",
"                  s.z z.z.f.L L B B M c x b x *.r 4 *.a d # 4 i m q w 4 @ 0 q e G F H v b 1 u H v > H f H d e O 1 o o < e # m q i G k.* c B V o - z.j.d.j.j.j.s.% j                         ",
"                    l N L x.k.L n x x M B B M * r t 0 d q F d y 5 0 F v q 1 > 1 q e e @ 1 1 o 1 v p i F H m u O o o o * r 1 e i e M l.& c k.a.o % z g.d.j.M.j.k k                           ",
"                      l = l = c t @ x M G G L B *.*.v 0 : r w 4 e e m F H u b e v u , 1 1 1 @ @ 1 v v b H u u @ O o o * e u 1 > * 1 C C a.a.a.- $ z M.s.N.s.z k                             ",
"                        l l c c < 1 , x v C = C B G *.e , @ @ O b b e f ..q u F u i u G 1 u 1 * 1 * 1 H e u 1 @ o @ o & v B M v 1 < 1 V & C C $ k $ z a.M.k %                               ",
"                          % % 2 * * v < < < < b v v b b t @ + @ 1 H u H b e : f i u v 1 1 1 v @ 1 O @ @ u 1 @ O , > o @ = e G b C 1 j C C C C X . $ a.m.j $                                 ",
"                            j & * * < t b B V c B G b C b r + * * 1 u u M H 1 u u m i q p > u u 1 u @ 1 1 O @ O b < @ < + , v v < < V V a.g.j $ $ X z j                                     ",
"                                j & < c b B B k.k.b b o = C * < 1 * @ @ 1 u 1 @ u u > O 1 > 1 > v F H v e e b v 1 G u * , c < * o < V a.g.g.o o . o -                                       ",
"                                  l - * < & B k.k.k.B x b C < < 1 @ o 1 u u 1 @ * @ < u u i u p 1 1 b u 1 u p u v 1 b < V b c C j M.g.M.x.V o C . $                                         ",
"                                    N - & & < k.k.x.x.k.L B x c 1 1 1 p H u u u 1 * C v H u u e u > 1 1 1 1 1 1 O o u b C c V j V m.m.g.k * & - $                                           ",
"                                        l & ; & c n B f.L b v v > 1 u H H 1 1 e , * 1 1 > 1 1 @ 1 @ 1 @ 1 u u u u 1 b C < c f.a.x.m.M.o X . $                                               ",
"                                            l ; . & c l c t < v u * H H b u 1 1 1 < < , , , 1 @ u 1 , @ 1 u C u * 1 H o o a.k.k.a.V % X . B                                                 ",
"                                                j & & & * < C b v u u H u 1 * v , + @ 1 @ O @ b u @ , O o C < * 1 v H C * c < * o o X &                                                     ",
"                                                    - & . & * < < < C b u C u C < X C v v e F 1 1 , @ o * o o o < C v * C o X X X o                                                         ",
"                                                        j $ X X . o o . * < * * < + < v b b b v < 1 o < C o X o o o o o o o X X V                                                           ",
"                                                            a.- X X X X X . X X o . X X X X X X X X o o o o $ o & . X . . j k.                                                              ",
"                                                                                                                                                                                            "
};
