/* XPM */
static char *out[] = {
/* columns rows colors chars-per-pixel */
"240 240 8 1 ",
"  c None",
". c #5CFF53",
"X c #5DFF53",
"o c #5EFF53",
"O c #5CFF54",
"+ c #5DFF54",
"@ c #5DFF55",
"# c #5EFF54",
/* pixels */
"                                                                                                                                                                                                                                                ",
"                                                                                                                                                                                                                                                ",
"                                                                                                                                                                                                                                                ",
"                                                                                                                                                                                                                                                ",
"                                                                                                                                                                                                                                                ",
"                                                                                                                                                                                                                                                ",
"                                                                                                                                                                                                                                                ",
"                                                                                                                                                                                                                                                ",
"                                                                                                                                                                                                                                                ",
"                                                                                                                                                                                                                                                ",
"                                                                                                                                                                                                                                                ",
"                                                                                                                                                                                                                                                ",
"                                                                                                                                                                                                                                                ",
"                                                                                                                                                                                                                                                ",
"                                                                                                                                                                                                                                                ",
"                                                                                                                                                                                                                                                ",
"                                                                                                                                                                                                                                                ",
"                                                                                                                                                                                                                                                ",
"                                                                                                                                                                                                                                                ",
"                                                                                                                                                                                                                                                ",
"                                                                                                                                                                                                                                                ",
"                                                                                                                                                                                                                                                ",
"                                                                                                                                                                                                                                                ",
"                                                                                                                                                                                                                                                ",
"                                                                                                                                                                                                                                                ",
"                                                                                                                                                                                                                                                ",
"                                                                                                                                                                                                                                                ",
"                                                                                                                                                                                                                                                ",
"                                                                                                                                                                                                                                                ",
"                                                                                                                                                                                                                                                ",
"                                                                                                                                                                                                                                                ",
"                                                                                                                                                                                                                                                ",
"                                                                                                                                                                                                                                                ",
"                                                                                                                                                                                                                                                ",
"                                                                                                                                                                                                                                                ",
"                                                                                                                                                                                                                                                ",
"                                                                                                                                                                                                                                                ",
"                                                                                                                                                                                                                                                ",
"                                                                                                                                                                                                                                                ",
"                                                                                                                      ####                                                                                                                      ",
"                                                                                                           ##XX###+++++XX+++++###XX##                                                                                                           ",
"                                                                                                      #XX#++X###++XXXXXXXXXXXX++###X++#XX#                                                                                                      ",
"                                                                                                  #X#+XX#+XX##++...##########...++##XX+#XX+#X#                                                                                                  ",
"                                                                                               #X#+#++X#+..#++oo++++++++++++++++oo++#..+#X++#+#X#                                                                                               ",
"                                                                                            #X+X#+X#+.#+o++++o++++++oooooooo++++++o++++o+#.+#X+#X+X#                                                                                            ",
"                                                                                          X#X#+#+.#+o++o+++oo++OOooo++++++++oooOO++oo+++o++o+#.+#+#X#X                                                                                          ",
"                                                                                       #X+X+X+.#+++o++o++Ooo+##XXX++++####++++XXX##+ooO++o++o+++#.+X+X+X#                                                                                       ",
"                                                                                     ##+#X#.#+++o+++Ooo+#X++##XX++############++XX##++X#+ooO+++o+++#.#X#+##                                                                                     ",
"                                                                                   ##+#X+.+o+o+++Oo+#X+#X++#XXOO++++XXXXXXXX++++OOXX#++X#+X#+oO+++o+o+.+X#+##                                                                                   ",
"                                                                                 ##+#X+.++++++Oo+#+#X+#XXO+XX##++XXXXX####XXXXX++##XX+OXX#+X#+#+oO++++++.+X#+##                                                                                 ",
"                                                                               #X+#X+.++o+o+o+#+#X+#O++X#++X##++XXX##########XXX++##X++#X++O#+X#+#+o+o+o++.+X#+X#                                                                               ",
"                                                                              X+#X+.++o+oOo#X#X+#O+X#+X##+X##+###@@@@++++++@@@@###+##X+##X+#X+O#+X#X#oOo+o++.+X#+X                                                                              ",
"                                                                            ##X+#.++o+oO+#+#+#X+X#+#+XX#+##@+##@@@@++++##++++@@@@##+@##+#XX+#+#X+X#+#+#+Oo+o++.#+X##                                                                            ",
"                                                                           X+#X.++++oO+#+X+XOX#+X+X#+#@++#@++#@@@++++######++++@@@#++@#++@#+#X+X+#XOX+X+#+Oo++++.X#+X                                                                           ",
"                                                                         ##X++#o++oOo#+X#X+X+X#X#+#@#@@+#@@+##@@###++++++++++###@@##+@@#+@@#@#+#X#X+X+X#X+#oOo++o#++X##                                                                         ",
"                                                                        X+##.++o++o#+X+X+X+X+X+#@+@+#@+##@##+XX###+++++XX+++++###XX+##@##+@#+@+@#+X+X+X+X+X+#o++o++.##+X                                                                        ",
"                                                                       XX+##o++oo#+#+X+#+#+#+@+#+#@+#@#+XX#++XX##++++XXXXXX++++##XX++#XX+#@#+@#+#+@+#+#+#+X+#+#oo++o##+XX                                                                       ",
"                                                                     ###X+++o+O+X#+X+X+#+#+@+@+@+#@#+X#+X##++X++++++oooooooo++++++X++##X+#X+#@#+@+@+@+#+#+X+X+#X+O+o+++X###                                                                     ",
"                                                                    #+##.+++oo#+X#OX+#+##@#@#@#@#+#+X##+X+++oo+++++oooooooooo+++++oo+++X+##X+#+#@#@#@#@##+#+XO#X+#oo+++.##+#                                                                    ",
"                                                                   X++##oo+++X#+X+#X+##@#@#@#@+X#+#+X+++o+++oo++++++oooooooo++++++oo+++o+++X+#+#X+@#@#@#@##+X#+X+#X+++oo##++X                                                                   ",
"                                                                  XX++#+ooO++X#OX+#X+@#@#+##+#+X#X++o+++o+++oo++++++XXXXXXXX++++++oo+++o+++o++X#X+#+##+#@#@+X#+XO#X++Ooo+#++XX                                                                  ",
"                                                                 XXX++++oo##+X+#XX##+@#+##+#+#+X++++o+++o++++XX++#####XXXX#####++XX++++o+++o++++X+#+#+##+#@+##XX#+X+##oo++++XXX                                                                 ",
"                                                                XXX+++++oX##OX+###+#+@#@+#+#+X+o++o++o++XX+##XX+++############+++XX##+XX++o++o++o+X+#+#+@#@+#+###+XO##Xo+++++XXX                                                                ",
"                                                               XXX.+++++XX#O#X+###@#+@+X+X+X+o+o++o++X+##X++##XX++++++++++++++++XX##++X##+X++o++o+o+X+X+X+@+#@###+X#O#XX+++++.XXX                                                               ",
"                                                              XXX.++++++X#+##X+@#+@##X#X+X+o+o++++X+#XX+#XX+++XXXX####++++####XXXX+++XX#+XX#+X++++o+o+X+X#X##@+#@+X##+#X++++++.XXX                                                              ",
"                                                             XXX.o++O++XX++#X#+@#+@+#X#X+o+o+o++X+X++#X+++X##+++XXXX########XXXX+++##X+++X#++X+X++o+o+o+X#X#+@+#@+#X#++XX++O++o.XXX                                                             ",
"                                                            XXX.+++O+++XX+###++@##X+X++o+o+o++X#X+#X+++X#++XX##+++XXXXXXXXXXXX+++##XX++#X+++X#+X#X++o+o+o++X+X##@++###+XX+++O+++.XXX                                                            ",
"                                                           XXX++++O#++XX++#@#+@#+#+#X+++++++X#X+#+++X#+XX#++XX###+++++XXXX+++++###XX++#XX+#X+++#+X#X+++++++X#+#+#@+#@#++XX++#O++++XXX                                                           ",
"                                                          #++++++O+++OXX++@##+@+#X++o+o+++X#X+#++X#+XX#+XX##++XX++++++++++++++++XX++##XX+#XX+#X++#+X#X+++o+o++X#+@+##@++XXO+++O++++++#                                                          ",
"                                                         #++++++++++OXX++@@#+@X+#X+o++o+X+X+#++X#+X#+X##++X+++++ooo++++++++++ooo+++++X++##X+#X+#X++#+X+X+o++o+X#+X@+#@@++XXO++++++++++#                                                         ",
"                                                         ####++++++XXX++@@#+#X+#X++o+o++#+#++X#+X++X#+XX+++oo++++++oooooooooo++++++oo+++XX+#X++X+#X++#+#++o+o++X#+X#+#@@++XXX++++++####                                                         ",
"                                                        X###+++++XXXX+++@###X+++o+o++X+X+X+X#+X+X#++X++oo++++ooo++++++++++++++++ooo++++oo++X++#X+X+#X+X+X+X++o+o+++X###@+++XXXX+++++###X                                                        ",
"                                                       XXX.ooooXXXX+++@@@##XX++o++o+X#+#++#+X#X#+X+++o++++oo+++++#####++++#####+++++oo++++o+++X+#X#X+#++#+#X+o++o++XX##@@@+++XXXXoooo.XXX                                                       ",
"                                                      #++++oooXX#++++@@####X+++o+o++X+X+X#X#+#+X++oo++oo++++##++++++++++++++++++++##++++oo++oo++X+#+#X#X+X+X++o+o+++X####@@++++#XXooo++++#                                                      ",
"                                                      ###+++O###++##@@####X+++o++X#X#X+#+#+X#+++o+++o++++##++++++++++++++++++++++++++##++++o+++o+++#X+#+#+X#X#X++o+++X####@@##++###O+++###                                                      ",
"                                                     XX##++++##O###@##+#XX+++o++X#+#+X#X#+#+X+++++o++##++++++++++#####++++#####++++++++++##++o+++++X+#+#X#X+#+#X++o+++XX#+##@###O##++++##XX                                                     ",
"                                                    #++.ooo+++O##X###+#XX+++o++X#+X+X+X+X#X++o++o++##+++++++###++++++++++++++++++###+++++++##++o++o++X#X+X+X+X+#X++o+++XX#+###X##O+++ooo.++#                                                    ",
"                                                    ##++++oXXXXXX#+++@X++++o++X#+X+X+#+X+X+o++o++##+++++##+++++++######++######+++++++##+++++##++o++o+X+X+#+X+X+#X++o++++X@+++#XXXXXXo++++##                                                    ",
"                                                   XXX#++O###++++++@@X++++o++X#+X+#+#+#+++o++++##+++++##++++###++++++++++++++++++###++++##+++++##++++o+++#+#+#+X+#X++o++++X@@++++++###O++#XXX                                                   ",
"                                                  #++.ooo+++O###@@@#++#+oo++X#+X+#+#X#X++++o++#+++++#++++##++++++++++++++++++++++++++##++++#+++++#++o++++X#X#+#+X+#X++oo+#++#@@@###O+++ooo.++#                                                  ",
"                                                  X##+++oXXXXX#####+##Xo+++X#+X+#X#X#X+o++o+#+++++#++++##++++++++++++++++++++++++++++++##++++#+++++#+o++o+X#X#X#+X+#X+++oX##+#####XXXXXo+++##X                                                  ",
"                                                 #+X.+++###++X##++##XX+++oX#+X+#X#X+X+o++++#++++##+++#++++++++++++++++++++++++++++++++++++#+++##++++#++++o+X+X#X#+X+#Xo+++XX##++##X++###+++.X+#                                                 ",
"                                                 ##+++oo++O###+@@@X++++oo+#+X+#+#X+X+o+o++#++++#+++#++++++++++++++++++++++++++++++++++++++++#+++#++++#++o+o+X+X#+#+X+#+oo++++X@@@+###O++oo+++##                                                 ",
"                                                #+X.++O##XXXX####++#+oo+++X#+X+#X+X+o+o++++++#+++#++++++++++++++++++++++++++++++++++++++++++++#+++#++++++o+o+X+X#+X+#X+++oo+#++####XXXX##O++.X+#                                                ",
"                                                ##++ooo+++++++++##XXo+++XX#+X+#X#X+o+o+#++++#++##+++++++++++++++################+++++++++++++++##++#++++#+o+o+X#X#+X+#XX+++oXX##+++++++++ooo++##                                                ",
"                                               #+X.++O#XXX##@@@@XX++++oX#+XX+#+#X+o+o+#++++#++#++++++++++++++####++++++++++++++####++++++++++++++#++#++++#+o+o+X#+#+XX+#Xo++++XX@@@@##XXX#O++.X+#                                               ",
"                                               ##++oo++++++####+##++oo+++X+#X+#X+o+o+#+++#++##++++++++++++###++++++++++++++++++++++###++++++++++++##++#+++#+o+o+X#+X#+X+++oo++##+####++++++oo++##                                               ",
"                                              #+X.++O#XX###@@+@XXXo++++X#+#X+X++o+o+#+++#++#++++++++++++###++++++++++######++++++++++###++++++++++++#++#+++#+o+o++X+X#+#X++++oXXX@+@@###XX#O++.X+#                                              ",
"                                              X#++oo++#+++####+++++++X#++X+#X++++++++++#++#+++++++++++###++++++++##############++++++++###+++++++++++#++#++++++++++X#+X++#X+++++++####+++#++oo++#X                                              ",
"                                              +X.++O#XXX##@@+##XXoo++++X+##+#X++++++++#++#+++++++++++##++++++######++++++++++######++++++##+++++++++++#++#++++++++X#+##+X++++ooXX##+@@##XXX#O++.X+                                              ",
"                                             XX#++oo++++++###+++++++XX#+#X+#X+o+o+#+++++#++++++++++##++++++####++++++++++++++++++####++++++##++++++++++#+++++#+o+o+X#+X#+#XX+++++++###++++++oo++#XX                                             ",
"                                             #+.o++##XXX#@@@###Xooo+#++X+#X++o+o+#+++#+#++++++++++##++++#####++++++++++++++++++++++#####++++##++++++++++#+#+++#+o+o++X#+X++#+oooX###@@@#XXX##++o.+#                                             ",
"                                            #XX#++oX+O++++##+++++++XX#+#X+#X++++#+++#+#+++++++++##+++++###++++++++++++++++++++++++++++###+++++##+++++++++#+#+++#++++X#+X#+#XX+++++++##++++O+Xo++#XX#                                            ",
"                                            X#++o++##XXX@@@@##Xooo+#++X+##++o++++++#++#++++++++##++++###++++++++++++++++++++++++++++++++###++++##++++++++#++#++++++o++##+X++#+oooX##@@@@XXX##++o++#X                                            ",
"                                            ++.++O#XX##+++#+++++++XX#+#XX++++o+#+++++#++++++++##+++####++++++++++++++++++++++++++++++++++####+++##++++++++#+++++#+o++++XX#+#XX+++++++#+++##XX#O++.++                                            ",
"                                           #X##++o++++X##@@XXXoo++#++X++#X++++#+++#+#++++++++##+++###++++++++++++++++++++++++++++++++++++++###+++##++++++++#+#+++#++++X#++X++#++ooXXX@@##X++++o++##X#                                           ",
"                                           X#++o++##XX#@++###++++XX#+#XX++o+o+#++#++#+++++++##+++##++++++++++++++++++++++++++++++++++++++++++##+++##+++++++#++#++#+o+o++XX#+#XX++++###++@#XX##++o++#X                                           ",
"                                           #+.++O#XO#+++##++X+++++++X++#X++++#+++#+#++++++++#+++##++++++++++++++++++++++++++++++++++++++++++++##+++#++++++++#+#+++#++++X#++X+++++++X++##+++#OX#O++.+#                                           ",
"                                          #+X#++o++++X#@@@##++ooXX#+#X+++o+o+#++#++++++++++#+++##++++++++++++++++++##########++++++++++++++++++##+++#++++++++++#++#+o+o+++X#+#XXoo++##@@@#X++++o++#X+#                                          ",
"                                          X##+o++##X##@++#++++++++X++#X++o++#+++++#+++++++##++##++++++++++++++++################++++++++++++++++##++##+++++++#+++++#++o++X#++X++++++++#++@##X##++o+##X                                          ",
"                                          #++o+O#XO#++###+XXoo++#++XX+#X++o+#++#++++++++++#+++##++++++++++++++####################++++++++++++++##+++#++++++++++#++#+o++X#+XX++#++ooXX+###++#OX#O+o++#                                          ",
"                                          ++.++oX+++X#@@@X#+++oXX#+#XX++o++#+++++#+++++++#+++##+++++++++++++########################+++++++++++++##+++#+++++++#+++++#++o++XX#+#XXo+++#X@@@#X+++Xo++.++                                          ",
"                                         #XX#+oo+#+XX@@+###+++++XX++##X++o+#++#+++++++++##+++##+++++++++++##########++++++++##########+++++++++++##+++##+++++++++#++#+o++X##++XX+++++###+@@XX+#+oo+#XX#                                         ",
"                                         XX#+o++#XX##++#+++++++#++XX+#Xo+o++++#+#+++++++#+++##+++++++++++#########++++++++++++#########+++++++++++##+++#+++++++#+#++++o+oX#+XX++#+++++++#++##XX#++o+#XX                                         ",
"                                         X#+o++#XX##++##XXXoooX##+#XX++o+++++#++#++++++##++##+++++++++++########++++++++++++++++########+++++++++++##++##++++++#++#+++++o++XX#+##XoooXXX##++##XX#++o+#X                                         ",
"                                         #+.++OX+O++##@@X#++++XXX++#X+++++#++#+#+++++++#+++##++++++++++#######++++++++++++++++++++#######++++++++++##+++#+++++++#+#++#+++++X#++XXX++++#X@@##++O+XO++.+#                                         ",
"                                         +X.++o++++X#@@###++++++XX++#X++o+#++++#++++++##+++#++++++++++######++++++++++++++++++++++++######++++++++++#+++##++++++#++++#+o++X#++XX++++++###@@#X++++o++.X+                                         ",
"                                        #+X#+oo+#XX#@++#++++++#++#X+#+o+o+++++++++++++#+++##++++++++++#####++++++++++++++++++++++++++#####++++++++++##+++#+++++++++++++o+o+#+X#++#++++++#++@#XX#+oo+#X+#                                        ",
"                                        #X#++o+#XX##++#+++ooo+##+#XX++o++#++#+#+++++++#+++##+++++++++#####++++++++++++++++++++++++++++#####+++++++++##+++#+++++++#+#++#++o++XX#+##+ooo+++#++##XX#+o++#X#                                        ",
"                                        X##+o+##X##+###XXXoooXX#++#X+++o+#++#+#++++++#+++##++++++++++#####++++++++++++++++++++++++++++#####++++++++++##+++#++++++#+#++#+o+++X#++#XXoooXXX###+##X##+o+##X                                        ",
"                                        X#+o++#XO#+##@@XX++++XXXX+##X++o++++#+#++++++#+++##+++++++++#####++++++++++++++++++++++++++++++#####+++++++++##+++#++++++#+#++++o++X##+XXXX++++XX@@##+#OX#++o+#X                                        ",
"                                        ##+o+OXXO++#@@@##++++++XX++#X++o+++++++++++++#+++#++++++++++#####++++++++++++++++++++++++++++++#####++++++++++#+++#+++++++++++++o++X#++XX++++++##@@@#++OXXO+o+##                                        ",
"                                        #+.++OX+++X#@@###+++++++XX+#+o++++++++++++++##+++#+++++++++#####++++++++++++++++++++++++++++++++#####+++++++++#+++##++++++++++++++o+#+XX+++++++###@@#X+++XO++.+#                                        ",
"                                        #+.++oX++XX@@+##+++++#++XX+++o++#++#+#++++++#+++##+++++++++#####++++++++++++++++++++++++++++++++#####+++++++++##+++#++++++#+#++#++o+++XX++#+++++##+@@XX++Xo++.+#                                        ",
"                                        +X.++o+#+XX@@+#++++++##+#XX++o++#++#+#++++++#+++##+++++++++####++++++++++++++++++++++++++++++++++####+++++++++##+++#++++++#+#++#++o++XX#+##++++++#+@@XX+#+o++.X+                                        ",
"                                        +X#++o+#+X#@++++++o++##+#XX+++o+#++#+#++++++#+++#+++++++++#####++++++++++++++++++++++++++++++++++#####+++++++++#+++#++++++#+#++#+o+++XX#+##++o++++++@#X+#+o++#X+                                        ",
"                                        +X#+o++#XX#@+++++oooX##+##X+++o+#++#+#++++++#+++#+++++++++####++++++++++++++++++++++++++++++++++++####+++++++++#+++#++++++#+#++#+o+++X##+##Xooo+++++@#XX#++o+#X+                                        ",
"                                        +X#+o++#XX#++#++XoooX##+##X+++o+#++#+#++++++#++##+++++++++####++++++++++++++++++++++++++++++++++++####+++++++++##++#++++++#+#++#+o+++X##+##XoooX++#++#XX#++o+#X+                                        ",
"                                       #+X#+o+##X##++#++XoooXX#++#XX++o++++++#++++++#++##+++++++++####++++++++++++++++++++++++++++++++++++####+++++++++##++#++++++#++++++o++XX#++#XXoooX++#++##X##+o+#X+#                                       ",
"                                       #XX#+o+##X##+##+XXoooXX#++#XX++o+++++++++++++#++##+++++++++####++++++++++++++++++++++++++++++++++++####+++++++++##++#+++++++++++++o++XX#++#XXoooXX+##+##X##+o+#XX#                                       ",
"                                       #XX#+o+##X##+##+XXoooXX#++#XX++o+++++++++++++#++##+++++++++####++++++++++++++++++++++++++++++++++++####+++++++++##++#+++++++++++++o++XX#++#XXoooXX+##+##X##+o+#XX#                                       ",
"                                       #+X#+o+##X##++#++XoooXX#++#XX++o++++++#++++++#++##+++++++++####++++++++++++++++++++++++++++++++++++####+++++++++##++#++++++#++++++o++XX#++#XXoooX++#++##X##+o+#X+#                                       ",
"                                        +X#+o++#XX#++#++XoooX##+##X+++o+#++#+#++++++#++##+++++++++####++++++++++++++++++++++++++++++++++++####+++++++++##++#++++++#+#++#+o+++X##+##XoooX++#++#XX#++o+#X+                                        ",
"                                        +X#+o++#XX#@+++++oooX##+##X+++o+#++#+#++++++#+++#+++++++++####++++++++++++++++++++++++++++++++++++####+++++++++#+++#++++++#+#++#+o+++X##+##Xooo+++++@#XX#++o+#X+                                        ",
"                                        +X#++o+#+X#@++++++o++##+#XX+++o+#++#+#++++++#+++#+++++++++#####++++++++++++++++++++++++++++++++++#####+++++++++#+++#++++++#+#++#+o+++XX#+##++o++++++@#X+#+o++#X+                                        ",
"                                        +X.++o+#+XX@@+#++++++##+#XX++o++#++#+#++++++#+++##+++++++++####++++++++++++++++++++++++++++++++++####+++++++++##+++#++++++#+#++#++o++XX#+##++++++#+@@XX+#+o++.X+                                        ",
"                                        #+.++oX++XX@@+##+++++#++XX+++o++#++#+#++++++#+++##+++++++++#####++++++++++++++++++++++++++++++++#####+++++++++##+++#++++++#+#++#++o+++XX++#+++++##+@@XX++Xo++.+#                                        ",
"                                        #+.++OX+++X#@@###+++++++XX+#+o++++++++++++++##+++#+++++++++#####++++++++++++++++++++++++++++++++#####+++++++++#+++##++++++++++++++o+#+XX+++++++###@@#X+++XO++.+#                                        ",
"                                        ##+o+OXXO++#@@@##++++++XX++#X++o+++++++++++++#+++#++++++++++#####++++++++++++++++++++++++++++++#####++++++++++#+++#+++++++++++++o++X#++XX++++++##@@@#++OXXO+o+##                                        ",
"                                        X#+o++#XO#+##@@XX++++XXXX+##X++o++++#+#++++++#+++##+++++++++#####++++++++++++++++++++++++++++++#####+++++++++##+++#++++++#+#++++o++X##+XXXX++++XX@@##+#OX#++o+#X                                        ",
"                                        X##+o+##X##+###XXXoooXX#++#X+++o+#++#+#++++++#+++##++++++++++#####++++++++++++++++++++++++++++#####++++++++++##+++#++++++#+#++#+o+++X#++#XXoooXXX###+##X##+o+##X                                        ",
"                                        #X#++o+#XX##++#+++ooo+##+#XX++o++#++#+#+++++++#+++##+++++++++#####++++++++++++++++++++++++++++#####+++++++++##+++#+++++++#+#++#++o++XX#+##+ooo+++#++##XX#+o++#X#                                        ",
"                                        #+X#+oo+#XX#@++#++++++#++#X+#+o+o+++++++++++++#+++##++++++++++#####++++++++++++++++++++++++++#####++++++++++##+++#+++++++++++++o+o+#+X#++#++++++#++@#XX#+oo+#X+#                                        ",
"                                         +X.++o++++X#@@###++++++XX++#X++o+#++++#++++++##+++#++++++++++######++++++++++++++++++++++++######++++++++++#+++##++++++#++++#+o++X#++XX++++++###@@#X++++o++.X+                                         ",
"                                         #+.++OX+O++##@@X#++++XXX++#X+++++#++#+#+++++++#+++##++++++++++#######++++++++++++++++++++#######++++++++++##+++#+++++++#+#++#+++++X#++XXX++++#X@@##++O+XO++.+#                                         ",
"                                         X#+o++#XX##++##XXXoooX##+#XX++o+++++#++#++++++##++##+++++++++++########++++++++++++++++########+++++++++++##++##++++++#++#+++++o++XX#+##XoooXXX##++##XX#++o+#X                                         ",
"                                         XX#+o++#XX##++#+++++++#++XX+#Xo+o++++#+#+++++++#+++##+++++++++++#########++++++++++++#########+++++++++++##+++#+++++++#+#++++o+oX#+XX++#+++++++#++##XX#++o+#XX                                         ",
"                                         #XX#+oo+#+XX@@+###+++++XX++##X++o+#++#+++++++++##+++##+++++++++++##########++++++++##########+++++++++++##+++##+++++++++#++#+o++X##++XX+++++###+@@XX+#+oo+#XX#                                         ",
"                                          ++.++oX+++X#@@@X#+++oXX#+#XX++o++#+++++#+++++++#+++##+++++++++++++########################+++++++++++++##+++#+++++++#+++++#++o++XX#+#XXo+++#X@@@#X+++Xo++.++                                          ",
"                                          #++o+O#XO#++###+XXoo++#++XX+#X++o+#++#++++++++++#+++##++++++++++++++####################++++++++++++++##+++#++++++++++#++#+o++X#+XX++#++ooXX+###++#OX#O+o++#                                          ",
"                                          X##+o++##X##@++#++++++++X++#X++o++#+++++#+++++++##++##++++++++++++++++################++++++++++++++++##++##+++++++#+++++#++o++X#++X++++++++#++@##X##++o+##X                                          ",
"                                          #+X#++o++++X#@@@##++ooXX#+#X+++o+o+#++#++++++++++#+++##++++++++++++++++++##########++++++++++++++++++##+++#++++++++++#++#+o+o+++X#+#XXoo++##@@@#X++++o++#X+#                                          ",
"                                           #+.++O#XO#+++##++X+++++++X++#X++++#+++#+#++++++++#+++##++++++++++++++++++++++++++++++++++++++++++++##+++#++++++++#+#+++#++++X#++X+++++++X++##+++#OX#O++.+#                                           ",
"                                           X#++o++##XX#@++###++++XX#+#XX++o+o+#++#++#+++++++##+++##++++++++++++++++++++++++++++++++++++++++++##+++##+++++++#++#++#+o+o++XX#+#XX++++###++@#XX##++o++#X                                           ",
"                                           #X##++o++++X##@@XXXoo++#++X++#X++++#+++#+#++++++++##+++###++++++++++++++++++++++++++++++++++++++###+++##++++++++#+#+++#++++X#++X++#++ooXXX@@##X++++o++##X#                                           ",
"                                            ++.++O#XX##+++#+++++++XX#+#XX++++o+#+++++#++++++++##+++####++++++++++++++++++++++++++++++++++####+++##++++++++#+++++#+o++++XX#+#XX+++++++#+++##XX#O++.++                                            ",
"                                            X#++o++##XXX@@@@##Xooo+#++X+##++o++++++#++#++++++++##++++###++++++++++++++++++++++++++++++++###++++##++++++++#++#++++++o++##+X++#+oooX##@@@@XXX##++o++#X                                            ",
"                                            #XX#++oX+O++++##+++++++XX#+#X+#X++++#+++#+#+++++++++##+++++###++++++++++++++++++++++++++++###+++++##+++++++++#+#+++#++++X#+X#+#XX+++++++##++++O+Xo++#XX#                                            ",
"                                             #+.o++##XXX#@@@###Xooo+#++X+#X++o+o+#+++#+#++++++++++##++++#####++++++++++++++++++++++#####++++##++++++++++#+#+++#+o+o++X#+X++#+oooX###@@@#XXX##++o.+#                                             ",
"                                             XX#++oo++++++###+++++++XX#+#X+#X+o+o+#+++++#++++++++++##++++++####++++++++++++++++++####++++++##++++++++++#+++++#+o+o+X#+X#+#XX+++++++###++++++oo++#XX                                             ",
"                                              +X.++O#XXX##@@+##XXoo++++X+##+#X++++++++#++#+++++++++++##++++++######++++++++++######++++++##+++++++++++#++#++++++++X#+##+X++++ooXX##+@@##XXX#O++.X+                                              ",
"                                              X#++oo++#+++####+++++++X#++X+#X++++++++++#++#+++++++++++###++++++++##############++++++++###+++++++++++#++#++++++++++X#+X++#X+++++++####+++#++oo++#X                                              ",
"                                              #+X.++O#XX###@@+@XXXo++++X#+#X+X++o+o+#+++#++#++++++++++++###++++++++++######++++++++++###++++++++++++#++#+++#+o+o++X+X#+#X++++oXXX@+@@###XX#O++.X+#                                              ",
"                                               ##++oo++++++####+##++oo+++X+#X+#X+o+o+#+++#++##++++++++++++###++++++++++++++++++++++###++++++++++++##++#+++#+o+o+X#+X#+X+++oo++##+####++++++oo++##                                               ",
"                                               #+X.++O#XXX##@@@@XX++++oX#+XX+#+#X+o+o+#++++#++#++++++++++++++####++++++++++++++####++++++++++++++#++#++++#+o+o+X#+#+XX+#Xo++++XX@@@@##XXX#O++.X+#                                               ",
"                                                ##++ooo+++++++++##XXo+++XX#+X+#X#X+o+o+#++++#++##+++++++++++++++################+++++++++++++++##++#++++#+o+o+X#X#+X+#XX+++oXX##+++++++++ooo++##                                                ",
"                                                #+X.++O##XXXX####++#+oo+++X#+X+#X+X+o+o++++++#+++#++++++++++++++++++++++++++++++++++++++++++++#+++#++++++o+o+X+X#+X+#X+++oo+#++####XXXX##O++.X+#                                                ",
"                                                 ##+++oo++O###+@@@X++++oo+#+X+#+#X+X+o+o++#++++#+++#++++++++++++++++++++++++++++++++++++++++#+++#++++#++o+o+X+X#+#+X+#+oo++++X@@@+###O++oo+++##                                                 ",
"                                                 #+X.+++###++X##++##XX+++oX#+X+#X#X+X+o++++#++++##+++#++++++++++++++++++++++++++++++++++++#+++##++++#++++o+X+X#X#+X+#Xo+++XX##++##X++###+++.X+#                                                 ",
"                                                  X##+++oXXXXX#####+##Xo+++X#+X+#X#X#X+o++o+#+++++#++++##++++++++++++++++++++++++++++++##++++#+++++#+o++o+X#X#X#+X+#X+++oX##+#####XXXXXo+++##X                                                  ",
"                                                  #++.ooo+++O###@@@#++#+oo++X#+X+#+#X#X++++o++#+++++#++++##++++++++++++++++++++++++++##++++#+++++#++o++++X#X#+#+X+#X++oo+#++#@@@###O+++ooo.++#                                                  ",
"                                                   XXX#++O###++++++@@X++++o++X#+X+#+#+#+++o++++##+++++##++++###++++++++++++++++++###++++##+++++##++++o+++#+#+#+X+#X++o++++X@@++++++###O++#XXX                                                   ",
"                                                    ##++++oXXXXXX#+++@X++++o++X#+X+X+#+X+X+o++o++##+++++##+++++++######++######+++++++##+++++##++o++o+X+X+#+X+X+#X++o++++X@+++#XXXXXXo++++##                                                    ",
"                                                    #++.ooo+++O##X###+#XX+++o++X#+X+X+X+X#X++o++o++##+++++++###++++++++++++++++++###+++++++##++o++o++X#X+X+X+X+#X++o+++XX#+###X##O+++ooo.++#                                                    ",
"                                                     XX##++++##O###@##+#XX+++o++X#+#+X#X#+#+X+++++o++##++++++++++#####++++#####++++++++++##++o+++++X+#+#X#X+#+#X++o+++XX#+##@###O##++++##XX                                                     ",
"                                                      ###+++O###++##@@####X+++o++X#X#X+#+#+X#+++o+++o++++##++++++++++++++++++++++++++##++++o+++o+++#X+#+#+X#X#X++o+++X####@@##++###O+++###                                                      ",
"                                                      #++++oooXX#++++@@####X+++o+o++X+X+X#X#+#+X++oo++oo++++##++++++++++++++++++++##++++oo++oo++X+#+#X#X+X+X++o+o+++X####@@++++#XXooo++++#                                                      ",
"                                                       XXX.ooooXXXX+++@@@##XX++o++o+X#+#++#+X#X#+X+++o++++oo+++++#####++++#####+++++oo++++o+++X+#X#X+#++#+#X+o++o++XX##@@@+++XXXXoooo.XXX                                                       ",
"                                                        X###+++++XXXX+++@###X+++o+o++X+X+X+X#+X+X#++X++oo++++ooo++++++++++++++++ooo++++oo++X++#X+X+#X+X+X+X++o+o+++X###@+++XXXX+++++###X                                                        ",
"                                                         ####++++++XXX++@@#+#X+#X++o+o++#+#++X#+X++X#+XX+++oo++++++oooooooooo++++++oo+++XX+#X++X+#X++#+#++o+o++X#+X#+#@@++XXX++++++####                                                         ",
"                                                         #++++++++++OXX++@@#+@X+#X+o++o+X+X+#++X#+X#+X##++X+++++ooo++++++++++ooo+++++X++##X+#X+#X++#+X+X+o++o+X#+X@+#@@++XXO++++++++++#                                                         ",
"                                                          #++++++O+++OXX++@##+@+#X++o+o+++X#X+#++X#+XX#+XX##++XX++++++++++++++++XX++##XX+#XX+#X++#+X#X+++o+o++X#+@+##@++XXO+++O++++++#                                                          ",
"                                                           XXX++++O#++XX++#@#+@#+#+#X+++++++X#X+#+++X#+XX#++XX###+++++XXXX+++++###XX++#XX+#X+++#+X#X+++++++X#+#+#@+#@#++XX++#O++++XXX                                                           ",
"                                                            XXX.+++O+++XX+###++@##X+X++o+o+o++X#X+#X+++X#++XX##+++XXXXXXXXXXXX+++##XX++#X+++X#+X#X++o+o+o++X+X##@++###+XX+++O+++.XXX                                                            ",
"                                                             XXX.o++O++XX++#X#+@#+@+#X#X+o+o+o++X+X++#X+++X##+++XXXX########XXXX+++##X+++X#++X+X++o+o+o+X#X#+@+#@+#X#++XX++O++o.XXX                                                             ",
"                                                              XXX.++++++X#+##X+@#+@##X#X+X+o+o++++X+#XX+#XX+++XXXX####++++####XXXX+++XX#+XX#+X++++o+o+X+X#X##@+#@+X##+#X++++++.XXX                                                              ",
"                                                               XXX.+++++XX#O#X+###@#+@+X+X+X+o+o++o++X+##X++##XX++++++++++++++++XX##++X##+X++o++o+o+X+X+X+@+#@###+X#O#XX+++++.XXX                                                               ",
"                                                                XXX+++++oX##OX+###+#+@#@+#+#+X+o++o++o++XX+##XX+++############+++XX##+XX++o++o++o+X+#+#+@#@+#+###+XO##Xo+++++XXX                                                                ",
"                                                                 XXX++++oo##+X+#XX##+@#+##+#+#+X++++o+++o++++XX++#####XXXX#####++XX++++o+++o++++X+#+#+##+#@+##XX#+X+##oo++++XXX                                                                 ",
"                                                                  XX++#+ooO++X#OX+#X+@#@#+##+#+X#X++o+++o+++oo++++++XXXXXXXX++++++oo+++o+++o++X#X+#+##+#@#@+X#+XO#X++Ooo+#++XX                                                                  ",
"                                                                   X++##oo+++X#+X+#X+##@#@#@#@+X#+#+X+++o+++oo++++++oooooooo++++++oo+++o+++X+#+#X+@#@#@#@##+X#+X+#X+++oo##++X                                                                   ",
"                                                                    #+##.+++oo#+X#OX+#+##@#@#@#@#+#+X##+X+++oo+++++oooooooooo+++++oo+++X+##X+#+#@#@#@#@##+#+XO#X+#oo+++.##+#                                                                    ",
"                                                                     ###X+++o+O+X#+X+X+#+#+@+@+@+#@#+X#+X##++X++++++oooooooo++++++X++##X+#X+#@#+@+@+@+#+#+X+X+#X+O+o+++X###                                                                     ",
"                                                                       XX+##o++oo#+#+X+#+#+#+@+#+#@+#@#+XX#++XX##++++XXXXXX++++##XX++#XX+#@#+@#+#+@+#+#+#+X+#+#oo++o##+XX                                                                       ",
"                                                                        X+##.++o++o#+X+X+X+X+X+#@+@+#@+##@##+XX###+++++XX+++++###XX+##@##+@#+@+@#+X+X+X+X+X+#o++o++.##+X                                                                        ",
"                                                                         ##X++#o++oOo#+X#X+X+X#X#+#@#@@+#@@+##@@###++++++++++###@@##+@@#+@@#@#+#X#X+X+X#X+#oOo++o#++X##                                                                         ",
"                                                                           X+#X.++++oO+#+X+XOX#+X+X#+#@++#@++#@@@++++######++++@@@#++@#++@#+#X+X+#XOX+X+#+Oo++++.X#+X                                                                           ",
"                                                                            ##X+#.++o+oO+#+#+#X+X#+#+XX#+##@+##@@@@++++##++++@@@@##+@##+#XX+#+#X+X#+#+#+Oo+o++.#+X##                                                                            ",
"                                                                              X+#X+.++o+oOo#X#X+#O+X#+X##+X##+###@@@@++++++@@@@###+##X+##X+#X+O#+X#X#oOo+o++.+X#+X                                                                              ",
"                                                                               #X+#X+.++o+o+o+#+#X+#O++X#++X##++XXX##########XXX++##X++#X++O#+X#+#+o+o+o++.+X#+X#                                                                               ",
"                                                                                 ##+#X+.++++++Oo+#+#X+#XXO+XX##++XXXXX####XXXXX++##XX+OXX#+X#+#+oO++++++.+X#+##                                                                                 ",
"                                                                                   ##+#X+.+o+o+++Oo+#X+#X++#XXOO++++XXXXXXXX++++OOXX#++X#+X#+oO+++o+o+.+X#+##                                                                                   ",
"                                                                                     ##+#X#.#+++o+++Ooo+#X++##XX++############++XX##++X#+ooO+++o+++#.#X#+##                                                                                     ",
"                                                                                       #X+X+X+.#+++o++o++Ooo+##XXX++++####++++XXX##+ooO++o++o+++#.+X+X+X#                                                                                       ",
"                                                                                          X#X#+#+.#+o++o+++oo++OOooo++++++++oooOO++oo+++o++o+#.+#+#X#X                                                                                          ",
"                                                                                            #X+X#+X#+.#+o++++o++++++oooooooo++++++o++++o+#.+#X+#X+X#                                                                                            ",
"                                                                                               #X#+#++X#+..#++oo++++++++++++++++oo++#..+#X++#+#X#                                                                                               ",
"                                                                                                  #X#+XX#+XX##++...##########...++##XX+#XX+#X#                                                                                                  ",
"                                                                                                      #XX#++X###++XXXXXXXXXXXX++###X++#XX#                                                                                                      ",
"                                                                                                           ##XX###+++++XX+++++###XX##                                                                                                           ",
"                                                                                                                      ####                                                                                                                      ",
"                                                                                                                                                                                                                                                ",
"                                                                                                                                                                                                                                                ",
"                                                                                                                                                                                                                                                ",
"                                                                                                                                                                                                                                                ",
"                                                                                                                                                                                                                                                ",
"                                                                                                                                                                                                                                                ",
"                                                                                                                                                                                                                                                ",
"                                                                                                                                                                                                                                                ",
"                                                                                                                                                                                                                                                ",
"                                                                                                                                                                                                                                                ",
"                                                                                                                                                                                                                                                ",
"                                                                                                                                                                                                                                                ",
"                                                                                                                                                                                                                                                ",
"                                                                                                                                                                                                                                                ",
"                                                                                                                                                                                                                                                ",
"                                                                                                                                                                                                                                                ",
"                                                                                                                                                                                                                                                ",
"                                                                                                                                                                                                                                                ",
"                                                                                                                                                                                                                                                ",
"                                                                                                                                                                                                                                                ",
"                                                                                                                                                                                                                                                ",
"                                                                                                                                                                                                                                                ",
"                                                                                                                                                                                                                                                ",
"                                                                                                                                                                                                                                                ",
"                                                                                                                                                                                                                                                ",
"                                                                                                                                                                                                                                                ",
"                                                                                                                                                                                                                                                ",
"                                                                                                                                                                                                                                                ",
"                                                                                                                                                                                                                                                ",
"                                                                                                                                                                                                                                                ",
"                                                                                                                                                                                                                                                ",
"                                                                                                                                                                                                                                                ",
"                                                                                                                                                                                                                                                ",
"                                                                                                                                                                                                                                                ",
"                                                                                                                                                                                                                                                ",
"                                                                                                                                                                                                                                                ",
"                                                                                                                                                                                                                                                ",
"                                                                                                                                                                                                                                                ",
"                                                                                                                                                                                                                                                "
};
