/* XPM */
static char *_[] = {
/* columns rows colors chars-per-pixel */
"64 64 19 1 ",
"  c None",
". c gray9",
"X c #181818",
"o c gray22",
"O c gray34",
"+ c gray35",
"@ c #667777",
"# c gray47",
"$ c #5555AA",
"% c #558080",
"& c #55AAAA",
"* c #808080",
"= c gray72",
"- c #E8D7C6",
"; c #E8D8C8",
": c #E8D1D1",
"> c gray92",
", c gray97",
"< c #F8F8F8",
/* pixels */
"                                                                ",
"                                                                ",
"                                                                ",
"                                                                ",
"                                                                ",
"                                                                ",
"                                                                ",
"                                                                ",
"                                                                ",
"                                                                ",
"                                                                ",
"                                                                ",
"                                                                ",
"                                                                ",
"                                                                ",
"                                                                ",
"                                                                ",
"                                                                ",
"                                                                ",
"                                                                ",
"                                                                ",
"                                                                ",
"                                                                ",
"                                                                ",
"                                                                ",
"                                                                ",
"                                                                ",
"                                                                ",
"                                                                ",
"                                                                ",
"                                                                ",
"                                                                ",
"                                                                ",
"                                                                ",
"                                                                ",
"                                                                ",
"                                                                ",
"                                                                ",
"                                                                ",
"                                                                ",
"                                                                ",
"                                                                ",
"                                                                ",
"                                                                ",
"                                                                ",
"                                                                ",
"                              :,+                               ",
"                              -#<+                              ",
"                              <=#<O                             ",
"                              <==#<+                            ",
"                              ,==##<+<                          ",
"                               ==###<+*                         ",
"                              <===###<OO                        ",
"                              <==;=###;+&                       ",
"                              <===;=###;+&                      ",
"                              <===;;=###;+&                     ",
"                              ,===;<;=#+#=+&                    ",
"                              ,==;<<<;=#+#=+&                   ",
"                              <===;<<=###+#=+$                  ",
"                              <===#+<;##+++#=+$                 ",
"                              %<===oX<o++oo+#=+O                ",
"                               ,==##oX=ooXXo+#=OO               ",
"                               @<=###oX#oXXXo+##OO              ",
"                                >=#++X.XXXXXXo+##+O             "
};
