/* XPM */
static char *_[] = {
/* columns rows colors chars-per-pixel */
"64 64 42 1 ",
"  c None",
". c #181818",
"X c gray22",
"o c #7E5031",
"O c #555555",
"+ c #585858",
"@ c #5D7474",
"# c #5E717B",
"$ c gray40",
"% c #6D6D6D",
"& c #627676",
"* c #63737E",
"= c #68717B",
"- c #697878",
"; c #777777",
": c gray47",
"> c #805030",
", c #BF7049",
"< c #C06F48",
"1 c #C07047",
"2 c #C07048",
"3 c #E8A070",
"4 c #606080",
"5 c #607080",
"6 c #697887",
"7 c #627689",
"8 c #71718E",
"9 c blue",
"0 c #408080",
"q c #558080",
"w c #608080",
"e c #6D8080",
"r c #55AAAA",
"t c #808080",
"y c #B7B7B7",
"u c gray72",
"i c #E9B997",
"p c #E8B898",
"a c #E8D8C8",
"s c #E8D1D1",
"d c #F6F6F6",
"f c #F8F8F8",
/* pixels */
"                                                                ",
"                                                                ",
"                                                                ",
"                                                                ",
"                                                                ",
"                                                                ",
"                                                                ",
"                                                                ",
"                                                                ",
"                                                                ",
"                                                                ",
"                                                                ",
"                                                                ",
"                                                                ",
"                                                                ",
"                                                                ",
"                                                                ",
"                                                                ",
"                                                                ",
"                                                                ",
"                                                                ",
"                                                                ",
"                                                                ",
"                                                                ",
"                                                                ",
"                                                                ",
"                                                                ",
"                                                                ",
"                                                                ",
"                                                                ",
"                                                                ",
"                                                                ",
"                                                                ",
"                                                                ",
"                                                                ",
"                          O                                     ",
"                          ar                                    ",
"                          a;t                                   ",
"                          f:y$                                  ",
"                          fu:uq                                 ",
"                          fuu:u%                                ",
"                           uuu:uw                               ",
"                          fuuuu:u8                              ",
"                          fuuuu::u@                             ",
"                          fuuuu:::u&                            ",
"                          fuuuuu:::ue                           ",
"                          duuuufu:::u5                          ",
"                          duuuuufu:::u-                         ",
"                          tuuuu:+f:+::u6                        ",
"                           yuu:+X.fX++:y5                       ",
"                           $u:++XX.uXX+:u6                      ",
"                            y:+XX.X.:X.+:u5                     ",
"                             u:X........+:u7                    ",
"                             9u+........:ffu;                   ",
"                              Ou......:ff+XX+5                  ",
"                               @u...:uu+XXXXX22214              ",
"                                *u:uu+XXXX23afffa22             ",
"                                =::XXX..3affapppafa,t           ",
"                                :+X...2afapp33apa3pf2t          ",
"                                t:+X2afapp33323aa33pf2          ",
"                                 $X>3app3322>>332233pf1         ",
"                                  *>2app322>..222p33pap#        ",
"                                  o2>2ap32>...>23pp33pa20       ",
"                                  si,><p332>...>23pp3pap2       "
};
