/* XPM */
static char *_[] = {
/* columns rows colors chars-per-pixel */
"64 64 30 1 ",
"  c None",
". c #181818",
"X c #373737",
"o c gray22",
"O c #7E5031",
"+ c #555555",
"@ c #585858",
"# c #606060",
"$ c #667777",
"% c #62727C",
"& c #617979",
"* c #777777",
"= c gray47",
"- c #805030",
"; c #C07048",
": c #E9A170",
"> c #556A80",
", c #607080",
"< c #687880",
"1 c #627689",
"2 c #558080",
"3 c #608080",
"4 c cyan",
"5 c #808080",
"6 c #B7B7B7",
"7 c gray72",
"8 c #E8B898",
"9 c #E8D8C8",
"0 c gray97",
"q c #F8F8F8",
/* pixels */
"                                                                ",
"                                                                ",
"                                                                ",
"                                                                ",
"                                                                ",
"                                                                ",
"                                                                ",
"                                                                ",
"                                                                ",
"                                                                ",
"                                                                ",
"                                                                ",
"                                                                ",
"                                                                ",
"                                                                ",
"                                                                ",
"                                                                ",
"                                                                ",
"                                                                ",
"                                                                ",
"                                                                ",
"                                                                ",
"                                                                ",
"                                                                ",
"                                                                ",
"                                                                ",
"                                                                ",
"                                                                ",
"                                                                ",
"                                                                ",
"                                                                ",
"                                                                ",
"                                                                ",
"                                                                ",
"                               45                               ",
"                              577*                              ",
"                              7q9@=5                            ",
"                              qq9=@*+                           ",
"                              q997=@=5                          ",
"                             2q7997=o@2                         ",
"                             %q77977=o@>                        ",
"                           =qqqq79777=o@,                       ",
"                          =@@@@@@==7777@@%+                     ",
"                          =@oooooo@@@@-;;; O                    ",
"                          =@oooo89999qqqq88::                   ",
"                          =@ooo@;::889999qqq8:                  ",
"                          5===@;--;:88999999q9>                 ",
"                            %@;-..-;:88899999q95                ",
"                             X-...-;::88888899q%                ",
"                             &o...o-;:::8988889q%               ",
"                              o..ooo-;;::8988889q,              ",
"                              Xooo.ooo-;;::888889q$             ",
"                               %o..oooo--;::888889q2            ",
"                                @.@..@.o--;::888889q+           ",
"                                 +o.@-.o---;;;7qqqqq04          ",
"                                  #*-;;-----=777777770          ",
"                                       +%-===7777777770         ",
"                                        ,=@@=77777777770        ",
"                                        =o@@==777777777q<       ",
"                                        =oo@==7777777777q1      ",
"                                        =.o@@==777==@@@@@75     ",
"                                        =.o@@=====@@======6     ",
"                                       q=..o@@=@@@=77==77==7    ",
"                                       3=...oo@=qq6@=76=@@@7    "
};
