/* XPM */
static char *_[] = {
/* columns rows colors chars-per-pixel */
"63 64 37 1 ",
"  c None",
". c gray9",
"X c #181818",
"o c gray20",
"O c gray22",
"+ c #565656",
"@ c gray35",
"# c #557171",
"$ c #5F757C",
"% c gray40",
"& c #627676",
"* c #63747D",
"= c #647A7A",
"- c #777777",
"; c gray47",
": c #805030",
"> c #C07048",
", c #E8A070",
"< c #5D7480",
"1 c #667380",
"2 c #6B7986",
"3 c #627689",
"4 c #71718E",
"5 c #6D6D92",
"6 c #666699",
"7 c #5555AA",
"8 c #408080",
"9 c #608080",
"0 c cyan",
"q c #808080",
"w c #B7B7B7",
"e c gray72",
"r c #E8B898",
"t c #E7D8C8",
"y c #E8D8C8",
"u c gray97",
"i c #F8F8F8",
/* pixels */
"                                                               ",
"                                                               ",
"                                                               ",
"                                                               ",
"                                                               ",
"                                                               ",
"                                                               ",
"                                                               ",
"                                                               ",
"                                                               ",
"                                                               ",
"                                                               ",
"                                                               ",
"                                                               ",
"                                                               ",
"                                                               ",
"                                                               ",
"                                                               ",
"                                                               ",
"                                                               ",
"                                                               ",
"                                                               ",
"                                                               ",
"                                                               ",
"                                                               ",
"                                                               ",
"                        1i;                                    ",
"                        ;;i-q                                  ",
"                        ey;i;8                                 ",
"                        eye;i@8                                ",
"                        eyye;i@6                               ",
"                       qeeyee;i@<                              ",
"                       1eeeeee;e@*17                           ",
"                      +tiiiiiiiiiiiiuiww--o5                   ",
"                      ;@@@@@@@@@@@OOOOOOOO@o                   ",
"                      ;@@@OOOOOOXXXO>rr>>OOO                   ",
"                      ;@OOOOOXXXXX>yyyr,ryOO&                  ",
"                      ;OOO>r,,XXX>yiyyr,,r>>*                  ",
"                      ;OO>riyyyyyyiiyrr,,>>r>                  ",
"                      ;@O>>rryyyiiiyyrr,,>::>1                 ",
"                      oXX@:>:>ryyyyyrrrr,>:::>                 ",
"                       5*@OXX:,rryyyrrrr,,>::>4                ",
"                         $@OO:>,rrrrrrrr,,,::>*                ",
"                           @@::>>,rrrrrrr,,>:>*2               ",
"                             *::::>,rrrrr,,,>>:*               ",
"                              @OX:::>,,,,iiiiiii*              ",
"                              +XX@@::>>eeeeeeeeei#             ",
"                               @@@X::;e;;eeeeeeeei             ",
"                                .@O:;;;;;;eeeeeeeei            ",
"                                  *;@O@;;;;eeeeeeee=           ",
"                                  -;XO@@;;;;ee;@@@;e6          ",
"                                   ;XO@@;;;;@@;;;;;;w          ",
"                                   ;XOO@@;@@;ee;;e;;;w         ",
"                                   ;XOOOOO;ie@@ee;@@@e1        ",
"                                   ;XXOOXXi;O@ee;@OOO@e6       ",
"                                   9;XXXX@;O@ee;OOOOOO@i       ",
"                                    *;XXO;O@ee@OOO@;eieei      ",
"                                    .;XX@O@ie;OO@;;eie;@e      ",
"                                    3;XX@@ie@OO@;;ee;@@Oe1     ",
"                                    9;XO@ie@OO@@;ee;;@OOieq    ",
"                                    %;X@ee@OXO@;;e;@OOOO;ie8   ",
"                                    +;X@ee@OXO@;;;;;;;@@;eieq  ",
"                                    0;X@;e;@XOO@;;;eeiiiiiiie  ",
"                                     ;X@@;e;@XOO@; ;;eeeeeeie  "
};
