/* XPM */
static char *out[] = {
/* columns rows colors chars-per-pixel */
"128 128 183 2 ",
"   c None",
".  c black",
"X  c #010101",
"o  c #020202",
"O  c gray1",
"+  c #040404",
"@  c gray2",
"#  c #060606",
"$  c gray4",
"%  c #0B0B0B",
"&  c gray5",
"*  c #0E0E0E",
"=  c #101010",
"-  c #111111",
";  c gray7",
":  c #131313",
">  c gray8",
",  c #151515",
"<  c gray9",
"1  c #181818",
"2  c #191919",
"3  c #1B1B1B",
"4  c gray11",
"5  c #1E1E1E",
"6  c gray12",
"7  c #202020",
"8  c gray13",
"9  c #232323",
"0  c gray14",
"q  c #252525",
"w  c #282828",
"e  c gray16",
"r  c #2A2A2A",
"t  c gray17",
"y  c #2C2C2C",
"u  c gray18",
"i  c gray19",
"p  c #313131",
"a  c #323232",
"s  c gray20",
"d  c #353535",
"f  c gray21",
"g  c #393939",
"h  c #3A3A3A",
"j  c #3C3C3C",
"k  c gray24",
"l  c #3E3E3E",
"z  c #3F3F3F",
"x  c gray25",
"c  c #414141",
"v  c #434343",
"b  c #444444",
"n  c #464646",
"m  c gray28",
"M  c #4B4B4B",
"N  c gray30",
"B  c #4E4E4E",
"V  c gray31",
"C  c #505050",
"Z  c gray32",
"A  c gray33",
"S  c #555555",
"D  c gray34",
"F  c #585858",
"G  c #5A5A5A",
"H  c gray36",
"J  c #5D5D5D",
"K  c #5F5F5F",
"L  c gray38",
"P  c #626262",
"I  c gray39",
"U  c #646464",
"Y  c gray40",
"T  c #686868",
"R  c DimGray",
"E  c gray42",
"W  c #6D6D6D",
"Q  c gray43",
"!  c #6F7070",
"~  c #727272",
"^  c gray46",
"/  c #777777",
"(  c gray47",
")  c #797979",
"_  c gray48",
"`  c #7B7B7B",
"'  c gray49",
"]  c #7E7E7E",
"[  c #808080",
"{  c #818181",
"}  c #838383",
"|  c #848484",
" . c #868686",
".. c gray53",
"X. c #888888",
"o. c gray54",
"O. c #8B8B8B",
"+. c gray55",
"@. c #8D8D8D",
"#. c gray56",
"$. c #909090",
"%. c gray57",
"&. c gray58",
"*. c #989898",
"=. c gray60",
"-. c #9A9A9A",
";. c gray61",
":. c gray62",
">. c #9F9F9F",
",. c #A0A0A0",
"<. c #A2A2A2",
"1. c #A4A4A4",
"2. c #A5A5A5",
"3. c #A7A7A7",
"4. c gray66",
"5. c #A9A9A9",
"6. c #ACACAC",
"7. c #AEAEAE",
"8. c gray69",
"9. c #B2B2B2",
"0. c gray71",
"q. c #B6B6B6",
"w. c #B7B7B7",
"e. c gray72",
"r. c gray73",
"t. c #BBBBBB",
"y. c #BCBCBC",
"u. c gray75",
"i. c #C0C0C0",
"p. c #C1C1C1",
"a. c gray76",
"s. c #C3C3C3",
"d. c gray77",
"f. c #C5C5C5",
"g. c #C6C6C6",
"h. c #C8C8C8",
"j. c gray79",
"k. c #CBCBCB",
"l. c #CDCDCD",
"z. c #CECECE",
"x. c gray81",
"c. c #D0D0D0",
"v. c gray82",
"b. c #D2D2D2",
"n. c LightGray",
"m. c gray83",
"M. c gray84",
"N. c #D7D7D7",
"B. c #D8D8D8",
"V. c gray85",
"C. c #DADADA",
"Z. c gainsboro",
"A. c gray87",
"S. c #DFDFDF",
"D. c gray88",
"F. c #E1E1E1",
"G. c gray89",
"H. c #E4E4E4",
"J. c gray90",
"K. c #E6E6E6",
"L. c #E7E7E7",
"P. c gray91",
"I. c #E9E9E9",
"U. c #EAEAEA",
"Y. c #ECECEC",
"T. c #EDEEEE",
"R. c #EFEFEF",
"E. c gray94",
"W. c #F1F1F1",
"Q. c gray95",
"!. c #F3F3F3",
"~. c #F4F4F4",
"^. c gray96",
"/. c #F6F6F6",
"(. c gray97",
"). c #F8F8F8",
"_. c #F9F9F9",
"`. c gray98",
"'. c #FBFBFB",
"]. c gray99",
"[. c #FDFDFD",
"{. c #FEFEFE",
"}. c white",
/* pixels */
"                                                                                                                                                                                                                                                                ",
"                                                                                                                }.}.}.}.}.}.}.}.}.}.}.}.}.}.}.}.}.                                                                                                              ",
"                                                                                                      }.}.}.}.}.}.}.}.}.}.}.}.}.}.}.}.}.}.}.}.}.}.}.}.}.}.}.}.                                                                                                  ",
"                                                                                              }.}.}.}.}.}.}.}.}.}.}.}.}.}.}.}.}.}.}.}.}.}.}.}.}.}.}.}.}.}.}.}.}.}.}.                                                                                            ",
"                                                                                        }.}.}.}.}.}.}.}.}.}.}.}.}.}.}.}.}.}.}.}.}.}.}.}.}.}.}.}.}.}.}.}.}.}.}.}.}.}.}.}.}.}.                                                                                    ",
"                                                                                  }.}.}.}.}.}.}.}.}.}.}.}.}.}.}.}.}.}.}.}.}.}.}.}.}.}.}.}.}.}.}.}.}.}.}.}.}.}.}.}.}.}.}.}.}.}.}.                                                                                ",
"                                                                              }.}.}.}.}.}.}.}.}.}.}.}.}.}.}.}.}.}.}.}.}.}.}.}.}.}.}.}.}.}.}.}.}.}.}.}.}.}.}.}.}.}.}.}.}.}.}.}.}.}.}.                                                                            ",
"                                                                          }.}.}.}.}.}.}.}.}.}.}.}.}.}.}.}.}.}.}.}.}.}.}.}.}.}.}.}.}.}.}.}.}.}.}.}.}.}.}.}.}.}.}.}.}.}.}.}.}.}.}.}.}.}.}.}.                                                                      ",
"                                                                      }.}.}.}.}.}.}.}.}.}.}.}.}.}.}.}.}.}.}.}.}.}.}.}.}.}.}.}.}.}.}.}.}.}.}.}.}.}.}.}.}.}.}.}.}.}.}.}.}.}.}.}.}.}.}.}.}.}.}.                                                                    ",
"                                                                  }.}.}.}.}.}.}.}.}.}.}.}.}.}.}.}.}.}.}.}.}.}.[.E.B.p.7.:.%.X.} [ {  .@.=.3.e.z.K._.}.}.}.}.}.}.}.}.}.}.}.}.}.}.}.}.}.}.}.}.}.}.                                                                ",
"                                                                }.}.}.}.}.}.}.}.}.}.}.}.}.}.}.}.}.}.[.R.j.,._ G c f y 9 4 < ; = * * - > 2 7 w a k N E #.w.D.'.}.}.}.}.}.}.}.}.}.}.}.}.}.}.}.}.}.}.}.                                                            ",
"                                                            }.}.}.}.}.}.}.}.}.}.}.}.}.}.}.}.}._.C.<.Q b i 4 % X . . . . . . . . . . . . . . . . . . # , w h G +.p.R.}.}.}.}.}.}.}.}.}.}.}.}.}.}.}.}.}.                                                          ",
"                                                          }.}.}.}.}.}.}.}.}.}.}.}.}.}.}.'.D.:.P f 5 # . . . . . . . . . . . . . . . . . . . . . . . . . . . o : y N } s.^.}.}.}.}.}.}.}.}.}.}.}.}.}.}.}.}.                                                      ",
"                                                      }.}.}.}.}.}.}.}.}.}.}.}.}.}.}.!.p./ k 4 O . . . . . . . . . . . . . . . . . . . . . . . . . . . . . . . . . X = u G >.G.}.}.}.}.}.}.}.}.}.}.}.}.}.}.}.                                                    ",
"                                                    }.}.}.}.}.}.}.}.}.}.}.}.}.}.R.8.P t $ . . . . . . . . . . . . . . . . . . . . . . . . . . . . . . . . . . . . . . . o 4 m O.B.}.}.}.}.}.}.}.}.}.}.}.}.}.}.                                                  ",
"                                                  }.}.}.}.}.}.}.}.}.}.}.}.}.W.9.J 0 + . . . . . . . . . . . . . . . . . . . . . . . . . . . . . . . . . . . . . . . . . . . X : c o.Z.}.}.}.}.}.}.}.}.}.}.}.}.}.}.                                              ",
"                                                }.}.}.}.}.}.}.}.}.}.}.}.(.g.T q O . . . . . . . . . . . . . . . . . . . . . . . . . . . . . . . . . . . . . . . . . . . . . . . . : m -.Y.}.}.}.}.}.}.}.}.}.}.}.}.}.                                            ",
"                                            }.}.}.}.}.}.}.}.}.}.}.}.[.F. .p # . . . . . . . . . . . . . . . . . . . . . . . . . . . . . . . . . . . . . . . . . . . . . . . . . . . X 3 H r.'.}.}.}.}.}.}.}.}.}.}.}.}.                                          ",
"                                          }.}.}.}.}.}.}.}.}.}.}.}.!.q.V ; . . . . . . . . . . . . . . . . . . . . . . . . . . . . . . . . . . . . . . . . . . . . . . . . . . . . . . . O a | G.}.}.}.}.}.}.}.}.}.}.}.}.                                        ",
"                                        }.}.}.}.}.}.}.}.}.}.}.{.J...e o . . . . . . . . . . . . . . . . . . . . . . . . . . . . . . . . . . . . . . . . . . . . . . . . . . . . . . . . . . - F u.[.}.}.}.}.}.}.}.}.}.}.}.                                      ",
"                                      }.}.}.}.}.}.}.}.}.}.}.'.z.K : . . . . . . . . . . . . . . . . . . . . . . . . . . . . . . . . . . . . . . . . . . . . . . . . . . . . . . . . . . . . . O g -.~.}.}.}.}.}.}.}.}.}.}.}.                                    ",
"                                      }.}.}.}.}.}.}.}.}.}.^.w.c @ . . . . . . . . . . . . . . . . . . . . . . . . . . . . . . . . . . . . . . . . . . . . . . . . . . . . . . . . . . . . . . . X 8 ' K.}.}.}.}.}.}.}.}.}.}.}.                                  ",
"                                    }.}.}.}.}.}.}.}.}.}.W.4.i X . . . . . . . . . . . . . . . . . . . . . . . . . . . . . . . . . . . . . . . . . . . . . . . . . . . . . . . . . . . . . . . . . . ; E A.}.}.}.}.}.}.}.}.}.}.}.                                ",
"                                  }.}.}.}.}.}.}.}.}.}.T.;.q . . . . . . . . . . . . . . . . . . . . . . . . . . . . . . . . . . . . . . . . . . . . . . . . . . . . . . . . . . . . . . . . . . . . . % L m.}.}.}.}.}.}.}.}.}.}.}.                              ",
"                                }.}.}.}.}.}.}.}.}.}.U.#.6 . . . . . . . . . . . . . . . . . . . . . . . . . . . . . . . . . . . . . . . . . . . . . . . . . . . . . . . . . . . . . . . . . . . . . . . # S j.}.}.}.}.}.}.}.}.}.}.                              ",
"                              }.}.}.}.}.}.}.}.}.}.U.@.1 . . . . . . . . . . . . . . . . . . . . . . . . . . . . . . . . . . . . . . . . . . . . . . . . . . . . . . . . . . . . . . . . . . . . . . . . . + C j.}.}.}.}.}.}.}.}.}.}.                            ",
"                              }.}.}.}.}.}.}.}.}.T.*.2 . . . . . . . . . . . . . . . . . . . . . . . . . . . . . . . . . . . . . . . . . . . . . . . . . . . . . . . . . . . . . . . . . . . . . . . . . . . + S m.}.}.}.}.}.}.}.}.}.}.                          ",
"                            }.}.}.}.}.}.}.}.}.W.1.8 . . . . . . . . . . . . . . . . . . . . . . . . . . . . . . . . . . . . . . . . . . . . . . . . . . . . . . . . . . . . . . . . . . . . . . . . . . . . . # L A.}.}.}.}.}.}.}.}.}.}.                        ",
"                          }.}.}.}.}.}.}.}.}.^.8.e . . . . . . . . . . . . . . . . . . . . . . . . . . . . . . . . . . . . . . . . . . . . . . . . . . . . . . . . . . . . . . . . . . . . . . . . . . . . . . . % E K.}.}.}.}.}.}.}.}.}.                        ",
"                        }.}.}.}.}.}.}.}.}.'.s.f . . . . . . . . . . . . . . . . . . . . . . . . . . . . . . . . . . . . . . . . . . . . . . . . . . . . . . . . . . . . . . . . . . . . . . . . . . . . . . . . . ; ' ~.}.}.}.}.}.}.}.}.}.                      ",
"                        }.}.}.}.}.}.}.}.{.M.Z X . . . . . . . . . . . . . . . . . . . . . . . . . . . . . . . . . . . . . . . . . . . . . . . . . . . . . . . . . . . . . . . . . . . . . . . . . . . . . . . . . . 8 -.[.}.}.}.}.}.}.}.}.}.                    ",
"                      }.}.}.}.}.}.}.}.}.K.` @ . . . . . . . . . . . . . . . . . . . . . . . . . . . . . . . . . . . . . . . . . . . . . . . . . . . . . . . . . . . . . . . . . . . . . . . . . . . . . . . . . . . X g u.}.}.}.}.}.}.}.}.}.                    ",
"                      }.}.}.}.}.}.}.}.!.2., . . . . . . . . . . . . . . . . . . . . . . . . . . . . . . . . . . . . . . . . . . . . . . . . . . . . . . . . . . . . . . . . . . . . . . . . . . . . . . . . . . . . . O F G.}.}.}.}.}.}.}.}.}.                  ",
"                    }.}.}.}.}.}.}.}.[.k.g . . . . . . . . . . . . . . . . . . . . . . . . . . . . . . . . . . . . . . . . . . . . . . . . . . . . . . . . . . . . . . . . . . . . . . . . . . . . . . . . . . . . . . . - | '.}.}.}.}.}.}.}.}.                  ",
"                    }.}.}.}.}.}.}.}.H.^ o . . . . . . . . . . . . . . . . . . . . . . . . . . . . . . . . . . . . . . . . . . . . . . . . . . . . . . . . . . . . . . . . . . . . . . . . . . . . . . . . . . . . . . . . a r.}.}.}.}.}.}.}.}.}.                ",
"                  }.}.}.}.}.}.}.}.(.7.> . . . . . . . . . . . . . . . . . . . . . . . . . . . . . . . . . . . . . . . . . . . . . . . . . . . . . . . . . . . . . . . . . . . . . . . . . . . . . . . . . . . . . . . . . O H Y.}.}.}.}.}.}.}.}.}.              ",
"                  }.}.}.}.}.}.}.}.N.C . . . . . . . . . . . . . . . . . . . . . . . . . . . . . . . . . . . . . . . . . . . . . . . . . . . . . . . . . . . . . . . . . . . . . . . . . . . . . . . . . . . . . . . . . . . 3 -.}.}.}.}.}.}.}.}.}.              ",
"                }.}.}.}.}.}.}.}.W.=.# . . . . . . . . . . . . . . . . . . . . . . . . . . . . . . . . . . . . . . . . . . . . . . . . . . . . . . . . . . . . . . . . . . . . . . . . . . . . . . . . . . . . . . . . . . . X m Z.}.}.}.}.}.}.}.}.              ",
"                }.}.}.}.}.}.}.}.v.l . . . . . . . . . . . . . . . . . . . . . . . . . . . . . . . . . . . . . . . . . . . . . . . . . . . . . . . . . . . . . . . . . . . . . . . . . . . . . . . . . . . . . . . . . . . . . : o.}.}.}.}.}.}.}.}.}.            ",
"              }.}.}.}.}.}.}.}.R.&.O . . . . . . . . . . . . . . . . . . . . . . . . . . . . . . . . . . . . . . . . . . . . . . . . . . . . . . . . . . . . . . . . . . . . . . . . . . . . . . . . . . . . . . . . . . . . . . c B.}.}.}.}.}.}.}.}.            ",
"              }.}.}.}.}.}.}.}.v.z . . . . . . . . . . . . . . . . . . . . . . . . . . . . . . . . . . . . . . . . . . . . . . . . . . . . . . . . . . . . . . . . . . . . . . . . . . . . . . . . . . . . . . . . . . . . . . . : O.}.}.}.}.}.}.}.}.}.          ",
"            }.}.}.}.}.}.}.}.!.>.+ . . . . . . . . . . . . . . . . . . . . . . . . . . . . . . . . . . . . . . . . . . . . . . . . . . . . . . . . . . . . . . . . . . . . . . . . . . . . . . . . . . . . . . . . . . . . . . . X m G.}.}.}.}.}.}.}.}.          ",
"            }.}.}.}.}.}.}.}.V.A . . . . . . . . . . . . . . . . . . . . . . . . . . . . . . . . . . . . . . . . . . . . . . . . . . . . . . . . . . . . . . . . . . . . . . . . . . . . . . . . . . . . . . . . . . . . . . . . . 4 >.}.}.}.}.}.}.}.}.}.        ",
"            }.}.}.}.}.}.}.'.q.& . . . . . . . . . . . . . . . . . . . . . . . . . . . . . . . . . . . . . . . . . . . . . . . . . . . . . . . . . . . . . . . . . . . . . . . . . . . . . . . . . . . . . . . . . . . . . . . . . o G ^.}.}.}.}.}.}.}.}.        ",
"          }.}.}.}.}.}.}.}.P.` . . . . . . . . . . . . . . . . . . . . . . . . . . . . . . . . . . . . . . . . . . . . . . . . . . . . . . . . . . . . . . . . . . . . . . . . . . . . . . . . . . . . . . . . . . . . . . . . . . . u s.}.}.}.}.}.}.}.}.        ",
"          }.}.}.}.}.}.}.}.z.f . . . . . . . . . . . . . . . . . . . . . . . . . . . . . . . . . . . . . . . . . . . . . . . . . . . . . . . . . . . . . . . . . . . . . . . . . . . . . . . . . . . . . . . . . . . . . . . . . . . = } }.}.}.}.}.}.}.}.        ",
"          }.}.}.}.}.}.}._.6.O . . . . . . . . . . . . . . . . . . . . . . . . . . . . . . . . . . . . . . . . . . . . . . . . . . . . . . . . . . . . . . . . . . . . . . . . . . . . . . . . . . . . . . . . . . . . . . . . . . . X N R.}.}.}.}.}.}.}.}.      ",
"          }.}.}.}.}.}.}.L.( . . . . . . . . . . . . . . . . . . . . . . . . . . . . . . . . . . . . . . . . . . . . . . . . . . . . . . . . . . . . . . . . . . . . . . . . . . . . . . . . . . . . . . . . . . . . . . . . . . . . . y p.}.}.}.}.}.}.}.}.      ",
"        }.}.}.}.}.}.}.}.b.x . . . . . . . . . . . . . . . . . . . . . . . . . . . . . . . . . . . . . . . . . . . . . . . . . . . . . . . . . . . . . . . . . . . . . . . . . . . . . . . . . . . . . . . . . . . . . . . . . . . . . : +.}.}.}.}.}.}.}.}.      ",
"        }.}.}.}.}.}.}.[.t.% . . . . . . . . . . . . . . . . . . . . . . . . . . . . . . . . . . . . . . . . . . . . . . . . . . . . . . . . . . . . . . . . . . . . . . . . . . . . . . . . . . . . . . . . . . . . . . . . . . . . . o G '.}.}.}.}.}.}.}.}.    ",
"        }.}.}.}.}.}.}.Q.*.. . . . . . . . . . . . . . . . . . . . . . . . . . . . . . . . . . . . . . . . . . . . . . . . . . . . . . . . . . . . . . . . . . . . . . . . . . . . . . . . . . . . . . . . . . . . . . . . . . . . . . . h D.}.}.}.}.}.}.}.}.    ",
"        }.}.}.}.}.}.}.G.W . . . . . . . . . . . . . . . . . . . . . . . . . . . . . . . . . . . . . . . . . . . . . . . . . . . . . . . . . . . . . . . . . . . . . . . . . . . . . . . . . . . . . . . . . . . . . . . . . . . . . . . w w.}.}.}.}.}.}.}.}.    ",
"      }.}.}.}.}.}.}.}.n.v . . . . . . . . . . . . . . . . . . . . . . . . . . . . . . . . . . . . . . . . . . . . . . . . . . . . . . . . . . . . . . . . . . . . . . . . . . . . . . . . . . . . . . . . . . . . . . . . . . . . . . . , #.}.}.}.}.}.}.}.}.    ",
"      }.}.}.}.}.}.}.}.f.4 . . . . . . . . . . . . . . . . . . . . . . . . . . . . . . . . . . . . . . . . . . . . . . . . . . . . . . . . . . . . . . . . . . . . . . . . . . . . . . . . . . . . . . . . . . . . . . . . . . . . . . . # E }.}.}.}.}.}.}.}.    ",
"      }.}.}.}.}.}.}.[.0.o . . . . . . . . . . . . . . . . . . . . . . . . . . . . . . . . . . . . . . . . . . . . . . . . . . . . . . . . . . . . . . . . . . . . . . . . . . . . . . . . . . . . . . . . . . . . . . . . . . . . . . . . N _.}.}.}.}.}.}.}.    ",
"      }.}.}.}.}.}.}.^.:.. . . . . . . . . . . . . . . . . . . . . . . . . . . . . . . . . . . . . . . . . . . . . . . . . . . . . . . . . . . . . . . . . . . . . . . . . . . . . . . . . . . . . . . . . . . . . . . . . . . . . . . . . k K.}.}.}.}.}.}.}.}.  ",
"      }.}.}.}.}.}.}.Y. .. . . . . . . . . . . . . . . . . . . . . . . . . . . . . . . . . . . . . . . . . . . . . . . . . . . . . . . . . . . . . . . . . . . . . . . . . . . . . . . . . . . . . . . . . . . . . . . . . . . . . . . . . a z.}.}.}.}.}.}.}.}.  ",
"      }.}.}.}.}.}.}.G.Q . . . . . . . . . . . . . . . . . . . . . . . . . . . . . . . . . . . . . . . . . . . . . . . . . . . . . . . . . . . . . . . . . . . . . . . . . . . . . . . . . . . . . . . . . . . . . . . . . . . . . . . . . w e.}.}.}.}.}.}.}.}.  ",
"      }.}.}.}.}.}.}.Z.J . . . . . . . . . . . . . . . . . . . . . . . . . . . . . . . . . . . . . . . . . . . . . . . . . . . . . . . . . . . . . . . . . . . . . . . . . . . . . . . . . . . . . . . . . . . . . . . . . . . . . . . . . 7 3.}.}.}.}.}.}.}.}.  ",
"      }.}.}.}.}.}.}.N.B . . . . . . . . . . . . . . . . . . . . . . . . . . . . . . . . . . . . . . . . . . . . . . . . . . . . . . . . . . . . . . . . . . . . . . . . . . . . . . . . . . . . . . . . . . . . . . . . . . . . . . . . . 2 =.}.}.}.}.}.}.}.}.  ",
"      }.}.}.}.}.}.}.b.c . . . . . . . . . . . . . . . . . . . . . . . . . . . . . . . . . . . . . . . . . . . . . . . . . . . . . . . . . . . . . . . . . . . . . . . . . . . . . . . . . . . . . . . . . . . . . . . . . . . . . . . . . > @.}.}.}.}.}.}.}.}.  ",
"      }.}.}.}.}.}.}.x.g . . . . . . . . . . . . . . . . . . . . . . . . . . . . . . . . . . . . . . . . . . . . . . . . . . . . . . . . . . . . . . . . . . . . . . . . . . . . . . . . . . . . . . . . . . . . . . . . . . . . . . . . . -  .}.}.}.}.}.}.}.}.  ",
"      }.}.}.}.}.}.}.l.d . . . . . . . . . . . . . . . . . . . . . . . . . . . . . . . . . . . . . . . . . . . . . . . . . . . . . . . . . . . . . . . . . . . . . . . . . . . . . . . . . . . . . . . . . . . . . . . . . . . . . . . . . * { }.}.}.}.}.}.}.}.  ",
"      }.}.}.}.}.}.}.l.s . . . . . . . . . . . . . . . . . . . . . . . . . . . . . . . . . . . . . . . . . . . . . . . . . . . . . . . . . . . . . . . . . . . . . . . . . . . . . . . . . . . . . . . . . . . . . . . . . . . . . . . . . * [ }.}.}.}.}.}.}.}.  ",
"      }.}.}.}.}.}.}.z.f . . . . . . . . . . . . . . . . . . . . . . . . . . . . . . . . . . . . . . . . . . . . . . . . . . . . . . . . . . . . . . . . . . . . . . . . . . . . . . . . . . . . . . . . . . . . . . . . . . . . . . . . . = } }.}.}.}.}.}.}.}.  ",
"      }.}.}.}.}.}.}.c.j . . . . . . . . . . . . . . . . . . . . . . . . . . . . . . . . . . . . . . . . . . . . . . . . . . . . . . . . . . . . . . . . . . . . . . . . . . . . . . . . . . . . . . . . . . . . . . . . . . . . . . . . . ; X.}.}.}.}.}.}.}.}.  ",
"      }.}.}.}.}.}.}.m.n . . . . . . . . . . . . . . . . . . . . . . . . . . . . . . . . . . . . . . . . . . . . . . . . . . . . . . . . . . . . . . . . . . . . . . . . . . . . . . . . . . . . . . . . . . . . . . . . . . . . . . . . . < %.}.}.}.}.}.}.}.}.  ",
"      }.}.}.}.}.}.}.V.A . . . . . . . . . . . . . . . . . . . . . . . . . . . . . . . . . . . . . . . . . . . . . . . . . . . . . . . . . . . . . . . . . . . . . . . . . . . . . . . . . . . . . . . . . . . . . . . . . . . . . . . . . 4 :.}.}.}.}.}.}.}.}.  ",
"      }.}.}.}.}.}.}.S.I . . . . . . . . . . . . . . . . . . . . . . . . . . . . . . . . . . . . . . . . . . . . . . . . . . . . . . . . . . . . . . . . . . . . . . . . . . . . . . . . . . . . . . . . . . . . . . . . . . . . . . . . . 9 7.}.}.}.}.}.}.}.}.  ",
"      }.}.}.}.}.}.}.L.( . . . . . . . . . . . . . . . . . . . . . . . . . . . . . . . . . . . . . . . . . . . . . . . . . . . . . . . . . . . . . . . . . . . . . . . . . . . . . . . . . . . . . . . . . . . . . . . . . . . . . . . . . y a.}.}.}.}.}.}.}.}.  ",
"      }.}.}.}.}.}.}.R.$.. . . . . . . . . . . . . . . . . . . . . . . . . . . . . . . . . . . . . . . . . . . . . . . . . . . . . . . . . . . . . . . . . . . . . . . . . . . . . . . . . . . . . . . . . . . . . . . . . . . . . . . . . f V.}.}.}.}.}.}.}.}.  ",
"      }.}.}.}.}.}.}._.5.. . . . . . . . . . . . . . . . . . . . . . . . . . . . . . . . . . . . . . . . . . . . . . . . . . . . . . . . . . . . . . . . . . . . . . . . . . . . . . . . . . . . . . . . . . . . . . . . . . . . . . . . . c E.}.}.}.}.}.}.}.}.  ",
"      }.}.}.}.}.}.}.{.y.$ . . . . . . . . . . . . . . . . . . . . . . . . . . . . . . . . . . . . . . . . . . . . . . . . . . . . . . . . . . . . . . . . . . . . . . . . . . . . . . . . . . . . . . . . . . . . . . . . . . . . . . . X G [.}.}.}.}.}.}.}.    ",
"      }.}.}.}.}.}.}.}.k.y . . . . . . . . . . . . . . . . . . . . . . . . . . . . . . . . . . . . . . . . . . . . . . . . . . . . . . . . . . . . . . . . . . . . . . . . . . . . . . . . . . . . . . . . . . . . . . . . . . . . . . . % _ }.}.}.}.}.}.}.}.    ",
"        }.}.}.}.}.}.}.C.S . . . . . . . . . . . . . . . . . . . . . . . . . . . . . . . . . . . . . . . . . . . . . . . . . . . . . . . . . . . . . . . . . . . . . . . . . . . . . . . . . . . . . . . . . . . . . . . . . . . . . . . 4 ,.}.}.}.}.}.}.}.}.    ",
"        }.}.}.}.}.}.}.U.[ . . . . . . . . . . . . . . . . . . . . . . . . . . . . . . . . . . . . . . . . . . . . . . . . . . . . . . . . . . . . . . . . . . . . . . . . . . . . . . . . . . . . . . . . . . . . . . . . . . . . . . . i j.}.}.}.}.}.}.}.}.    ",
"        }.}.}.}.}.}.}.).5.. . . . . . . . . . . . . . . . . . . . . . . . . . . . . . . . . . . . . . . . . . . . . . . . . . . . . . . . . . . . . . . . . . . . . . . . . . . . . . . . . . . . . . . . . . . . . . . . . . . . . . . b R.}.}.}.}.}.}.}.}.    ",
"        }.}.}.}.}.}.}.{.f.8 . . . . . . . . . . . . . . . . . . . . . . . . . . . . . . . . . . . . . . . . . . . . . . . . . . . . . . . . . . . . . . . . . . . . . . . . . . . . . . . . . . . . . . . . . . . . . . . . . . . . . # ! {.}.}.}.}.}.}.}.      ",
"        }.}.}.}.}.}.}.}.C.D . . . . . . . . . . . . . . . . . . . . . . . . . . . . . . . . . . . . . . . . . . . . . . . . . . . . . . . . . . . . . . . . . . . . . . . . . . . . . . . . . . . . . . . . . . . . . . . . . . . . . 5 <.}.}.}.}.}.}.}.}.      ",
"          }.}.}.}.}.}.}.E.%.. . . . . . . . . . . . . . . . . . . . . . . . . . . . . . . . . . . . . . . . . . . . . . . . . . . . . . . . . . . . . . . . . . . . . . . . . . . . . . . . . . . . . . . . . . . . . . . . . . . . . f C.}.}.}.}.}.}.}.}.      ",
"          }.}.}.}.}.}.}.].y., . . . . . . . . . . . . . . . . . . . . . . . . . . . . . . . . . . . . . . . . . . . . . . . . . . . . . . . . . . . . . . . . . . . . . . . . . . . . . . . . . . . . . . . . . . . . . . . . . . . O P _.}.}.}.}.}.}.}.}.      ",
"          }.}.}.}.}.}.}.}.V.A . . . . . . . . . . . . . . . . . . . . . . . . . . . . . . . . . . . . . . . . . . . . . . . . . . . . . . . . . . . . . . . . . . . . . . . . . . . . . . . . . . . . . . . . . . . . . . . . . . . 4 :.}.}.}.}.}.}.}.}.        ",
"            }.}.}.}.}.}.}.Q.*.. . . . . . . . . . . . . . . . . . . . . . . . . . . . . . . . . . . . . . . . . . . . . . . . . . . . . . . . . . . . . . . . . . . . . . . . . . . . . . . . . . . . . . . . . . . . . . . . . . . k D.}.}.}.}.}.}.}.}.        ",
"            }.}.}.}.}.}.}.[.g.r . . . . . . . . . . . . . . . . . . . . . . . . . . . . . . . . . . . . . . . . . . . . . . . . . . . . . . . . . . . . . . . . . . . . . . . . . . . . . . . . . . . . . . . . . . . . . . . . . $ / '.}.}.}.}.}.}.}.}.        ",
"            }.}.}.}.}.}.}.}.L.( . . . . . . . . . . . . . . . . . . . . . . . . . . . . . . . . . . . . . . . . . . . . . . . . . . . . . . . . . . . . . . . . . . . . . . . . . . . . . . . . . . . . . . . . . . . . . . . . . t p.}.}.}.}.}.}.}.}.          ",
"              }.}.}.}.}.}.}.`.w.1 . . . . . . . . . . . . . . . . . . . . . . . . . . . . . . . . . . . . . . . . . . . . . . . . . . . . . . . . . . . . . . . . . . . . . . . . . . . . . . . . . . . . . . . . . . . . . . . + P !.}.}.}.}.}.}.}.}.          ",
"              }.}.}.}.}.}.}.}.D.Y . . . . . . . . . . . . . . . . . . . . . . . . . . . . . . . . . . . . . . . . . . . . . . . . . . . . . . . . . . . . . . . . . . . . . . . . . . . . . . . . . . . . . . . . . . . . . . . 0 8.}.}.}.}.}.}.}.}.}.          ",
"              }.}.}.}.}.}.}.}._.9.> . . . . . . . . . . . . . . . . . . . . . . . . . . . . . . . . . . . . . . . . . . . . . . . . . . . . . . . . . . . . . . . . . . . . . . . . . . . . . . . . . . . . . . . . . . . . . O J R.}.}.}.}.}.}.}.}.            ",
"                }.}.}.}.}.}.}.}.F.R . . . . . . . . . . . . . . . . . . . . . . . . . . . . . . . . . . . . . . . . . . . . . . . . . . . . . . . . . . . . . . . . . . . . . . . . . . . . . . . . . . . . . . . . . . . . . q 9.}.}.}.}.}.}.}.}.}.            ",
"                }.}.}.}.}.}.}.}._.w.7 . . . . . . . . . . . . . . . . . . . . . . . . . . . . . . . . . . . . . . . . . . . . . . . . . . . . . . . . . . . . . . . . . . . . . . . . . . . . . . . . . . . . . . . . . . . # T W.}.}.}.}.}.}.}.}.              ",
"                  }.}.}.}.}.}.}.}.I.] . . . . . . . . . . . . . . . . . . . . . . . . . . . . . . . . . . . . . . . . . . . . . . . . . . . . . . . . . . . . . . . . . . . . . . . . . . . . . . . . . . . . . . . . . . . p g.}.}.}.}.}.}.}.}.}.              ",
"                  }.}.}.}.}.}.}.}.].h.k . . . . . . . . . . . . . . . . . . . . . . . . . . . . . . . . . . . . . . . . . . . . . . . . . . . . . . . . . . . . . . . . . . . . . . . . . . . . . . . . . . . . . . . . . ;  .(.}.}.}.}.}.}.}.}.                ",
"                    }.}.}.}.}.}.}.}.!.,.% . . . . . . . . . . . . . . . . . . . . . . . . . . . . . . . . . . . . . . . . . . . . . . . . . . . . . . . . . . . . . . . . . . . . . . . . . . . . . . . . . . . . . . . o V F.}.}.}.}.}.}.}.}.}.                ",
"                    }.}.}.}.}.}.}.}.{.F.Q . . . . . . . . . . . . . . . . . . . . . . . . . . . . . . . . . . . . . . . . . . . . . . . . . . . . . . . . . . . . . . . . . . . . . . . . . . . . . . . . . . . . . . . e q.[.}.}.}.}.}.}.}.}.                  ",
"                      }.}.}.}.}.}.}.}.`.g.x . . . . . . . . . . . . . . . . . . . . . . . . . . . . . . . . . . . . . . . . . . . . . . . . . . . . . . . . . . . . . . . . . . . . . . . . . . . . . . . . . . . . . : ..!.}.}.}.}.}.}.}.}.}.                  ",
"                      }.}.}.}.}.}.}.}.}.~.5.3 . . . . . . . . . . . . . . . . . . . . . . . . . . . . . . . . . . . . . . . . . . . . . . . . . . . . . . . . . . . . . . . . . . . . . . . . . . . . . . . . . . . @ K J.}.}.}.}.}.}.}.}.}.                    ",
"                        }.}.}.}.}.}.}.}.}.Y.+.# . . . . . . . . . . . . . . . . . . . . . . . . . . . . . . . . . . . . . . . . . . . . . . . . . . . . . . . . . . . . . . . . . . . . . . . . . . . . . . . . . X c z.{.}.}.}.}.}.}.}.}.                      ",
"                          }.}.}.}.}.}.}.}.[.S.~ X . . . . . . . . . . . . . . . . . . . . . . . . . . . . . . . . . . . . . . . . . . . . . . . . . . . . . . . . . . . . . . . . . . . . . . . . . . . . . . . . i w.'.}.}.}.}.}.}.}.}.}.                      ",
"                          }.}.}.}.}.}.}.}.}.'.m.U . . . . . . . . . . . . . . . . . . . . . . . . . . . . . . . . . . . . . . . . . . . . . . . . . . . . . . . . . . . . . . . . . . . . . . . . . . . . . . . q 4.^.}.}.}.}.}.}.}.}.}.                        ",
"                            }.}.}.}.}.}.}.}.}.`.l.D . . . . . . . . . . . . . . . . . . . . . . . . . . . . . . . . . . . . . . . . . . . . . . . . . . . . . . . . . . . . . . . . . . . . . . . . . . . . . 6 ;.W.}.}.}.}.}.}.}.}.}.                          ",
"                              }.}.}.}.}.}.}.}.}.).d.M . . . . . . . . . . . . . . . . . . . . . . . . . . . . . . . . . . . . . . . . . . . . . . . . . . . . . . . . . . . . . . . . . . . . . . . . . . . 1 #.T.}.}.}.}.}.}.}.}.}.}.                          ",
"                                }.}.}.}.}.}.}.}.}./.i.M . . . . . . . . . . . . . . . . . . . . . . . . . . . . . . . . . . . . . . . . . . . . . . . . . . . . . . . . . . . . . . . . . . . . . . . . . 2 @.U.}.}.}.}.}.}.}.}.}.}.                            ",
"                                }.}.}.}.}.}.}.}.}.}./.d.D . . . . . . . . . . . . . . . . . . . . . . . . . . . . . . . . . . . . . . . . . . . . . . . . . . . . . . . . . . . . . . . . . . . . . . . 8 *.U.}.}.}.}.}.}.}.}.}.}.                              ",
"                                  }.}.}.}.}.}.}.}.}.}.).l.U X . . . . . . . . . . . . . . . . . . . . . . . . . . . . . . . . . . . . . . . . . . . . . . . . . . . . . . . . . . . . . . . . . . . . e 1.T.}.}.}.}.}.}.}.}.}.}.                                ",
"                                    }.}.}.}.}.}.}.}.}.}.`.m.~ # . . . . . . . . . . . . . . . . . . . . . . . . . . . . . . . . . . . . . . . . . . . . . . . . . . . . . . . . . . . . . . . . . X f 8.W.}.}.}.}.}.}.}.}.}.}.                                  ",
"                                      }.}.}.}.}.}.}.}.}.}.'.S.+.3 . . . . . . . . . . . . . . . . . . . . . . . . . . . . . . . . . . . . . . . . . . . . . . . . . . . . . . . . . . . . . . . @ Z s.^.}.}.}.}.}.}.}.}.}.}.}.                                  ",
"                                        }.}.}.}.}.}.}.}.}.}.[.Y.5.x . . . . . . . . . . . . . . . . . . . . . . . . . . . . . . . . . . . . . . . . . . . . . . . . . . . . . . . . . . . . . , ` M.'.}.}.}.}.}.}.}.}.}.}.}.                                    ",
"                                          }.}.}.}.}.}.}.}.}.}.}.~.g.Q % . . . . . . . . . . . . . . . . . . . . . . . . . . . . . . . . . . . . . . . . . . . . . . . . . . . . . . . . . o g 2.K.{.}.}.}.}.}.}.}.}.}.}.}.                                      ",
"                                            }.}.}.}.}.}.}.}.}.}.}.`.F.,.k . . . . . . . . . . . . . . . . . . . . . . . . . . . . . . . . . . . . . . . . . . . . . . . . . . . . . . . > ^ k.!.}.}.}.}.}.}.}.}.}.}.}.}.                                        ",
"                                              }.}.}.}.}.}.}.}.}.}.}.{.!.h.] 7 . . . . . . . . . . . . . . . . . . . . . . . . . . . . . . . . . . . . . . . . . . . . . . . . . . . # C 7.H.[.}.}.}.}.}.}.}.}.}.}.}.                                            ",
"                                                }.}.}.}.}.}.}.}.}.}.}.}.].I.w.R > . . . . . . . . . . . . . . . . . . . . . . . . . . . . . . . . . . . . . . . . . . . . . . . O l =.N.(.}.}.}.}.}.}.}.}.}.}.}.}.                                              ",
"                                                  }.}.}.}.}.}.}.}.}.}.}.}.}._.F.9.Y < . . . . . . . . . . . . . . . . . . . . . . . . . . . . . . . . . . . . . . . . . . . + z &.v.W.}.}.}.}.}.}.}.}.}.}.}.}.}.                                                ",
"                                                      }.}.}.}.}.}.}.}.}.}.}.}.}._.D.w.( r . . . . . . . . . . . . . . . . . . . . . . . . . . . . . . . . . . . . . . . & A >.v.R.}.}.}.}.}.}.}.}.}.}.}.}.}.}.                                                  ",
"                                                        }.}.}.}.}.}.}.}.}.}.}.}.}.}.`.L.g.*.A , . . . . . . . . . . . . . . . . . . . . . . . . . . . . . . . . . O f ` q.V.!.}.}.}.}.}.}.}.}.}.}.}.}.}.}.                                                      ",
"                                                          }.}.}.}.}.}.}.}.}.}.}.}.}.}.}.[.Q.V.y.%.D 8 . . . . . . . . . . . . . . . . . . . . . . . . . . . % x ) 6.z.P.'.}.}.}.}.}.}.}.}.}.}.}.}.}.}.}.                                                        ",
"                                                              }.}.}.}.}.}.}.}.}.}.}.}.}.}.}.}.].E.C.f.5.[ S y $ . . . . . . . . . . . . . . . . . o 4 v W *.t.b.L._.}.}.}.}.}.}.}.}.}.}.}.}.}.}.}.}.}.                                                          ",
"                                                                }.}.}.}.}.}.}.}.}.}.}.}.}.}.}.}.}.}.{.).U.C.k.y.5.$.( I A n j f s d g c B J Q  .:.0.f.n.G.Q.[.}.}.}.}.}.}.}.}.}.}.}.}.}.}.}.}.}.}.                                                              ",
"                                                                    }.}.}.}.}.}.}.}.}.}.}.}.}.}.}.}.}.}.}.}.}.{._.R.L.S.V.m.c.z.l.l.x.b.N.Z.G.Y.^.[.}.}.}.}.}.}.}.}.}.}.}.}.}.}.}.}.}.}.}.}.}.                                                                  ",
"                                                                        }.}.}.}.}.}.}.}.}.}.}.}.}.}.}.}.}.}.}.}.}.}.}.}.}.}.}.}.}.}.}.}.}.}.}.}.}.}.}.}.}.}.}.}.}.}.}.}.}.}.}.}.}.}.}.}.}.                                                                      ",
"                                                                            }.}.}.}.}.}.}.}.}.}.}.}.}.}.}.}.}.}.}.}.}.}.}.}.}.}.}.}.}.}.}.}.}.}.}.}.}.}.}.}.}.}.}.}.}.}.}.}.}.}.}.}.}.                                                                          ",
"                                                                                }.}.}.}.}.}.}.}.}.}.}.}.}.}.}.}.}.}.}.}.}.}.}.}.}.}.}.}.}.}.}.}.}.}.}.}.}.}.}.}.}.}.}.}.}.}.}.}.}.                                                                              ",
"                                                                                      }.}.}.}.}.}.}.}.}.}.}.}.}.}.}.}.}.}.}.}.}.}.}.}.}.}.}.}.}.}.}.}.}.}.}.}.}.}.}.}.}.}.}.}.                                                                                  ",
"                                                                                            }.}.}.}.}.}.}.}.}.}.}.}.}.}.}.}.}.}.}.}.}.}.}.}.}.}.}.}.}.}.}.}.}.}.}.}.}.}.                                                                                        ",
"                                                                                                  }.}.}.}.}.}.}.}.}.}.}.}.}.}.}.}.}.}.}.}.}.}.}.}.}.}.}.}.}.}.}.                                                                                                ",
"                                                                                                            }.}.}.}.}.}.}.}.}.}.}.}.}.}.}.}.}.}.}.}.}.}.                                                                                                        ",
"                                                                                                                                                                                                                                                                ",
"                                                                                                                                                                                                                                                                ",
"                                                                                                                                                                                                                                                                "
};
