/* XPM */
static char *out[] = {
/* columns rows colors chars-per-pixel */
"240 240 2 1 ",
"  c None",
". c white",
/* pixels */
"                                                                                                                                                                                                                                                ",
"                                                                                                                                                                                                                                                ",
"                                                                                                                                                                                                                                                ",
"                                                                                                                                                                                                                                                ",
"                                                                                                                                                                                                                                                ",
"                                                                                                                                                                                                                                                ",
"                                                                                                                                                                                                                                                ",
"                                                                                                                                                                                                                                                ",
"                                                                                                                                                                                                                                                ",
"                                                                                                                                                                                                                                                ",
"                                                                                                                                                                                                                                                ",
"                                                                                                                                                                                                                                                ",
"                                                                                                                                                                                                                                                ",
"                                                                                                                                                                                                                                                ",
"                                                                                                                                                                                                                                                ",
"                                                                                                                                                                                                                                                ",
"                                                                                                                                                                                                                                                ",
"                                                                                                                                                                                                                                                ",
"                                                                                                                                                                                                                                                ",
"                                                                                                                                                                                                                                                ",
"                                                                                                                                                                                                                                                ",
"                                                                                                                                                                                                                                                ",
"                                                                                                                                                                                                                                                ",
"                                                                                                                                                                                                                                                ",
"                                                                                                                                                                                                                                                ",
"                                                                                                                                                                                                                                                ",
"                                                                                                                                                                                                                                                ",
"                                                                                                                                                                                                                                                ",
"                                                                                                                                                                                                                                                ",
"                                                                                                                                                                                                                                                ",
"                                                                                                                                                                                                                                                ",
"                                                                                                                                                                                                                                                ",
"                                                                                                                                                                                                                                                ",
"                                                                                                                                                                                                                                                ",
"                                                                                                                                                                                                                                                ",
"                                                                                                                                                                                                                                                ",
"                                                                                                                                                                                                                                                ",
"                                                                                                                                                                                                                                                ",
"                                                                                                                                                                                                                                                ",
"                                                                                                                      ....                                                                                                                      ",
"                                                                                                           ..........................                                                                                                           ",
"                                                                                                      ....................................                                                                                                      ",
"                                                                                                  ............................................                                                                                                  ",
"                                                                                               ..................................................                                                                                               ",
"                                                                                            ........................................................                                                                                            ",
"                                                                                          ............................................................                                                                                          ",
"                                                                                       ..................................................................                                                                                       ",
"                                                                                     ......................................................................                                                                                     ",
"                                                                                   ..........................................................................                                                                                   ",
"                                                                                 ..............................................................................                                                                                 ",
"                                                                               ..................................................................................                                                                               ",
"                                                                              ....................................................................................                                                                              ",
"                                                                            ........................................................................................                                                                            ",
"                                                                           ..........................................................................................                                                                           ",
"                                                                         ..............................................................................................                                                                         ",
"                                                                        ................................................................................................                                                                        ",
"                                                                       ..................................................................................................                                                                       ",
"                                                                     ......................................................................................................                                                                     ",
"                                                                    ........................................................................................................                                                                    ",
"                                                                   ..........................................................................................................                                                                   ",
"                                                                  ............................................................................................................                                                                  ",
"                                                                 ..............................................................................................................                                                                 ",
"                                                                ................................................................................................................                                                                ",
"                                                               ..................................................................................................................                                                               ",
"                                                              ....................................................................................................................                                                              ",
"                                                             ......................................................................................................................                                                             ",
"                                                            ........................................................................................................................                                                            ",
"                                                           ..........................................................................................................................                                                           ",
"                                                          ............................................................................................................................                                                          ",
"                                                         ..............................................................................................................................                                                         ",
"                                                         ..............................................................................................................................                                                         ",
"                                                        ................................................................................................................................                                                        ",
"                                                       ..................................................................................................................................                                                       ",
"                                                      ....................................................................................................................................                                                      ",
"                                                      ....................................................................................................................................                                                      ",
"                                                     ......................................................................................................................................                                                     ",
"                                                    ........................................................................................................................................                                                    ",
"                                                    ........................................................................................................................................                                                    ",
"                                                   ..........................................................................................................................................                                                   ",
"                                                  ............................................................................................................................................                                                  ",
"                                                  ............................................................................................................................................                                                  ",
"                                                 ..............................................................................................................................................                                                 ",
"                                                 ..............................................................................................................................................                                                 ",
"                                                ................................................................................................................................................                                                ",
"                                                ................................................................................................................................................                                                ",
"                                               ..................................................................................................................................................                                               ",
"                                               ..................................................................................................................................................                                               ",
"                                              ....................................................................................................................................................                                              ",
"                                              ....................................................................................................................................................                                              ",
"                                              ....................................................................................................................................................                                              ",
"                                             ......................................................................................................................................................                                             ",
"                                             ......................................................................................................................................................                                             ",
"                                            ........................................................................................................................................................                                            ",
"                                            ........................................................................................................................................................                                            ",
"                                            ........................................................................................................................................................                                            ",
"                                           ..........................................................................................................................................................                                           ",
"                                           ..........................................................................................................................................................                                           ",
"                                           ..........................................................................................................................................................                                           ",
"                                          ............................................................................................................................................................                                          ",
"                                          ............................................................................................................................................................                                          ",
"                                          ............................................................................................................................................................                                          ",
"                                          ............................................................................................................................................................                                          ",
"                                         ..............................................................................................................................................................                                         ",
"                                         ..............................................................................................................................................................                                         ",
"                                         ..............................................................................................................................................................                                         ",
"                                         ..............................................................................................................................................................                                         ",
"                                         ..............................................................................................................................................................                                         ",
"                                        ................................................................................................................................................................                                        ",
"                                        ................................................................................................................................................................                                        ",
"                                        ................................................................................................................................................................                                        ",
"                                        ................................................................................................................................................................                                        ",
"                                        ................................................................................................................................................................                                        ",
"                                        ................................................................................................................................................................                                        ",
"                                        ................................................................................................................................................................                                        ",
"                                        ................................................................................................................................................................                                        ",
"                                        ................................................................................................................................................................                                        ",
"                                        ................................................................................................................................................................                                        ",
"                                        ................................................................................................................................................................                                        ",
"                                       ..................................................................................................................................................................                                       ",
"                                       ..................................................................................................................................................................                                       ",
"                                       ..................................................................................................................................................................                                       ",
"                                       ..................................................................................................................................................................                                       ",
"                                        ................................................................................................................................................................                                        ",
"                                        ................................................................................................................................................................                                        ",
"                                        ................................................................................................................................................................                                        ",
"                                        ................................................................................................................................................................                                        ",
"                                        ................................................................................................................................................................                                        ",
"                                        ................................................................................................................................................................                                        ",
"                                        ................................................................................................................................................................                                        ",
"                                        ................................................................................................................................................................                                        ",
"                                        ................................................................................................................................................................                                        ",
"                                        ................................................................................................................................................................                                        ",
"                                        ................................................................................................................................................................                                        ",
"                                         ..............................................................................................................................................................                                         ",
"                                         ..............................................................................................................................................................                                         ",
"                                         ..............................................................................................................................................................                                         ",
"                                         ..............................................................................................................................................................                                         ",
"                                         ..............................................................................................................................................................                                         ",
"                                          ............................................................................................................................................................                                          ",
"                                          ............................................................................................................................................................                                          ",
"                                          ............................................................................................................................................................                                          ",
"                                          ............................................................................................................................................................                                          ",
"                                           ..........................................................................................................................................................                                           ",
"                                           ..........................................................................................................................................................                                           ",
"                                           ..........................................................................................................................................................                                           ",
"                                            ........................................................................................................................................................                                            ",
"                                            ........................................................................................................................................................                                            ",
"                                            ........................................................................................................................................................                                            ",
"                                             ......................................................................................................................................................                                             ",
"                                             ......................................................................................................................................................                                             ",
"                                              ....................................................................................................................................................                                              ",
"                                              ....................................................................................................................................................                                              ",
"                                              ....................................................................................................................................................                                              ",
"                                               ..................................................................................................................................................                                               ",
"                                               ..................................................................................................................................................                                               ",
"                                                ................................................................................................................................................                                                ",
"                                                ................................................................................................................................................                                                ",
"                                                 ..............................................................................................................................................                                                 ",
"                                                 ..............................................................................................................................................                                                 ",
"                                                  ............................................................................................................................................                                                  ",
"                                                  ............................................................................................................................................                                                  ",
"                                                   ..........................................................................................................................................                                                   ",
"                                                    ........................................................................................................................................                                                    ",
"                                                    ........................................................................................................................................                                                    ",
"                                                     ......................................................................................................................................                                                     ",
"                                                      ....................................................................................................................................                                                      ",
"                                                      ....................................................................................................................................                                                      ",
"                                                       ..................................................................................................................................                                                       ",
"                                                        ................................................................................................................................                                                        ",
"                                                         ..............................................................................................................................                                                         ",
"                                                         ..............................................................................................................................                                                         ",
"                                                          ............................................................................................................................                                                          ",
"                                                           ..........................................................................................................................                                                           ",
"                                                            ........................................................................................................................                                                            ",
"                                                             ......................................................................................................................                                                             ",
"                                                              ....................................................................................................................                                                              ",
"                                                               ..................................................................................................................                                                               ",
"                                                                ................................................................................................................                                                                ",
"                                                                 ..............................................................................................................                                                                 ",
"                                                                  ............................................................................................................                                                                  ",
"                                                                   ..........................................................................................................                                                                   ",
"                                                                    ........................................................................................................                                                                    ",
"                                                                     ......................................................................................................                                                                     ",
"                                                                       ..................................................................................................                                                                       ",
"                                                                        ................................................................................................                                                                        ",
"                                                                         ..............................................................................................                                                                         ",
"                                                                           ..........................................................................................                                                                           ",
"                                                                            ........................................................................................                                                                            ",
"                                                                              ....................................................................................                                                                              ",
"                                                                               ..................................................................................                                                                               ",
"                                                                                 ..............................................................................                                                                                 ",
"                                                                                   ..........................................................................                                                                                   ",
"                                                                                     ......................................................................                                                                                     ",
"                                                                                       ..................................................................                                                                                       ",
"                                                                                          ............................................................                                                                                          ",
"                                                                                            ........................................................                                                                                            ",
"                                                                                               ..................................................                                                                                               ",
"                                                                                                  ............................................                                                                                                  ",
"                                                                                                      ....................................                                                                                                      ",
"                                                                                                           ..........................                                                                                                           ",
"                                                                                                                      ....                                                                                                                      ",
"                                                                                                                                                                                                                                                ",
"                                                                                                                                                                                                                                                ",
"                                                                                                                                                                                                                                                ",
"                                                                                                                                                                                                                                                ",
"                                                                                                                                                                                                                                                ",
"                                                                                                                                                                                                                                                ",
"                                                                                                                                                                                                                                                ",
"                                                                                                                                                                                                                                                ",
"                                                                                                                                                                                                                                                ",
"                                                                                                                                                                                                                                                ",
"                                                                                                                                                                                                                                                ",
"                                                                                                                                                                                                                                                ",
"                                                                                                                                                                                                                                                ",
"                                                                                                                                                                                                                                                ",
"                                                                                                                                                                                                                                                ",
"                                                                                                                                                                                                                                                ",
"                                                                                                                                                                                                                                                ",
"                                                                                                                                                                                                                                                ",
"                                                                                                                                                                                                                                                ",
"                                                                                                                                                                                                                                                ",
"                                                                                                                                                                                                                                                ",
"                                                                                                                                                                                                                                                ",
"                                                                                                                                                                                                                                                ",
"                                                                                                                                                                                                                                                ",
"                                                                                                                                                                                                                                                ",
"                                                                                                                                                                                                                                                ",
"                                                                                                                                                                                                                                                ",
"                                                                                                                                                                                                                                                ",
"                                                                                                                                                                                                                                                ",
"                                                                                                                                                                                                                                                ",
"                                                                                                                                                                                                                                                ",
"                                                                                                                                                                                                                                                ",
"                                                                                                                                                                                                                                                ",
"                                                                                                                                                                                                                                                ",
"                                                                                                                                                                                                                                                ",
"                                                                                                                                                                                                                                                ",
"                                                                                                                                                                                                                                                ",
"                                                                                                                                                                                                                                                ",
"                                                                                                                                                                                                                                                "
};
