/* XPM */
static char *_[] = {
/* columns rows colors chars-per-pixel */
"65 65 169 2 ",
"   c black",
".  c #6F0000",
"X  c #000077",
"o  c #000079",
"O  c #000079",
"+  c #000078",
"@  c #000078",
"#  c #000079",
"$  c #000078",
"%  c #000048",
"&  c #6A0000",
"*  c #0000A0",
"=  c #700000",
"-  c gray22",
";  c #393939",
":  c #393939",
">  c gray22",
",  c #607580",
"<  c #667780",
"1  c black",
"2  c #58401F",
"3  c #584020",
"4  c white",
"5  c #90582F",
"6  c #905730",
"7  c #64737C",
"8  c #63747D",
"9  c #808080",
"0  c #555555",
"q  c black",
"w  c #64757E",
"e  c #63757D",
"r  c #61727B",
"t  c #63737B",
"y  c #61757A",
"u  c #A9A9A9",
"i  c #979797",
"p  c gray81",
"a  c #989898",
"s  c gray98",
"d  c gray47",
"f  c white",
"g  c None",
"h  c #7C7C7C",
"j  c #F8F8F8",
"k  c gray47",
"l  c #408080",
"z  c gray31",
"x  c #989898",
"c  c #505050",
"v  c #C0C0C0",
"b  c #505050",
"n  c #F8F8F8",
"m  c #515151",
"M  c gray97",
"N  c #505050",
"B  c gray75",
"V  c gray31",
"C  c gray40",
"Z  c #505050",
"A  c gray75",
"S  c #515151",
"D  c #608080",
"F  c #F8B890",
"G  c #62747D",
"H  c #687480",
"J  c #E7865B",
"K  c #6B7986",
"L  c #996039",
"P  c #986038",
"I  c #976038",
"U  c #64747D",
"Y  c #557171",
"T  c #5D7480",
"R  c #606080",
"E  c #5555AA",
"W  c #989898",
"Q  c #666680",
"!  c #989898",
"~  c #668080",
"^  c #989898",
"/  c #717171",
"(  c #62747D",
")  c #558080",
"_  c #808080",
"`  c #637180",
"'  c white",
"]  c #B4B4B4",
"[  c gray60",
"{  c #505050",
"}  c gray44",
"|  c #202020",
" . c gray38",
".. c #202020",
"X. c #515151",
"o. c black",
"O. c #66707A",
"+. c #63727D",
"@. c cyan",
"#. c #000040",
"$. c black",
"%. c #64757E",
"&. c black",
"*. c #67757C",
"=. c black",
"-. c #62757C",
";. c #63747D",
":. c black",
">. c black",
",. c black",
"<. c black",
"1. c black",
"2. c #000040",
"3. c black",
"4. c #000041",
"5. c black",
"6. c #000042",
"7. c #000040",
"8. c black",
"9. c black",
"0. c #000078",
"q. c #E00000",
"w. c #F80000",
"e. c #F05050",
"r. c #A00000",
"t. c black",
"y. c #505050",
"u. c gray66",
"i. c #F8F8F8",
"p. c gray22",
"a. c #202020",
"s. c #0000A8",
"d. c #282828",
"f. c gray44",
"g. c #C0C0C0",
"h. c gray47",
"j. c #684820",
"k. c #986038",
"l. c #0000B0",
"z. c #A06038",
"x. c #805028",
"c. c #B87848",
"v. c #F8A070",
"b. c #F8B890",
"n. c #F09058",
"m. c #B07040",
"M. c #D88850",
"N. c #F8D0B8",
"B. c #E88858",
"V. c #484848",
"C. c #A86840",
"Z. c #D8D8D8",
"A. c gray91",
"S. c #503818",
"D. c #888888",
"F. c gray69",
"G. c #989898",
"H. c #606060",
"J. c #D0D0D0",
"K. c #F8C0A0",
"L. c #D08050",
"P. c #F87800",
"I. c #905830",
"U. c #63747D",
"Y. c #584020",
"T. c #C87848",
"R. c #F8B080",
"E. c #000040",
"W. c white",
/* pixels */
"                                                                                                                                  ",
"                                                                                                                                  ",
"                                                                                                                                  ",
"                                                                                                                                  ",
"                                                                                                                                  ",
"                                                                                                                                  ",
"                                                                                                                                  ",
"                                                                                                                                  ",
"                                                                                                                                  ",
"                                                                                                                                  ",
"                                                                                                                                  ",
"                                                                                                                                  ",
"                                                                                                                                  ",
"                                                                                                                                  ",
"                                                                                                                                  ",
"                                                                                                                                  ",
"                                                      . X o O + 0.@ # $ % &                                                       ",
"                                                    * q.w.e.w.q.q.q.r.r.r.=                                                       ",
"                                                    - t.y.y.u.i.i.u.y.p.a.;                                                       ",
"                                                    : s.d.t.t.t.t.t.t.t.p.>                                                       ",
"                                                    , p.f.g.u.h.y.y.p.p.p.<                                                       ",
"                                                    1 2 j.k.l.z.x.l.k.j.3 4                                                       ",
"                                                      5 c.v.b.n.m.b.v.c.6                                                         ",
"                                                      7 c.M.v.v.v.v.M.c.8 9                                                       ",
"                                                    0 q x.n.b.N.N.b.n.x.t.w                                                       ",
"                                                    e a.x.B.v.v.v.v.B.x.t.V.r                                                     ",
"                                                  t d.t.t.z.C.C.C.z.z.t.V.t.f.y                                                   ",
"                                                u Z.d.t.A.t.c.B.c.C.S.V.h.t.D.h.i                                                 ",
"                                              p i.i.p.d.p.F.a.t.t.t.t.u.t.D.D.F.G.a                                               ",
"                                            s i.Z.i.p.d.f.a.t.f.f.t.t.t.g.F.u.g.G.G.d                                             ",
"                                          f g Z.g.F.H.p.d.f.G.g.G.g.F.F.F.F.F.F.G.h.H.h                                           ",
"                                        4 j Z.J.g.D.g.p.t.p.f.G.f.g.F.J.J.J.u.u.f.h.H.k l                                         ",
"                                        s Z.J.g.u.D.f.h.t.a.p.f.f.g.G.u.u.u.h.h.V.H.y.H.z                                         ",
"                                        x i.u.u.h.y.f.h.p.t.a.p.f.y.h.G.G.G.H.H.p.y.y.y.c                                         ",
"                                        v G.G.H.H.V.H.h.h.p.t.t.t.p.y.h.H.H.h.y.y.V.V.y.b                                         ",
"                                        n i.g.G.h.V.p.H.H.H.p.d.t.t.a.p.y.H.V.p.H.H.H.f.m                                         ",
"                                        M A.g.u.H.H.p.p.y.y.y.p.d.a.t.t.t.t.a.d.H.D.u.h.N                                         ",
"                                        B Z.A.K.K.L.t.t.t.a.a.P.m.I.t.t.t.t.t.U.h.D.u.D.V                                         ",
"                                        C g.b.K.v.v.t.t.t.a.a.m.I.Y.t.t.t.t.t.U.h.T.B.B.Z                                         ",
"                                          A b.R.T.T.p.V.V.V.V.V.V.y.H.H.H.H.y.V.H.B.T.m.S                                         ",
"                                          D F B.T.C.f.f.h.h.h.h.f.F.J.J.F.D.y.V.G m.m.k.H                                         ",
"                                            J T.C.f.f.f.h.D.u.f.G.G.G.G.G.D.D.y.K L P I                                           ",
"                                              U H.f.f.f.D.u.u.f.G.u.g.J.J.g.h.H.Y                                                 ",
"                                              T f.D.G.u.u.D.D.y.u.h.D.D.D.D.f.f.R                                                 ",
"                                              E f.f.f.f.f.f.V.V.h.G.u.u.g.F.G.V.D                                                 ",
"                                                W F.F.G.G.D.f.H.h.F.F.J.Z.g.F.f.Q                                                 ",
"                                                ! F.F.u.G.G.h.H.h.F.J.Z.Z.Z.F.f.~                                                 ",
"                                                ^ J.F.u.G.G.h.H.h.F.J.Z.Z.Z.F.D./                                                 ",
"                                                ( J.F.u.G.G.h.H.f.F.J.Z.Z.Z.Z.Z.)                                                 ",
"                                                r J.F.u.G.G.h.H.V.g.g.u.u.u.g.g._                                                 ",
"                                                ` J.J.u.G.G.h.H.G.g.G.D.D.D.f.G.'                                                 ",
"                                                ] J.u.u.G.G.H.V.H.y.h.h.f.f.f.y.                                                  ",
"                                                [ F.f.f.h.H.H.V.p.V.y.y.H.H.y.{                                                   ",
"                                                  } f.f.f.f.H.y.V.a.d.p.p.p.d.|                                                   ",
"                                                   .f.f.f.f.H.y.V.E.a.a.a.a.a...                                                  ",
"                                                  X.H.H.H.H.y.y.p.E.E.E.E.E.t.o.                                                  ",
"                                                  O.E.E.E.E.t.t.t.E.E.E.E.t.t.+.                                                  ",
"                                                  @.#.E.E.t.t.t.t.t.E.t.t.t.t.K                                                   ",
"                                                    $.E.E.E.t.t.t.t.E.t.t.t.t.0                                                   ",
"                                                    %.t.t.t.t.t.&.*.E.t.t.t.=.                                                    ",
"                                                    -.t.t.t.t.t.;.  :.>.,.<.1.                                                    ",
"                                                    2.E.E.E.E.t.3.                                                                ",
"                                                    4.E.E.E.t.t.5.                                                                ",
"                                                    6.7.#.t.,.8.9.                                                                ",
"                                                                                                                                  "
};
