/* XPM */
static char *_[] = {
/* columns rows colors chars-per-pixel */
"65 65 156 2 ",
"   c black",
".  c red",
"X  c #00007B",
"o  c #000077",
"O  c #000077",
"+  c #000078",
"@  c #000078",
"#  c #000078",
"$  c #000079",
"%  c #000078",
"&  c #000048",
"*  c #6D0000",
"=  c #000099",
"-  c #E10000",
";  c #700000",
":  c gray22",
">  c #373737",
",  c #393939",
"<  c gray22",
"1  c #6D8080",
"2  c #647680",
"3  c black",
"4  c #58401F",
"5  c #584020",
"6  c #8F5930",
"7  c #8F5731",
"8  c #61727B",
"9  c #62727C",
"0  c #62747E",
"q  c black",
"w  c #65777D",
"e  c gray40",
"r  c #202020",
"t  c gray44",
"y  c #535353",
"u  c #63747E",
"i  c #6F6F6F",
"p  c gray38",
"a  c gray44",
"s  c gray65",
"d  c #606080",
"f  c gray63",
"g  c gray32",
"h  c gray66",
"j  c gray28",
"k  c gray70",
"l  c #505050",
"z  c #AFAFAF",
"x  c #505050",
"c  c #AFAFAF",
"v  c gray31",
"b  c gray69",
"n  c #484848",
"m  c gray69",
"M  c #505050",
"N  c #B1B1B1",
"B  c #67481F",
"V  c #808080",
"C  c #F8F8F8",
"Z  c #D08050",
"A  c #808080",
"S  c #989898",
"D  c #63747C",
"F  c #62747D",
"G  c #60757C",
"H  c #667A7A",
"J  c #668080",
"K  c cyan",
"L  c gray28",
"P  c #484848",
"I  c #606060",
"U  c #989898",
"Y  c #606060",
"T  c #979797",
"R  c gray38",
"E  c #979797",
"W  c gray44",
"Q  c #627680",
"!  c #888888",
"~  c #6A6A80",
"^  c #6F6F6F",
"/  c #555555",
"(  c gray13",
")  c #606060",
"_  c #67757C",
"`  c #494949",
"'  c #558080",
"]  c #64737E",
"[  c None",
"{  c #68717B",
"}  c #000040",
"|  c #000060",
" . c #000040",
".. c black",
"X. c black",
"o. c black",
"O. c #63757D",
"+. c black",
"@. c #666699",
"#. c black",
"$. c #667380",
"%. c #62747C",
"&. c #000040",
"*. c black",
"=. c #000040",
"-. c black",
";. c #607379",
":. c #62747C",
">. c #63747D",
",. c #62737E",
"<. c #F80000",
"1. c #F05050",
"2. c #E00000",
"3. c #A00000",
"4. c black",
"5. c #505050",
"6. c gray66",
"7. c #F8F8F8",
"8. c gray22",
"9. c #202020",
"0. c #0000A8",
"q. c #282828",
"w. c gray44",
"e. c #C0C0C0",
"r. c gray47",
"t. c #684820",
"y. c #986038",
"u. c #0000B0",
"i. c #A06038",
"p. c #805028",
"a. c #B87848",
"s. c #F8A070",
"d. c #F8B890",
"f. c #F09058",
"g. c #B07040",
"h. c #D88850",
"j. c #F8D0B8",
"k. c #E88858",
"l. c gray91",
"z. c #905830",
"x. c #503818",
"c. c #888888",
"v. c #484848",
"b. c gray69",
"n. c #989898",
"m. c #D8D8D8",
"M. c #606060",
"N. c #D0D0D0",
"B. c #F89860",
"V. c #F8B080",
"C. c #A86840",
"Z. c #D08050",
"A. c #483818",
"S. c #000040",
"D. c #000058",
"F. c white",
/* pixels */
"                                                                                                                                  ",
"                                                                                                                                  ",
"                                                                                                                                  ",
"                                                                                                                                  ",
"                                                                                                                                  ",
"                                                                                                                                  ",
"                                                                                                                                  ",
"                                                                                                                                  ",
"                                                                                                                                  ",
"                                                                                                                                  ",
"                                                                                                                                  ",
"                                                                                                                                  ",
"                                                                                                                                  ",
"                                                                                                                                  ",
"                                                                                                                                  ",
"                                                                                                                                  ",
"                                                                                                                                  ",
"                                                                                                                                  ",
"                                                      . X o O + @ # $ % & *                                                       ",
"                                                    = - <.1.<.2.2.2.3.3.3.;                                                       ",
"                                                    : 4.5.5.6.7.7.6.5.8.9.>                                                       ",
"                                                    , 0.q.4.4.4.4.4.4.4.8.<                                                       ",
"                                                    1 8.w.e.6.r.5.5.8.8.8.2                                                       ",
"                                                    3 4 t.y.u.i.p.u.y.t.5 3                                                       ",
"                                                      6 a.s.d.f.g.d.s.a.7                                                         ",
"                                                      8 a.h.s.s.s.s.h.a.9                                                         ",
"                                                      0 p.f.d.j.j.d.f.p.q w 3                                                     ",
"                                                    e r p.k.s.s.s.s.k.p.4.4.t y                                                   ",
"                                                  3 u 8.l.8.z.i.i.i.x.4.r.4.c.c.i 3                                               ",
"                                                  p v.v.8.b.9.4.4.4.4.6.4.c.c.n.w.a                                               ",
"                                                s m.r.v.v.9.4.w.w.4.4.4.e.b.6.n.w.M.d                                             ",
"                                              f m.7.b.r.q.4.b.7.b.7.e.e.e.N.n.n.M.M.g                                             ",
"                                              h 7.7.7.c.5.q.9.c.c.r.6.N.N.b.c.w.5.5.j                                             ",
"                                            k N.7.7.b.c.c.5.q.q.c.M.r.n.c.c.c.w.v.8.l                                             ",
"                                            z N.7.m.b.M.c.c.v.q.q.M.w.n.n.n.r.5.8.5.x                                             ",
"                                            c N.7.m.b.M.M.r.k.B.g.x.M.w.r.w.v.v.8.5.v                                             ",
"                                            b N.7.7.n.r.6.V.V.d.h.y.4.8.v.v.v.8.8.v.n                                             ",
"                                            m 7.7.6.m.m.7.V.s.s.k.C.9.4.q.q.9.4.t.C.M                                             ",
"                                            N 7.7.m.7.7.7.6.h.Z.C.p.4.4.4.4.4.4.t.Z.B                                             ",
"                                            V C 7.m.b.b.c.r.v.A.A.A.4.4.4.4.9.q.t.Z e                                             ",
"                                              A S n.r.M.M.v.q.q.q.8.8.8.8.8.v.v.8.D                                               ",
"                                                F r.M.5.v.8.8.q.v.w.r.c.c.c.w.v.8.G                                               ",
"                                                H r.w.M.5.5.v.v.M.r.n.6.e.e.b.w.v.J                                               ",
"                                                d r.r.w.M.5.5.8.w.r.n.6.N.N.b.w.v.K                                               ",
"                                                V M.r.r.M.5.5.v.w.M.c.c.c.c.M.5.L                                                 ",
"                                                3 n.M.M.v.v.v.v.M.c.m.m.m.m.c.M.P                                                 ",
"                                                  n.c.w.M.5.5.M.c.6.m.m.m.m.c.c.I                                                 ",
"                                                  U c.w.M.5.5.M.c.6.m.m.m.m.c.c.Y                                                 ",
"                                                  T c.w.M.5.5.M.c.6.m.m.m.m.6.c.R                                                 ",
"                                                  E c.w.M.5.5.M.c.6.m.m.m.m.6.M.w                                                 ",
"                                                  W c.w.M.5.5.5.r.6.e.e.e.e.b.M.Q                                                 ",
"                                                  ! w.w.w.5.5.v.r.b.b.b.n.n.b.M.~                                                 ",
"                                                  ^ v.v.v.v.v.w.b.w.c.c.c.c.w.b./                                                 ",
"                                                  V ( 8.8.8.8.r.w.M.r.r.r.r.v.)                                                   ",
"                                                    _ 9.9.9.9.8.v.5.M.M.M.M.v.`                                                   ",
"                                                    ' 4.4.4.4.9.8.5.M.M.M.5.v.j                                                   ",
"                                                    3 S.S.4.4.4.4.4.4.4.4.4.4.]                                                   ",
"                                                      [ 4.4.4.4.4.4.S.S.4.4.4.{                                                   ",
"                                                      } S.S.S.4.4.D.S.S.4.4.4.A                                                   ",
"                                                      |  ...X.o.O.D.S.S.4.4.+.                                                    ",
"                                                                @.4.4.4.4.4.#.                                                    ",
"                                                                $.S.S.S.4.4.%.                                                    ",
"                                                                &.S.S.S.S.S.*.                                                    ",
"                                                              3 =.S.S.S.S.S.-.V                                                   ",
"                                                3 3 V / ' 1 ;.:.S.S.S.S.S.S.4.>.,.H J A V 3 3                                     "
};
