/* XPM */
static char *_[] = {
/* columns rows colors chars-per-pixel */
"65 65 169 2 ",
"   c black",
".  c #6F0000",
"X  c #000077",
"o  c #000079",
"O  c #000079",
"+  c #000078",
"@  c #000078",
"#  c #000079",
"$  c #000078",
"%  c #000048",
"&  c #6A0000",
"*  c #0000A0",
"=  c #700000",
"-  c gray22",
";  c #393939",
":  c #393939",
">  c gray22",
",  c #607580",
"<  c #667780",
"1  c black",
"2  c #58401F",
"3  c #584020",
"4  c white",
"5  c #90582F",
"6  c #905730",
"7  c #64737C",
"8  c #63747D",
"9  c #808080",
"0  c #555555",
"q  c black",
"w  c #64757E",
"e  c #63757D",
"r  c #61727B",
"t  c #63737B",
"y  c #61757A",
"u  c #A9A9A9",
"i  c #979797",
"p  c #D0D0D0",
"a  c #989898",
"s  c gray98",
"d  c gray47",
"f  c gray94",
"g  c None",
"h  c #7C7C7C",
"j  c #F8F8F8",
"k  c gray47",
"l  c #408080",
"z  c #F8F8F8",
"x  c #515151",
"c  c #989898",
"v  c #505050",
"b  c #C0C0C0",
"n  c #505050",
"m  c #F8F8F8",
"M  c #515151",
"N  c #F9F9F9",
"B  c #505050",
"V  c gray76",
"C  c gray31",
"Z  c #666680",
"A  c #505050",
"S  c #C1C1C1",
"D  c #515151",
"F  c #556A80",
"G  c #F8B890",
"H  c #63747D",
"J  c #687480",
"K  c #E68855",
"L  c #C87848",
"P  c #637180",
"I  c #986139",
"U  c #986038",
"Y  c #966037",
"T  c #63747D",
"R  c #558080",
"E  c #64757D",
"W  c #484848",
"Q  c #61727B",
"!  c gray28",
"~  c #697887",
"^  c #515151",
"/  c #9D9D9D",
"(  c #63757D",
")  c gray75",
"_  c #505050",
"`  c #B9B9B9",
"'  c #505050",
"]  c gray60",
"[  c #606080",
"{  c #808080",
"}  c #5E717B",
"|  c #555555",
" . c #5F5F5F",
".. c gray25",
"X. c #606060",
"o. c #808080",
"O. c #282828",
"+. c #000040",
"@. c #63747D",
"#. c #6D6D6D",
"$. c #63747D",
"%. c black",
"&. c black",
"*. c #000040",
"=. c #000039",
"-. c #000040",
";. c black",
":. c #000040",
">. c #000043",
",. c #000041",
"<. c black",
"1. c #63747D",
"2. c black",
"3. c #00003F",
"4. c black",
"5. c #000042",
"6. c #000040",
"7. c #000040",
"8. c #000040",
"9. c black",
"0. c #000078",
"q. c #E00000",
"w. c #F80000",
"e. c #F05050",
"r. c #A00000",
"t. c black",
"y. c #505050",
"u. c gray66",
"i. c #F8F8F8",
"p. c gray22",
"a. c #202020",
"s. c #0000A8",
"d. c #282828",
"f. c gray44",
"g. c #C0C0C0",
"h. c gray47",
"j. c #684820",
"k. c #986038",
"l. c #0000B0",
"z. c #A06038",
"x. c #805028",
"c. c #B87848",
"v. c #F8A070",
"b. c #F8B890",
"n. c #F09058",
"m. c #B07040",
"M. c #D88850",
"N. c #F8D0B8",
"B. c #E88858",
"V. c #484848",
"C. c #A86840",
"Z. c #D8D8D8",
"A. c gray91",
"S. c #503818",
"D. c #888888",
"F. c gray69",
"G. c #989898",
"H. c #606060",
"J. c #D0D0D0",
"K. c #F8C0A0",
"L. c #D08050",
"P. c #F87800",
"I. c #905830",
"U. c #63747D",
"Y. c #584020",
"T. c #C87848",
"R. c #F8B080",
"E. c #000040",
"W. c white",
/* pixels */
"                                                                                                                                  ",
"                                                                                                                                  ",
"                                                                                                                                  ",
"                                                                                                                                  ",
"                                                                                                                                  ",
"                                                                                                                                  ",
"                                                                                                                                  ",
"                                                                                                                                  ",
"                                                                                                                                  ",
"                                                                                                                                  ",
"                                                                                                                                  ",
"                                                                                                                                  ",
"                                                                                                                                  ",
"                                                                                                                                  ",
"                                                                                                                                  ",
"                                                                                                                                  ",
"                                                      . X o O + 0.@ # $ % &                                                       ",
"                                                    * q.w.e.w.q.q.q.r.r.r.=                                                       ",
"                                                    - t.y.y.u.i.i.u.y.p.a.;                                                       ",
"                                                    : s.d.t.t.t.t.t.t.t.p.>                                                       ",
"                                                    , p.f.g.u.h.y.y.p.p.p.<                                                       ",
"                                                    1 2 j.k.l.z.x.l.k.j.3 4                                                       ",
"                                                      5 c.v.b.n.m.b.v.c.6                                                         ",
"                                                      7 c.M.v.v.v.v.M.c.8 9                                                       ",
"                                                    0 q x.n.b.N.N.b.n.x.t.w                                                       ",
"                                                    e a.x.B.v.v.v.v.B.x.t.V.r                                                     ",
"                                                  t d.t.t.z.C.C.C.z.z.t.V.t.f.y                                                   ",
"                                                u Z.d.t.A.t.c.B.c.C.S.V.h.t.D.h.i                                                 ",
"                                              p i.i.p.d.p.F.a.t.t.t.t.u.t.D.D.F.G.a                                               ",
"                                            s i.Z.i.p.d.f.a.t.f.f.t.t.t.g.F.u.g.G.G.d                                             ",
"                                          f g Z.g.F.H.p.d.f.G.g.G.g.F.F.F.F.F.F.G.h.H.h                                           ",
"                                        1 j Z.J.g.D.g.p.t.p.f.G.f.g.F.J.J.J.u.u.f.h.H.k l                                         ",
"                                        z Z.J.g.u.D.f.h.t.a.p.f.f.g.G.u.u.u.h.h.V.H.y.H.x                                         ",
"                                        c i.u.u.h.y.f.h.p.t.a.p.f.y.h.G.G.G.H.H.p.y.y.y.v                                         ",
"                                        b G.G.H.H.V.H.h.h.p.t.t.t.p.y.h.H.H.h.y.y.V.V.y.n                                         ",
"                                        m i.g.G.h.V.p.H.H.H.p.d.t.t.a.p.y.H.V.p.H.H.H.f.M                                         ",
"                                        N A.g.u.H.H.p.p.y.y.y.p.d.a.t.t.t.t.a.d.H.D.u.h.B                                         ",
"                                        V Z.A.K.K.L.a.a.a.a.a.P.m.I.a.a.a.a.a.U.h.D.u.D.C                                         ",
"                                        Z g.b.K.v.v.a.a.a.a.a.m.I.Y.a.a.a.a.d.U.h.T.B.B.A                                         ",
"                                          S b.R.T.T.p.V.V.V.V.V.V.V.V.V.V.V.V.V.H.B.T.m.D                                         ",
"                                          F G B.T.C.f.f.h.h.h.h.f.H.H.H.H.H.y.V.H m.m.k.J                                         ",
"                                            K L C.h.h.h.h.D.u.g.G.f.f.f.f.H.y.V.P I U Y                                           ",
"                                              1 T D.f.f.f.h.h.F.G.H.f.f.f.H.y.V.R                                                 ",
"                                                E f.D.D.G.F.F.G.y.y.f.f.f.H.y.W                                                   ",
"                                                Q D.G.F.F.F.g.F.f.y.y.H.H.H.y.!                                                   ",
"                                                ~ F.F.F.J.J.J.g.D.y.f.f.f.f.H.^                                                   ",
"                                                / g.J.J.J.J.J.F.D.f.h.D.D.D.h.(                                                   ",
"                                                ) J.J.J.J.J.F.J.D.h.h.D.D.D.h._                                                   ",
"                                                ` g.u.u.u.G.D.G.g.h.h.D.D.D.h.'                                                   ",
"                                                ] h.D.D.D.D.D.f.D.h.h.D.G.G.h.y.[                                                 ",
"                                                { h.h.h.h.D.D.f.D.h.h.D.D.D.G.h.}                                                 ",
"                                                | H.H.H.H.f.f.f.D.f.D.D.h.h.h.D. .                                                ",
"                                                ..H.H.H.H.H.H.V.y.f.f.H.H.H.f.H.X.                                                ",
"                                                9 t.V.V.V.V.V.t.t.H.y.y.y.y.H.V.o.                                                ",
"                                                1 E.t.t.t.t.t.a.d.V.y.y.y.y.V.O.                                                  ",
"                                                  +.E.t.t.t.t.t.E.E.E.t.t.t.t.P                                                   ",
"                                                  @.E.E.E.t.t.t.E.E.E.t.t.t.t.#.                                                  ",
"                                                  $.E.t.t.t.t.t.E.E.E.E.t.t.%.                                                    ",
"                                                  7 E.E.E.E.t.t.E.t.t.t.t.t.&.                                                    ",
"                                                  *.E.E.E.E.t.t.U.t.t.t.t.t.(                                                     ",
"                                                  =.-.E.E.E.E.t.U.E.E.E.t.t.;.                                                    ",
"                                                    :.>.,.*.<.1.t.E.E.E.E.E.2.                                                    ",
"                                                              o.3.E.E.E.E.E.4.                                                    ",
"                                                                5.6.7.3.+.8.9.                                                    ",
"                                                                                                                                  "
};
