/* XPM */
static char *_[] = {
/* columns rows colors chars-per-pixel */
"65 65 156 2 ",
"   c black",
".  c #6A6A80",
"X  c #710000",
"o  c #000076",
"O  c #000047",
"+  c #0000A5",
"@  c #6E0000",
"#  c gray20",
"$  c #353535",
"%  c gray20",
"&  c #373737",
"*  c #608080",
"=  c #717171",
"-  c #666699",
";  c #627676",
":  c #60717D",
">  c #61727B",
",  c #63747C",
"<  c #5F757C",
"1  c gray44",
"2  c #61727C",
"3  c #5D7474",
"4  c gray69",
"5  c #606060",
"6  c #AFAFAF",
"7  c #868686",
"8  c gray69",
"9  c None",
"0  c #808080",
"q  c gray69",
"w  c gray66",
"e  c #F8F8F8",
"r  c gray48",
"t  c gray85",
"y  c #797979",
"u  c #D8D8D8",
"i  c gray47",
"p  c #D8D8D8",
"a  c #55AAAA",
"s  c gray85",
"d  c #63747D",
"f  c #808080",
"g  c #C97747",
"h  c #62747E",
"j  c gray47",
"k  c #D58055",
"l  c #905830",
"z  c #64737D",
"x  c #777777",
"c  c #C7764B",
"v  c #A96841",
"b  c #8E552F",
"n  c #62727D",
"m  c gray47",
"M  c #797979",
"N  c black",
"B  c #65757A",
"V  c #63747D",
"C  c #808080",
"Z  c #484848",
"A  c #637680",
"S  c #484848",
"D  c #777777",
"F  c #484848",
"G  c #989898",
"H  c #505050",
"J  c gray60",
"K  c #505050",
"L  c #A9A9A9",
"P  c gray65",
"I  c #63757D",
"U  c #668080",
"Y  c #637180",
"T  c #65777D",
"R  c #687480",
"E  c #607080",
"W  c #4E4E4E",
"Q  c gray62",
"!  c #515151",
"~  c gray70",
"^  c #555555",
"/  c #555555",
"(  c #5F5F5F",
")  c black",
"_  c #5F5F5F",
"`  c #607379",
"'  c #64747C",
"]  c white",
"[  c #00003F",
"{  c #00003F",
"}  c #63737B",
"|  c #62737D",
" . c black",
".. c black",
"X. c black",
"o. c black",
"O. c black",
"+. c #64757C",
"@. c #66757C",
"#. c #000040",
"$. c black",
"%. c #000040",
"&. c #202020",
"*. c #6A8080",
"=. c #637180",
"-. c #62757D",
";. c #64747D",
":. c #5D7480",
">. c #627689",
",. c #557171",
"<. c #E00000",
"1. c #F80000",
"2. c #F05050",
"3. c #A00000",
"4. c black",
"5. c #505050",
"6. c gray66",
"7. c #F8F8F8",
"8. c gray22",
"9. c #202020",
"0. c #0000A8",
"q. c #282828",
"w. c gray44",
"e. c #C0C0C0",
"r. c gray47",
"t. c #584020",
"y. c #684820",
"u. c #986038",
"i. c #0000B0",
"p. c #A06038",
"a. c #805028",
"s. c #905830",
"d. c #B87848",
"f. c #F8A070",
"g. c #F8B890",
"h. c #F09058",
"j. c #B07040",
"k. c #D88850",
"l. c #F8D0B8",
"z. c #484848",
"x. c #D8D8D8",
"c. c #E88858",
"v. c #888888",
"b. c gray91",
"n. c #A86840",
"m. c gray69",
"M. c #D0D0D0",
"N. c #989898",
"B. c #606060",
"V. c #63747D",
"C. c #C87848",
"Z. c #F8B080",
"A. c #F87800",
"S. c #483818",
"D. c #000040",
"F. c white",
/* pixels */
"                                                                                                                                  ",
"                                                                                                                                  ",
"                                                                                                                                  ",
"                                                                                                                                  ",
"                                                                                                                                  ",
"                                                                                                                                  ",
"                                                                                                                                  ",
"                                                                                                                                  ",
"                                                                                                                                  ",
"                                                                                                                                  ",
"                                                                                                                                  ",
"                                                                                                                                  ",
"                                                                                                                                  ",
"                                                                                                                                  ",
"                                                                                                                                  ",
"                                                                                                                                  ",
"                                                                                                                                  ",
"                                                                                                                                  ",
"                                                      . X o o o o o o o o O .                                                     ",
"                                                      + <.1.2.1.<.<.<.3.3.3.@                                                     ",
"                                                      # 4.5.5.6.7.7.6.5.8.9.$                                                     ",
"                                                      % 0.q.4.4.4.4.4.4.4.8.&                                                     ",
"                                                      * 8.w.e.6.r.5.5.8.8.8.=                                                     ",
"                                                      - t.y.u.i.p.a.i.u.y.t.;                                                     ",
"                                                      = s.d.f.g.h.j.g.f.d.s.:                                                     ",
"                                                      > 4.d.k.f.f.f.f.k.d.4.,                                                     ",
"                                                    < 1 9.a.h.g.l.l.g.h.a.4.z.2                                                   ",
"                                                3 4 x.q.4.4.c.f.f.f.f.c.4.q.4.v.5                                                 ",
"                                              6 x.x.x.q.4.b.p.n.n.n.p.p.z.q.4.m.e.7                                               ",
"                                            8 7.m.x.x.8.q.8.w.9.4.4.4.4.6.4.m.M.e.9 0                                             ",
"                                            q m.m.x.x.8.q.m.9.4.w.w.4.N.4.e.7.7.x.e.w                                             ",
"                                            e r.N.v.m.N.8.q.m.m.N.e.e.z.m.7.e.m.7.x.m.r                                           ",
"                                            t m.B.B.m.m.8.4.8.m.w.e.b.b.x.v.B.7.7.x.m.y                                           ",
"                                            u m.N.r.V.m.N.4.9.8.w.e.N.N.N.6.B.7.7.x.m.i                                           ",
"                                            p m.N.r.V.w.m.B.4.9.q.5.e.e.N.N.r.m.e.7.m.r.a                                         ",
"                                            s h.h.z.d B.r.N.B.4.4.4.C.Z.Z.c.7.7.7.x.7.r.f                                         ",
"                                            g h.s.k.h 8.B.B.B.B.q.4.Z.Z.C.C.C.x.x.e.x.j                                           ",
"                                            k c.c.l z 9.8.5.5.5.8.q.Z.Z.C.C.C.m.m.r.N.x                                           ",
"                                              c v b n 8.9.9.9.9.A.j.C.Z.C.C.r.r.r.m M N                                           ",
"                                                    B z.8.q.9.9.j.s.t.S.S.z.z.z.V C                                               ",
"                                                    z B.6.v.r.B.z.z.z.5.5.5.5.5.Z                                                 ",
"                                                    A 6.e.M.M.e.N.w.r.r.w.B.B.B.S                                                 ",
"                                                    D e.x.b.b.e.e.N.r.r.w.w.B.B.F                                                 ",
"                                                    G e.x.b.b.e.e.v.B.r.w.w.B.B.H                                                 ",
"                                                    J 6.6.6.6.6.w.w.z.B.w.w.B.B.K                                                 ",
"                                                    L 6.x.x.x.e.N.r.5.8.5.5.5.z.z.C                                               ",
"                                                    P e.x.x.x.x.m.N.w.5.B.B.B.B.5.-                                               ",
"                                                    I 6.x.x.x.x.m.N.w.5.B.B.B.B.5.U                                               ",
"                                                    z e.x.x.x.x.e.N.w.5.w.B.B.B.5.Y                                               ",
"                                                    T M.x.x.x.x.x.m.v.B.w.w.B.B.5.R                                               ",
"                                                    E x.x.x.x.x.x.x.w.w.r.r.B.B.5.W                                               ",
"                                                    Q x.v.e.e.e.m.x.w.w.r.r.B.5.B.!                                               ",
"                                                    ~ v.m.e.e.e.m.r.N.B.5.5.5.z.8.^                                               ",
"                                                    / w.6.m.e.m.6.v.B.8.z.z.z.8.9.C                                               ",
"                                                      ( r.6.6.6.N.v.5.9.9.9.9.9.)                                                 ",
"                                                      _ w.r.r.r.w.5.9.4.4.4.4.4.`                                                 ",
"                                                      ' 4.4.4.4.4.4.4.D.D.4.4.4.=                                                 ",
"                                                      ; D.D.D.D.D.4.4.4.4.4.4.4.]                                                 ",
"                                                        [ D.D.D.D.4.4.D.4.4.4.4.                                                  ",
"                                                        { D.D.D.D.4.4.D.D.D.D.[                                                   ",
"                                                        } D.D.D.D.4.|  ...X.o.O.                                                  ",
"                                                        +.4.D.D.D.4.@.                                                            ",
"                                                        #.D.D.D.D.D.$.                                                            ",
"                                                      N %.D.D.D.D.D.&.                                                            ",
"                                          N ] C - *.=.-.D.D.D.D.D.D.9.;.> < :.>.,.- a C ] N                                       "
};
