/* XPM */
static char *_[] = {
/* columns rows colors chars-per-pixel */
"65 65 86 1 ",
"  c None",
". c black",
"X c #070000",
"o c #080000",
"O c #090000",
"+ c #0F0000",
"@ c #100000",
"# c #110000",
"$ c #180000",
"% c #280000",
"& c #300000",
"* c #3F0000",
"= c #382810",
"- c #003F3F",
"; c #202020",
": c #272727",
"> c #282828",
", c gray16",
"< c gray19",
"1 c #373737",
"2 c gray22",
"3 c #400000",
"4 c #410000",
"5 c #480000",
"6 c #500000",
"7 c #5F0000",
"8 c #600000",
"9 c #610000",
"0 c #680000",
"q c #690000",
"w c #403018",
"e c #483818",
"r c #503818",
"t c #584020",
"y c #684820",
"u c #704828",
"i c #004040",
"p c #005757",
"a c #005858",
"s c #005959",
"d c #006868",
"f c #006F6F",
"g c #007070",
"h c #007878",
"j c gray25",
"k c gray28",
"l c #484848",
"z c #494949",
"x c #505050",
"c c #606060",
"v c #63737D",
"b c #62757C",
"n c #62747D",
"m c #63747D",
"M c #63757D",
"N c #64747D",
"B c gray44",
"V c gray47",
"C c #805028",
"Z c #885830",
"A c #905830",
"S c #986038",
"D c #A06038",
"F c #A86840",
"G c #B07040",
"H c #B87848",
"J c #C87848",
"K c #D08050",
"L c #D88850",
"P c #E88858",
"I c #F09058",
"U c #F89860",
"Y c #F8A070",
"T c #008080",
"R c #008181",
"E c #009898",
"W c #888888",
"Q c #989898",
"! c gray66",
"~ c gray69",
"^ c #F8B080",
"/ c #C0C0C0",
"( c #F8D8C0",
") c #E7E7E7",
"_ c gray91",
"` c #E9E9E9",
/* pixels */
"                                                                 ",
"                                                                 ",
"                                                                 ",
"                                                                 ",
"                                  )__                            ",
"                            lc__Vcl22;mB                         ",
"                          Qxl_~Qcllll2;m                         ",
"                         _Vl__~V>2Q_Qell2                        ",
"                        _~Vl____c;>2_VVl.     8                  ",
"                      m__~+l_^UU_DC;_xQc2    8;33                ",
"                     3__~_m2^^YJ_JJFxF_Vc     %%33               ",
"                   8%+_~VmmZ^_V^_J^FZF_Vc     .%%%               ",
"                   %++_Vm_mG_Vu_utruZ_!Vc      +%%%              ",
"                  3%+mVmmmm__VJJYLJJ_!Vmc       %%$.             ",
"                  *%+mmm_mm_VJ^_^L^^UKm!c       3%@+             ",
"                   %%++m__mV^GIHCCHIFGm!c      83%@              ",
"                   +%%++m__m_I_ASSAKIS!lcm    83%@+              ",
"                   m@%%++mm.^__!((!KIy.lxm   7%%@+               ",
"                   iiiiii___^_YY^YUUJe.>>iiiiii++                ",
"                 ......_..__cKCCyyyyy_B>........;                ",
"               ....wZFF>>>D...rP_Arr>_Qwwwee=.....               ",
"       66      ..wZFFZDe>>_D.Q>>>>>>_QBttteeew=....              ",
"     q6666%   .Thhhhhhhhhhhi>>Q...._QBtiiiahhhhai..>             ",
"    qlll22&@;>TTTTTTTTTT_TTThi..uw..ttiiiahTTTTTaii;>    6       ",
"    Tg2222Tg;;Thhhhhhhhhhhhhhhd>>>iaaaaaadhhhhhhhii;>.mq&&@@     ",
"   T.;a22T.;a;Tgdddddddddd~dddd>iiaaaaaaaddddddddai;;@qlTgl>     ",
"   g;;a>2g;;a>gaaaaaaaaaaaaaaaa>iigaaaaaaaaaaaaaaa>;;qxT.;a2>    ",
"   2aa;..2aa;;aiiiiiiiiiiiiiiii><<aiiiiiiiiiiiiiii>;;xlg;2a2l>   ",
"   22>....2>>;aiiiiiiiiiiiiiiii><<aiiiiiiiiiiiiiii>;lxllaa>2ll   ",
"   2Tg2..2Tg2;i<<<<<<<<<<<<<<<<><<i<<<<<<<<<<<<<<<;;Tgll..2lTg>  ",
"   T.;a22T.;a;i<<<<<<<<<<<<<<<<><<i<<<<<<<<<<<<<<<;T.;a...;T.;p  ",
"   g;;a>2g;;a.i<<iiiiiiiiiiii><><<i<<iiiiiiiiiii<>;g;2a2;;lg;2   ",
"   &aa;>22aa  ii<<iiiiiiiiiii;<><<i<<iiiiiiiiii;<> ;aa>2Tgllaa   ",
"    +>>222+    i<<<>>>;;;;;;;><><<i<<<>>>>>;;;;><>  ;22T.;a2l>   ",
"      DZZtt    -i<<<<<<<<<<<<<<><<i<<<<<<<<<<<<<>    &lg;2a2>+   ",
"     .......    i<<<<<<<<<<<<<<><<i<<<<<<<<<<<<<>     &2aa;>+    ",
"    6&llTg2&.   i<<<<<<<<<<<<<<><<i<<<<<<<<<<<<<;     mDZZZt     ",
"    6x2T.;a2.    i<<<<<<<<<<<<<><<i<<<<<<<<<<<<>m    .......     ",
"    x22g;;a>2    >>>>>>>>>>>>>>;..;>>>>>>>>>>>>>    6&llll>&+    ",
"    2222aa;>22   &..............................    TgllllTg+    ",
"    Tg22..>2Tg   ...............................    .;a2lT.;a    ",
"    .;a....T.;    ..............................    ;2a2lg;2a    ",
"    ;;a>..2g;;    ..............................   laa>..laa>    ",
"    aa;>Tg22aa   a;..............gaaaaaaaaaaaaaaa  kl2...;l22    ",
"    2>>T.;a>>   da;;;;;;;;;;;;...iaaaaaaaaaaaaaaa  lTgl;;lTgl    ",
"    522g;;a>.   gaaaiiiiiiiiiiiiiiiiiiiiiiiiiiii-   .;a2lT.;a    ",
"    5&22aa;&.   a>>>>>>>>>>>>>>>;i>>>>>>>>>>>>>>i   ;2a2lg;2a    ",
"     @@+++..    a>>>>>>>>>>>>>>>;igaaaaaaaaaaaa>i   aa>2llaa.    ",
"                 ;;;;;;;;;;;;;;;;mTgggggggggggggga  5>>>>>>&.    ",
"                  >>>>>>>>>>>>>;mmEEEEEEEEEEEEEEEg   +++++..     ",
"                  <<<<<<<<<<<<<;m~ETTTTTTTTTTTTTTa               ",
"                ga<<<<<<<<<<<<<;mQTaaaaaaaaaaaaaai               ",
"               ETa<<<<<<<<<<<<<>mxgiiiiiiiiiiiiii>               ",
"              /Egaiiiiiiiiiiiii>>maiiiiiiiiiiiiii>               ",
"              WTiiiiiiiiiiiiiii>2   ;>>>>>>>>>>>                 ",
"             TBgi<<<<<<<<<<<<<<>>                                ",
"             TTa>>>>>>>>>>>>>>>>;    aaiiiiiiii                  ",
"             Tgi;;;;;;;;;;;;;;;;;   Tgaaiiiiiii>                 ",
"             Tggggai;;;;;;;>>>>>;   Tggaaiiiiii>                 ",
"             Tgggggimmmmmmm>>>>>;   Tgggaaaaaaa>                 ",
"             Tgggggilk22222>>>>>;gggTaaaaaaaaaa>iiii><k          ",
"       cxxlk2g>>>>>>>>>>>>>;;;;;;ggggggggggggggggggi;;>><2lxc    ",
"   cxxlk22222>>>>>>>>>>>>>>>>>>>>ggggggiiiiiiggggggi>>><<<22lx   ",
"             2<222222222222222222TgggggiiiiiiTgggggikkkkkkllx    ",
"                             mmmmgiiiiimmmmmmgiiiii>mm           "
};
