/* XPM */
static char *_[] = {
/* columns rows colors chars-per-pixel */
"65 65 91 1 ",
"  c None",
". c black",
"X c #080000",
"o c #090000",
"O c #0F0000",
"+ c #100000",
"@ c gray12",
"# c #270000",
"$ c #280000",
"% c #290000",
"& c #300000",
"* c #3F0000",
"= c #282008",
"- c #382810",
"; c #202020",
": c gray13",
"> c #272727",
", c #282828",
"< c gray16",
"1 c #2F2F2F",
"2 c gray19",
"3 c #373737",
"4 c gray22",
"5 c #393939",
"6 c #400000",
"7 c #480000",
"8 c #4F0000",
"9 c #500000",
"0 c #600000",
"q c #680000",
"w c #690000",
"e c #403018",
"r c #483818",
"t c #503818",
"y c #584020",
"u c #594020",
"i c #684820",
"p c #704727",
"a c #704828",
"s c #004040",
"d c #005757",
"f c #005858",
"g c #006868",
"h c #007070",
"j c #007171",
"k c gray25",
"l c gray28",
"z c #484848",
"x c gray31",
"c c #505050",
"v c #515151",
"b c #606060",
"n c #63737D",
"m c #64737C",
"M c #64737D",
"N c #63747C",
"B c #63747D",
"V c #62747E",
"C c #63747E",
"Z c #64747E",
"A c gray44",
"S c #805028",
"D c #88572F",
"F c #88582F",
"G c #875830",
"H c #885830",
"J c #885930",
"K c #905830",
"L c #986038",
"P c #A06038",
"I c #A86840",
"U c #B07040",
"Y c #B87848",
"T c #C87848",
"R c #D08050",
"E c #D88850",
"W c #E88858",
"Q c #F09058",
"! c #F89860",
"~ c #F8A070",
"^ c #008080",
"/ c #009898",
"( c #888888",
") c #989898",
"_ c gray66",
"` c gray69",
"' c #F8B080",
"] c #F8B890",
"[ c #C0C0C0",
"{ c #D0D0D0",
"} c #D8D8D8",
/* pixels */
"                                                                 ",
"                                                                 ",
"                                                                 ",
"                                                                 ",
"                                                                 ",
"                                                                 ",
"                              cczz44                             ",
"                             cczzz444@                           ",
"                            444,,,44z4                           ",
"                            I!Hr;;,,4a                           ",
"                           zR!!!!!EH;I;                          ",
"                           lR'~!!!!'QP;                          ",
"                           4THPW~Q'PHP;                          ",
"                           GYA.,LS,;ALG                          ",
"                           U!']'~E']'R                           ",
"                           H!!!!'E!!!R                           ",
"                           BRYQYSSYQYH                           ",
"                           BRUQYLLYQUS                           ",
"                  6X       BRTQIHHIQ}}                           ",
"                 #+X      B.LT~~'~!!T(}          66              ",
"                 #++     aP.S{{EYUEEIr(b;       *6+X             ",
"                  ++XB  ..P..LS{iiiii..(yya    666++             ",
"                  %+H}I,,,P{..tWIKtt...eeeryy+++6%+              ",
"         89       HILHPr,{{P.)......A{yyyyrryya+++X              ",
"       q9999%    IIIILPi;;;Pi}}....A.b{yya}HHSiiay               ",
"      qzzz44&+IIIIIIIKHPr;;eP}}.`e..yy{HHH)}HiSHHa    9          ",
"      ^h4444^hIIHIIILH}Pi;;;eL}}PtiHHHUUIP}}`yHHHHy q&&++        ",
"     ^.;f44^.;fHiHLLHHiPPP;;;eP}PitLLLUaaaa)}SLL{Haqz^hz,        ",
"     h;;f,4h;;fIHiHHHHriLLL;;;eaLH}`LLitrrrryLLLLHqc^.;f4,       ",
"     4ff;..4ff4Hitiiiier[HH{;;{eaataaaP[KyaeySLLLLczh;4f4z,      ",
"     44,....4,4iitiiiirriii}A;;;;ttaaaPaKyaeyS[LLLczzff,4zz      ",
"     4^h4..4^h^^^^^^^^^^fAcyyy;;;;-eraar^^^^^^^^fhhzz..4z^h,     ",
"     ^.;f44^.;^ffffffffffsyyyyy;;;;;rr-g^gfffffffs;f...;^.;d     ",
"     h;;f,4h;;^fffffffffffs------==;;;^^gff{_fffff4f4;;zh;4      ",
"     &ff;,44ffhfssssssssssssssf,sshgffssssssAcssssf,4^hzzff      ",
"      X,,444XXfssssss(sssssssss,22fssssssssssAssss44^.;f4z,      ",
"        PaaayBf2222222222222222;,,s222222222222222&zh;4f4,X      ",
"        PHHay s,,,,,,,,,,,,,,,,;,,2,,,,,,,,,,,,,,,0&4ff;,X       ",
"         HHp  s,,,,,,,,,,,,,,,,;,,2,,,,,,,,,,,,,,,  Paaay        ",
"               ,,,,,,,,,,,,,,,,;,,2,,,,,,,,,,,,,,   PHHHy        ",
"                ,,22222222222;,;;;,,,2222222222;,    FDH         ",
"     ......     ,;;;;;;;;;;;;;;.;;,;;;;;;;;;;;;;                 ",
"    9&zz^h4&X    s;;;;;;;;;;;;;.;;,;;;;;;;;;;;;                  ",
"    9c4^.;f4.     ;;;;;;;;;;;;;.=-;;;;;;;;;;;;                   ",
"    c44h;;f,4    f;.BBiyreeee--==-errrrrrrreeB       .......     ",
"    4444ff;,44  hf;.BBiyreeee--==-ertrrrrryre       9&zzzz,&X    ",
"    ^h44..,4^h  hf;.BBiyreeee--==Brtyyttyyyye       ^hzzzz^hX    ",
"    .;f....^.;  hf;..............Byyyrrrrrtyy      ^.;f4z^.;f    ",
"    ;;f,..4h;;  hf;;;;;;;;;;;;...Byyrrrrrrryyr     h;4f4zh;4f    ",
"    ff;,^h44ff  hfffssssssssssssshhhhhhhhhhhhhhh   zff,..zff,    ",
"    4,,^.;f,,   f;,,,,,,,,,,,,,,;fsssssssssssssss lzz4...;z44    ",
"    844h;;f,.   hf;;;;;;;;;;;;;;;fffffffffffffffsBcz^hz;;z^hz    ",
"    8&44ff;&.   hf,,,,,,,,,,,,,,Bs^hhhhhhhhhhhhhhf4^.;f4z^.;f    ",
"     X+XXX...^^^hf,,,,,,,,,,,,,,,s///////////////hBh;4f4zh;4f    ",
"             ^^/^f2222222222222,4`/^^^^^^^^^^^^^^f  ff,4zzff.    ",
"             ^[/hfsssssssssssss,,)^ffffffffffffffs  8,,,,,,&.    ",
"             ^(^sssssssssssssss,;chssssssssssssss,   ++XXX..     ",
"             ^Ahs22222222222222,;Bfssssssssssssss                ",
"             hhf,,,,,,,,,,,,,,,,;Bs,,,,,,,,,,,,,,                ",
"             hfs;;;;;;;;;;;;;;;;;BBBsssssssssss,B                ",
"            Bfsss,,,,,,,,,,,,,,,;hhffssssssssss,ssss,2l          ",
"         czl4s,,;;;;;;;;;;;;;;;;;hhffffffffffffffffs;;,,24zcb    ",
"    zczl44444,,,,,,,,,,,,,,,,,,,,hhhfffssssssffffffs,,,22244zc   ",
"            444444444444444444444^hhhhhssssss^hhhhhsllllllzzc    ",
"                            BBBBBhsssssBBBBBBhsssss,BB           "
};
