/* XPM */
static char *_[] = {
/* columns rows colors chars-per-pixel */
"65 65 232 2 ",
"   c black",
".  c black",
"X  c #646464",
"o  c #515151",
"O  c #505050",
"+  c #484848",
"@  c gray22",
"#  c gray22",
"$  c gray22",
"%  c #484848",
"&  c #202020",
"*  c #535353",
"=  c #222222",
"-  c gray28",
";  c gray12",
":  c gray28",
">  c #202020",
",  c gray28",
"<  c #202020",
"1  c gray22",
"2  c #202020",
"3  c #895831",
"4  c #895830",
"5  c #B17040",
"6  c #AF7040",
"7  c #89562F",
"8  c #87572F",
"9  c #64727B",
"0  c #64747C",
"q  c #64757C",
"w  c #63737D",
"e  c #63747E",
"r  c #6D8080",
"t  c black",
"y  c None",
"u  c #557171",
"i  c #808080",
"p  c #62727E",
"a  c #A06038",
"s  c #584020",
"d  c #617380",
"f  c #666699",
"g  c #558080",
"h  c #9E6136",
"j  c gray13",
"k  c #704828",
"l  c #6F4827",
"z  c #684820",
"x  c #808080",
"c  c white",
"v  c #895732",
"b  c #A86840",
"n  c #694820",
"m  c #52371B",
"M  c #805B37",
"N  c #A86740",
"B  c #513917",
"V  c #A15E39",
"C  c #503717",
"Z  c #9F6039",
"A  c #503818",
"S  c #9F6038",
"D  c #310000",
"F  c #690000",
"G  c #100000",
"H  c #680000",
"J  c #110000",
"K  c #690000",
"L  c #100000",
"P  c #670000",
"I  c #282828",
"U  c #556A80",
"Y  c #6A6A80",
"T  c #272727",
"R  c #494949",
"E  c #282828",
"W  c #484848",
"Q  c #005959",
"!  c gray28",
"~  c #005959",
"^  c #494949",
"/  c gray13",
"(  c gray29",
")  c #667777",
"_  c #6A8080",
"`  c #080000",
"'  c #300000",
"]  c #070000",
"[  c #660000",
"{  c #080000",
"}  c #62737D",
"|  c #66777D",
" . c #007070",
".. c #55AAAA",
"X. c #003E3E",
"o. c #005555",
"O. c #555555",
"+. c #003B3B",
"@. c #63747D",
"#. c #004949",
"$. c #0C0000",
"%. c black",
"&. c #63757D",
"*. c black",
"=. c black",
"-. c black",
";. c #668080",
":. c black",
">. c black",
",. c black",
"<. c black",
"1. c black",
"2. c #500000",
"3. c #202020",
"4. c black",
"5. c black",
"6. c #6D6D6D",
"7. c #282828",
"8. c #090000",
"9. c #608080",
"0. c #687880",
"q. c #63747D",
"w. c #500000",
"e. c #667380",
"r. c #464646",
"t. c #63747C",
"y. c #697878",
"u. c #282828",
"i. c #484848",
"p. c #63757E",
"a. c #008080",
"s. c #282828",
"d. c #008181",
"f. c #65737D",
"g. c #484848",
"h. c #272727",
"j. c #007171",
"k. c #64757D",
"l. c gray16",
"z. c gray22",
"x. c #62757E",
"c. c gray16",
"v. c #67757C",
"b. c #63747D",
"n. c #64737C",
"m. c #71718E",
"M. c #004040",
"N. c #63747D",
"B. c #080000",
"V. c gray40",
"C. c #505050",
"Z. c #606060",
"A. c #5F5F5F",
"S. c #505050",
"D. c #484848",
"F. c gray25",
"G. c gray25",
"H. c #505050",
"J. c #606060",
"K. c #626262",
"L. c cyan",
"P. c #5A7878",
"I. c #667A7A",
"U. c #5F757C",
"Y. c #61727B",
"T. c #65737E",
"R. c #64757E",
"E. c #62727C",
"W. c #63757D",
"Q. c #62757C",
"!. c #63747D",
"~. c #63757D",
"^. c #62747E",
"/. c #62737B",
"(. c #667780",
"). c #666680",
"_. c #505050",
"`. c #484848",
"'. c gray22",
"]. c #282828",
"[. c #A86840",
"{. c #F89860",
"}. c #885830",
"|. c #483818",
" X c #202020",
".X c #704828",
"XX c #D08050",
"oX c #D88850",
"OX c #F8B080",
"+X c #F8A070",
"@X c #F09058",
"#X c #A06038",
"$X c #C87848",
"%X c #E88858",
"&X c #B87848",
"*X c gray44",
"=X c black",
"-X c #986038",
";X c #805028",
":X c #F8B890",
">X c #B07040",
",X c #684820",
"<X c #584020",
"1X c #503818",
"2X c #905830",
"3X c #989898",
"4X c #403018",
"5X c #600000",
"6X c #500000",
"7X c #280000",
"8X c #680000",
"9X c #400000",
"0X c #008080",
"qX c #007070",
"wX c #300000",
"eX c #100000",
"rX c #005858",
"tX c #606060",
"yX c #382810",
"uX c #63747D",
"iX c #282008",
"pX c #E06800",
"aX c #585800",
"sX c #404000",
"dX c #303000",
"fX c #080000",
"gX c #004040",
"hX c #006868",
"jX c gray19",
"kX c #009898",
"lX c gray25",
"zX c white",
/* pixels */
"                                                                                                                                  ",
"                                                                                                                                  ",
"                                                                                                                                  ",
"                                                                                                                                  ",
"                                                                                                                                  ",
"                                                                                                                                  ",
"                                                                                                                                  ",
"                                                                                                                                  ",
"                                                                                                                                  ",
"                                                                                                                                  ",
"                                                                                                                                  ",
"                                                  . X o O + + @ # $ .                                                             ",
"                                                . % _._.`.`.`.'.'.'.& .                                                           ",
"                                                * '.'.'.].].].'.'.`.'.=                                                           ",
"                                                - [.{.}.|. X X].].'..X;                                                           ",
"                                                : XX{.{.{.{.{.oX}. X[.>                                                           ",
"                                                , XXOX+X{.{.{.{.OX@X#X<                                                           ",
"                                                1 $X}.#X%X+X@XOX#X}.#X2                                                           ",
"                                                3 &X*X=X].-X;X]. X*X-X4                                                           ",
"                                                5 {.OX:XOX+XoXOX:XOXXX6                                                           ",
"                                                7 {.{.{.{.OXoX{.{.{.XX8                                                           ",
"                                                9 XX&X@X&X;X;X&X@X&X}.0                                                           ",
"                                                0 XX>X@X&X-X-X&X@X>X;Xq                                                           ",
"                                                w XX$X@X[.}.}.[.@X$X;Xe                                                           ",
"                                              r t -X$X+X+XOX+X{.{.$X,Xy u                                                         ",
"                                          i p a =X;X$XoXoX&X>XoXoX[.|.=Xs d f .                                                   ",
"                                    g h j  X X#X=X=X-X;X;X,X,X,X,X,X=X=X<X<X<X.Xk l z x                                           ",
"                                c v b [.].].].#X=X=X=X1X%X[.2X1X1X=X=X=X<X<X<X.X}.}.}.n m                                         ",
"                              M N [.}.#X|.].]..X#X=X3X=X=X=X=X=X=X*X=X<X<X*X<X.X}.}..X<X<XB                                       ",
"                            V b >X-X}.#X,X X X3X#X,X=X3X=X=X=X=X*X=X<X<X<X<X.X}.}..X<X<X,X<XC .                                   ",
"                          Z [.3X[.2X}.#X#X|. X X4X#X.X=X=X.X4X=X=X<X<X.X}.}.}.}.}..X<X-X,X,X<XA .                                 ",
"                      . S #X>X[.2X}.}.3X#X,X X X X4X-X#X#X#X1X,X}.}.}.>X>X[.#X-X}.<X.X3X.X}.5X6XD .                               ",
"                    . F 6X6X7X}.}.}.*X,X#X#X#X X X X4X#X-X#X,X1X-X-X-X>X.X.X.X.X|.1X.X*X-X8X9X9X9XG .                             ",
"                  . H 6X6X6X6X7X}.<X,X|.,X-X-X-X X X X4X.X-X}.1X3X-X-X,X1X*X|.|.|.|..X2X8X`.0XqX`.].J                             ",
"                  K `.`.`.'.'.wXeX|.4X4X|.,X}.}.3X*X X X4X.X.X1X.X.X.X#X.X2X<X.X4X|.|.8X_.0X=X XrX'.].L                           ",
"                P 0XqX'.'.'.'.0XqX|.4X|.|.,X,X,X*X,X X X X X1X1X.X.X.X#X.X2X<X.X4X4X4X_.`.qX X'.rX'.`.I U                         ",
"              Y 0X=X XrX'.'.0X=X XrX4X4X,X<X,X<X<X<X<X X X XtXyX4X|.|.<X|.|.*X4XyX X`._.`.`.rXrX].'.`.`.T                         ",
"              R qX X XrX].'.qX X XrXuXuX*X,X<X<X<X<X<X<X X X X X X3X4X<X1X1XyXiXiX=X0XqX`.`.=X=X'.`.0XqXE                         ",
"              W '.rXrX X=X=X'.rXrX XuXuXuX;X|.|.yXyXyXyXyXyXiXiX X X3X X`.yXiXiXiX0X=X XrX=X=X=X X0X=X XQ                         ",
"              ! '.'.].=X=X=X=X'.].].uXuXuX].]. X X XtX X=X=XpXaXsXdX=X*X_.=X=X=X=XqX X'.rX'. X X`.qX X'.~                         ",
"              ^ '.0XqX'.=X=X'.0XqX'.uXuXuX].].`. X X X X=X=XsXsXdXdX=X*X_.=X=X=X=XuXrXrX].'.0XqX`.`.rXrX/                         ",
"              ( 0X=X XrX'.'.0X=X XrXuXuXuX].]. X X X X X=X=X=X=X=X=X=X=X=X=X=X=X=XuXuX'.'.0X=X XrX'.`.].)                         ",
"              _ qX X XrX].'.qX X XrXuXuXuX,X<X1X4X4X4X4X4X3XiXiX3X<X;X;X3X3X*X<X4XuXuXwX`.qX X'.rX'.].` .                         ",
"                ' rXrX X].'.'.rXrXuXuXuX;X;X,X<X3X|.|.|.|.|.iX,X2X-X-X-X-X-X-X;X,X1XuX5XwX'.rXrX X].fX]                           ",
"                [ { ].].'.'.'.fXfXuXuXuX;X;X,X<X1X|.|.|.|.|.,X2X,X3X,X;X;X;X,X,X1X1XuXuXuX}.<X1X1X4X} .                           ",
"                  | 0X0X0X0X0X0X0X0X0X0X0X0XrX<X1X|.|.|.|.4X,X4X|.;X2X2X3X2X2X;X0X0X0X0X0X0X0X0X0XrX .                            ",
"                  ..0XrXrXrXrXrXrXrXrXrXrXrXrXgX<X1X|.|.|.4X4X4X,X;X2X-X-X-X2XhX0XhXrXrXrXrXrXrXrXrXX.                            ",
"                    0XrXrXrXrXrXrXrXrXrXrXrXrXrXrXgXiXiXiXiXyX<X,X;X2X-X-X-X0X0XhXrXrXrXrXrXrXrXrXrXo.                            ",
"                  O.qXrXgXgXgXgXgXgXgXgXgXgXgXgXgXgXgXgXgXrXyX<X,XqXhXrXrXgXgXgXgXgXgXgXgXgXgXgXgXgX+.                            ",
"                . @.rXgXgXgXgXgXgXgXgXgXgXgXgXgXgXgXgXgXgXgX].<X,XrXgXgXgXgXgXgXgXgXgXgXgXgXgXgXgXgX#.                            ",
"        $.%.&.*.=.=XrXjXjXjXjXjXjXjXjXjXjXjXjXjXjXjXjXjXjXjX X].].gXjXjXjXjXjXjXjXjXjXjXjXjXjXjXjX].-.      ;.:.>.,.<.1.          ",
"        2.wX=X`.0XqX'.'.=XgX].].].].].].].].].].].].].].].]. X].].jX].].].].].].].].].].].].].].].3.    4.5.=X'.`.].wX{ .         ",
"      6.6X_.`.0X=X XrX].'.uX].].]. X X X X X X X X X X X X X=X X X]. X X X X X X X X X X X X X X X7.  8.wX'.`.`.`.0XqXfX9.        ",
"      0._.'.'.qX XrXgX].'.'.0X].]. X X X X X X X X X X X X X=X].yX X X X X X X X X X X X X X].].].q.  w.qX`.`.`.0X=X XrXe.        ",
"      r.'.'.'.'.rXgX].'.0XqXkX].].].].].].].].].].].].].].].yXyX|.].].].].].].].].].].].].].].].].t.y.0X XrX'.`.qX X'.rXu.        ",
"      i.0XqX'.=X=X=X=X0X=X XrXuXuXuXuXuXuXuX=XiXiXiXiXiXiXiXiX=X<X].].].].].].].].].].].].].].].].p.a.=X'.rX'.=X`.rXrX].s.        ",
"      d.=X XrX].=X=X'.qX X XrX0XrXjXjXjXjXjXjXjXjXjXjXjXjXjX]. X'.qX].].].].].].].].].].].].].].].f.g.rXrX].=X=X X`.'.'.h.        ",
"      j. X XrX].0XqX'.'.rXrXqXqXrXgXgXgXgXgXgXgXgXgXgXgXgXgX]. X`.kXgXgXgXgXgXgXgXgXgXgXgXgXgXgXrXk.`.0XqX`. X X`.0XqX`.l.        ",
"      z.rXrX X0X=X XrX].].qXrXgXgXgXgXgXgXgXgXgXgXgXgXgXgXgX]. X_.0XrXrXrXrXrXrXrXrXrXrXrXrXrXrXgXx.0X=X XrX'.`.0X=X XrXc.        ",
"      v.fX'.'.qX XgXgX].=XrXgXgXjXjXjXjXjXjXjXjXjXjXjXjXjXjX]. X'.qXgXgXgXgXgXgXgXgXgXgXgXgXgXgX].b.qX X'.gX'.`.gX X'.rXn.        ",
"      m.fXfX'.'.rXgX XfX=XgXgX].].].].].].].].].].].].].].].]. XrXrXgXgXgXgXgXgXgXgXgXgXgXgXgXgX].M.gXgX].].].].].gXgX=XN.        ",
"        B.eXeXfXfXfX=X=X=X0X0X X X X X X X X X X X X X X X X X XrXgX].].].].].].].].].].].].].].].gXgXfXfXfXfXfXfX=X=X=XtX)       ",
"        V.C.lX'.'.'.'.'.].].].].].].].].].].].].].].].].].].].].rXgXgXgXgXgXgXgXgXgXgXgXgXgXgXgXgXgXgX].].].jXjXjX'.'.`._.Z.      ",
"          x A.S.D.F.G.'.'.'.'.'.'.'.'.'.'.'.'.'.'.'.'.'.'.'.'.'.rXrXrXrXrXrXgXgXgXgXgXgXqXrXrXrXrXrXgXlXlXlXlXlXlX`.`.H.J.K.      ",
"      . L.x x O...i f m.P.I.U.| Y.T.R.E.W.Q.!.uXuXuX_._._.`.`.=XqXgXgXgXgXgX=X=X=X].].].qXgXgXgXgXgX].tXtXtXuX~.^./.(.).i O.x .   "
};
