/* XPM */
static char *_[] = {
/* columns rows colors chars-per-pixel */
"65 65 96 2 ",
"   c black",
".  c #005858",
"X  c #005858",
"o  c #005858",
"O  c #005858",
"+  c #005858",
"@  c #004747",
"#  c #004040",
"$  c #005858",
"%  c #005757",
"&  c #63747D",
"*  c #005959",
"=  c #005757",
"-  c #005858",
";  c #005959",
":  c #005959",
">  c #004040",
",  c black",
"<  c #005858",
"1  c #004040",
"2  c #55AAAA",
"3  c #005858",
"4  c #607080",
"5  c #637180",
"6  c #5B6D80",
"7  c #808080",
"8  c #6D6D92",
"9  c #005555",
"0  c #61757D",
"q  c #090000",
"w  c black",
"e  c #61737C",
"r  c #63747D",
"t  c #005858",
"y  c #005757",
"u  c #65747E",
"i  c #005858",
"p  c #080000",
"a  c #808080",
"s  c #300000",
"d  c #62747D",
"f  c cyan",
"g  c #005757",
"h  c #005858",
"j  c #005858",
"k  c #005858",
"l  c #005858",
"z  c #003F3F",
"x  c #005757",
"c  c #005858",
"v  c #63737B",
"b  c #557171",
"n  c #282828",
"m  c #64707C",
"M  c #60717D",
"N  c #66777D",
"B  c #637680",
"V  c #272727",
"C  c gray28",
"Z  c None",
"A  c gray15",
"S  c #494949",
"D  c #2A2A2A",
"F  c #008080",
"G  c #007070",
"H  c gray22",
"J  c black",
"K  c #480000",
"L  c black",
"P  c #607080",
"I  c #64737D",
"U  c #65737D",
"Y  c #666699",
"T  c #005858",
"R  c #004040",
"E  c gray19",
"W  c #500000",
"Q  c #484848",
"!  c #300000",
"~  c #080000",
"^  c #282828",
"/  c gray22",
"(  c black",
")  c #008080",
"_  c #007070",
"`  c #505050",
"'  c #202020",
"]  c #180000",
"[  c #100000",
"{  c gray25",
"}  c #009898",
"|  c #008888",
" . c #888888",
".. c #606060",
"X. c #006868",
"o. c white",
/* pixels */
"                                                                                                                                  ",
"                                                                                                                                  ",
"                                                                                                                                  ",
"                                                                                                                                  ",
"                                                                                                                                  ",
"                                                                                                                                  ",
"                                                                                                                                  ",
"                                                                                                                                  ",
"                                                                                                                                  ",
"                                                                                                                                  ",
"                                                                                                                                  ",
"                                                                                                                                  ",
"                                                                                                                                  ",
"                                                                                                                                  ",
"                                                                                                                                  ",
"                                                                                                                                  ",
"                                                                                                                                  ",
"                                                                                                                                  ",
"                                                                                                                                  ",
"                                                                                                                                  ",
"                                                                                                                                  ",
"                                                                                                                                  ",
"                                                                                                                                  ",
"                                                                                                                                  ",
"                                                                                                                                  ",
"                                                                                                                                  ",
"                                                                                                                                  ",
"                                                                                                                                  ",
"                                                                                                                                  ",
"                                                                                                                                  ",
"                                                                                                                                  ",
"                                                                                                                                  ",
"                                                                                                                                  ",
"                                                                                                                                  ",
"                                                                                                                                  ",
"                                                                                                                                  ",
"                                                                                                                                  ",
"                                                                                                                                  ",
"                                                                                                                                  ",
"                                                                                                                                  ",
"                                                                                                                                  ",
"                                                                                                                                  ",
"                                                                                                                                  ",
"                                                                                                                                  ",
"                                                                                                                                  ",
"                                                                                                                                  ",
"                                                                                                                                  ",
"                                                                                                                                  ",
"                                                                                                                                  ",
"                                                                                                                                  ",
"                                                                                                                                  ",
"          . T T T T T T T X o O + @                                                           # $ % & * = - ; : >                 ",
"        , < T R T R R R R R R R R 1 ,                                                       2 3 R R T R R R R R R 4 ,             ",
"        5 T R R R R R R R E R R E R 6                                               7 8 9   0 T R R E R R W Q W ! ~ ^ q w         ",
"        e ! / ! ! R R / ( R E E R E r                                       2 t ; y T T R u i ! R E E R ! ! ! Q Q Q ) _ p a       ",
"        s / ` / / _ / ^ / / E E E R E d f         g h j k l z             x c E E ' ' ' ' T ] [ ( ' ' E ) _ Q / Q ) ( ' T v       ",
"      b / ` / / _ ' T / T _ ^ ^ ^ ' ' ^ n m a   M T E E E E E N 7 , f 8 B c R E E ' ' ' ! ! ] ( ( ' ' ) ( ' T / Q _ ' / T V       ",
"      C ` / / _ ' ' T T ( ' T E E ' ' ' ' E R Z R R R E R R E R R E R R R { R R ' ' ' ' ] ] ( ( ' ' ' Q T T ^ ( ( Q T T ^ A       ",
"      S ) _ / / T T ^ _ ' ^ ^ ^ } } R ' ' E R E E E E E R E R R E E E R E R E E E ' ' ) _ } } } _ _ _ _ _ _ _ _ _ _ T ' T D       ",
"      F ( ( / / T } } } } } } } } | | | E R E ' ' ' ' E E E E { E E R E E E E  .! ! ] ) T T T T T T T T T T T T T T } / T 4       ",
"      G ' _ / ^ ) _ _ _ _ _ _ _ _ _ _ _ [ [ [ [ [ [ [ ( R E E E E E R E R .. ...E ~ ~ ) T T T T T T T T T T T T T T ) Q ( b       ",
"      H T ' ' ) ) T T T T T T T T T T T T ( ( ( ( ( ( E E E E { E E E E E E E E E R ) T T T T T T T T T T T T R R R ' ` J         ",
"      a K X ' ) T R R R R R R R R R R R R T R E R R E R R E R R E E R R E R E R R ) _ R R R R R R R R R R R R R R R ' / L         ",
"          P X.X.R R R R R R R R R R R R R R T T T T T T T T T T T T T T T T T T T R R R R R R R R R R R R R ^ ^ ^ R ^ b           ",
"        a I T T R R R R R R R R R R R R R R R R R R R R R R R R R R R R R R R R R R R R R R R R R R R R R R R R ^ ^ ^ U Y ,       "
};
