/* XPM */
static char *out[] = {
/* columns rows colors chars-per-pixel */
"64 64 187 2 ",
"   c None",
".  c #110111",
"X  c #120112",
"o  c #130113",
"O  c #140114",
"+  c #210221",
"@  c #210321",
"#  c #220322",
"$  c #280328",
"%  c #320632",
"&  c #360636",
"*  c #390639",
"=  c #3C063C",
"-  c #3C073C",
";  c #3D073D",
":  c #3E073E",
">  c #3F073F",
",  c #3F093F",
"<  c #400740",
"1  c #400940",
"2  c #410941",
"3  c #420942",
"4  c #430943",
"5  c #430A43",
"6  c #440944",
"7  c #440A44",
"8  c #460A46",
"9  c #490A49",
"0  c #490B49",
"q  c #4A0A4A",
"w  c #4A0B4A",
"e  c #4D0C4D",
"r  c #4E0C4E",
"t  c #4F0C4F",
"y  c #500C50",
"u  c #510D51",
"i  c #520D52",
"p  c #530D53",
"a  c #550E55",
"s  c #560E56",
"d  c #570E57",
"f  c #5A0E5A",
"g  c #5C105C",
"h  c #5E105E",
"j  c #601160",
"k  c #611161",
"l  c #611261",
"z  c #641264",
"x  c #661266",
"c  c #671367",
"v  c #681368",
"b  c #6A146A",
"n  c #6B146B",
"m  c #6C146C",
"M  c #6D146D",
"N  c #6D156D",
"B  c #6E156E",
"V  c #6F1570",
"C  c #701570",
"Z  c #721572",
"A  c #731573",
"S  c #721772",
"D  c #761776",
"F  c #771777",
"G  c #751875",
"H  c #761876",
"J  c #771877",
"K  c #781878",
"L  c #7C197C",
"P  c #7D197D",
"I  c #7E197E",
"U  c #7E1A7E",
"Y  c #7F1A7F",
"T  c #801A80",
"R  c #811A81",
"E  c #821A82",
"W  c #831B83",
"Q  c #841B84",
"!  c #871C87",
"~  c #881C88",
"^  c #891C89",
"/  c #8A1C8A",
"(  c #8B1E8B",
")  c #8C1E8C",
"_  c #8D1E8D",
"`  c #8E1E8E",
"'  c #8F1F8F",
"]  c #911F91",
"[  c #932093",
"{  c #952095",
"}  c #962096",
"|  c #962196",
" . c #972197",
".. c #982198",
"X. c #992199",
"o. c #9C229C",
"O. c #9E239E",
"+. c #9F239F",
"@. c #A023A0",
"#. c #A123A1",
"$. c #A323A3",
"%. c #A224A2",
"&. c #A424A4",
"*. c #A625A6",
"=. c #A725A7",
"-. c #A825A8",
";. c #A925A9",
":. c #AA25AA",
">. c #AB25AB",
",. c #AC27AC",
"<. c #AD27AD",
"1. c #AE27AE",
"2. c #AE28AE",
"3. c #B028B0",
"4. c #B228B2",
"5. c #B328B3",
"6. c #B329B3",
"7. c #B429B4",
"8. c #B629B6",
"9. c #B729B7",
"0. c #B82AB8",
"q. c #B92AB9",
"w. c #BA2ABA",
"e. c #BA2BBA",
"r. c #BE2BBE",
"t. c #BF2BBF",
"y. c #BE2CBE",
"u. c #BF2CBF",
"i. c #C02CC0",
"p. c #C12CC1",
"a. c #C42DC4",
"s. c #C52DC5",
"d. c #C62DC6",
"f. c #C62EC6",
"g. c #C72EC7",
"h. c #C92EC9",
"j. c #CB30CB",
"k. c #D031D0",
"l. c #D331D3",
"z. c #D432D4",
"x. c #D532D5",
"c. c #D633D6",
"v. c #D733D7",
"b. c #D833D8",
"n. c #D933D9",
"m. c #DA33DA",
"M. c #DA34DA",
"N. c #DC34DC",
"B. c #DD34DD",
"V. c #DF35DF",
"C. c #E035E0",
"Z. c #E135E1",
"A. c #E235E2",
"S. c #E335E3",
"D. c #E236E2",
"F. c #E336E3",
"G. c #E436E4",
"H. c #E536E5",
"J. c #E636E6",
"K. c #E737E7",
"L. c #E837E8",
"P. c #E937E9",
"I. c #EA37EA",
"U. c #EC38EC",
"Y. c #ED38ED",
"T. c #EE39EE",
"R. c #EF39EF",
"E. c #F039F0",
"W. c #F139F1",
"Q. c #F13AF1",
"!. c #F23AF2",
"~. c #F33AF3",
"^. c #F43AF4",
"/. c #F53AF5",
"(. c #F53CF5",
"). c #F63CF6",
"_. c #F73CF7",
"`. c #F83CF8",
"'. c #F93CF9",
"]. c #F93DF9",
"[. c #FA3DFA",
"{. c #FB3DFB",
"}. c #FC3DFC",
"|. c #FD3DFD",
" X c #FD3EFD",
".X c #FE3EFE",
"XX c #FF3EFF",
/* pixels */
"                                                                                                                                ",
"                                                                                                                                ",
"                                                                                                                                ",
"                                                                                                                                ",
"                                                                                                                                ",
"                                                                                                                                ",
"                                                                                                                                ",
"XXXXXXXXXXXXXXXXXXXXXXXXXXXXXXXXXXXXXXXXXXXXXXXXXXXXXXXXXXXXXXXXXXXXXXXXXXXXXXXXXXXXXXXXXXXXXXXXXXXXXXXXXXXXXXXXXXXXXXXXXXXXXXXX",
"XXXXXXXXXXXXXXXXXXXXXXXXXXXXXXXXXXXXXXXXXXXXXXXXXXXXXXXXXXXXXXXXXXXXXXXXXXXXXXXXXXXXXXXXXXXXXXXXXXXXXXXXXXXXXXXXXXXXXXXXXXXXXXXX",
"XXXXXXXXXXXXXXXXXXXXXXXXXXXXXXXXXXXXXXXXXXXXXXXXXXXXXXXXXXXXXXXXXXXXXXXXXXXXXXXXXXXXXXXXXXXXXXXXXXXXXXXXXXXXXXXXXXXXXXXXXXXXXXXX",
"XXXXXXXXXXXXXXXXXXXXXXXXXXXXXXXXXXXXXXXXXXXXXXXXXXXXXXXXXXXXXXXXXXXXXXXXXXXXXXXXXXXXXXXXXXXXXXXXXXXXXXXXXXXXXXXXXXXXXXXXXXXXXXXX",
"XXXXXXXXXXXXXXXXXXXXXXXXXXXXXXXXXXXXXXXXXXXXXXXXXXXXXXXXXXXXXXXXXXXXXXXXXXXXXXXXXXXXXXXXXXXXXXXXXXXXXXXXXXXXXXXXXXXXXXXXXXXXXXXX",
"XXXXXXXXXXXXXXXXXXXXXXXXXXXXXXXXXXXXXXXXXXXXXXXXXXXXXXXXXXXXXXXXXXXXXXXXXXXXXXXXXXXXXXXXXXXXXXXXXXXXXXXXXXXXXXXXXXXXXXXXXXXXXXXX",
"XXXXXXXXXXXXXXXXXXXXXXXXXXXXXXXXXXXXXXXXXXXXXXXXXXXXXXXXXXXXXXXXXXXXXXXXXXXXXXXXXXXXXXXXXXXXXXXXXXXXXXXXXXXXXXXXXXXXXXXXXXXXXXXX",
"XXXXXXXXXXXXXXXXXXXXXXXXXXXXXXXXXXXXXXXXXXXXXXXXXXXXXXXXXXXXXXXXXXXXXXXXXXXXXXXXXXXXXXXXXXXXXXXXXXXXXXXXXXXXXXXXXXXXXXXXXXXXXXXX",
"XXXXXXXXXXXXXXXXXXXXXXXXXXXXXXXXXXXXXXXXXXXXXXXXXXXXXXXXXXXXXXXXXXXXXXXXXXXXXXXXXXXXXXXXXXXXXXXXXXXXXXXXXXXXXXXXXXXXXXXXXXXXXXXX",
"XXXXXXXXXXXXXXXXXXXXXXXXXXXXXXXXXXXXXXXXXXXXXXXXXXXXXXXXXXXXXXXXXXXXXXXXXXXXXXXXXXXXXXXXXXXXXXXXXXXXXXXXXXXXXXXXXXXXXXXXXXXXXXXX",
"XXXXXXXXXXXXXXXXXXXXXXXXXXXXXXXXXXXXXXXXXXXXXXXXXXXXXXXXXXXXXXXXXXXXXXXXXXXXXXXXXXXXXXXXXXXXXXXXXXXXXXXXXXXXXXXXXXXXXXXXXXXXXXXX",
"XXXXXXXXXXXXXXXXXXXXXXXXXXXXXXXXXXXXXXXXXXXXXXXXXXXXXXXXXXXXXXXXXXXXXXXXXXXXXXXXXXXXXXXXXXXXXXXXXXXXXXXXXXXXXXXXXXXXXXXXXXXXXXXX",
"XXXXXXXXXXXXXXXXXXXXXXXXXXXXXXXXXXXXXXXXXXXXXXXXXXXXXXXXXXXXXXXXXXXXXXXXXXXXXXXXXXXXXXXXXXXXXXXXXXXXXXXXXXXXXXXXXXXXXXXXXXXXXXXX",
"XXXXXXXXXXXXXXXXXXXXXXXXXXXXXXXXXXXXXXXXXXXXXXXXXXXXXXXXXXXXXXXXXXXXXXXXXXXXXXXXXXXXXXXXXXXXXXXXXXXXXXXXXXXXXXXXXXXXXXXXXXXXXXXX",
"XXXXXXXXXXXXXXXXXXXXXXXXXXXXXXXXXXXXXXXXXXXXXXXXXXXXXXXXXXXXXXXXXXXXXXXXXXXXXXXXXXXXXXXXXXXXXXXXXXXXXXXXXXXXXXXXXXXXXXXXXXXXXXXX",
"XXXXXXXXXXXXXXXXXXXXXXXXXXXXXXXXXXXXXXXXXXXXXXXXXXXXXXXXXXXXXXXXXXXXXXXXXXXXXXXXXXXXXXXXXXXXXXXXXXXXXXXXXXXXXXXXXXXXXXXXXXXXXXXX",
"XXXXXXXXXXXXXXXXXXXXXXXXXXXXXXXXXXXXXXXXXXXXXXXXXXXXXXXXXXXXXXXXXXXXXXXXXXXXXXXXXXXXXXXXXXXXXXXXXXXXXXXXXXXXXXXXXXXXXXXXXXXXXXXX",
"XXXXXXXXXXXXXXXXXXXXXXXXXXXXXXXXXXXXXXXXXXXXXXXXXXXXXXXXXXXXXXXXXXXXXXXXXXXXXXXXXXXXXXXXXXXXXXXXXXXXXXXXXXXXXXXXXXXXXXXXXXXXXXXX",
"XXXXXXXXXXXXXXXXXXXXXXXXXXXXXXXXXXXXXXXXXXXXXXXXXXXXXXXXXXXXXXXXXXXXXXXXXXXXXXXXXXXXXXXXXXXXXXXXXXXXXXXXXXXXXXXXXXXXXXXXXXXXXXXX",
"XXXXXXXXXXXXXXXXXXP.$.G G G G G [ b.r.G U 6.XXXXXXXXB.! G | u.K G J E @.c.{.j.G G G G G G J Y Q G _ z.XXn.I G #.XXXXXXXXXXXXXXXX",
"XXXXXXXXXXXXXXXXXX|.k.k v H.H.9.V h.T...O p !.XXXX].7.@ > l.`.4.3 } i.H : ' >.k G.4.w / S.#.d 8.2 W {.XXQ.O.j L.XXXXXXXXXXXXXXXX",
"XXXXXXXXXXXXXXXXXXXXm.n C .X.XL.u.D.).8.< 7 q.XXXXV.] f < Z.XXu.q >.{.n.c 8 t.<..Xs.e | .Xz.#.U.~ 5 B.XXk.L a..XXXXXXXXXXXXXXXXX",
"XXXXXXXXXXXXXXXXXXXXM.m Z XXI.f.Y.|.).0.l x F XXXXs.C { 1 A.XXi.w ,.XXR.` > N.[.XXd.r  .XX}.'..Xh.u R U.+.^ {.XXXXXXXXXXXXXXXXXX",
"XXXXXXXXXXXXXXXXXXXXM.c t 8.[ A F.XX).0.T  .6 F.W.1./ #.1 A.XXi.w ,.XXm.j a _.XXXXd.r  .XXXXXXXX^.o.; ^ N J.XXXXXXXXXXXXXXXXXXXX",
"XXXXXXXXXXXXXXXXXXXXM.c 0 ;.! b A.XX).0.( p.e &.z./ j.%.1 A.XXi.= F X.i y g.XXXXXXd.r  .XXXXXXXX.Xx.d % 3..XXXXXXXXXXXXXXXXXXXXX",
"XXXXXXXXXXXXXXXXXXXXM.n B '.C.e.Y.XX).0.) C.S j w.D (.%.1 A.XXi.* m *.a.U.}.XXXXXXd.r  .XXXXXXXXXX!.[ , Z.XXXXXXXXXXXXXXXXXXXXXX",
"XXXXXXXXXXXXXXXXXXXXM.m Z XX X[.U.v.).0.) ].=.# M -.`.%.1 A.XXi.9 =.'.{..XXXXXXXXXd.r  .XXXXXXXXXX^...2 G.XXXXXXXXXXXXXXXXXXXXXX",
"XXXXXXXXXXXXXXXXXXXXM.m Z XXXX{.q.F ).0.) XXj.- 0 K.`.%.1 A.XXi.w ,.XXXXXXXXXXXXXXd.r  .XXXXXXXXXX^...2 G.XXXXXXXXXXXXXXXXXXXXXX",
"XXXXXXXXXXXXXXXXXXL.( + $ z z h 4 z 5.* & 2.P.] P _.y.: o I p.g . e 9.XXXXXXXXXXx.s X 2 3.XXXXXXE.:.& X K B.XXXXXXXXXXXXXXXXXXXX",
"XXXXXXXXXXXXXXXXXX X).R.E.~.~.~.Q.^.].W.W.'. X`.).XX[.W.R.(.[.~.T.!.].XXXXXXXXXX}.~.T.Q.'.XXXXXX.X'.W.R./.}.XXXXXXXXXXXXXXXXXXXX",
"XXXXXXXXXXXXXXXXXXXXXXXXXXXXXXXXXXXXXXXXXXXXXXXXXXXXXXXXXXXXXXXXXXXXXXXXXXXXXXXXXXXXXXXXXXXXXXXXXXXXXXXXXXXXXXXXXXXXXXXXXXXXXXXX",
"XXXXXXXXXXXXXXXXXXXXXXXXXXXXXXXXXXXXXXXXXXXXXXXXXXXXXXXXXXXXXXXXXXXXXXXXXXXXXXXXXXXXXXXXXXXXXXXXXXXXXXXXXXXXXXXXXXXXXXXXXXXXXXXX",
"XXXXXXXXXXXXXXXXXXXXXXXXXXXXXXXXXXXXXXXXXXXXXXXXXXXXXXXXXXXXXXXXXXXXXXXXXXXXXXXXXXXXXXXXXXXXXXXXXXXXXXXXXXXXXXXXXXXXXXXXXXXXXXXX",
"XXXXXXXXXXXXXXXXXXXXXXXXXXXXXXXXXXXXXXXXXXXXXXXXXXXXXXXXXXXXXXXXXXXXXXXXXXXXXXXXXXXXXXXXXXXXXXXXXXXXXXXXXXXXXXXXXXXXXXXXXXXXXXXX",
"XXXXXXXXXXXXXXXXXXXXXXXXXXXXXXXXXXXXXXXXXXXXXXXXXXXXXXXXXXXXXXXXXXXXXXXXXXXXXXXXXXXXXXXXXXXXXXXXXXXXXXXXXXXXXXXXXXXXXXXXXXXXXXXX",
"XXXXXXXXXXXXXXXXXXXXXXXXXXXXXXXXXXXXXXXXXXXXXXXXXXXXXXXXXXXXXXXXXXXXXXXXXXXXXXXXXXXXXXXXXXXXXXXXXXXXXXXXXXXXXXXXXXXXXXXXXXXXXXXX",
"XXXXXXXXXXXXXXXXXXXXXXXXXXXXXXXXXXXXXXXXXXXXXXXXXXXXXXXXXXXXXXXXXXXXXXXXXXXXXXXXXXXXXXXXXXXXXXXXXXXXXXXXXXXXXXXXXXXXXXXXXXXXXXXX",
"XXXXXXXXXXXXXXXXXXXXXXXXXXXXXXXXXXXXXXXXXXXXXXXXXXXXXXXXXXXXXXXXXXXXXXXXXXXXXXXXXXXXXXXXXXXXXXXXXXXXXXXXXXXXXXXXXXXXXXXXXXXXXXXX",
"XXXXXXXXXXXXXXXXXXXXXXXXXXXXXXXXXXXXXXXXXXXXXXXXXXXXXXXXXXXXXXXXXXXXXXXXXXXXXXXXXXXXXXXXXXXXXXXXXXXXXXXXXXXXXXXXXXXXXXXXXXXXXXXX",
"XXXXXXXXXXXXXXXXXXXXXXXXXXXXXXXXXXXXXXXXXXXXXXXXXXXXXXXXXXXXXXXXXXXXXXXXXXXXXXXXXXXXXXXXXXXXXXXXXXXXXXXXXXXXXXXXXXXXXXXXXXXXXXXX",
"XXXXXXXXXXXXXXXXXXXXXXXXXXXXXXXXXXXXXXXXXXXXXXXXXXXXXXXXXXXXXXXXXXXXXXXXXXXXXXXXXXXXXXXXXXXXXXXXXXXXXXXXXXXXXXXXXXXXXXXXXXXXXXXX",
"XXXXXXXXXXXXXXXXXXXXXXXXXXXXXXXXXXXXXXXXXXXXXXXXXXXXXXXXXXXXXXXXXXXXXXXXXXXXXXXXXXXXXXXXXXXXXXXXXXXXXXXXXXXXXXXXXXXXXXXXXXXXXXXX",
"XXXXXXXXXXXXXXXXXXXXXXXXXXXXXXXXXXXXXXXXXXXXXXXXXXXXXXXXXXXXXXXXXXXXXXXXXXXXXXXXXXXXXXXXXXXXXXXXXXXXXXXXXXXXXXXXXXXXXXXXXXXXXXXX",
"XXXXXXXXXXXXXXXXXXXXXXXXXXXXXXXXXXXXXXXXXXXXXXXXXXXXXXXXXXXXXXXXXXXXXXXXXXXXXXXXXXXXXXXXXXXXXXXXXXXXXXXXXXXXXXXXXXXXXXXXXXXXXXXX",
"XXXXXXXXXXXXXXXXXXXXXXXXXXXXXXXXXXXXXXXXXXXXXXXXXXXXXXXXXXXXXXXXXXXXXXXXXXXXXXXXXXXXXXXXXXXXXXXXXXXXXXXXXXXXXXXXXXXXXXXXXXXXXXXX",
"XXXXXXXXXXXXXXXXXXXXXXXXXXXXXXXXXXXXXXXXXXXXXXXXXXXXXXXXXXXXXXXXXXXXXXXXXXXXXXXXXXXXXXXXXXXXXXXXXXXXXXXXXXXXXXXXXXXXXXXXXXXXXXXX",
"XXXXXXXXXXXXXXXXXXXXXXXXXXXXXXXXXXXXXXXXXXXXXXXXXXXXXXXXXXXXXXXXXXXXXXXXXXXXXXXXXXXXXXXXXXXXXXXXXXXXXXXXXXXXXXXXXXXXXXXXXXXXXXXX",
"XXXXXXXXXXXXXXXXXXXXXXXXXXXXXXXXXXXXXXXXXXXXXXXXXXXXXXXXXXXXXXXXXXXXXXXXXXXXXXXXXXXXXXXXXXXXXXXXXXXXXXXXXXXXXXXXXXXXXXXXXXXXXXXX",
"                                                                                                                                ",
"                                                                                                                                ",
"                                                                                                                                ",
"                                                                                                                                ",
"                                                                                                                                ",
"                                                                                                                                ",
"                                                                                                                                ",
"                                                                                                                                ",
"                                                                                                                                "
};
