/* XPM */
static char *_[] = {
/* columns rows colors chars-per-pixel */
"65 65 79 1 ",
"  c None",
". c black",
"X c #3F0000",
"o c #282008",
"O c #38280F",
"+ c #372810",
"@ c #382810",
"# c #382910",
"$ c #003F3F",
"% c #202020",
"& c #282828",
"* c gray19",
"= c gray22",
"- c #393939",
"; c #400000",
": c #410000",
"> c #480000",
", c #500000",
"< c #600000",
"1 c #6F0000",
"2 c #700000",
"3 c #403018",
"4 c #483818",
"5 c #483918",
"6 c #503818",
"7 c #503918",
"8 c #68471F",
"9 c #684820",
"0 c #704828",
"q c #004040",
"w c #005757",
"e c #005858",
"r c #005959",
"t c #006868",
"y c #007070",
"u c #007878",
"i c #484848",
"p c #505050",
"a c #606060",
"s c #63747D",
"d c #64747D",
"f c gray44",
"g c gray47",
"h c #800000",
"j c #880000",
"k c #890000",
"l c #970000",
"z c #980000",
"x c #990000",
"c c #A00000",
"v c #B00000",
"b c #B80000",
"n c #805028",
"m c #885830",
"M c #905830",
"N c #986038",
"B c #A06038",
"V c #A86840",
"C c #B07040",
"Z c #B87848",
"A c #C87848",
"S c #D08050",
"D c #D88850",
"F c #E88858",
"G c #F09058",
"H c #F89860",
"J c #F8A070",
"K c #008080",
"L c #008181",
"P c #009898",
"I c #898989",
"U c #989898",
"Y c gray66",
"T c gray69",
"R c #F8B080",
"E c #F8B890",
"W c #E7E7E7",
"Q c gray91",
"! c #E9E9E9",
/* pixels */
"                                                                 ",
"                                                                 ",
"                                                                 ",
"                                                                 ",
"                             QWWQQQQQ                            ",
"                          QgYQQgii===%sf                         ",
"                         QUpQQg%&&==i=%sf                        ",
"                      xxxQ>iQQ04%%&&i0%>=2jj                     ",
"                    l<222Q.iQHHHHHDC%V%>.222j2                   ",
"                    <j;>>Q>iQRJHHHHRGV%>=>>>>j>                  ",
"                   xj;>ssQs=QmBFJGRBmV%sasss>>2                  ",
"                   x2>sssQsmQf.&Nn&%fVgsassss22                  ",
"                   x2>sssQsCQRERJDRERSasassssj2                  ",
"                   x2>sssQsmQHHHRDHHHSaspssssj2                  ",
"                    2>sssQssQVGZnnZGVSpspssssj2                  ",
"                    2>>ssQssTCGZNNZGCCpspsssj2>                  ",
"                    12>>sTssTAGVmmVGANiipssj22>                  ",
"       cc2          s22>>TssTAJJRJHHA9iipss22>s          c       ",
"     bcccc2        eeeeeeq&sTADDZCDDV4i&&qqeeq.s       bhh,,     ",
"    biii==h,%&&&&Kyyyyyyyyq&aSnn999994&&qqqyyyq.%&&&&,biKyi&     ",
"    Ky====Ky%&==Kuuuuuuuuuuq&&6FVM66&&&qqqeuuuuq.%===bpK.%e=&    ",
"   K.%e==K.%e&=Kyttttttttttttq&&&&&&&qqqqettttttq.%==piy%=e=i&   ",
"   y%%e&=y%%e&Kyttttttttttttttt&&&qttttttttttttttq.%ipiiee&=ii   ",
"   =ee%..=ee%=yeeeeeeeeeeeeeeee&qqyeeeeeeeeeeeeeeeq%Kyii..=iKy   ",
"   ==&....=&&qeeeeeeeeeeeeeeeee&qqyeeeeeeeeeeeeeeeeK.%e...%K.%   ",
"   =Ky=..=Ky=qqqqqqqqqqqqqqqqqq&**eqqqqqqqqqqqqqqqqy%=e=%%iy%=   ",
"   K.%e==K.%eqeqqeeeeeeeeeeee&q&**eqqeeeeeeeeeee&q&%ee&=Kyiiee   ",
"   y%%e&=y%%e.eqqq&&&&&&&&&&&qq&**eqqq&&&&&&&&&&q*&% ==K.%e=i&   ",
"   hee%&==ee  qeqqeeeeeeeeeee&q&**eqqeeeeeeeeee&q&&  hiy%=e=&>   ",
"   v>&&===>>  .eqqq&&&&&&&&&&qq&**eqqq&&&&&&&&&q*&   vh=ee%&>>   ",
"   >........   eqqqqqqqqqqqqqqq&**eqqqqqqqqqqqqq&&   >........   ",
"   chiiKy=h>    eqqqqqqqqqqqqqq&**eqqqqqqqqqqqqq&    chiiii&h>   ",
"   cp=K.%e=;    eqqqqqqqqqqqqqq&**eqqqqqqqqqqqq*&    KyiiiiKy>   ",
"   p==y%%e&=    $qqqqqqqqqqqqqq&**eqqqqqqqqqqqq&     .%e=iK.%e   ",
"   ====ee%&==    eqqqqqqqqqqqqq&**eqqqqqqqqqqqq&     %=e=iy%=e   ",
"   Ky==..&=Ky    &&&&&&&&&&&&&&%..%&&&&&&&&&&&&&     ee&..iee&   ",
"   .%e....K.%    s.............................s     i=...%i==   ",
"   %%e&..=y%%    hhhhhhhhhhhhh22222<<<<<<<,,,>>;     Kyi%%iKyi   ",
"   ee%&Ky==ee    X;;;;;;;;;;;;;;;;;;;;;;;;;;;;;X     .%e=iK.%e   ",
"   =&&K.%e&&      .............................      %=e=iy%=e   ",
"   x==y%%e&;     e%............&&..............      ee&=iiee;   ",
"   xh==ee%h;    ye%%%%%%%%%%%%%&&yeeeeeeeeeeeeee     x&&&&&&hX   ",
"    ,,>>>;      yeeeqqqqqqqqqqqqqyeeeeeeeeeeeeeee     ,,>>>;;    ",
"                w&&&&&&&&&&&&&&&%qqqqqqqqqqqqqqqq                ",
"                 &&&&&&&&&&&&&&&%q&&&&&&&&&&&&&&$                ",
"                 %%%%%%%%%%%%%%%%qyeeeeeeeeeeee&q                ",
"                 e&&&&&&&&&&&&&%sqyeeeeeeeeeeee&q                ",
"                 e&&&&&&&&&&&&&%ssyeeeeeeeeeeee&s                ",
"                ye&&&&&&&&&&&&&%ssKyyyyyyyyyyyyyy                ",
"               PKe*************&ssPPPPPPPPPPPPPPPy               ",
"               Pyeqqqqqqqqqqqqq&&TPKKKKKKKKKKKKKKei              ",
"              IKqqqqqqqqqqqqqqq&=UKeeeeeeeeeeeeeeqp              ",
"              fyq**************&&pyqqqqqqqqqqqqqq&               ",
"              Ke&&&&&&&&&&&&&&&&%seq&&&&&&&&&&&&q&               ",
"              yq%%%%%%%%%%%%%%%%%sq&&qqqqqqqqqq&&                ",
"             Kyyyq%%%%%%%%%%%%&&%sssyeeeeeeeeee&                 ",
"             Kyyyq&%%%%%%%%%%%&&%sssyeeeeeeeeee&                 ",
"             Kyyyeq&&&&&&&&&&&&&%sssyeeeeeeeeee&                 ",
"             Kyyyyeq%%%%%%%&&&&&%sssyeeeeeeeeee&                 ",
"             Kyyyyyqsssssss&&&&&%sssyeeeeeeeeee&                 ",
"             Kyyyyyq43@@@@@&&&&&%yyyyeeeeeeeeee&qqqq@@4          ",
"       96643@y&&&&&&ooooooo%%%%%%yyyyyyyyyyyyyyyyyyqoo@@@@468    ",
"   96643@@@@@ooooooooooooooooooooyyyyyyqqqqqqyyyyyyqooo@@@@@46   ",
"             @+O@@@@@@@@@@@@@@@@@KyyyyyqqqqqqKyyyyyq333333446    ",
"                             ssssyqqqqqssssssyqqqqq&ss           "
};
