/* XPM */
static char *_[] = {
/* columns rows colors chars-per-pixel */
"65 65 89 1 ",
"  c None",
". c black",
"X c #3F0000",
"o c #282008",
"O c #38270F",
"+ c #37280F",
"@ c #38280F",
"# c #38290F",
"$ c #392710",
"% c #382810",
"& c #392810",
"* c #382910",
"= c #392910",
"- c #003F3F",
"; c #202020",
": c #282828",
"> c gray16",
", c gray19",
"< c gray22",
"1 c #393939",
"2 c #400000",
"3 c #410000",
"4 c #480000",
"5 c #500000",
"6 c #600000",
"7 c #6F0000",
"8 c #700000",
"9 c #4F3817",
"0 c #403018",
"q c #413018",
"w c #403118",
"e c #413019",
"r c #483818",
"t c #513717",
"y c #503818",
"u c #513918",
"i c #684820",
"p c #704828",
"a c #004040",
"s c #004141",
"d c #005858",
"f c #005959",
"g c #006868",
"h c #006F6F",
"j c #007070",
"k c #007878",
"l c gray25",
"z c #484848",
"x c #505050",
"c c #606060",
"v c #62737D",
"b c #63747D",
"n c #64747E",
"m c gray44",
"M c gray47",
"N c #800000",
"B c #880000",
"V c #890000",
"C c #970000",
"Z c #980000",
"A c #990000",
"S c #A00000",
"D c #B00000",
"F c #B80000",
"G c #805028",
"H c #885830",
"J c #905830",
"K c #986038",
"L c #A06038",
"P c #A86840",
"I c #B07040",
"U c #B87848",
"Y c #C87848",
"T c #D08050",
"R c #D88850",
"E c #E88858",
"W c #F09058",
"Q c #F89860",
"! c #F8A070",
"~ c #008080",
"^ c #009898",
"/ c #989898",
"( c gray66",
") c gray69",
"_ c #F8B080",
"` c #F8B890",
"' c #E7E7E7",
"] c gray91",
"[ c #E9E9E9",
/* pixels */
"                                                                 ",
"                                                                 ",
"                             ]'']]]]]                            ",
"                          ]M(]]Mzz<<<;bm                         ",
"                         ]/x]]M;::<<z<;bm                        ",
"                      AAA]4z]]pr;;::zp;4<8BB                     ",
"                    C6888].z]QQQQQRI;P;4.888B8                   ",
"                    6B244]4z]_!QQQQ_WP;4<4444B4                  ",
"                   AB24bb]b<]HLE!W_LHP;bcbbb448                  ",
"                   A84bbb]bH]m.:KG:;mPMbcbbbb88                  ",
"                   A84bbb]bI]_`_!R_`_TcbcbbbbB8                  ",
"                   A84bbb]bH]QQQ_RQQQTcbxbbbbB8                  ",
"                    84bbb]bb]PWUGGUWPTxbxbbbbB8                  ",
"                    844bb]bb)IWUKKUWIIxbxbbbB84                  ",
"                    7844b)bb)YWPHHPWYKzzxbbB884                  ",
"       SS8          b8844)bb)Y!!_!QQYizzxbb884b          S       ",
"     FSSSS8        dddddda:b)YRRUIRRPrz::aadda.b       FNN55     ",
"    Fzzz<<N5;::::~jjjjjjjja:cTGGiiiiir::aaajjja.;::::5Fz~jz:     ",
"    ~j<<<<~j;:<<~kkkkkkkkkka::yEPJyy:::aaadkkkka.;<<<Fx~.;d<:    ",
"   ~.;d<<~.;d:<~jgggggggggggga:::::::aaaadgggggga.;<<xzj;<d<z:   ",
"   j;;d:<j;;d:~jggggggggggggggg:::agggggggggggggga.;zxzzdd:<zz   ",
"   <dd;..<dd;<jdddddddddddddddd:aajddddddddddddddda;~jzz..<z~j   ",
"   <<:....<::addddddddddddddddd:aajdddddddddddddddd~.;d...;~.;   ",
"   <~j<..<~j<aaaaaaaaaaaaaaaaaa:,,daaaaaaaaaaaaaaaaj;<d<;;zj;<   ",
"   ~.;d<<~.;dadaadddddddddddd:a:,,daaddddddddddd:a:;dd:<~jzzdd   ",
"   j;;d:<j;;d.daaa:::::::::::aa:,,daaa::::::::::a,:; <<~.;d<z:   ",
"   Ndd;:<<dd  adaaddddddddddd:a:,,daadddddddddd:a::  Nzj;<d<:4   ",
"   D4::<<<44  .daaa::::::::::aa:,,daaa:::::::::a,:   DN<dd;:44   ",
"   4........   daaaaaaaaaaaaaaa:,,daaaaaaaaaaaaa::   4........   ",
"   SNzz~j<N4    daaaaaaaaaaaaaa:,,daaaaaaaaaaaaa:    SNzzzz:N4   ",
"   Sx<~.;d<2    daaaaaaaaaaaaaa:,,daaaaaaaaaaaa,:    ~jzzzz~j4   ",
"   x<<j;;d:<    -aaaaaaaaaaaaaa:,,daaaaaaaaaaaa:     .;d<z~.;d   ",
"   <<<<dd;:<<    daaaaaaaaaaaaa:,,daaaaaaaaaaaa:     ;<d<zj;<d   ",
"   ~j<<..:<~j    ::::::::::::::;..;:::::::::::::     dd:..zdd:   ",
"   .;d....~.;    b.............................b     z<...;z<<   ",
"   ;;d:..<j;;    NNNNNNNNNNNNN888886666666555442     ~jz;;z~jz   ",
"   dd;:~j<<dd   6222222222222222222222222222222X     .;d<z~.;d   ",
"   <::~.;d::    jddddddddddddddda..............      ;<d<zj;<d   ",
"   A<<j;;d:2    jddddddddddddddda:addddddddddddd     dd:<zzdd2   ",
"   AN<<dd;N2    aaaaaaaaaaaaaaaaa:aaaaaaaaaaaaaaa    A::::::NX   ",
"    554442      ajddddddddddddd,a:,,,aaaaaaaaaaa      5544422    ",
"               bajddddddddddddd:,:,,,,aaaaaaaaaa                 ",
"               ^~~~~~~~~~~~~~~~j:b;;;;;;;:::::::                 ",
"               ^^^^^^^^^^^^^^^^~bb,,,,,,,,aaaaa:                 ",
"               ^~~~~~~~~~~~~~~~j:b,,,,,,,,,aaaa:                 ",
"               ~jjjjjjjjjjjjjjjd<ba,,,,,,,,,aaa:                 ",
"               jddddddddddddddda:bda,,,,,,,,,aa:                 ",
"               daaaaaaaaaaaaaaa:bb~d,,,,,,,,,ajjj                ",
"                ::::::::::::::::bb^jaaaaaaaaad~~~j               ",
"                 ;;;;;;;;;;;;;bbbz^d,,,,,,,,,djjjd               ",
"                 d:::::::::::;bbbx~d,,,,,,,,,adddax              ",
"              dddj:::::::::::;:::<ja:::::::::,aaa:               ",
"             gdddj:::::::::::;aa: da::::::::::,aa:               ",
"             jddddaaaaaaaaaaaaaa:  :;;;;;;;;;;;;:                ",
"             jdddddaaaaaaaaaaaaa:   :::::::::::;                 ",
"             jdddddd:::::::daaaa:   d,,,,,,,,,,:                 ",
"             ~jjjjjj       jdddd:   da,,,,,,,,,:                 ",
"              aaaaa         -aaa    da,,,,,,,,,:                 ",
"                                    daaaaaaaaaa:b                ",
"                                 :::daaaaaaaaaa::::              ",
"                     %O%##%%%%%%%jddddddddddddddddd:%%rt         ",
"       iyyre%oooooooooooooooooooojdddddaaaaaajddddd:oo%%%%r9     ",
"   iyyre%%%%%oooooooooooooooooooo~jjjjjaaaaaa~jjjjj:ooo%%%%%ry   ",
"                O%+%+%%+%$+%%%%%#jaaaaa:<lllljaaaaa:eeeee        ",
"                                                                 "
};
