/* XPM */
static char *_[] = {
/* columns rows colors chars-per-pixel */
"65 65 81 1 ",
"  c None",
". c black",
"X c gray12",
"o c #3F0000",
"O c #282008",
"+ c #382810",
"@ c #003F3F",
"# c #202020",
"$ c #282828",
"% c gray19",
"& c gray22",
"* c #393939",
"= c #400000",
"- c #410000",
"; c #480000",
": c #500000",
"> c #600000",
", c #6F0000",
"< c #700000",
"1 c #403018",
"2 c #473818",
"3 c #483818",
"4 c #4F3818",
"5 c #513817",
"6 c #503818",
"7 c #684820",
"8 c #694920",
"9 c #684821",
"0 c #704828",
"q c #004040",
"w c #005858",
"e c #006868",
"r c #007070",
"t c #007171",
"y c #007878",
"u c #484848",
"i c #505050",
"p c #606060",
"a c #63737C",
"s c #63737D",
"d c #63747C",
"f c #63747D",
"g c #64747D",
"h c gray44",
"j c gray47",
"k c #800000",
"l c #880000",
"z c #890000",
"x c #970000",
"c c #980000",
"v c #990000",
"b c #A00000",
"n c #B00000",
"m c #B80000",
"M c #805028",
"N c #885830",
"B c #905830",
"V c #986038",
"C c #A06038",
"Z c #A86840",
"A c #B07040",
"S c #B87848",
"D c #C87848",
"F c #D08050",
"G c #D88850",
"H c #E88858",
"J c #F09058",
"K c #F89860",
"L c #F8A070",
"P c #008080",
"I c #009898",
"U c #888888",
"Y c #989898",
"T c gray66",
"R c gray69",
"E c #F8B080",
"W c #F8B890",
"Q c #C1C1C1",
"! c #E7E7E7",
"~ c gray91",
"^ c #E9E9E9",
/* pixels */
"                                                                 ",
"                                                                 ",
"                                                                 ",
"                                                                 ",
"                             ~!!~~~~~                            ",
"                          ~jT~~juu&&&#fh                         ",
"                         ~Yi~~j#$$&&u&#fh                        ",
"                      vvv~;u~~03##$$u0#;&<ll                     ",
"                    x><<<~.u~KKKKKGA#Z#;.<<<l<                   ",
"                    >l=;;~;u~ELKKKKEJZ#;&;;;;l;                  ",
"                   vl=;ff~f&~NCHLJECNZ#fpfff;;<                  ",
"                   v<;fff~fN~h.$VM$#hZjfpffff<<                  ",
"                   v<;fff~fA~EWELGEWEFpfpffffl<                  ",
"                   v<;fff~fN~KKKEGKKKFpfiffffl<                  ",
"                    <;fff~ff~ZJSMMSJZFififfffl<                  ",
"                    <;;ff~ffRAJSVVSJAAififffl<;                  ",
"                    ,<;;fRffRDJZNNZJDVuuiffl<<;                  ",
"       bb<          f<<;;RffRDLLELKKD7uuiff<<;f          b       ",
"     mbbbb<        wwwwwwq$fRDGGSAGGZ3u$$qqwwq.f       mkk::     ",
"    muuu&&k:#$$$$Prrrrrrrrq$pFMM777773$$qqqrrrq.#$$$$:muPru$     ",
"    Pr&&&&Pr#$&&Pyyyyyyyyyyq$$6HZB66$$$qqqwyyyyq.#&&&miP.#w&$    ",
"   P.#w&&P.#w$&Preeeeeeeeeeeeq$$$$$$$qqqqweeeeeeq.#&&iur#&w&u$   ",
"   r##w$&r##w$Preeeeeeeeeeeeeee$$$qeeeeeeeeeeeeeeq.#uiuuww$&uu   ",
"   &ww#..&ww#&rwwwwwwwwwwwwwwww$qqrwwwwwwwwwwwwwwwq#Pruu..&uPr   ",
"   &&$....&$$qwwwwwwwwwwwwwwwww$qqrwwwwwwwwwwwwwwwwP.#w...#P.#   ",
"   &Pr&..&Pr&qqqqqqqqqqqqqqqqqq$%%wqqqqqqqqqqqqqqqqr#&w&##ur#&   ",
"   P.#w&&P.#wqwqqwwwwwwwwwwww$q$%%wqqwwwwwwwwwww$q$#ww$&Pruuww   ",
"   r##w$&r##w.wqqq$$$$$$$$$$$qq$%%wqqq$$$$$$$$$$q%$# &&P.#w&u$   ",
"   kww#$&&ww  qwqqwwwwwwwwwww$q$%%wqqwwwwwwwwww$q$$  kur#&w&$;   ",
"   n;$$&&&;;  .wqqq$$$$$$$$$$qq$%%wqqq$$$$$$$$$q%$   nk&ww#$;;   ",
"   ;........   wqqqqqqqqqqqqqqq$%%wqqqqqqqqqqqqq$$   ;........   ",
"   bkuuPr&k;    wqqqqqqqqqqqqqq$%%wqqqqqqqqqqqqq$    bkuuuu$k;   ",
"   bi&P.#w&=    wqqqqqqqqqqqqqq$%%wqqqqqqqqqqqq%$    PruuuuPr;   ",
"   i&&r##w$&    @qqqqqqqqqqqqqq$%%wqqqqqqqqqqqq$     .#w&uP.#w   ",
"   &&&&ww#$&&    wqqqqqqqqqqqqq$%%wqqqqqqqqqqqq$     #&w&ur#&w   ",
"   Pr&&..$&Pr    $$$$$$$$$$$$$$#..#$$$$$$$$$$$$$     ww$..uww$   ",
"   .#w....P.#    f.............................f     u&...#u&&   ",
"   ##w$..&r##    kkkkkkkkkkkkk<<<<<>>>>>>>:::;;=     Pru##uPru   ",
"   ww#$Pr&&ww    ==============================o     .#w&uP.#w   ",
"   &$$P.#w$$      .............................      #&w&ur#&w   ",
"   v&&r##w$=      ...............$$#...........$     ww$&uuww=   ",
"   vk&&ww#k=     wwwwwwwwwwwwwwwq$q#...........$$    v$$$$$$ko   ",
"    ::;;;=      rwwwwwwwwwwwwwwwq$qqqqqqqqqqqqqqq     ::;;;==    ",
"                qqqqqqqqqqqqqqqqq$$$$$$$$$$$$$$$X                ",
"                @$$$$$$$$$$$$$$$q$$$$$$$$$$$$$$$                 ",
"                @wwwwwwwwwwwwww$q###############                 ",
"                qwwwwwwwwwwwwww$qfq$$$$$$$$$$$$#                 ",
"                fwwwwwwwwwwwwww$ffq$$$$$$$$$$$$#                 ",
"                PPPPPPPPPPPPPPPwffq%$$$$$$$$$$$#%                ",
"               IIIIIIIIIIIIIIIIrffq%%%%%%%%%%%%$%$               ",
"              QIPPPPPPPPPPPPPPPw$YIwwqqqqqqqqqqqq$               ",
"              UPwwwwwwwwwwwwwwwq&pPqqqqqqqqqqqqqq$&              ",
"               rqqqqqqqqqqqqqqq$$&rq%%%%%%%%%%%%%$$              ",
"               w$$$$$$$$$$$$$$q$fPw$$$$$$$$$$$$$$$$              ",
"                $qqqqqqqqqqqq$$$frq###############$              ",
"                 rwwwwwwwwwww$fffPrrq##########$$$$#             ",
"                 rwwwwwwwwwww$fffPrrq$#########$$$$#             ",
"                 rwwwwwwwwwww$fffPrrwq$$$$$$$$$$$$$#             ",
"                 rwwwwwwwwwww$fffPrrrwq######$$$$$$#             ",
"                 rwwwwwwwwwww$fffPrrrrqffffff+$$$$$#f            ",
"              rrrrwwwwwwwwwww$qqqPrrrrq+OOOOO+$$$$$#++3          ",
"       76631+rrrrrrrrrrrrrrrrrrrqP#####OOOOOOO######OO++++33     ",
"   76631+++++rrrrrrrqqqqqqqrrrrrqOOOOOOOOOOOOOOOOOOOOOO+++++36   ",
"       65311+PrrrrrrqqqqqqqPrrrrq+++++++++++++++++++11111123     ",
"            frqqqqqqfffffffrqqqq@fffffff                         "
};
