/* XPM */
static char *tile001[] = {
/* columns rows colors chars-per-pixel */
"65 66 161 2 ",
"   c black",
".  c black",
"X  c #808080",
"o  c #5B6D80",
"O  c #617380",
"+  c #979797",
"@  c #777777",
"#  c gray38",
"$  c gray47",
"%  c #979797",
"&  c gray59",
"*  c #959595",
"=  c #67757C",
"-  c #617979",
";  c #717171",
":  c #808080",
">  c #627676",
",  c #646F7A",
"<  c #687880",
"1  c #65777D",
"2  c #637680",
"3  c #64747C",
"4  c gray69",
"5  c #AFAFAF",
"6  c gray69",
"7  c gray69",
"8  c #63757D",
"9  c gray69",
"0  c #B1B1B1",
"q  c gray69",
"w  c gray66",
"e  c gray66",
"r  c gray60",
"t  c #666699",
"y  c gray70",
"u  c #A7A7A7",
"i  c gray69",
"p  c gray60",
"a  c gray47",
"s  c #777777",
"d  c #555555",
"f  c #505050",
"g  c #505050",
"h  c #004040",
"j  c #6D6D6D",
"k  c #556A80",
"l  c #5A7878",
"z  c #667380",
"x  c #607580",
"c  c #68717B",
"v  c #3C3C3C",
"b  c gray22",
"n  c #3A3A3A",
"m  c #393939",
"M  c #62747D",
"N  c #62747C",
"B  c #637180",
"V  c #64747C",
"C  c gray40",
"Z  c #004040",
"A  c None",
"S  c #647A7A",
"D  c #00B0B0",
"F  c #004040",
"G  c #004040",
"H  c #004040",
"J  c #004141",
"K  c #004141",
"L  c #004141",
"P  c #63757D",
"I  c #005858",
"U  c #007272",
"Y  c #004040",
"T  c #5D7480",
"R  c #004040",
"E  c #005858",
"W  c #558080",
"Q  c #00B0B0",
"!  c #667780",
"~  c #60757C",
"^  c #004040",
"/  c #007070",
"(  c #004141",
")  c #004040",
"_  c #003D3D",
"`  c #004040",
"'  c #004141",
"]  c #004040",
"[  c #004040",
"{  c #004040",
"}  c #004040",
"|  c #003F3F",
" . c #004646",
".. c #004242",
"X. c #004141",
"o. c #627689",
"O. c #64747C",
"+. c #584022",
"@. c #5A4120",
"#. c #5A4020",
"$. c #58401F",
"%. c #58401F",
"&. c #58401F",
"*. c #58411F",
"=. c #503818",
"-. c #503818",
";. c #503818",
":. c #503818",
">. c #4F3918",
",. c #503818",
"<. c #584020",
"1. c #584020",
"2. c #58401F",
"3. c #594020",
"4. c #584020",
"5. c #584020",
"6. c #4F3817",
"7. c #503818",
"8. c #503719",
"9. c #503818",
"0. c #503818",
"q. c #584121",
"w. c #594020",
"e. c #554020",
"r. c #573F20",
"t. c #594020",
"y. c #584020",
"u. c cyan",
"i. c white",
"p. c #555555",
"a. c #55AAAA",
"s. c #557171",
"d. c #607080",
"f. c #64727B",
"g. c #63747D",
"h. c #63757D",
"j. c #6B7986",
"k. c gray69",
"l. c gray47",
"z. c #606060",
"x. c #888888",
"c. c #D0D0D0",
"v. c #004040",
"b. c #C0C0C0",
"n. c #989898",
"m. c #484848",
"M. c #505050",
"N. c gray22",
"B. c black",
"V. c #009898",
"C. c #007070",
"Z. c #008080",
"A. c #005858",
"S. c #63747D",
"D. c #00C8C8",
"F. c #00B0B0",
"G. c #584020",
"H. c #503818",
"J. c #483818",
"K. c #382810",
"L. c white",
/* pixels */
"                                                                                                                                  ",
"                                                                                                                                  ",
"                                                                                                                                  ",
"                                                                                                                                  ",
"                                                                                                                                  ",
"                                                                                                                                  ",
"                                                                                                                                  ",
"                                                                                                                                  ",
"                                                                                                                                  ",
"                                                                                                                                  ",
"                                                                                                                                  ",
"                                                                                                                                  ",
"                                                                                                                                  ",
"                                                                                                                                  ",
"                                                                                                                                  ",
"                                                                                                                                  ",
"                                                                                                                                  ",
"                                                                                                                                  ",
"                                                                                                                                  ",
"                                                                                                                                  ",
"                                                                                                                                  ",
"                                                                                                                                  ",
"                                                                                                                                  ",
"                                                                                                                                  ",
"                                                                                                                                  ",
"                                                                                                                                  ",
"                                                                                                                                  ",
"                                                                                                                                  ",
"                                                                                                                                  ",
"                                                                                                                                  ",
"                                                                                                                                  ",
"                                                                                                                                  ",
"                                                                                                                                  ",
"                                                                                                                                  ",
"                                                                                                                                  ",
"                                                                                                                                  ",
"                                                                                                                                  ",
"                                                                                                                                  ",
"                                                                                                                                  ",
"                                                                                                                                  ",
"                                                                                                                                  ",
"                                                                                                                                  ",
"                                                                                                                                  ",
"                                                                                                                                  ",
"                                                                                                                                  ",
"                                                                                                                                  ",
"                                                                                                                                  ",
"                                                                                                                                  ",
"                                                        . X o O + @ # $ % & * = - ; :                                             ",
"                          X > , < 1 2 3 4 5 6 7 8 9 0 q k.k.k.k.l.z.z.z.z.z.z.x.k.k.k.w e r t                                     ",
"                    y u i k.k.k.k.k.k.k.c.c.c.c.v.c.c.c.c.c.c.c.c.b.b.b.b.b.b.b.b.b.b.b.b.k.p                                     ",
"                    a l.l.l.l.l.l.l.l.l.x.n.n.n.m.n.n.n.n.n.n.n.n.n.n.n.n.n.n.n.x.x.x.x.l.l.s                                     ",
"                    d f g M.M.M.M.M.M.M.M.M.M.M.v.M.M.M.M.M.M.M.M.M.M.M.M.M.M.M.M.M.M.M.M.M.h                                     ",
"                          : j k l z x c v b n m M N.N.N.N.N.N.N.N.N.N.N.N.N.N.N.N.N.B.B.B.v.N                                     ",
"                                                B V.C.V.C.V.Z.A.V C Z v.S.S.B.v.v.v.B.M.B.B.A S                                   ",
"                                                  D C.D.C.D.C.F .   X G H J K L P v.B.B.B.B.B.I U                                 ",
"                                                t F.V.D.V.V.C.Y                   T R B.B.B.B.B.E                                 ",
"                                              W Q D.D.D.D.A.v.!                     ~ v.B.B.B.B.^                                 ",
"                                              / C.C.C.C.C.Z.( :                       ) B.B.B.v._                                 ",
"                                              ` ' ] [ { } |  .                          ..X.X._                                   ",
"                                                                                                                                  ",
"                                                                                                                                  ",
"                                    : o.O.+.@.#.$.%.&.*.=.-.;.:.>.,.<.1.2.3.3.3.3.2.1.<.4.5.6.7.8.9.0.q.w.T                       ",
"                              . e.r.t.G.G.G.H.H.H.H.J.J.J.K.K.K.K.J.J.J.J.J.J.J.J.J.J.J.J.J.K.K.K.K.K.J.H.G.y.                    ",
"      . . u.i.: : p.a.X C W j s.k d., f.g.S.S.G.G.G.G.G.G.H.H.H.H.H.H.H.H.H.H.H.H.H.H.H.H.H.H.H.H.H.H.H.G.G.h.j.C i.              ",
"                                                                                                                                  "
};
