/* XPM */
static char *tile002[] = {
/* columns rows colors chars-per-pixel */
"65 66 202 2 ",
"   c black",
".  c #6D6D92",
"X  c #808000",
"o  c #F8F851",
"O  c #F9F951",
"+  c #F8F850",
"@  c #F8F851",
"#  c #F8F850",
"$  c None",
"%  c #F8F850",
"&  c #919100",
"*  c #818100",
"=  c #686800",
"-  c #686800",
";  c black",
":  c #558080",
">  c #637180",
",  c #63747C",
"<  c #818100",
"1  c #595900",
"2  c gray40",
"3  c #697878",
"4  c #95D3D3",
"5  c #49BFBF",
"6  c #21AFAF",
"7  c #00A0A0",
"8  c #63747D",
"9  c #555555",
"0  c gray80",
"q  c #AAAAAA",
"w  c #808080",
"e  c #408080",
"r  c #55AAAA",
"t  c #666680",
"y  c #667777",
"u  c #607580",
"i  c #67757C",
"p  c #61747D",
"a  c #63747E",
"s  c #63747D",
"d  c #70C8C8",
"f  c #6FC7C7",
"g  c #70C8C8",
"h  c #00A0A0",
"j  c #008787",
"k  c #008282",
"l  c gray90",
"z  c #98D8D8",
"x  c #98D8D8",
"c  c #006767",
"v  c #668080",
"b  c #005858",
"n  c #009C9C",
"m  c #004040",
"M  c #003E3E",
"N  c #3A3A3A",
"B  c black",
"V  c #202020",
"C  c blue",
"Z  c cyan",
"A  c #808080",
"S  c black",
"D  c black",
"F  c #608080",
"G  c #6A6A80",
"H  c #6D8080",
"J  c #5A7878",
"K  c #5E7979",
"L  c #687480",
"P  c #66707A",
"I  c #647680",
"U  c #63737B",
"Y  c #5F757C",
"T  c #657280",
"R  c #617380",
"E  c #647480",
"W  c #667580",
"Q  c #202020",
"!  c #202020",
"~  c gray13",
"^  c black",
"/  c black",
"(  c #64737C",
")  c white",
"_  c #62737E",
"`  c gray13",
"'  c #627689",
"]  c #667A7A",
"[  c #65777D",
"{  c #222222",
"}  c black",
"|  c black",
" . c black",
".. c gray22",
"X. c gray22",
"o. c #666699",
"O. c #6D6D6D",
"+. c #62727D",
"@. c #63757D",
"#. c gray22",
"$. c #63747C",
"%. c #62737E",
"&. c #373737",
"*. c gray22",
"=. c #373737",
"-. c gray22",
";. c #393939",
":. c gray24",
">. c #202020",
",. c #202020",
"<. c #202020",
"1. c #202020",
"2. c #202020",
"3. c #222222",
"4. c #353535",
"5. c gray22",
"6. c gray22",
"7. c gray22",
"8. c #373737",
"9. c #6A8080",
"0. c #646F7A",
"q. c #583F21",
"w. c #583F1F",
"e. c #58411F",
"r. c #513819",
"t. c #503818",
"y. c #513817",
"u. c #4F3817",
"i. c #503719",
"p. c #513818",
"a. c #503817",
"s. c #4F3817",
"d. c #503818",
"f. c #503818",
"g. c #503818",
"h. c #503818",
"j. c #503818",
"k. c #503818",
"l. c #503818",
"z. c #503818",
"x. c #513817",
"c. c #503718",
"v. c #503818",
"b. c #503917",
"n. c #503818",
"m. c #503817",
"M. c #503817",
"N. c #503717",
"B. c #513918",
"V. c #503819",
"C. c #503818",
"Z. c #4F3817",
"A. c #513819",
"S. c #513819",
"D. c #4E3A19",
"F. c #513819",
"G. c #513A17",
"H. c #494924",
"J. c #617979",
"K. c #574021",
"L. c #58401F",
"P. c #60757C",
"I. c #574021",
"U. c #594121",
"Y. c #63747E",
"T. c #65747E",
"R. c #63747D",
"E. c #707000",
"W. c #585800",
"Q. c #404000",
"!. c #484800",
"~. c #00A0A0",
"^. c #006868",
"/. c #282828",
"(. c black",
"). c #70C8C8",
"_. c gray66",
"`. c #98D8D8",
"'. c #484848",
"]. c gray22",
"[. c #989898",
"{. c #B8E8E8",
"}. c #007070",
"|. c #20B0B0",
" X c #009898",
".X c #008080",
"XX c #007878",
"oX c #008888",
"OX c #004040",
"+X c gray44",
"@X c #005858",
"#X c #C0C0C0",
"$X c #48C0C0",
"%X c #606060",
"&X c #202020",
"*X c #63747D",
"=X c #503818",
"-X c #584020",
";X c #483818",
":X c #403018",
">X c #382810",
",X c white",
/* pixels */
"                                                                                                                                  ",
"                                                                                                                                  ",
"                                                                                                                                  ",
"                                                                                                                                  ",
"                                                                                                                                  ",
"                                                                                                                                  ",
"                                                                                                                                  ",
"                                                                                                                                  ",
"                                                                                                                                  ",
"                                                                                                                                  ",
"                                                                                                                                  ",
"                                                                                                                                  ",
"                                                                                                                                  ",
"                                                                                                                                  ",
"                                                                                                                                  ",
"                                                                                                                                  ",
"                                                                                                                                  ",
"                                                                                                                                  ",
"                                                                                                                                  ",
"                                                                                                                                  ",
"                                                                                                                                  ",
"                                                                                                                                  ",
"                                                                                                                                  ",
"                                                                                                                                  ",
"                                                                                                                                  ",
"                                                                                                                                  ",
"                                                                                                                                  ",
"                                                                                                                                  ",
"                                                                                                                                  ",
"                                                                                                                                  ",
"                                                                                                                                  ",
"                                                                                                                                  ",
"                                                                                                                                  ",
"                                                                                                                                  ",
"                                                                                                                                  ",
"                                                                                                                                  ",
"                                                                                                                                  ",
"                                                                                                                                  ",
"                                                                                                                                  ",
"                                                                                                                                  ",
"                                                                                                                                  ",
"                                                                                                                                  ",
"                                                                                                                                  ",
"                                                                                                                                  ",
"                                                                                                                                  ",
"                                                                        . X o O + @ # $ % & * = - ;                               ",
"                                                                  : > , < E.E.E.E.E.E.E.E.W.Q.Q.!.1                               ",
"                                                      2 3 4 5 6 7 ~.~.^.Q.Q.Q.Q.Q.Q.Q.Q.Q.Q./.(.Q.!.8 .                           ",
"                9 0 q : w e r w : t y u i p a s d f g )._.`.`.`.`.`.`.^.'.'.].].]././././././.`.`.`.`.).h j k                     ",
"          l z x `.[.[.).{.{.{.{.{.{.{.{.{.{.{.{.{.{.{.{.}.|.|.|.|.|.|. X.XXX}.}.}.}.}.XX.X X|.).).).).~.oX.X.Xc                   ",
"        v ^.^.OXOX+X+X(..X.X.X.X.X.X.X.X.X.X.X@X X|.|. X@X.X.X.X.X.XXXXX}.^.^.^.^.^.^.^.^.}.XX.X.X.X.X}.}.^.@Xb                 ; ",
"        n #X$X$X$X%X%X}.~.~.~.~.~.~.~.~.~.~.~.~.}.}.}.}.].@X@X@X@X@X@X@X@X@X@X@X@X@X@X@X@X@X@X@X@X@X@X@X@X@X@Xm                 ; ",
"        y @XOXOXOX'.'.(.OXOXOXOXOXOXOXOXOXOXOX(.OXOXOXOX/.OXOXOXOXOXOXOXOXOXOXOXOXOXOXOXOXOXOXOXOXOXOXOXOXOXOXM                 ; ",
"          N B (.(.].].(.(.(.(.(.(.(.(.(.(.(.(.(.&X&X&X&X(.&X&X&X&X&X&X&X&X&X&X&X&X&X&X&X&X&X&X&X&X&X&X&X&X&XV C                 Z ",
"              A r S D F v G H J K L P I U Y T R E W Q ].].].].].! ~ ^ / (.(.(.(.&X(.*X(.(.@X(.(.(.(.(.].(.(.(                   ) ",
"                                                    _ /.'.'.'.'.`       ) : ' ] [ { } |  .(.(.(.(.(.(.(.(.(...A                 A ",
"                                                    X.'.'.'.'.'.&Xo.                      O.+.@.].(.(.(.(.(.(.#.                9 ",
"                                                    $.].'.'.'.'.].Y                             %.].(.(.].(.(.&.                e ",
"                                                    *.'.'.'.'.'.'.=.                              -.(.(.(.(.(.;.                o.",
"                                                    :.>.,.<.&X1.2.3.                                4.5.6.7.8.                  F ",
"                                                                                                                                9.",
"                      0.q.w.e.r.t.y.u.i.p.a.s.d.f.g.h.j.k.l.z.x.x.c.=X=X=Xc.c.x.z.v.b.j.n.m.M.N.a.B.V.C.Z.A.S.D.F.G.H.          J.",
"                    K.-X=X=X=X=X;X;X;X;X;X;X;X;X;X;X;X;X:X:X:X:X:X:X:X:X:X:X:X;X;X;X;X;X;X;X;X;X;X;X;X:X:X:X:X:X:X:X;Xj.L.2     P.",
"                    I.-X=X=X=X=X;X;X;X;X;X;X;X;X;X;X;X;X:X:X>X>X>X>X>X>X>X:X:X;X;X;X;X;X;X;X;X;X;X;X;X:X>X>X>X>X>X:X;X=X=XU.    Y.",
"    ; ; ) A 9 r 2 F y %.*X-X-X-X-X=X=X=X=X=X=X=X=X=X=X=X;X;X;X;X;X;X;X;X;X;X;X=X=X=X=X=X=X=X=X=X=X=X=X=X;X;X;X;X=X=X-X-X-XT.; 9 R.",
"                                                                                                                                  "
};
