/* XPM */
static char *tile003[] = {
/* columns rows colors chars-per-pixel */
"65 66 123 2 ",
"   c black",
".  c blue",
"X  c #0000AF",
"o  c #3F3FF8",
"O  c #5960F9",
"+  c #7880F7",
"@  c #5861F9",
"#  c #55AAAA",
"$  c #808080",
"%  c #000087",
"&  c #5760F8",
"*  c #5555AA",
"=  c #0087E0",
"-  c #00F7F7",
";  c #777777",
":  c #009696",
">  c gray12",
",  c #1E1E1E",
"<  c #202020",
"1  c gray13",
"2  c black",
"3  c #62767C",
"4  c #63737B",
"5  c #558080",
"6  c #627676",
"7  c #484800",
"8  c None",
"9  c #505000",
"0  c #505000",
"q  c #63747D",
"w  c #62757E",
"e  c #64737E",
"r  c #63747D",
"t  c #63747A",
"y  c #63747E",
"u  c #627680",
"i  c #63727E",
"p  c #6D8080",
"a  c #62737B",
"s  c #608080",
"d  c #61747D",
"f  c gray40",
"g  c #64737D",
"h  c #61757A",
"j  c #65757A",
"k  c white",
"l  c #62727D",
"z  c #647480",
"x  c #555555",
"c  c #66777D",
"v  c #60717D",
"b  c #668080",
"n  c #617979",
"m  c #575700",
"M  c #595900",
"N  c #474700",
"B  c #484800",
"V  c #2F2F00",
"C  c #494900",
"Z  c #63757D",
"A  c cyan",
"S  c #311E00",
"D  c #503818",
"F  c #57401F",
"G  c #647680",
"H  c #556A80",
"J  c black",
"K  c black",
"L  c black",
"P  c #503818",
"I  c #594020",
"U  c #808080",
"Y  c #666699",
"T  c #6D6D92",
"R  c #557171",
"E  c #5D7474",
"W  c #627689",
"Q  c #5A7878",
"!  c #68717B",
"~  c #637180",
"^  c #63727D",
"/  c #64737C",
"(  c #63747D",
")  c #584021",
"_  c #63757E",
"`  c #666680",
"'  c #0000B0",
"]  c #0000F8",
"[  c #4040F8",
"{  c #5860F8",
"}  c #7880F8",
"|  c gray22",
" . c black",
".. c #00E0E0",
"X. c #000040",
"o. c #484848",
"O. c #400000",
"+. c #000070",
"@. c gray66",
"#. c gray25",
"$. c #606060",
"%. c gray19",
"&. c #281000",
"*. c #303000",
"=. c #505000",
"-. c #484800",
";. c #302000",
":. c #707000",
">. c #C0C000",
",. c #585800",
"<. c #909000",
"1. c #404000",
"2. c #686800",
"3. c #808000",
"4. c #989800",
"5. c #B8B800",
"6. c #D0D000",
"7. c #A8A800",
"8. c #584020",
"9. c #483818",
"0. c #503818",
"q. c #63747D",
"w. c white",
/* pixels */
"                                                                                                                                  ",
"                                                                                                                                  ",
"                                                                                                                                  ",
"                                                                                                                                  ",
"                                                                                                                                  ",
"                                                                                                                                  ",
"                                                                                                                                  ",
"                                                                                                                                  ",
"                                                                                                                                  ",
"                                                                                                                                  ",
"                                                                                                                                  ",
"                                                                                                                                  ",
"                                                                                                                                  ",
"                                                                                                                                  ",
"                                                                                                                                  ",
"                                                                                                                                  ",
"                                                                                                                                  ",
"                                                                                                                                  ",
"                                                                                                                                  ",
"                                                                                                                                  ",
"                                                                                                                                  ",
"                                                                                                                                  ",
"                                                                                                                                  ",
"                                                                                                                                  ",
"                                                                                                                                  ",
"                                                                                                                                  ",
"                                                                                                                                  ",
"                                                                                                                                  ",
"                                                                                                                                  ",
"                                                                                                                                  ",
"                                                                                                                                  ",
"                                                      . X o O + @ #                                                               ",
"                                                    $ % ' ] [ { } & *                                                             ",
"                                                    = |  . ... .X.| -                                                             ",
"                                                    ; o.O.+.@. .X.o.:                                                             ",
"                                                    > #. .] $. . .#.,                                                             ",
"                                                      < %. .#. .%.1 2                                                             ",
"                                                      3 &. . . . .4                                                               ",
"                                                      5 *.=.-.*.;.6                                                               ",
"                                                        7 :.>.,.8 2                                                               ",
"                                                        9 :.<.,.0                                                                 ",
"                                                        q  . . .w                                                                 ",
"                                                        w ;.;.&.e                                                                 ",
"                                                        r *.1.&.t                                                                 ",
"                                                        y *.=.&.u                                                                 ",
"                                                        i -.,.&.p                                                                 ",
"                                                        a ,.2.;.s                                                                 ",
"                                                        d -.:.*.f                                                                 ",
"                                                        g ,.3.;.$                                                                 ",
"                                                        h 2.<.*.$                                                                 ",
"                                                        j 2.4.;.k                                                                 ",
"                                                        l ,.5.*..                                                                 ",
"                                                        z -.>.*.$                                                                 ",
"                                                        z -.6.-.x                                                                 ",
"                                                        c -.>.-.f                                                                 ",
"                                                        v 2.5.2.b                                                                 ",
"                                                        v 3.5.3.n                                                                 ",
"                                                        t <.7.<.t                                                                 ",
"                                                        m <.6.<.M                                                                 ",
"                                                        N :.5.:.B                                                                 ",
"                                                        V ,.3.:.,.f                                                               ",
"                                                        C ,.,.,.-.Z A                                                             ",
"                                                        S *.*.*.;.8.D F G $                                                       ",
"                                                        H J K L 9.0.0.0.0.P I x                                                   ",
"          2 2 2 A k $ $ $ $ x x # # U f Y 5 T R E W Q n ! ~ ^ / ( q.q.0.8.8.0.) _ l G Q ` 5 # $ . 2                               ",
"                                                                                                                                  "
};
