/* XPM */
static char *tile016[] = {
/* columns rows colors chars-per-pixel */
"65 65 171 2 ",
"   c black",
".  c #558080",
"X  c black",
"o  c #808080",
"O  c #007373",
"+  c #005A5A",
"@  c #373737",
"#  c #687880",
"$  c #668080",
"%  c gray66",
"&  c #A7A7A7",
"*  c #A7A7A7",
"=  c gray60",
"-  c #66777D",
";  c #5E717B",
":  c #627689",
">  c #6D6D6D",
",  c #5555AA",
"<  c blue",
"1  c #5D7480",
"2  c #64747C",
"3  c #005858",
"4  c gray22",
"5  c #484848",
"6  c #606080",
"7  c #555555",
"8  c #666699",
"9  c #989898",
"0  c #989898",
"q  c #989898",
"w  c #989898",
"e  c #989898",
"r  c #989898",
"t  c #989898",
"y  c #484848",
"u  c #63757D",
"i  c #62747D",
"p  c gray60",
"a  c None",
"s  c #62747D",
"d  c #63737D",
"f  c #989898",
"g  c #989898",
"h  c gray60",
"j  c #989898",
"k  c #989898",
"l  c #989898",
"z  c #979797",
"x  c #989898",
"c  c #63747D",
"v  c #484848",
"b  c gray31",
"n  c #515151",
"m  c #505050",
"M  c #505050",
"N  c #63747D",
"B  c #63747E",
"V  c #484848",
"C  c #505050",
"Z  c gray31",
"A  c #515151",
"S  c gray31",
"D  c #505050",
"F  c #505050",
"G  c #505050",
"H  c #515151",
"J  c #505050",
"K  c #505050",
"L  c #505050",
"P  c gray31",
"I  c #515151",
"U  c #61757A",
"Y  c #63737B",
"T  c #697887",
"R  c #557171",
"E  c #808080",
"W  c #64707C",
"Q  c #608080",
"!  c #617979",
"~  c #62757E",
"^  c #5A7878",
"/  c #484848",
"(  c gray28",
")  c gray22",
"_  c #626262",
"`  c #494949",
"'  c #282828",
"]  c #667777",
"[  c #005858",
"{  c #484848",
"}  c #607580",
"|  c #282828",
" . c #67757C",
".. c #484848",
"X. c #006F6F",
"o. c #005858",
"O. c #004040",
"+. c gray22",
"@. c #007272",
"#. c #003F3F",
"$. c #484848",
"%. c #007777",
"&. c #005959",
"*. c #494949",
"=. c #607080",
"-. c #583E1F",
";. c #59421F",
":. c #583F1F",
">. c #584020",
",. c #574020",
"<. c #58401F",
"1. c #57411F",
"2. c #503818",
"3. c #503818",
"4. c #513918",
"5. c #503818",
"6. c #513818",
"7. c #503717",
"8. c #584020",
"9. c #584020",
"0. c #584020",
"q. c #584020",
"w. c #584020",
"e. c #583F20",
"r. c #584120",
"t. c #594020",
"y. c #503818",
"u. c #503917",
"i. c #584020",
"p. c #594020",
"a. c #574020",
"s. c #584020",
"d. c #594020",
"f. c #503818",
"g. c #513717",
"h. c #513818",
"j. c #513918",
"k. c #594020",
"l. c #564022",
"z. c #554020",
"x. c #573F20",
"c. c #584020",
"v. c cyan",
"b. c #55AAAA",
"n. c gray40",
"m. c #65737D",
"M. c #63747D",
"N. c #63747D",
"B. c #627680",
"V. c gray69",
"C. c gray66",
"Z. c #004040",
"A. c black",
"S. c #202020",
"D. c #282828",
"F. c #989898",
"G. c gray47",
"H. c #888888",
"J. c #484848",
"K. c gray44",
"L. c #606060",
"P. c #505050",
"I. c #404000",
"U. c gray22",
"Y. c #63747D",
"T. c #005858",
"R. c #584020",
"E. c #503818",
"W. c #483818",
"Q. c #382810",
"!. c white",
/* pixels */
"                                                                                                                                  ",
"                                                                                                                                  ",
"                                                                                                                                  ",
"                                                                                                                                  ",
"                                                                                                                                  ",
"                                                                                                                                  ",
"                                                                                                                                  ",
"                                                                                                                                  ",
"                                                                                                                                  ",
"                                                                                                                                  ",
"                                                                                                                                  ",
"                                                                                                                                  ",
"                                                                                                                                  ",
"                                                                                                                                  ",
"                                                                                                                                  ",
"                                                                                                                                  ",
"                                                                                                                                  ",
"                                                                                                                                  ",
"                                                                                                                                  ",
"                                                                                                                                  ",
"                                                                                                                                  ",
"                                                                                                                                  ",
"                                                                                                                                  ",
"                                                                                                                                  ",
"                                                                                                                                  ",
"                                                                                                                                  ",
"                                                                                                                                  ",
"                                                                                                                                  ",
"                                                                                                                                  ",
"                                                                                                                                  ",
"                                                                                                                                  ",
"                                                                                                                                  ",
"                                                                                                                                  ",
"                                                                                                                                  ",
"                                                                                                                                  ",
"                                                                                                                                  ",
"                                                                                                                                  ",
"                                                                                                                                  ",
"                                                                                                                                  ",
"                                                                                                                                  ",
"                                                                                                                                  ",
"                                                                                                                                  ",
"                                                                                                                                  ",
"                                                                                                                                  ",
"              . X                                                     o O + @ # $ X                                               ",
"              V.C.% & * = - ; : > , <                         o > 1 2 3 Z.A.A.S.D.4 5 6                       X o 7 8             ",
"              V.F.F.F.F.F.G.F.F.F.F.F.9 0 q w e r t y u i p a F.F.F.F.F.F.F.F.F.F.H.G.J.s d f g h j k l z x 9 F.H.G.J.            ",
"              V.H.H.H.H.H.K.H.H.H.H.H.H.H.H.H.H.H.H.J.L.L.H.H.H.H.H.H.H.H.H.H.H.H.G.K.J.L.L.H.H.H.H.H.H.H.H.H.H.G.K.J.            ",
"              C.G.G.G.G.G.L.G.G.G.G.G.G.G.G.G.G.G.G.J.P.P.G.G.G.G.G.G.G.G.G.G.G.G.K.L.J.P.P.G.G.G.G.G.G.G.G.G.G.K.L.I.            ",
"              F.L.L.L.L.L.P.L.L.L.L.L.L.L.L.L.L.L.L.J.U.U.L.L.L.L.L.L.L.L.L.L.L.L.L.P.J.U.U.L.L.L.L.L.L.L.L.L.L.L.P.I.            ",
"              H.J.J.J.J.J.U.J.J.J.J.J.J.J.J.J.J.J.J.U.D.D.J.J.J.J.J.J.J.J.J.J.J.J.J.J.U.D.D.J.J.J.J.J.J.J.J.J.J.J.J.I.            ",
"              G.U.U.U.U.U.D.U.U.U.U.U.U.U.U.U.U.U.U.D.A.A.U.U.U.U.U.U.U.U.U.U.U.U.U.U.D.A.A.U.U.U.U.U.U.U.U.U.U.U.U.U.            ",
"              H.J.J.J.J.J.U.J.P.P.P.P.P.P.P.P.P.P.P.U.S.c v b n m M P.P.P.P.P.P.P.P.P.U.N B V C Z A S D F G H P.P.P.J.            ",
"              G.J K L P I U Y T R E 7 E W U.Y.Y.U.A.A.S.Q           o ! ~ U.S.A.A.A.A.S.^                     X o E Q             ",
"              o                           / U.Y.U.S.S.D.                  T ( D.S.S.S.D.) o                                       ",
"                                          _ ` U.Z.S.S.'                     ] [ D.S.S.S.D.{                                       ",
"                                              } T.S.S.|                        .T.D.S.S.D...                                      ",
"                                                X.o.O.+.                        @.#.S.D.U.$.                                      ",
"                                                                                  %.&.( *.X                                       ",
"                                                                                                                                  ",
"                                                                                                                                  ",
"                o : =.-.;.:.>.,.<.1.2.3.4.5.6.7.8.9.0.q.w.e.r.t.y.y.y.u.r.e.w.i.p.a.s.d.5.f.g.h.j.k.l.1                           ",
"          X z.x.p.R.R.R.E.E.E.E.W.W.W.Q.Q.Q.Q.Q.Q.Q.Q.Q.Q.Q.Q.Q.Q.Q.Q.Q.Q.Q.Q.Q.Q.Q.Q.Q.Q.Q.Q.Q.Q.W.E.R.c.                        ",
"    X v.o o b.n.. T m.M.Y.R.R.R.R.R.R.E.E.E.E.E.E.E.E.E.E.E.E.E.E.E.E.E.E.E.E.E.E.E.E.E.E.E.E.E.E.E.R.R.N.B.Q 7 X                 ",
"                                                                                                                                  "
};
