/* XPM */
static char *tile018[] = {
/* columns rows colors chars-per-pixel */
"65 65 177 2 ",
"   c black",
".  c #607080",
"X  c #009A9A",
"o  c #009898",
"O  c #009999",
"+  c #009797",
"@  c #009999",
"#  c #009898",
"$  c #009898",
"%  c #009898",
"&  c #009797",
"*  c #009797",
"=  c #009797",
"-  c #009797",
";  c #009696",
":  c #627676",
">  c #617979",
",  c #64747D",
"<  c #009797",
"1  c #A4A4A4",
"2  c #C1C1C1",
"3  c black",
"4  c #666699",
"5  c #63757D",
"6  c #989898",
"7  c #006868",
"8  c white",
"9  c #808080",
"0  c #AAAAAA",
"q  c #808080",
"w  c #558080",
"e  c #608080",
"r  c #5D7474",
"t  c #667777",
"y  c #667380",
"u  c #627680",
"i  c #627180",
"p  c #60717D",
"a  c #61727B",
"s  c #64757C",
"d  c #62757D",
"f  c black",
"g  c #70C8C8",
"h  c #70C8C8",
"j  c None",
"k  c #004242",
"l  c #EAEAEA",
"z  c #98D8D8",
"x  c #39260E",
"c  c #005858",
"v  c gray21",
"b  c black",
"n  c #666680",
"m  c black",
"M  c black",
"N  c #637680",
"B  c #202020",
"V  c #62747D",
"C  c #556A80",
"Z  c black",
"A  c #657280",
"S  c gray22",
"D  c black",
"F  c gray12",
"G  c #202020",
"H  c #65737D",
"J  c #393939",
"K  c #393939",
"L  c gray9",
"P  c #373737",
"I  c gray22",
"U  c #373737",
"Y  c gray22",
"T  c gray22",
"R  c #64737D",
"E  c #668080",
"W  c #202020",
"Q  c #393939",
"!  c #555555",
"~  c #71718E",
"^  c #5D7480",
"/  c #617380",
"(  c #62737E",
")  c gray12",
"_  c black",
"`  c #62727D",
"'  c gray18",
"]  c gray22",
"[  c gray22",
"{  c #55AAAA",
"}  c #5F757C",
"|  c #63737D",
" . c gray23",
".. c #353535",
"X. c gray21",
"o. c black",
"O. c gray25",
"+. c #373737",
"@. c gray22",
"#. c gray22",
"$. c #393939",
"%. c #3C3C3C",
"&. c #647A7A",
"*. c #594120",
"=. c #573F21",
"-. c #584020",
";. c #503917",
":. c #4F3718",
">. c #4F3818",
",. c #513817",
"<. c #513818",
"1. c #503818",
"2. c #503818",
"3. c #503817",
"4. c #503718",
"5. c #503818",
"6. c #4F3818",
"7. c #503818",
"8. c #503818",
"9. c #503918",
"0. c #513817",
"q. c #503818",
"w. c #503818",
"e. c #503818",
"r. c #513918",
"t. c #503817",
"y. c #513918",
"u. c #513717",
"i. c #503919",
"p. c #513819",
"a. c #503719",
"s. c #513716",
"d. c #533716",
"f. c #523314",
"g. c #604020",
"h. c #574021",
"j. c #574021",
"k. c cyan",
"l. c gray40",
"z. c #6D6D6D",
"x. c #5E7979",
"c. c #63747C",
"v. c #63747C",
"b. c #009898",
"n. c #00B0B0",
"m. c #008080",
"M. c #007070",
"N. c #005858",
"B. c #D0D0D0",
"V. c gray69",
"C. c #004040",
"Z. c gray47",
"A. c #606060",
"S. c #006868",
"D. c #382810",
"F. c gray66",
"G. c #98D8D8",
"H. c #888888",
"J. c #20B0B0",
"K. c #989898",
"L. c #70C8C8",
"P. c #B8E8E8",
"I. c #00C8C8",
"U. c black",
"Y. c gray44",
"T. c #505050",
"R. c #484848",
"E. c #007878",
"W. c gray22",
"Q. c #202020",
"!. c #282828",
"~. c #503818",
"^. c #584020",
"/. c #483818",
"(. c #403018",
"). c #63747D",
"_. c white",
/* pixels */
"                                                                                                                                  ",
"                                                                                                                                  ",
"                                                                                                                                  ",
"                                                                                                                                  ",
"                                                                                                                                  ",
"                                                                                                                                  ",
"                                                                                                                                  ",
"                                                                                                                                  ",
"                                                                                                                                  ",
"                                                                                                                                  ",
"                                                                                                                                  ",
"                                                                                                                                  ",
"                                                                                                                                  ",
"                                                                                                                                  ",
"                                                                                                                                  ",
"                                                                                                                                  ",
"                                                                                                                                  ",
"                                                                                                                                  ",
"                                                                                                                                  ",
"                                                                                                                                  ",
"                                                                                                                                  ",
"                                                                                                                                  ",
"                                                                                                                                  ",
"                                                                                                                                  ",
"                                                                                                                                  ",
"                                                                                                                                  ",
"                                                                                                                                  ",
"                                                                                                                                  ",
"                                                                                                                                  ",
"                                                                                                                                  ",
"                                                                                                                                  ",
"                                                                                                                                  ",
"                                                                                                                                  ",
"                                                                                                                                  ",
"                                                                                                                                  ",
"                                                                                                                                  ",
"                                                                                                                                  ",
"                                                                                                                                  ",
"                                                                                                                                  ",
"                                                                                                                                  ",
"                                                                                                                                  ",
"                                                                                                                                  ",
"                                                                                                                                  ",
"                                                                          . X o O + @ # $ % & * = - ; :                           ",
"                                                                      > , b.b.n.n.n.n.b.m.m.M.M.N.N.N.<                           ",
"                                                                  1 2 B.V.b.m.m.m.m.m.m.M.M.N.N.C.C.C.<                           ",
"                                                        3 4 > 5 6 Z.A.A.A.S.N.N.N.N.N.N.C.C.C.C.D.D.D.7                           ",
"                  3 8 9 0 q w e r t y u i p a s d f g h j n.F.G.H.A.J.G.G.C.C.C.C.C.C.C.D.D.D.D.D.D.D.k                           ",
"              l z G.G.K.K.L.P.P.P.P.P.P.P.I.b.m.M.U.P.P.P.b.M.J.Y.T.m.J.J.D.D.D.D.D.D.D.D.D.D.D.D.D.D.x                           ",
"              c C.C.C.R.R.U.C.C.C.C.C.C.C.C.C.C.C.U.b.J.J.M.N.m.m.m.m.m.E.C.C.C.C.C.C.C.C.C.C.C.C.C.C.k                           ",
"              v b U.U.W.W.U.U.U.U.U.U.U.U.U.U.U.U.U.M.M.M.C.W.M.N.N.N.N.N.N.N.N.N.N.N.N.N.N.N.N.N.N.N.k                           ",
"                  q n m M q w N B U.U.U.Q.W.V 9 C Z C.C.C.C.Q.C.C.C.C.C.C.C.C.C.C.C.C.C.C.C.C.C.C.C.C.k                           ",
"                                A Q.U.U.U.S 9     D F G Q.Q.U.Q.Q.Q.Q.Q.Q.Q.Q.Q.Q.Q.Q.Q.Q.Q.Q.Q.Q.Q.Q.H                           ",
"                                  J U.W.U.K           3 L P I U Y T Q.Q.Q.Q.U.U.U.N.U.U.U.U.U.W.U.!.W.R                           ",
"                                  E W U.Q.Q                         ! ~ ^ / ( ) _ U.U.U.U.U.U.U.U.Q.W.`                           ",
"                                    ' ] [                                         { } | W.!.U.U.U.U.!. .                          ",
"                                                                                        a W.Q.U.W.U.Q...                          ",
"                                                                                          X.!.Q.U.U.o.O.                          ",
"                                                                                            +.@.#.$.%.                            ",
"                                                                                                                                  ",
"                          &.*.=.-.;.:.>.,.<.1.2.3.4.5.6.7.8.9.0.q.q.~.~.q.0.9.w.7.6.e.r.2.t.y.u.i.p.a.s.d.f.g.                    ",
"                        h.^.~.~.~.~././././././././././././.(.(.(.(.(.(.(.(.(././././././././.(.(.(.(.(.(.(./.7.h.q               ",
"                        j.^.~.~.~.~././././././././././././.(.(.D.D.D.D.D.D.D././././././././.(.D.D.D.D.D.(./.~.~.=.              ",
"      3 k.9 9 ! { l.z.r x.c.).^.^.^.^.~.~.~.~.~.~.~.~.~.~.~./././././././././.~.~.~.~.~.~.~.~.~././././.~.~.^.^.^.v.n 9           ",
"                                                                                                                                  "
};
