/* XPM */
static char *tile005[] = {
/* columns rows colors chars-per-pixel */
"65 65 118 2 ",
"   c black",
".  c white",
"X  c #647680",
"o  c #463A17",
"O  c #5A7878",
"+  c #4F3718",
"@  c #483718",
"#  c #4A3A15",
"$  c #57421D",
"%  c #503818",
"&  c #483817",
"*  c #65747E",
"=  c #808080",
"-  c #647A7A",
";  c #584020",
":  c #503818",
">  c #627676",
",  c #667777",
"<  c #64727B",
"1  c #58401F",
"2  c #64737D",
"3  c #494949",
"4  c #484848",
"5  c #484848",
"6  c #65737E",
"7  c gray28",
"8  c #505050",
"9  c #62767C",
"0  c #808080",
"q  c #484848",
"w  c #515151",
"e  c #666699",
"r  c #484848",
"t  c #505050",
"y  c gray30",
"u  c black",
"i  c gray22",
"p  c #505050",
"a  c #464646",
"s  c #687480",
"d  c #505050",
"f  c #282828",
"g  c #687880",
"h  c gray16",
"j  c #606060",
"k  c #282828",
"l  c gray40",
"z  c #272727",
"x  c #606060",
"c  c #282828",
"v  c gray31",
"b  c gray16",
"n  c gray31",
"m  c #668080",
"M  c #515151",
"N  c #202020",
"B  c #608080",
"V  c gray12",
"C  c gray28",
"Z  c #202020",
"A  c #6A6A80",
"S  c #697887",
"D  c gray22",
"F  c #202020",
"G  c #667A7A",
"H  c #202020",
"J  c #62747E",
"K  c #555555",
"L  c #61757A",
"P  c None",
"I  c #513717",
"U  c #4E3816",
"Y  c #63757D",
"T  c #594020",
"R  c #584020",
"E  c #558080",
"W  c #584020",
"Q  c #59411E",
"!  c #594321",
"~  c #583F20",
"^  c #646F7A",
"/  c #594020",
"(  c #503817",
")  c #584021",
"_  c #607580",
"`  c cyan",
"'  c #55AAAA",
"]  c #6D6D92",
"[  c #63747D",
"{  c #62727C",
"}  c #617979",
"|  c #5D7474",
" . c #6D6D6D",
".. c #584020",
"X. c #684820",
"o. c #805028",
"O. c #503818",
"+. c #484848",
"@. c #B05000",
"#. c #483818",
"$. c #505050",
"%. c #606060",
"&. c gray44",
"*. c gray47",
"=. c #282828",
"-. c #888888",
";. c #989898",
":. c gray22",
">. c gray66",
",. c #202020",
"<. c #B80000",
"1. c black",
"2. c #382810",
"3. c #404000",
"4. c #282008",
"5. c #403018",
"6. c #63747D",
"7. c white",
/* pixels */
"                                                                                                                                  ",
"                                                                                                                                  ",
"                                                                                                                                  ",
"                                                                                                                                  ",
"                                                                                                                                  ",
"                                                                                                                                  ",
"                                                                                                                                  ",
"                                                                                                                                  ",
"                                                                                                                                  ",
"                                                                                                                                  ",
"                                                                                                                                  ",
"                                                                                                                                  ",
"                                                                                                                                  ",
"                                                                                                                                  ",
"                                                                                                                                  ",
"                                                                                                                                  ",
"                                                                                                                                  ",
"                                                                                                                                  ",
"                                                                                                                                  ",
"                                                                                                                                  ",
"                                                                                                                                  ",
"                                                                                                                                  ",
"                                                                                                                                  ",
"                                                                                                                                  ",
"                                                                                                                                  ",
"                                                                                                                                  ",
"                                                                                                                                  ",
"                                                                                                                                  ",
"                                                                                                                                  ",
"                                                                                                                                  ",
"                                                                                                                                  ",
"                                                                                                                                  ",
"                                                                                                                                  ",
"                                                                                                                                  ",
"                                                                                                                                  ",
"                                                                          . X o                                                   ",
"                                                                      O + @ #                                                     ",
"                                                                  $ % & * =                                                       ",
"                                                              - ; ..: >                                                           ",
"                                                      = , < 1 X.o.O.2                                                             ",
"                                              3 4 5 +.+.....o.@.o.#.6                                                             ",
"                                            7 $.%.&.%.$.&.*.*.&.%.$.8 9                                                           ",
"                                          0 q %.&.&.%.$.&.*.*.&.%.$.$.$.w e                                                       ",
"                                          r $.%.$.$.+.$.$.$.$.$.$.$.%.*.&.t y                                                     ",
"                                        u i %.$.+.+.$.%.&.&.*.&.$.$.$.$.%.*.p a                                                   ",
"                                        s =.$.+.$.$.%.*.-.-.*.%.$.$.&.;.*.%.%.d u                                                 ",
"                                        f =.:.:.$.%.*.;.-.*.%.-.+.+.%.;.>.*.&.%.g                                                 ",
"                                        h =.:.:.$.%.-.;.-.&.$.*.+.+.$.*.>.;.*.%.j                                                 ",
"                                        k =.:.=.$.$.;.*.$.$.+.+.:.:.+.%.-.;.*.&.%.l                                               ",
"                                        z :.:.,.:.+.&.+.:.:.+.$.+.:.:.+.%.*.*.&.%.x                                               ",
"                                        c :.,...,.:.:.+.$.%.%.%.+.:.=.:.+.$.%.%.%.v                                               ",
"                                        b :.,...,.,.:.$.%.&.%.&.$.+.=.=.:.+.$.$.$.n                                               ",
"                                        m =.=.=.:.:.$.&.-.-.*.-.&.$.:.o.=.:.:.+.+.M                                               ",
"                                        u N :.=.+.+.&.-.;.-.*.;.*.&.$.:.=.=.=.+.$.B                                               ",
"                                          V =.=.+.$.*.>.;.*.-.>.-.*.%.:.=.=.+.+.C                                                 ",
"                                          Z =.=.:.+.*.>.-.*.;.>.;.-.&.:.=.+.%.+.A                                                 ",
"                                          S ,.=.=.:.:.;.%.%.%.=.=.+.*.+.=.+.+.D                                                   ",
"                                          u F ,.=.=.<.:.+.+.,.<.=.+.%.:.=.:.:.G                                                   ",
"                                            H ,.,.,.=.$.&.&.$.+.%.+.=.,.:.+.+.J K                                                 ",
"                                            L 1.1.1.&.$.&.%.$.>.-.=.,.,.+.$.%.O.P I U m                                           ",
"                                            Y 1.1.+.:.$.%.$.+.:.O.-.O.,.+.%.&.O.O.O.O...T R                                       ",
"                                        E W ..1.1.%.%.:.1.1.:.>.*.2.2.:.$.&.*.$.2.2.2.2.#.O.Q                                     ",
"                                      ! ~ O.O.#.$.2.2.3.,.,.,.4.4.*.4.+.%.&.&.*.4.2.#.#.O...R                                     ",
"                                      u ^ / ( O.#.#.5.2.2.2.2.2.2.2.2.-.$.%.$.-.4.#.O...) _                                       ",
"          u u u ` ` . = = = = K ' 0 e ] m , g [ 6.O.5.5.5.5.5.O.O.6.6.6.6.-.4.2.#.O...6.{ } |  .l ' = = = . ` ` u u u u           "
};
