/* XPM */
static char *tile006[] = {
/* columns rows colors chars-per-pixel */
"65 65 111 2 ",
"   c black",
".  c white",
"X  c #684921",
"o  c #6A441F",
"O  c #555555",
"+  c #58401F",
"@  c #714728",
"#  c cyan",
"$  c #808080",
"%  c #594120",
"&  c #714828",
"*  c #666699",
"=  c #503818",
"-  c #65777D",
";  c #808080",
":  c #503818",
">  c #606080",
",  c #637180",
"<  c #63747D",
"1  c #65737E",
"2  c blue",
"3  c #63747E",
"4  c #65747E",
"5  c black",
"6  c gray30",
"7  c #505050",
"8  c #505050",
"9  c gray32",
"0  c #687480",
"q  c #505050",
"w  c #505050",
"e  c #607580",
"r  c #557171",
"t  c gray31",
"y  c #505050",
"u  c #71718E",
"i  c gray28",
"p  c #464646",
"a  c gray37",
"s  c gray38",
"d  c #505050",
"f  c #505050",
"g  c gray31",
"h  c #494949",
"j  c #393939",
"k  c #393939",
"l  c gray22",
"z  c gray22",
"x  c #3A3A3A",
"c  c gray16",
"v  c #282828",
"b  c #494949",
"n  c gray28",
"m  c gray28",
"M  c #494949",
"N  c gray22",
"B  c gray22",
"V  c #62747E",
"C  c #558080",
"Z  c #63747D",
"A  c #63747C",
"S  c #63747D",
"D  c #503818",
"F  c #6A8080",
"G  c #617380",
"H  c #574020",
"J  c #63737B",
"K  c #574020",
"L  c #58401F",
"P  c #594020",
"I  c None",
"U  c #584020",
"Y  c #607080",
"T  c #5A4221",
"R  c #503718",
"E  c #503818",
"W  c #593F21",
"Q  c #5B431E",
"!  c #55AAAA",
"~  c gray40",
"^  c #608080",
"/  c #556A80",
"(  c #6D8080",
")  c #62727D",
"_  c #63747D",
"`  c #65757A",
"'  c #684820",
"]  c #984800",
"[  c #704828",
"{  c #B05000",
"}  c #484848",
"|  c #606060",
" . c gray44",
".. c #505050",
"X. c gray47",
"o. c #888888",
"O. c #989898",
"+. c gray66",
"@. c #282828",
"#. c #584020",
"$. c gray22",
"%. c #202020",
"&. c #B80000",
"*. c #63747D",
"=. c #503818",
"-. c black",
";. c #382810",
":. c #483818",
">. c #282008",
",. c #403018",
"<. c white",
/* pixels */
"                                                                                                                                  ",
"                                                                                                                                  ",
"                                                                                                                                  ",
"                                                                                                                                  ",
"                                                                                                                                  ",
"                                                                                                                                  ",
"                                                                                                                                  ",
"                                                                                                                                  ",
"                                                                                                                                  ",
"                                                                                                                                  ",
"                                                                                                                                  ",
"                                                                                                                                  ",
"                                                                                                                                  ",
"                                                                                                                                  ",
"                                                                                                                                  ",
"                                                                                                                                  ",
"                                                                                                                                  ",
"                                                                                                                                  ",
"                                                                                                                                  ",
"                                                                                                                                  ",
"                                                                                                                                  ",
"                                                                                                                                  ",
"                                                                                                                                  ",
"                                                                                                                                  ",
"                                                                                                                                  ",
"                                                                                                                                  ",
"                                                                                                                                  ",
"                                                                                                                                  ",
"                                                                                                                                  ",
"                                                                                                                                  ",
"                                                                                                                                  ",
"                                                                                                                                  ",
"                                                                                                                                  ",
"                                                                                                                                  ",
"                                                                                                                                  ",
"                                                                    . X o                                                         ",
"                                                                  O + @ #                                                         ",
"                                                                $ % & *                                                           ",
"                                                              . = ' -                                                             ",
"                                                            ; : ] [ >                                                             ",
"                                                          , < ] { [ 1                                                             ",
"                                                      2 3 } |  . .| } 4 5                                                         ",
"                                                    6 7 } .. .X.X. ...} 8 9                                                       ",
"                                                0 q ..} .... .X.X. .....} ..w e                                                   ",
"                                            r t ..| } | ..|  . . . .| ..| } | ..y u                                               ",
"                                            i  ...} } ..| |  .X.X. .| | ..} }  . .p                                               ",
"                                            a ..} ....| |  .o.O.O.o. .| | ....} | s                                               ",
"                                            d ....|  .X.X. .O.+.+.O. .X.X. .| ....f                                               ",
"                                            d ....X.O.o. .X.o.+.+.o.X. .o.O.X. ...g                                               ",
"                                            i | | X.O.X...|  .o.o. .| ..X.O.X.| | h                                               ",
"                                            j } } @.} } } | ..........} | } @.} } k                                               ",
"                                            j @.@.#.@.@.$... .X.X. ...$.@.@.#.@.@.l                                               ",
"                                            z @.%.#.@.@.$...X.o.o.X...$.@.@.#.%.@.x                                               ",
"                                            c @.%.%.$.$.}  .o.X.X.o. .} $.$.@.%.%.v                                               ",
"                                            b $.%.%.@.} ..X.+.X.X.+.X...} @.%.@.$.n                                               ",
"                                            m } $.@.} $.$. .O.o.o.O. .$.$.} @.$.} M                                               ",
"                                            N } } @...} @.%. .O.O. .%.@.} ..@.} } B                                               ",
"                                            V } } @.$.} %.&.%.....%.&.%.} $.@.} } *.C                                             ",
"                                            Z } ..$.@.@.@.$... .o...$.@.@.@.$...} =.A                                             ",
"                                          5 S } ..$.%.%.| $.$.....$.$.| %.%.$...} =.=.D F                                         ",
"                                          G } ..| } $.| %.%.$.-.-.$.%.%.| $.} | ..} =.#.#.H $                                     ",
"                                        J K } |  .| $.;.| X.$.-.-.$.X.| ;.$... .| } ;.;.:.=.L                                     ",
"                                      P #.=.o. . .| o.| >.>.%.%.%.%.>.>.| X... . .o.:.:.=.I U                                     ",
"                                      5 Y T R E o.:.:.;.;.;.;.;.;.;.;.;.;.;.;.o.:.=.E W Q ;                                       ",
"        5 5 2 . $ $ $ O O ! ; ~ * C ^ u / ( , e ) A _ *.:.:.,.,.,.,.,.:.:.#.*._ A ` e , ( / u ^ C * ~ ; ! O O $ $ $ . 2 5 5       "
};
