/* XPM */
static char *tile007[] = {
/* columns rows colors chars-per-pixel */
"65 65 119 2 ",
"   c black",
".  c #463A17",
"X  c #647680",
"o  c white",
"O  c #4A3A15",
"+  c #483718",
"@  c #4F3718",
"#  c #5A7878",
"$  c #808080",
"%  c #65747E",
"&  c None",
"*  c #503818",
"=  c #57421D",
"-  c #627676",
";  c #503818",
":  c #584020",
">  c #647A7A",
",  c #627680",
"<  c #594120",
"1  c #64727B",
"2  c #667777",
"3  c #63747E",
"4  c #484848",
"5  c #484848",
"6  c #494949",
"7  c #617380",
"8  c #515151",
"9  c #484848",
"0  c #558080",
"q  c #505050",
"w  c #408080",
"e  c #4E4E4E",
"r  c #505050",
"t  c #464646",
"y  c gray29",
"u  c gray22",
"i  c #808080",
"p  c #505050",
"a  c #6A6A80",
"s  c #5F5F5F",
"d  c #272727",
"f  c #606060",
"g  c gray16",
"h  c #687480",
"j  c #282828",
"k  c gray37",
"l  c #282828",
"z  c #515151",
"x  c #272727",
"c  c #515151",
"v  c gray15",
"b  c gray31",
"n  c #627680",
"m  c #55AAAA",
"M  c gray28",
"N  c #202020",
"B  c #627689",
"V  c gray13",
"C  c gray22",
"Z  c #60717D",
"A  c #687880",
"S  c #667A7A",
"D  c #6D6D6D",
"F  c #63747D",
"G  c #667780",
"H  c #503818",
"J  c #513A16",
"K  c #555555",
"L  c #68717B",
"P  c #584020",
"I  c #584020",
"U  c #583F1F",
"Y  c cyan",
"T  c #5D7474",
"R  c #58401F",
"E  c #594020",
"W  c #59401F",
"Q  c #584022",
"!  c #63737B",
"~  c #573F20",
"^  c #503818",
"/  c #584020",
"(  c #58411F",
")  c #666680",
"_  c black",
"`  c #6D6D92",
"'  c #668080",
"]  c #607080",
"[  c #66757C",
"{  c #63747D",
"}  c #63747D",
"|  c #64707C",
" . c #637180",
".. c #608080",
"X. c #584020",
"o. c #503818",
"O. c #805028",
"+. c #684820",
"@. c #483818",
"#. c #B05000",
"$. c #484848",
"%. c #505050",
"&. c #606060",
"*. c gray44",
"=. c gray47",
"-. c #989898",
";. c #888888",
":. c #282828",
">. c gray66",
",. c gray22",
"<. c #202020",
"1. c #B80000",
"2. c black",
"3. c #382810",
"4. c #282008",
"5. c #404000",
"6. c #63747D",
"7. c #403018",
"8. c white",
/* pixels */
"                                                                                                                                  ",
"                                                                                                                                  ",
"                                                                                                                                  ",
"                                                                                                                                  ",
"                                                                                                                                  ",
"                                                                                                                                  ",
"                                                                                                                                  ",
"                                                                                                                                  ",
"                                                                                                                                  ",
"                                                                                                                                  ",
"                                                                                                                                  ",
"                                                                                                                                  ",
"                                                                                                                                  ",
"                                                                                                                                  ",
"                                                                                                                                  ",
"                                                                                                                                  ",
"                                                                                                                                  ",
"                                                                                                                                  ",
"                                                                                                                                  ",
"                                                                                                                                  ",
"                                                                                                                                  ",
"                                                                                                                                  ",
"                                                                                                                                  ",
"                                                                                                                                  ",
"                                                                                                                                  ",
"                                                                                                                                  ",
"                                                                                                                                  ",
"                                                                                                                                  ",
"                                                                                                                                  ",
"                                                                                                                                  ",
"                                                                                                                                  ",
"                                                                                                                                  ",
"                                                                                                                                  ",
"                                                                                                                                  ",
"                                                                                                                                  ",
"                                              . X o                                                                               ",
"                                                O + @ #                                                                           ",
"                                                  $ % & * =                                                                       ",
"                                                      - ; X.: >                                                                   ",
"                                                        , o.O.+.< 1 2 $                                                           ",
"                                                        3 @.O.#.O.X.X.$.$.4 5 6                                                   ",
"                                                      7 8 %.&.*.=.=.*.%.&.*.&.%.9                                                 ",
"                                                  0 q %.%.%.&.*.=.=.*.%.&.*.*.&.4 w                                               ",
"                                                e r *.=.&.%.%.%.%.%.%.%.$.%.%.&.%.t                                               ",
"                                              y %.=.&.%.%.%.%.*.=.*.*.&.%.$.$.%.&.u                                               ",
"                                            i p &.&.=.-.*.%.%.&.=.;.;.=.&.%.%.$.%.:.a                                             ",
"                                            s &.*.=.>.-.&.$.$.;.&.=.;.-.=.&.%.,.,.:.d                                             ",
"                                          $ f &.=.-.>.=.%.$.$.=.%.*.;.-.;.&.%.,.,.:.g                                             ",
"                                          h &.*.=.-.;.&.$.,.,.$.$.%.%.=.-.%.%.:.,.:.j                                             ",
"                                          k &.*.=.=.&.$.,.,.$.%.$.,.,.$.*.$.,.<.,.,.l                                             ",
"                                          z &.&.&.%.$.,.:.,.$.&.&.&.%.$.,.,.<.X.<.,.x                                             ",
"                                          c %.%.%.$.,.:.:.$.%.*.&.*.&.%.,.<.<.X.<.,.v                                             ",
"                                          b $.$.,.,.:.O.,.%.*.;.=.;.;.*.%.,.,.:.:.:.n                                             ",
"                                          m 8 $.:.:.:.,.%.*.=.-.=.;.-.;.*.$.$.:.,.<.0                                             ",
"                                            M $.$.:.:.,.&.=.;.>.;.=.-.>.=.%.$.:.:.N                                               ",
"                                            B $.&.$.:.,.*.;.-.>.-.=.;.>.=.$.,.:.:.V                                               ",
"                                              C $.$.:.$.=.$.:.:.&.&.&.-.,.,.:.:.<.Z                                               ",
"                                              A ,.,.:.,.&.$.:.1.<.$.$.,.1.:.:.<.<.S                                               ",
"                                              D $.$.,.<.:.$.&.$.%.*.*.%.:.<.<.<.<.F $                                             ",
"                                              G &.%.$.<.<.:.;.>.%.&.*.%.*.2.2.2.o.o.H J K                                         ",
"                                            L P *.&.$.<.o.;.o.,.$.%.&.%.,.$.2.2.o.o.o.X.I U Y                                     ",
"                                        T R X.%.=.*.%.,.3.3.=.>.,.2.2.,.&.&.2.2.3.3.3.3.@.o.E                                     ",
"                                    $ W X.o.o.=.*.*.&.$.4.=.4.4.<.<.<.5.4.4.%.4.4.3.@.@.o.X.Q                                     ",
"                                      K ! ~ ^ ;.%.&.%.;.3.3.3.3.3.3.3.3.3.3.3.@.@.o.o./ ( )                                       ",
"          _ _ _ Y Y o $ $ $ $ K m i 0 ` ' ] [ { 6.;.7.7.3.@.o.7.7.7.7.7.7.@.@.X.X.6.} |  .a ..0 i w K $ $ $ $ o Y Y _ _ _         "
};
