/* XPM */
static char *tile008[] = {
/* columns rows colors chars-per-pixel */
"65 65 112 2 ",
"   c black",
".  c #513A17",
"X  c #808080",
"o  c #584020",
"O  c black",
"+  c #63727D",
"@  c #584020",
"#  c #6D6D6D",
"$  c #513717",
"%  c #6A8080",
"&  c #4F3817",
"*  c #717171",
"=  c #62747C",
"-  c #63747D",
";  c #64747C",
":  c white",
">  c #62747D",
",  c #62727C",
"<  c gray32",
"1  c #505050",
"2  c gray32",
"3  c #687480",
"4  c #515151",
"5  c #505050",
"6  c #557171",
"7  c #505050",
"8  c None",
"9  c #4E4E4E",
"0  c gray28",
"q  c gray44",
"w  c gray37",
"e  c gray40",
"r  c #505050",
"t  c #4E4E4E",
"y  c #505050",
"u  c #494949",
"i  c #393939",
"p  c #393939",
"a  c gray22",
"s  c gray22",
"d  c #3A3A3A",
"f  c #2A2A2A",
"g  c #282828",
"h  c #484848",
"j  c gray28",
"k  c gray28",
"l  c #484848",
"z  c #373737",
"x  c gray22",
"c  c #62747D",
"v  c #808080",
"b  c #63757D",
"n  c #63747D",
"m  c #503818",
"M  c #697887",
"N  c #61737C",
"B  c #5B431E",
"V  c #5D7474",
"C  c #573F21",
"Z  c #573F20",
"A  c #574020",
"S  c #584020",
"D  c #554023",
"F  c #5A7878",
"G  c #5A4221",
"H  c #503917",
"J  c #503817",
"K  c #483818",
"L  c #4F3818",
"P  c #58411F",
"I  c #584022",
"U  c gray40",
"Y  c cyan",
"T  c #555555",
"R  c #55AAAA",
"E  c #666699",
"W  c #558080",
"Q  c #608080",
"!  c #666680",
"~  c #556A80",
"^  c #6D8080",
"/  c #637180",
"(  c #63757E",
")  c #63747D",
"_  c #63747D",
"`  c #64737E",
"'  c #637180",
"]  c blue",
"[  c #704828",
"{  c #984800",
"}  c #B05000",
"|  c #484848",
" . c #606060",
".. c gray44",
"X. c #505050",
"o. c gray47",
"O. c #888888",
"+. c #989898",
"@. c gray66",
"#. c #282828",
"$. c #584020",
"%. c gray22",
"&. c #202020",
"*. c #B80000",
"=. c #63747D",
"-. c #503818",
";. c black",
":. c #382810",
">. c #483818",
",. c #282008",
"<. c #403018",
"1. c white",
/* pixels */
"                                                                                                                                  ",
"                                                                                                                                  ",
"                                                                                                                                  ",
"                                                                                                                                  ",
"                                                                                                                                  ",
"                                                                                                                                  ",
"                                                                                                                                  ",
"                                                                                                                                  ",
"                                                                                                                                  ",
"                                                                                                                                  ",
"                                                                                                                                  ",
"                                                                                                                                  ",
"                                                                                                                                  ",
"                                                                                                                                  ",
"                                                                                                                                  ",
"                                                                                                                                  ",
"                                                                                                                                  ",
"                                                                                                                                  ",
"                                                                                                                                  ",
"                                                                                                                                  ",
"                                                                                                                                  ",
"                                                                                                                                  ",
"                                                                                                                                  ",
"                                                                                                                                  ",
"                                                                                                                                  ",
"                                                                                                                                  ",
"                                                                                                                                  ",
"                                                                                                                                  ",
"                                                                                                                                  ",
"                                                                                                                                  ",
"                                                                                                                                  ",
"                                                                                                                                  ",
"                                                                                                                                  ",
"                                                                                                                                  ",
"                                                                                                                                  ",
"                                                          .                                                                       ",
"                                                          X o O                                                                   ",
"                                                            + @ O                                                                 ",
"                                                            # [ $ X                                                               ",
"                                                            % [ { & *                                                             ",
"                                                            = [ } { - ;                                                           ",
"                                                        : > |  ..... .| , X                                                       ",
"                                                      < 1 | X...o.o...X.| 1 2                                                     ",
"                                                  3 4 X.| X.X...o.o...X.X.| X.5 %                                                 ",
"                                              6 7 X. .|  .X. ......... .X. .|  .8 9                                               ",
"                                              0 ....| | X. . ...o.o... . .X.| | X.q X                                             ",
"                                              w  .| X.X. . ...O.+.+.O... . .X.X.| X.e                                             ",
"                                              r X.X. ...o.o...+.@.@.+...o.o... .X.X.t                                             ",
"                                              r X...o.+.O...o.O.@.@.O.o...O.+.o.X.X.y                                             ",
"                                              0  . .o.+.o.X. ...O.O... .X.o.+.o. . .u                                             ",
"                                              i | | #.|  .| X.X.X.X.X. .| | | #.| | p                                             ",
"                                              i #.#.$.#.#.%.X...o.o...X.%.#.#.$.#.#.a                                             ",
"                                              s #.&.$.#.#.%.X.o.O.O.o.X.%.#.#.$.&.#.d                                             ",
"                                              f &.&.#.%.%.| ..O.o.o.O...| %.%.&.&.#.g                                             ",
"                                              h %.#.&.#.| X.o.@.o.o.@.o.X.| #.&.&.%.j                                             ",
"                                              k | %.#.| %.%...+.O.O.+...%.%.| #.%.| l                                             ",
"                                              z | | #.X.| #.&...+.+...&.#.| X.#.| | x                                             ",
"                                              c | | #.%.| &.*.&.X.X.&.*.&.| %.#.| | =.v                                           ",
"                                              b | X.%.#.#.#.%.X.O...X.%.#.#.#.%.X.| -.,                                           ",
"                                            O n | X.%.&.&. .%.%.X.X.%.%. .&.&.%.X.| -.-.m M                                       ",
"                                            N | X. .| %. .&.&.%.;.;.%.&.&. .%.|  .X.| -.-.$.B                                     ",
"                                        V C $.|  ...X.%.:. .o.%.;.;.%.o. .:.%. ... .| :.>.-.Z                                     ",
"                                    X A $.-.-.O.....X.o. .,.,.&.&.&.&.,.,. .O. .....O.>.-.S D                                     ",
"                                      : F G H J K O.>.:.:.:.:.:.:.:.:.:.:.:.:.>.O.-.L P I U                                       ",
"        O O Y : X X X T R v v E W # Q ! ~ ^ M 3 / ( ) =.=.>.>.<.<.<.<.<.>.>.$.$._ ` ' ~ 6 # E v R T X X X : : Y ] O O O O         "
};
