/* XPM */
static char *out[] = {
/* columns rows colors chars-per-pixel */
"173 935 256 2 ",
"   c None",
".  c #020403",
"X  c #0B0302",
"o  c #040A03",
"O  c #0A0B04",
"+  c #03040C",
"@  c #0A060B",
"#  c #050A0C",
"$  c #0A0C0C",
"%  c #150905",
"&  c #0D120C",
"*  c #0A1504",
"=  c #12130D",
"-  c #171908",
";  c #040513",
":  c #050A14",
">  c #0B0C13",
",  c #04041B",
"<  c #0B0C1A",
"1  c #070816",
"2  c #120E14",
"3  c #0D1213",
"4  c #0E121A",
"5  c #0C1916",
"6  c #131414",
"7  c #151A14",
"8  c #1B1C14",
"9  c #13141B",
"0  c #151B1B",
"q  c #1B1C1B",
"w  c #1A1516",
"e  c #250903",
"r  c #261807",
"t  c #241C17",
"y  c #35170A",
"u  c #192507",
"i  c #1C221C",
"p  c #1A2416",
"a  c #152E0A",
"s  c #272808",
"d  c #362808",
"f  c #283607",
"g  c #23241C",
"h  c #272918",
"j  c #372817",
"k  c #293518",
"l  c #363819",
"z  c #373608",
"x  c #1B1C23",
"c  c #161924",
"v  c #0B1025",
"b  c #241E23",
"n  c #1D2323",
"m  c #1C2727",
"M  c #1C2B2F",
"N  c #232423",
"B  c #242B24",
"V  c #2A2C24",
"C  c #242C2B",
"Z  c #2B2D2B",
"A  c #262528",
"S  c #342B26",
"D  c #2D332C",
"F  c #293427",
"G  c #33342C",
"H  c #343B2C",
"J  c #383927",
"K  c #272B33",
"L  c #2C3433",
"P  c #2B3736",
"I  c #333532",
"U  c #343A33",
"Y  c #3B3C34",
"T  c #343B3A",
"R  c #3B3D3B",
"E  c #373637",
"W  c #322D32",
"Q  c #491908",
"!  c #483818",
"~  c #4E310F",
"^  c #683612",
"/  c #453928",
"(  c #443C35",
")  c #52352A",
"_  c #6B3829",
"`  c #651A10",
"'  c #394619",
"]  c #334C0E",
"[  c #394628",
"{  c #3C433C",
"}  c #3A4536",
"|  c #354E2C",
" . c #345A10",
".. c #46481A",
"X. c #594719",
"o. c #485619",
"O. c #50510E",
"+. c #674918",
"@. c #715316",
"#. c #506B15",
"$. c #6F6C17",
"%. c #464828",
"&. c #574828",
"*. c #485629",
"=. c #565729",
"-. c #42443C",
";. c #474938",
":. c #554A37",
">. c #4A5538",
",. c #565838",
"<. c #674926",
"1. c #685627",
"2. c #765827",
"3. c #685837",
"4. c #775836",
"5. c #6E4832",
"6. c #586729",
"7. c #596638",
"8. c #526F2C",
"9. c #666838",
"0. c #786738",
"q. c #687738",
"w. c #6E6E2B",
"e. c #323A43",
"r. c #152945",
"t. c #3C4643",
"y. c #355048",
"u. c #374A63",
"i. c #444B44",
"p. c #474A46",
"a. c #4C5344",
"s. c #4C534C",
"d. c #485648",
"f. c #565948",
"g. c #4C5654",
"h. c #565B56",
"j. c #4F4C4B",
"k. c #695949",
"l. c #596449",
"z. c #5A6457",
"x. c #556E4D",
"c. c #666849",
"v. c #697647",
"b. c #767849",
"n. c #656958",
"m. c #6A7459",
"M. c #767858",
"N. c #76694D",
"B. c #5C6563",
"V. c #5A6F6E",
"C. c #656B65",
"Z. c #6B7567",
"A. c #757A68",
"S. c #767C74",
"D. c #6C7371",
"F. c #585A63",
"G. c #4A3D43",
"H. c #895718",
"J. c #8D6A1A",
"K. c #88572D",
"L. c #886729",
"P. c #976928",
"I. c #876937",
"U. c #997637",
"Y. c #907331",
"T. c #A7762A",
"R. c #A77936",
"E. c #B0772F",
"W. c #A3681E",
"Q. c #8D744C",
"!. c #A9784B",
"~. c #877B6A",
"^. c #966150",
"/. c #A25E3E",
"(. c #718B30",
"). c #688C20",
"_. c #778648",
"`. c #798558",
"'. c #728E4D",
"]. c #798469",
"[. c #7B8576",
"{. c #748B6C",
"}. c #71974E",
"|. c #908C34",
" X c #A98639",
".X c #B88639",
"XX c #B19035",
"oX c #99A128",
"OX c #C58938",
"+X c #CD9338",
"@X c #CCAF31",
"#X c #8D8E51",
"$X c #B88945",
"%X c #B08F4E",
"&X c #93A951",
"*X c #B3AB52",
"=X c #868869",
"-X c #858A77",
";X c #8A9479",
":X c #969879",
">X c #91916B",
",X c #AC9571",
"<X c #95A773",
"1X c #AAAC76",
"2X c #C89747",
"3X c #C9954E",
"4X c #CFAA51",
"5X c #CFAD6E",
"6X c #D5A46B",
"7X c #DBCC70",
"8X c #AFC55F",
"9X c #6F7A84",
"0X c #7B8786",
"qX c #7F99AE",
"wX c #868C85",
"eX c #8A9586",
"rX c #959A88",
"tX c #959C94",
"yX c #8C9592",
"uX c #A79A87",
"iX c #99A489",
"pX c #9BA496",
"aX c #95AD89",
"sX c #A8A987",
"dX c #A5AA98",
"fX c #AAB499",
"gX c #B6B898",
"hX c #B1B18B",
"jX c #A5ACA4",
"kX c #ABB5A6",
"lX c #B5BAA7",
"zX c #B4BAB4",
"xX c #9AA5A5",
"cX c #CBB690",
"vX c #CAB6A0",
"bX c #B8C594",
"nX c #BAC4A9",
"mX c #BAC4B6",
"MX c #B2C9B4",
"NX c #9FC287",
"BX c #CBC996",
"VX c #EDD08F",
"CX c #C7C8A7",
"ZX c #C5C9B7",
"AX c #D7D8B7",
"SX c #D0D2AC",
"DX c #EAD5AC",
"FX c #F5ECB4",
"GX c #DDE4AC",
"HX c #B6C8CC",
"JX c #D1D6C9",
"KX c #DCE3CC",
"LX c #EAEACE",
"PX c #E9E8D8",
"IX c #AEBCC5",
"UX c #867980",
/* pixels */
"                                                                                                                                                                                                                                                                                                                                                          ",
"                                                                                                                                                          H . . * s.C.S.[.S.h.G 8 = & . $ I                                                                                                                                                               ",
"                                                                                                                                                    i B N 8 . . . + , , < 4 : > . + + # @ # + jX                                                                                                                                                          ",
"                                                                                                                                                  Y D 7 & o o 7 g.0XyXqXyXUXB.9 $ # . . o @ +                                                                                                                                                             ",
"                                                                                                                                                  >.].n.& yXC.JXPXPXPXPXPXPXJXzXG q Z G i w @                                                                                                                                                             ",
"                                                                                                                                                f.wXnXeXi MXMXPXPXPXPXPXPXPXJXJXj.n.k.C.n.[.6                                                                                                                                                             ",
"                                                                                                                                                T t.jXn.F wX[.tXJXKXJXJXJXZXdXzXf.f.I } p.z.p.i.7 N g                                                                                                                                                     ",
"                                                                                                                                              T p.g.zXm.A.].[.yXAXPXLXLXLXKXlXvX-Xa.-.n.s.a.h.p.0 6 6 7                                                                                                                                                   ",
"                                                                                                                                              B E D.zXn.M.A.~.~.A.sX:X>X>X,XhXuXuXa.A.A.s.f.Y p.q L 6 =                                                                                                                                                   ",
"                                                                                                                                              5 3 R dXf.j.N.N.A.N.>X:X:XsXcXDXuX:X-.Y i.p.a.-.Y w B q q                                                                                                                                                   ",
"                                                                                                                                              5 5 T tX;.-.n.n.N.l.~.>X1X,X:XsX~.-X-.G U V U -.E $ A q g -X                                                                                                                                                ",
"                                                                                                                                              $ 9 s.dX/ :.N.n.n.N.~.N.=X>X>XhX>XuXn.H a.a.} j.E 7 B 7 V Z.                                                                                                                                                ",
"                                                                                                                                              & 5 h.rX,.;.=Xc.n.M.M.N.Q.>X,XuXcXdX=Xf.-Xa.-.f.Y q E 6 V a.                                                                                                                                                ",
"                                                                                                                                              & > h.rXa.a.eXk.M.M.M.N.~.#X,XhXsXsX-Xa.C.n.f.h.Y @ R 6 7 w g                                                                                                                                               ",
"                                                                                                                                              3 + z.-Xf.f.-XZ.A.A.N.N.~.,X,XhX,X:X-X[ f.n.f.f.;.. ( 0 3 & 7                                                                                                                                               ",
"                                                                                                                                            xX3 > p.pXh.>.n.z.n.m.A.N.~.,X>XhXsXsX-Xh f.f.a.m.} p E 6 6 $ n                                                                                                                                               ",
"                                                                                                                                          HXkXF $ D S.A.N T -.{ j.C.M.-XuX:XuXrX:XA.- -.a.j.h.-.V A q 7 6 i                                                                                                                                               ",
"                                                                                                                                        { yXz.{ 6 I 7 N g & $ q Z I C.S.-XS.A.-XS.a.h H h 8 t g = 6 0 6 6 N                                                                                                                                               ",
"                                                                                                                                      - . 7 $ $ X + > ; o . . + + @ $ - 6 w t $ w = = O o = = = 6 A N 6 6 7                                                                                                                                               ",
"                                                                                                                                    p * . @ o & j.tXpXC.N . $ @ @ @ . $ # @ 2 @ $ O $ $ & & q q R h.Z 7 6 &                                                                                                                                               ",
"                                                                                                                                    p.o H Z w G PXPXPXPXPXp.& 9 + . 6 O @ 6 6 3 $ 2 & $ O $ 7 @ p.g.N w = 6                                                                                                                                               ",
"                                                                                                                                  -Xh.. s.n.t Y LXPXPXPXPX~.$ 6 > @ G j.w 6 > . @ $ O $ w N Z w G.p.N q $ 3                                                                                                                                               ",
"                                                                                                                              rXI T i.. d.z.;.G gXLXLXPXJXE @ 2 6 2 C.f./ Y -.s.N $ $ A Z Z L q p.p.i w $ &                                                                                                                                               ",
"                                                                                                                            C.-X= 7 i.F p 7 * % 9.LXLXPXlX> X 2 q 6 j.a.n.n.h.-.w % $ Z R R G.W p.E n $ 6 O                                                                                                                                               ",
"                                                                                                                          G p.a.- t I U 6 & . . m.LXLXLXf.X . 2 9 6 q Y Y J J h w 2 X E p.i.e.A E K 0 6 & O                                                                                                                                               ",
"                                                                                                                          } n.-XS f.D = 8 q h.( ZXKXLXAXZ.X $ . A W S a.C.-XA.A.w c X b E 7 2 ; > > 3 $ $ $                                                                                                                                               ",
"                                                                                                                          P fXU 8 8 8 * = V Y V nXKXLXAXS.O 2 . C.-.g n.S.=X-XZ.O > @ 6 % & 6 n q > x 6 6 O                                                                                                                                               ",
"                                                                                                                          G d.h $ O h A.S.g $ O pXLXGXAXA.O . O n.f.g f.=X;X=XA.X + X $ & & @ 2 t b w $ $ o                                                                                                                                               ",
"                                                                                                                        D.p } - = $ J f.Y 8 O O dXKXAXAX-XX = . n.f.- m.;X=XN.A.. . @ g 8 g H p.E -.Z $ & .                                                                                                                                               ",
"                                                                                                                        z.& p.t & w a.c.a.g 6 = fXKXAXZX-XO 6 O n.f.t A.rXuXM.Z.o 6 = h.-.-.p.p.-.p.B $ = .                                                                                                                                               ",
"                                                                                                                        z.7 j.h 6 Z f.n.n.N i 8 fXJXSXSX-X% 9 6 f.f.V Z.:X;X>XM.O 6 & z.;.( ;.:.-.-.B @ & .                                                                                                                                               ",
"                                                                                                                        U 7 p.w 6 q a.n.h.V i - dXAXCXAX-XX 2 7 p.f.t C.M.f.N.-.o & 7 f.Y Y } Y -.p.Z $ & .                                                                                                                                               ",
"                                                                                                                      rXU p B N 6 q E -.-.N i 8 dXJXZXSXrXO = w p.h.A s.Y ;.f.f.q 6 i t.Y U H R ;.p.C $ & O                                                                                                                                               ",
"                                                    eXwXwX-X[.D.Z.Z.C.C.C.C.C.n.C.C.A.[.[.-XwXyXtXtXdXtXtXeXS.s.g F H G G H V g A N t A V V G 8 kXAXAXCXuXO = B ;.n.V W = g G S A 0 m { D I Y R -.-.V $ & $                                                                                                                                               ",
"                                  > @ > @ O O O O O O $ $ $ $ = 3 = $ = $ $ $ $ 6 > w w 8 q t g N V Z V G 8 V 8 X = g V t t w t t q % t N Y Y p nXAXCXCXdX$ = G J Z.t t g S h j.D x P T L F D Y ( Y Z $ & @                                                                                                                                               ",
"                            O . X . X X . . O O O O O * = - - 8 p t g g h t h t h r 8 r t 8 r t g h j S / g S / J J ;.;.;.;.J j -.( t / S S G 7 kXAXCXCXdXO 7 D G Z.S p.p.;.Y ( n n I L C N i ( R -.B @ $ o                                                                                                                                               ",
"                            5 6 h.m.N.M.A.~.>X>X:X:XsXsXhXfXbXbXCXCXBXCXBXCXBXCXgXBX1X~.sXsX:XuX:XsX:XsXgX-XlXCXvXAXZXZXvXCXCXlX-Xj.N.A.t t H 8 zXZXSXSXzX% 8 F S S.W f.j.j.Y -.A m m N q i B E R { B @ & O                                                                                                                                               ",
"                          HXC p.PXDXAXSXAXAXAXAXAXAXAXSXAXSXSXSXBXSXSXSXCXSXCXBXCXSXvXc.cXgXhXcXcXCXvXCXvX=XDXSXCXAXSXCXCXvXCXlXk.J f.~.- = W g lXZXZXAXZX% = V V A.G.h.f.:.( p.A x 5 7 & 7 g -.Y -.A $ & $                                                                                                                                               ",
"                      5 M IXm B JXCXBXBXCXCXCXSXSXSXSXCXSXCXSXSXCXCXSXSXBXCXSXCXCXCXhX,.:XhXhXhXgXgXCXSXSXN.gXCXCXKXSXCXnXgXgXhX;.l rXk.J w V g lXZXZXSXgX% * B V S.i.F.j.p.;.p.A 0 # 0 q 7 g p.Y -.Z $ & $                                                                                                                                               ",
"                    . # # : y.* KXSXSXSXSXSXSXSXSXSXBXCXBXCXBXSXCXGXGXSXCXSXSXSXBXCXBXiXhXlXCXSXZXSXSXAXCX%.%.sXJXSXZXCXvXgXsXiX;.uXfX:Xp.8 g g fXZXCXCXrXX = V V S.( n.k.f.j.p.Z 0 n A q q g p.-.-.B @ 3 $                                                                                                                                               ",
"                    + ; ; : + 5 KXZXSXSXDXAXAXSXSXSXDXSXDXSXBXCXvXLXGXAXAXAXJXAXKXLXLXLXLXAXKXKXAXLXDXAXSXk.M.c.AXZXZXCXgXsX:XrX>.rXbXsXa.7 i h lXSXCXvXkX% $ Z h ;XY n.f.j.:.j.I q C C A i B -.-.-.A $ $ O                                                                                                                                               ",
"                    + ; + ; + 5 >.JXCXSXDXSXSXSXDXAXAXSXAXBXDXDXsXAXDXAXAXDXKXDXAXLXAXAXDXAXLXDXLXAXKXLXSXuXAXJXAX>XZXCXnXgXgXgXM.:XgXaXd.- G H CXZXAXCXfX% = D g -XJ n.j.:.:.j.I N A K B 0 N -.( t.A $ $ O                                                                                                                                               ",
"                    + ; ; : $ o o KXhXAXAXAXGXDXSXAXAXSXSXBXSXSX<XGXKXAXAXKXKXLXLXKXAXSXAXAXKXKXKXKXAXLXAXlXAXAXgXn.fXZXCXgXgXhXM.:XsXsXn.8 { G nXSXSXCXdX% . g B d.H n.;.-.p.a.E N m K n q N ;.( -.V & 2 O                                                                                                                                               ",
"                    + ; + + + # o i fXPXJXKXPXKXKXAXAXSXBX>XBXCX>XAXAXAXAXDXKXDXKXDXAXAXLXAXLXDXGXKXLXLXAXsXAXLXuX~.fXCXgXgXdXsXc.:XsXbXm.8 o O gXCXvXCX:X% @ N h a.F n.;.:.:.j.I N n D i w g -.{ ( Z $ & $                                                                                                                                               ",
"                    + ; + + + + . & n JXeXHXD.D ZXSXSXSXSXhXvXBXhXSXAXAXAXKXKXLXLXAXAXAXKXKXAXDXKXGXKXAXAXAXfXCXgXdXuXgXsXuX:XfXm.:XsX<Xf.= O = dXvXCXCX-XX o i H ;.G a.j.;.f.j.R N q C i q V -.R -.V $ $ $                                                                                                                                               ",
"                    + + + ; ; + . + + . . c y.# ZXCXJXAXAXSXSXSXhXDXDXLXAXAXKXKXKXLXKXnXSXhXrXsX:XrXgXgXCXlXhXgXlXgXz.uX;X:XsXsXl.>X:X:Xz.8 8 V dXvXCXSX:XO O q G ;.8 f.:.;.k.f.Y g q B w w V -.R i.W & = $                                                                                                                                               ",
"                    + + + + ; + + + + # + . < g.KXAXAXSXCXSXSXSXcXDXAXFXAXAXAXAXAXSXCXsXgXBXbXlXCXSXCXCXCXCXSXnXnXgX:.gXdXhXgXgX,.=X:XsXn.g 7 V fXSXSXZXuXO $ p H { t f.~.k.:.a.U g i F i p V p.( ( W $ = =                                                                                                                                               ",
"                    + + + ; : + ; + : + + ; : < KXLXAXCXCXCXbXcXsXCXhXgXhXgXgXCXAXLXAXsXgXgXsXgXgXSXZXZXSXSXCXvXlXlXJ CXSXSXSXbX,.>X1X:Xl.p = g dXCXCXSXuXX # i H ;.h C.F.f.:.;.Y N 7 g w 8 V -.R i.Z $ $ $                                                                                                                                               ",
"                    + + ; ; ; + ; ; + + ; + , # KXAXAXbXbXCXvXhX>XcXhXhX1XhXgXvXCXCXgXuX1XsXsX:X1XCXSXSXZXCXlXlXgXlX/ CXCXvXCXgXc.:X1X:Xf.= 6 g sXCXSXSXdXX % x U ;.F -.;.:.:.-.E g G U R -.V -.R ( D & & $                                                                                                                                               ",
"                    + + ; @ ; ; + ; ; ; ; ; : + [ nXnXnXCXSXvXvX:XcXcXhX,X:XgXgXcXgXgX:XsXgXuXuX:XlXvXnXCXgXgXgXgXnX/ lXgX1XsX:Xl.>XhX:Xf.= 6 t sXnXSXZXdX% 6 t } ;.Y a.:.j.p.i.Y W U U T G H p.( i.D $ $ $                                                                                                                                               ",
"                    + ; + + ; + ; + ; + ; ; # + : & AXgXgXSXSXSXhXCXvXgX>X:XhXhXgXgXgXrXgXvXhXsX>XhXhXcXgXgXhXsXfXCX/ CXgX<X>X=Xc.sXhX,X,.$ w g uXgXCXCXrXX w i { } H ;.-.p.( ( G I U L B N V R R p.I $ & O                                                                                                                                               ",
"                    + , ; ; ; ; ; ; ; ; ; ; : # ; + o O ' SXlXAXgXcXgXcX~.,XgXcXcXhXhX>XhXgXuX,X~.uXhXhXhXhXhXsXgXCX%.LXgX=XM.m.c.M.>X>Xf.= 7 A tXCXCXCXrXO 6 q -.U J -.:.j.( G.Z A q 9 w q G -.R -.D & $ o                                                                                                                                               ",
"                    v c B., ; + ; ; + ; + ; + ; @ + # o o @ . C.dXvXsXcX>XsXcXCXvXhXhXQ.,XuX1XuX>X,X,XsXgXhXhXhXhXZX/ gX=Xv.c.c.:.>.N.=Xa.w t i rXCXvXnXrX. 8 - -.[ F [ :.:.( E G D Z B A i I -.R R I $ $ O                                                                                                                                               ",
"                      JXJXxX; ; + + ; ; ; + + + + + : ; ; < ; + lXCX1XSX,X,XsXhXsXsX:X=X:XsXuX,X,X:XsXhXhXgXvXhXgXZX/ -Xl.>.c.f.,.c.9.`.;.w x g :XgXCXSXuX% 8 q -.[ G -.-.;.-.H Z -.{ { Y D D ( ( i.I $ & @                                                                                                                                               ",
"                          xX; + ; ; + ; + ; ; + + + + , v r., 1 p.CX,X1X>X>X>X:XsXsX,X=X:X,XsXsX:X,X,XhXhXcXcXvXgXCX[ %.>.' l ;.l %.:.N.-.0 q q eXvXCXvXrXO = 8 Y H h ( ;.:./ Y J -.-.-.-.U H -.Y R D $ $ o                                                                                                                                               ",
"                            ; + + ; ; ; ; + ; ; ; ; + , v e.M + S.SXCXcXuXsX,XuX:XuX,X>X=X:X,X1X~.uX,XhXhXgXcXgXhXgX[ ].,.f.f.,.;.%.c.~.J w g t rXgXCXCX:XO = 8 [ H h ;.;.( -./ Y } { } ;.{ G R ( i.I $ $ O                                                                                                                                               ",
"                            , ; ; ; ; ; + + ; + ; + + ; ; , ; & zXhX1X>X,X>X>XuX:X,X:X~.=XM.=X>XN.>X1XhXhXhXhXhXhXdXJ ].x.7.,.7.>.>.c.~.} w I 8 :XlXvXbX;X% t 8 Y -.h ( / ;.-.J H } -.{ } Y U ( R e.I $ $ o                                                                                                                                               ",
"                            , ; ; , ; ; ; + + ; + ; ; + + ; ; @ o iXuXN.M.=X=XM.Q.=X>XQ.3.9.&.N.Q.>XhXhX1X:X,X1X1XdXJ -Xf.,.>.,.,.%.l.=X-.w Z t :XgXCXCX-X- 8 g J %.k ;.;.:.;.H I } -.} U T U R R -.G $ O o                                                                                                                                               ",
"                          e., , c ; ; + + ; ; + + ; + ; + + ; + + + 2 . * p =XsXQ.=X>X^.b.N.=XN.4.>XhX,X,X1X1X,XsXhXk n.>.[ [ %.%.F J M.-.w Z t ;XgXCXgX=X- 8 h G Y h / ( ,.( J G G } } U H U Y R { I $ $ o                                                                                                                                               ",
"                          u., c xX; ; + + ; + ; ; + ; + ; + > 1 ; ; + + c F v.KX=X,X>X~.Q.~.>X=Xd >XQ.>X,X,X>X>X:X=XJ f.f.[ >.,.>.[ %.A.-.8 A 8 ;XgXvXgX-X* 7 h V } h ( :.:.( F G { { U U I U R R { Z $ O o                                                                                                                                               ",
"                                  v ; ; ; ; + + + + + ; + ; + ; : , , : g.0XF fXM.>X>Xb.Q.M.N.Q.! Q.1.9.Q.Q.#XN.3.N.! l.m.M.=X#X<X:X=X:X:.& Z t -XhXBXgX=Xt t h F ;.h ( / ;.;.H U { i.} { D U { R R U $ $ O                                                                                                                                               ",
"                                    , ; ; + ; + + ; + ; ; + + ; ; , , , , m 5 x.c.M.Q.N.N.Q.b.Q.=.=X0.b.Q.#XQ.#Xb.9.h c.l.b.=X#X>X#XM.~.;.- t g -XgXgXgX~.% p B h Y j J ( ;./ J U { i.-.R U I R R { G $ O $                                                                                                                                               ",
"                                  v v ; @ @ ; ; ; + ; + + ; ; ; , , : , , ; ; # F =X#XQ.Q.Q.M.=Xc.Q.b.b.v.q.N.b.0.9.r M.7.c.,.3.c.v.3.Q.( % t h -XgXvXgX~.- 8 F g ;.G ;.;.:.( G G { { } { D I R R { H $ O O                                                                                                                                               ",
"                                  , , ; ; + ; + + ; + ; ; + + ; ; , ; , v , , . H A.=X=X~.Q.M.b.N.9.9.9.9.9.0.N.c.N.k f.c.%.%.l.f.l.&.n.Y - t g -XhXgXgX~.- u S h ;.J ;.:.:.;.H D P U D I Z U { R R U # $ $                                                                                                                                               ",
"                                    xXF.g.IXxXwX+ + + + + + ; ; ; , , ; , ; < + g C.M.c.3.%.d c.,.l.%.%.%.%.%.%.l ;.B {.].d.;.>.,.f.,.N.H & D t =XgXvXgX~.- - h h [ ( ;.:.:.( U D F A m B D U R Y -.I $ o O                                                                                                                                               ",
"                                                c + ; + + + ; ; ; : ; , ; ; : ; X s.S.l.l.A.m.rXm.n.,.f.,.,.,.,.%.f.p } | | ;.a.a.f.f.n.[ & D 8 A.gXgXhXn.- = h g J J :.f.;.;.G G L m C L I G R R R I & O O                                                                                                                                               ",
"                                                K < ; + + ; ; + + ; + ; ; ; 1 1 : + 5 5 5 [ >.{.M.l.,.3.7.,.,.*.>.a.& } >.| >.>.f.,.,.n.H o D u M.gXvXcXA.- 8 V g G :.j.:.;.;.g Z A D P K A H { Y R E $ o O                                                                                                                                               ",
"                                                v , + ; + + + ; ; ; : ; ; ; ; ; : : + : c c y.z.n.,.l.l.,.,.,.=.,.>.a d.>.>.| >.,.,.,.m.[ o P 5 M.gXgXgX~.- 8 F g J ;.:.k.:.;.S F M C C C V I R R Y I @ o $                                                                                                                                               ",
"                                                v v , M 9X, + # + + ; + ; + ; ; ; ; ; + ; v # 7 l.>.c.,.,.,.3.,.,.a.a a.l.| | >.>.7.,.b.[ & F p M.dXvXhXk.% g V B F ;.k.f.,.a.F L A m m K B G Y Y R D $ o O                                                                                                                                               ",
"                                                V., , 0Xe., : , + ; + ; + + + + + ; ; ; + ; + . p c.N.9.9.3.9.c.7.f.* a.x.7.*.,.7.7.7.m.[ & m * n.hXsXhXN.2 g V h h %.,.:.:.:.D L C n C K D U Y ( Y D $ o @                                                                                                                                               ",
"                                                      IX9X: 4 # + ; + + + + + + + + + ; ; + @ @ - ~.M.Q.b.b.b.c.7.>.* | m.>.%.*.7.7.7.b.} * m * [ sXsXuXk.% 8 V g F :.,.3.:.:.D D D L K P A G Y Y R D $ o O                                                                                                                                               ",
"                                                            xX> + + + + + + + ; + ; + + ; ; > ; % dX=X`.N.c.3.,.l.l.h d.| | ' [ =.=.=.v.[ & } 5 l.gXvXgXN.= q V N V ,.k.,.,.>.G L L P P L A U Y Y Y D $ o &                                                                                                                                               ",
"                                                              IXD.+ + + X + + ; + + ; ; ; ; . > > b p.E :.n.z.n.f.z.Y } f.V V %.>.7.7.c.[ 5 M p l.fXvXuXN.e b A V V :.3.3.:.f.D P L P P P D U ( Y R Z $ o O                                                                                                                                               ",
"                                                                P : + + @ . + ; > < A A 1 + + ; @ + . + ; + = 2 8 8 p U p w O j H %.>.f.B o p 7 f.fXgXhXC.2 t Z Z k %.l.3.>.,.G U P L C P D E R Y R D O o o                                                                                                                                               ",
"                                                                4 + + + @ . @ + . + @ @ ; + + . + + + + . 2 V g p h X V } - h j.f.k./ :.k o C i f.gXhXvXC.& q A V F :.,.,.>.;.F B B P L L D H Y U Y Z $ o O                                                                                                                                               ",
"                                                                4 1 + ; + + + . + + + + . @ + + + + + + . Z S.S.-.S ( / ( j j k.k.k.k.k.;.7 A g f.fXhXgXN.% 8 A g h ;.k.7.&.>.H F P T P L C G U U Y Z & O O                                                                                                                                               ",
"                                                                e.v , , 1 + + . + + + + @ . + + . + + + + + h.p.S t S / ( j j k.5.5.k.k./ 8 V g f.uXhXdXD.% t A V F :.,.,.,.,.U } { C M B D D Y Y ( Z O o o yX                                                                                                                                            ",
"                                                                IXe.M xXIX+ + + + + + + + + + + + + + @ + + j.b t t S ) ) / j k.k.:.&.) / 8 p g j.dXvXgXA.% t Z D h %.,.,.:.>.F D P M L L C D T U R Z $ o @ eX                                                                                                                                            ",
"                                                                    IX    yX+ < . + ; + + + ; @ + @ + + + @ X w @ b W ) ) / j ) ) :.) S r - 7 i :.dXhXvXA.% w Z V F :.3.3.,.,.H P T P U U B G U Y Y Z @ o o yX                                                                                                                                            ",
"                                                                            kXc + ; + ; + @ @ ; @ + + + + + @ @ + ) G.( ( / ) j.t S V S h 8 p B p.sXuXhX~.w w S Z k :.f.3.,.>.H P { P T L C G U Y Y Z O . o eX                                                                                                                                            ",
"                                                                              JXIXF.. 9 . . + + + + + + + + > 2 . t.j.W ( E i.R E Z 2 2 o O m K } dXsXgX~.e t V Z S :.:.,.%.:.H D T L P W B E Y I E Z o o . wX                                                                                                                                            ",
"                                                                                xXC.. L . + . + X + + + + + # > + c x 9 x m A q 6 : c : $ o M K F fXhXhX~.w w S F j :.,.=.:.>.H D T C L P A Y I G R Z o o X wX                                                                                                                                            ",
"                                                                                  + . : . . . + + . + + + + + + + + + + + + . . . . < b 7 3 c P A dXhXuX~.r w g V h :.,.&.,.:.G U U L K C B D Y I I A o . . wX                                                                                                                                            ",
"                                                                                      . . + . . . . + + + + + @ + . + . + . . . . . ; 6 7 $ v e.N hXsXhX~.t w N B V :.,.:.:.>.V G L Z Z N 7 V G I Y V . o . wX                                                                                                                                            ",
"                                                                                            h.+ + + + + + X + + + + . + + . . . . . ; c 9 $ 4 P g aXhX1X:X- 8 g h J >.:.=.,.:.H R Z C m w q V S S U N . O . [.                                                                                                                                            ",
"                                                                                                . . + X + + @ @ + + + + + + . . . + w x 7 + 4 M p iXhXhXuX- - N B F ;.,.,.,.,.F Y A A B 6 q L H G Y i . o . S.                                                                                                                                            ",
"                                                                                                  . @ . @ X + + + @ . @ . . . . . + x b 7 . : p p :XhXhXuXr = i B F :.,.,.=.a.J E A i i & q I ( I R g . o . S.                                                                                                                                            ",
"                                                                                                  . + + @ + X + @ + + . + + . . . . c x q $ : 5 u =XsXhXuXt 6 g g F ;.,.,.:.:.J Z D A n q A U Y H U N . @ . [.                                                                                                                                            ",
"                                                                                                . . . + O + @ + + . . + + . @ @ + . 9 K x > + 5 p ].1XhXuXy w q i F ,.:.,.&.,./ Y D Z A i Z U Y Y E N + @ . S.                                                                                                                                            ",
"                                                                                                  g.g.N . @ . + + . . + . + . . + > b W p.n A L k {.hX1XsXh w x n S :.:.:.=.,.a.Y Z A m 0 Z H U Y ( b @ > . S.                                                                                                                                            ",
"                                                                                                      mXJXjXp.X & . o . + . . . + Z b W N + $ 5 p M.hX1XhXy w x n S ,.&.,.=.%.H G C A A 0 B G U Y ( b + $ . S.                                                                                                                                            ",
"                                                                                                            HX0XtXP . . . . . X O V Z B = . # 7 p =X1XhXsXr = t q F :.,.3.%.,.;.G C n C 7 V U U Y E t ; @ . S.                                                                                                                                            ",
"                                                                                                              3 K A o 3 o . # + q ( J S g = D U p m.hXbXhXs = q g G ,.3.=.=.:.%.H L x L q A H Y Y Y N + + . [.                                                                                                                                            ",
"                                                                                                              . > $ $ $ $ o . @ U ;.;.Y k 8 B Z p ].1XhX1Xr w t t G ,.,.=.,.,.} I Z n L 0 N G } Y E 9 @ + . S.                                                                                                                                            ",
"                                                                                                            m & 5 # 7 & # # @ . g f.%.%.J - V g 5 n.hXhXsXs = q i G ,.,.3.,.,./ Y Z A I i B G { -.U 9 + @ . [.                                                                                                                                            ",
"                                                                                                                  zXzXMXzXT . . -.l.>.a.-.g N g * A.sXbXhXt - q t G :.,.7.3.,.[ Y G C T q g U } U ( 6 @ # . [.                                                                                                                                            ",
"                                                                                                                        MX[.. . S.Z.I W B t i A t f.;XrXS.O 2 2 w G f.,.,.f.,.-.Y B x T & V Y U Y H 3 @ # . wX                                                                                                                                            ",
"                                                                                                                        MX0X. . w N 6 > $ & @ 7 6 = % $ w @ @ 2 > t -.-.:.>.:.;.U N & Z 7 D V H S G 6 # @ . wX                                                                                                                                            ",
"                                                                                                                        MX0X. + 6 2 > @ @ + + @ > O O @ O @ @ ; $ > $ $ @ 3 w V b x 9 C c q 0 B g V 2 @ + . 0X                                                                                                                                            ",
"                                                                                                                          V.# + > @ + 2 6 ; @ $ 6 6 2 $ + > @ > 2 1 ; @ ; > $ 2 6 9 3 x 0 3 $ & o q 2 @ # . wX                                                                                                                                            ",
"                                                                                                                          D.+ + 1 + @ 1 > < @ > w w w 0 2 @ ; ; > ; ; 2 > ; > 2 < c < 6 @ > @ > . q 9 + @ . wX                                                                                                                                            ",
"                                                                                                                          z.+ # > > @ # > 2 @ > $ 6 3 6 6 ; @ ; + 1 ; > 2 2 2 ; 9 < > < @ $ : 9 > A c + # . eX                                                                                                                                            ",
"                                                                                                                          h.& . > < & 6 6 9 1 x A Z g t 6 + @ + $ 2 $ $ $ 2 > 1 9 < 2 x 6 2 A c > A 9 + $ @ tX                                                                                                                                            ",
"                                                                                                                          g.5 q @ N pXG 6 < K PXKXJXPXJXdX@ . O Z G W V g A L e.W 9 + q w 2 K c @ x 4 . # @ tX                                                                                                                                            ",
"                                                                                                                          m 3 6 . i R g q q A PXPXPXPXPXIX, . $ W G J -.H Y p.i.C > + + . @ < < 1 ; 9 > $ $ pX                                                                                                                                            ",
"                                                                                                                          5 # . . w D = g A c JXPXPXPXJXtX, O O i.S Y ;.-.;.p.p.x @ < 9 > < < > 1 + K > @ @ tX                                                                                                                                            ",
"                                                                                                                          : + @ o A.;.O B E K jXJXzXJXPXwX$ o 6 R G J } Y -.j.-.q + 1 K # < ; ; + + E > ; $ pX                                                                                                                                            ",
"                                                                                                                          5 : q H l.;.F B R 9 E S.= E UXC.@ @ $ H G G ( ( -.{ p.9 > : A 9 . @ + + @ e.9 w @ pX                                                                                                                                            ",
"                                                                                                                          D 0 D.R n.S a.8 T 8 } JXJXJXIXrX$ 3 . h H h Y } ;.R -.& > > 9 2 + . 2 2 2 w 9 9 @ tX                                                                                                                                            ",
"                                                                                                                          5 i d.p - l a.= A & U JXJXPXIXtX+ q . U -.G -.-.-.U -.> 9 ; @ @ . $ & $ . 9 2 3 . yX                                                                                                                                            ",
"                                                                                                                          P h c.%.,.,.>.8 7 i G JXPXPXzXtX+ A . ;.a.V p.-.;.p.j.@ > + < > K Z G Z ( j.$ > . yX                                                                                                                                            ",
"                                                                                                            dXB i & i 7 p B H >.v.b.M.%.. # i D JXJXJXzXwX+ E . a.a.q ( >.-.p.h.@ @ + + q Z Z G Y ( E 1 3 . yX                                                                                                                                            ",
"                                                                                                        lXA.U H -.c.z.z.n.f.H h l *.c.%.* = B A KXJXJXzXUX+ > # Y ;.i { -.;.p.p.> > > @ x Z Z Y / Y R $ $ . yX                                                                                                                                            ",
"                                                                                                      u - 8 p 8 - * - - k h h } -.,.c.,.h = n i JXJXJXJXUX+ @ # H >.g -.-.;.i.j.@ > ; + A Z V / } H Y > @ . rX                                                                                                                                            ",
"                                                                                      - * * u p h J J J H G g h l l k l h l h :.%.;.,.,.F = 0 p JXJXzXZXZ.& $ $ H ;.g -.p.p.p.i.6 > @ > A G V Y Y J Y $ @ . yX                                                                                                                                            ",
"                        MXV.+ ; + 3 $ # o o o * * * & & & * u a u k s z l s - s s 8 u s h h s k s h k h h - t s s h s d s k * l j k %.,.h & 7 7 JXJXjXzXC.O # # Y -.h -.p.:.;.p.6 2 ; q g D V / / Y Y & $ + yX                                                                                                                                            ",
"                      xXV.qX, 0XpXpX;X;X`.z.x.l.d.| H a h a u f o.6.q.#Xq.b.=X].=X=X=X=X>X<XbXbXgXgXsX<X=X:.l l l ....=.=.%.j s h h %.:.V w p 5 JXJXjXZXS.= 2 = ;.;.D -.;.a.j.a.R W N W q D S -.%.Y H $ 6 $ wX                                                                                                                                            ",
"                    r.v r.qXv PXKXKXKXKXLXKXKXKXLXLXLXLXKXAXBX1X(.}.&X1Xq.GXLXLXAXAXAXGXKXFXLXLXLXLXLXLXKXSX*.<X1X<X#Xv.q.M.' l - h s ,.p 7 p 7 mXZXZXJXA.2 $ 0 ;.-.U -.p.p.;.j.i.n n W g Z J ( ( -.U % $ O eX                                                                                                                                            ",
"                    r., , v ; mXPXKXKXAXJXKXAXKXKXAXKXKXJXAXGXGX] *X#X&X6.GXPXPXLXKXLXgXBXSXnXCXCXnXbXbX1XbXv.<X'._.9.=Xb.*.%.k u O r h G p i 7 zXZXJXCXz.7 6 9 H } S S -.:.p.j.T q 7 Z g S H ( / ;.I % $ @ yX                                                                                                                                            ",
"                    e.v , v + N PXKXLXKXAXAXGXJXAXAXCXnXbXbXSXGX6.<X(.8X8.GXPXPXPXPXGXCX`.:X=X:XsX<X>X`.`.`.CXCXbXSXBXhXBX<X`.=X:X:XA.,.J p g = zXmXnXlXg $ $ o F p.H V -.p.p.a.E 5 3 B N G G ( Y -.I o > O wX                                                                                                                                            ",
"                  IXy.; ; , > 6 PXKXAXZXSXbXbXbXnXfXbXfXfXbXSXSXGXGXBX1X<XGXPXPXPXPXLXBXgXbXhXCXCXSXSXbXCXbXSXBXbXbXbXNX<X<X<XhXBXbXhX{.u & 7 & mXnXnXfX8 O > . D p.H S -.-.i.p.U 0 6 Z N G Y Y U -.I + $ # wX                                                                                                                                            ",
"                  zXg.; + 1 < @ : JXaXfX=XbXNXbXbXnXnXbXbXnXAXAXKXAXKXSXgXAXPXPXPXPXLXSXSXBXgXbXSXSXBXBXbXBXSXSXSXGXSXSXfX<XGXSXAXBX1X>Xp & w $ jXmXnXdXg . 2 9 I j.I V p.-.i.;.D 9 i Z V U G Y T ( L @ 6 . eX                                                                                                                                            ",
"                    V.+ + 1 + 2 . T . `.=XGXSXBXCXnXCXCXAXSXnXSXCXCXvXCXSXLXPXPXPXLXLXSXBXbXhXbXGXSXBXbXBXNXbXBXbXnXbXSXsXc.gXAXBXhXhX#Xh O q = jXmXnXdXF $ b b R a.I S -.-.{ { D 3 6 n A N A n W R Z + @ . wX                                                                                                                                            ",
"                    V.+ + 1 + @ @ > o KXKXLXSXSXBXBXBXCXGXhX;XbXnXSXSXAXKXKXLXKXnXCXCXnXbXbXhXfX<XsXhXbXbX<XbXGXGXnXSXSX<Xc.nXbXcX1XhX<XF & C 6 zXMXnXfXJ $ > 9 i.j.U Z i.( Y { C & 3 w q 7 @ Z C e.A + > X yX                                                                                                                                            ",
"                    0X; + : . + + $ O KXKXKXSXBXBXbXBXBXCXhXCXCXSXZXZXZXCXJXfXkXsXgXfXfXhXfXhX;XfXbXnXbXbXsXbXbXBXbXSXCX=XM.hX:X1X#X<X>XH * i & kXnXlXfX;.q 6 9 { a.I S -.{ a.p.{ 0 3 q 0 w 6 K K E Z + $ . wX                                                                                                                                            ",
"                      + + ; + + + @ ; PXPXKXAXSXSXnXBXBXGXgXgXgXlXlXlXgXkXZXgXbXbXnXfXhXhXbXNXaXZXJXSXnXbXsXbXhX<X<X<XbX`.[ m.`.>X#X6.`.H 7 & o B.nXfXfX;.t > 9 { p.I G R i.a.a.{ q > q q 0 $ P W R K . $ . wX                                                                                                                                            ",
"                      : ; ; + + + @ @ . yXd.5 aXbXAXCXGXcXhXgXnXCXnXgXCXgXAXAXSXbXbXhXsXCXnXNX;XSXAXSXSXBXhXfXhX<X1XhXbX`.[ b.>X=XQ.#XM.[ = & & pXnXlXfX-.8 6 6 R { S Y Y p.a.;.{ q 6 x q q = D U T Z + > . eX                                                                                                                                            ",
"                      : : ; ; ; + ; > + . o 5 5 P KXGXSXbXgXCXCXCXCXSXCXCXgXSXSXbXCXhXsXbX<X{.'.MXSXbXbXgXiX<XbXbXBXBXSXsXc.>X<X>Xb.#X`.[ & & o eXnXgXfX>.q 6 9 R -.G U H p.a.p.{ 0 6 A 0 q w I D R Z # @ . wX                                                                                                                                            ",
"                      t.: + ; ; ; ; ; ; , + + : : D.nXGXSXBXSXSXAXSXGXBXbXaX;XiXfXgXsXM.#XM.`.`.hXbXgX1X1X<X=X1XhXbXCXSX<Xl._.<X&X%X#Xb.l 6 6 & eXnXbXdXf.q > 9 { p.I G G ;.a.p.{ 6 9 x 0 n i Z R R Z + $ . wX                                                                                                                                            ",
"                        v : ; ; ; , ; ; , , , ; + . MXKXnXSXSXbXbXNX<XhXaX`.`.iX:XiX<XsXGXSXCX<XbXSXCXbXsXhX1XhXhX1X1XhX=X7.>X1X>X#Xv.v.u & 8 & iXMXnXkXs.9 @ 9 Y { -.( E p.-.-.{ n 3 0 q x x I R p.W + $ . wX                                                                                                                                            ",
"                        + v ; ; ; ; ; , ; ; ; , : M PXLXMXnXMXMXSXbXhXhXiX=XlXCXCXCXaX1XAX<XsX<XgXCXCXhX:XsXrX:XhXgXCXSX=X7.>X(.#Xb.8.7.F 5 p.i dXMXlXfXf.2 > 6 t.i.( U V p.f.p.R 7 0 x n i A R E R L + o . wX                                                                                                                                            ",
"                        M F.; ; ; ; ; ; ; ; ; ; 5 5 KXKX'.8.a k nXbXbX1XhXM.nXgX`.7.*.7.<X<X<X:XhX1X:X<X1XCXgXsXsX1XhXbX`.' 7.' 8.=.(.7.h 7 N 8 pXnXlXfXh.q x x i.p.R ( V p.s.;.i.C A C n i A e.R i.E # + . wX                                                                                                                                            ",
"                        V.9X; + ; + ; ; ; ; ; 1 : : + . o $ m 0XMXSX1X#X<X' ;X=X=X>X_.>XsXsX1X>X<X>X:X>X<XGXbX1XhXhX1XBX`.7.'.#X'.v.8.v.J q 7 & [.MXfXfXz.w q n i.{ Y ( N j.s.p.i.C x Z i x Z e.R e.U + @ . wX                                                                                                                                            ",
"                        yXu., ; ; + ; ; ; ; + + : : : : ; < : pXAXbX`._._.[ <X<X<X1X<XsXsXsX1X<X:X<X1XbXgXGXBX1X1X1XsXSX].x.v.8.(.q.(.7.k 8 = i eXnXsXfXC.9 9 7 T i.( ;.8 j.h.f.p.Z q C n q Z R R i.T # o . wX                                                                                                                                            ",
"                        xX, : + + ; ; + + ; + ; : : : , : 4 : A.GX1X>X1X<X>X<XhXbXbXbXhXbXbX<X:X<XBXAXCXSXCXgX:XhX1XsXSX>Xx.8.*.8.8.(.8.h 7 6 7 {.MXaXfXn.2 2 0 U i.-.j.q j.f.s.s.L c C q i C R R i.E @ $ . wX                                                                                                                                            ",
"                          e.M : + : ; ; + ; ; , : : : : 1 4 : o fXNXhX1X<X<X1XsXsXNXsXaX:X<Xv.=X~.<XhX:X;X:X=X`.].`.c.iX`.>.8. . .] 8.*.u & & 7 [.kXiXdXh.6 > n T i.-.j.A f.h.g.s.Z 0 m i 0 C P R e.E @ $ . -X                                                                                                                                            ",
"                            : < , + : # ; ; : 1 : < < : , : : : 5 x.{.m.l.[ ] | l.{.'.x.l.f.H ,.l.l.m.;.a.f.x.l.d.>.;.n.7.*.*.| | ]  .*.k 5 p 8 [.nXfXdXn.= 6 U U j.{ j.A h.s.s.s.L 9 m n 0 C T T t.R $ $ . [.                                                                                                                                            ",
"                                0X+ + + + : 1 : , , : , : : v : # o D [ | } [ d.m.{.[.].C.x.F a.l.>.eXeXZ.g.t.h.} >.;.].n.>.*.[ ' ] ] 8.k p 7 7 [.fXfXrXZ.$ 9 B E R -.p.Z j.s.j.s.C 9 B 0 0 K { R { R $ $ + S.                                                                                                                                            ",
"                                  m # @ + + , , < , : , , , < < : # # 3 M | F '.{.{.Z.m.V.z.P z.z.d.{.[.{.i.d.d.d.f.l.;Xn.%.*.[ ] ' z *.' p U i {.pXfX:XA.$ q 0 D { -.;.Z p.s.j.i.A 0 A m m C t.{ t.R $ O o 0X                                                                                                                                            ",
"                                    + + : 1 , : v : , : , : : 1 < < : + 5 # V.0XaX{.V.x.Z.z.} [.[.Z.[.{.Z.d.y.x.f.x.x.m.,.[ *.[ ' [ ' k F p R q {.kXiXrX=X= w A Z { -.p.W t.j.p.i.A 7 A m m C t.p.e.T $ O . [.                                                                                                                                            ",
"                                      < . : : , : : , : : : : : , v v < , , K D.Z.x.n.l.>.,.} Z.{.{.`.{.x.| | V.| k >.| f k [ ' ' %.k s - 7 = & B.pXaXiX-X7 q A D i.Y i.Z p.( p.R Z 9 m n m D T R { R @ $ . S.                                                                                                                                            ",
"                                    . + : ; < : , : , : , ; ; : , : < < < , v M 7 o p n.~.A.x.;XaXfX;X{.].f.g.m.x.d.>.7.k >.>.' %.%.l - o = & 6 C.aXiX:XA.7 6 I N p.E j.E x N B R w x C i A M t.R t.U @ $ o S.                                                                                                                                            ",
"                                        + 9 v : : , : : ; 1 1 ; : < , , < , , : 5 } Z.:X-Xn.n.;XiX<X;X;X{.z.Z.[.d.>.f.*.k 9.*.[ l >.H - o 6 7 7 z.pXiX;XA.7 3 Z Z { R s.h.I e.R e.L D C n D K P R e.U $ $ . S.                                                                                                                                            ",
"                                            n : : : : : 1 1 ; 1 , < < < < v : 5 3 7 z.pXpXA.A.{.eXpX].;X[.l.Z.D.z.].A.v.' ].l [ [ %.[ i 7 n q & n.dXiXeX-X= $ C A R p.s.j.p.i.i.R { T C C M L { { t.T $ @ o S.                                                                                                                                            ",
"                                                K : + ; 1 ; 1 1 , : : : , , : ; 4 A e.g.x.y.V.0XeXrX-X-XD.h.D.u.j.D.A.l.[ l.[ [ J [ H i 7 0 6 $ n.dXiXrXtXw 6 W C T i.i.h.p.t.i.t.{ T M M C M T R p.U $ O . A.                                                                                                                                            ",
"                                                  c ; ; ; 1 1 1 : , , , : : : ; : v r.c o 5 5 y.g.g.s.n.i.A K K A g.n.k.%.| F H k J H 7 & 6 N 6 h.pX:XrXrXt 6 T K T i.i.g.t.t.t.t.{ T C C M P { e.p.I $ $ o D.                                                                                                                                            ",
"                                                    ; ; ; < 1 1 1 : , : : : : + ; , < < # 5 M e.d.g.P p.n + @ > > b ( :.-.-.h k J J S w @ 6 6 = z.pXrXiX-X= 6 0 T D t.i.h.t.t.i.T T T m M C M T T { E $ o . A.                                                                                                                                            ",
"                                                    ; : 1 ; ; 1 : , : ; : , + : : : , : : : 5 V.0Xt.t.z.z.h.E @ x h.k.j.;.} V j h J k - @ 6 = $ f.pX:XeXeX$ & 5 L E t.i.g.t.{ t.{ T P A C C P { T e.I $ O . D.                                                                                                                                            ",
"                                                          9X+ + : ; > ; > @ ; + , : : : : : < M T p | eXeXZ.D.$ Y C.c.:.f.} s h k h J w $ q $ $ g.iX:XeX;X6 @ 9 A E t.i.g.{ i.i.P T P B B M C U U R T & . . C.                                                                                                                                            ",
"                                                              , : ; @ ; ; ; # : : ; : , : : < : + . d.xXrXz.g.6 R D.c.,.A.[ 8 h J k G g 6 Z 6 O h.iXeXrXrX8 6 9 C t.t.t.h.t.t.{ P P P m m M C T T T E $ o . C.                                                                                                                                            ",
"                                                                + > ; > @ > # # : : # : , < , < 3 o y.kXdXZ.B.7 U n.l.f.[ } h [ } J H V q 6 w $ z.rXiXrXrX= & 9 T T t.e.g.i.y.P P P C C m C C T T R U $ . . C.                                                                                                                                            ",
"                                                                + @ ; @ ; ; # # ; ; : : < 1 , ; : . d.{.Z.p.g.9 0 Y H -.;.[ - F [ } * 7 $ > w 6 g.iX;X;XtX2 6 2 T E i.-.s.t.d.} P C L M M C M P T T I @ . . h.                                                                                                                                            ",
"                                                                . + + # : + : + ; ; > : 1 1 < 1 < : : 5 0 # c m C p.} } B i 5 i F g m 5 o > 7 O z.rX:XrXtX= > 4 A L i.t.s.t.p.t.P P P M M F P U T R U $ . . z.                                                                                                                                            ",
"                                                                . + : + : + ; : # ; : : : < 1 1 1 1 : + : ; v K D s.H F & & 5 i B 7 p & 5 9 @ & f.rX;XrXpX- $ 9 A P t.-.p.t.y.t.T P L F C M P } T T U $ o . h.                                                                                                                                            ",
"                                                                . . 5 y.5 + ; # : : : ; : < 1 1 1 > : + . ; ; 4 5 N H F p i p [ } F s.A.g.6 w 7 l.eX;XrXuX8 & 5 n P t.t.i.t.p.T P P P C F M F P T R U $ o . h.                                                                                                                                            ",
"                                                                .         # # ; ; # ; > 1 : 1 < 1 > : 1 + : : : . p a.} p p - F d.;.B N w + w $ z.iX;XrXrX7 > 3 A P e.{ t.t.d.T T P L D M M m } T T R $ o . h.                                                                                                                                            ",
"                                                                            + ; > + 1 < > 1 > 1 > > 1 : : : : 3 5 L t.H F B | d.} p & & X @ $ O z.rXeXrXiXt 3 3 A P t.{ p.t.g.T E T E K D n C P L T T $ o . h.                                                                                                                                            ",
"                                                                            x : ; 1 ; > 1 + : @ ; ; : 1 : : 3 : 9 t.[ F F [ | | d.# o 3 > $ 6 & z.iX;X;XpXg > 3 C D t.{ y.i.g.T T P P K C m K P L T R $ o . h.                                                                                                                                            ",
"                                                                            # + : + + : > ; ; > @ ; : 1 , : + 4 5 9 i p p B p F } & ; 2 2 @ 2 = z.eX;XrXpXV $ : K m t.y.t.i.s.R T I K C C m P P L T R $ o . h.                                                                                                                                            ",
"                                                                            ; + , + L c > > : @ > > : : : , : : : : # # 5 M [ | C q > < 2 ; @ & l.iX;X;XpXF 3 : D n t.t.t.t.h.E E L B B C M C P P E E $ . . h.                                                                                                                                            ",
"                                                                                          P 1 @ 1 # ; < : : < v < 1 : : : 3 7 7 5 < < c 0 3 $ - z.iX;X;XdXS > : D 0 d.t.t.t.h.T L E x m n i C T L T Y > + . g.                                                                                                                                            ",
"                                                                                            @ 2 ; 2 3 : : : < v < 1 : : : < # + + # + n t.L $ 6 z.eX:X;XjXH $ : L n y.t.y.t.d.T L I m x 4 5 M P P E T $ @ . s.                                                                                                                                            ",
"                                                                                            1 ; + : + , : ; 1 < < , : : < < : + ; , < K P i o 6 l.rX;XeXjXU $ # L m p.t.i.t.d.T C K C i 5 c M P L E T = $ . s.                                                                                                                                            ",
"                                                                                            < c :     4 , : 1 1 1 1 ; , 1 < 1 1 1 ; 1 K L 6 o & h.eX;X-XdXU @ : L m d.t.y.y.d.e.m n n c 5 m M { K T T 3 O . p.                                                                                                                                            ",
"                                                                                              K         : 1 1 1 < > 1 1 1 1 ; ; > ; < A A 3 $ * h.;X-X;XdXU $ @ K m y.{ i.y.d.t.n 0 c 5 5 c M P T E E 6 . . p.                                                                                                                                            ",
"                                                                                                        : > > > > ; ; 1 1 1 ; 1 ; ; < b B & . 7 d.eX;X;XpXY $ ; C n t.} y.t.i.R m q 9 n 5 n M P P e.R < # . p.                                                                                                                                            ",
"                                                                                                        $ $ # + @ @ ; > > ; @ @ @ ; # c n 3 & 6 } ;X{.>XiX-.@ # m m t.t.y.i.i.P n 0 0 m M m C e.R e.T 2 O + p.                                                                                                                                            ",
"                                                                                                        0 & o # + + @ ; @ ; + @ @ + + 5 c 3 e.B x.eX;X-XrX-.@ # n A t.t.d.y.i.{ K x m P M P C P R e.E > + . p.                                                                                                                                            ",
"                                                                                                          [.. : C 3 + > + # # + # + # 0 c # M m d.rXM.=XrX-.@ . c m p.t.d.i.s.g.I i Z T P L P T { t.R 2 + o i.                                                                                                                                            ",
"                                                                                                                      # # # # > + $ : c m 5 4 0 { ;X{.=XrX{ o $ 5 C t.t.a.p.d.s.Z x Z e.P } } t.{ R R 2 . . p.                                                                                                                                            ",
"                                                                                                                        . + + : & C A n i 5 4 9 >.;X;X;XdX-.+ > 1 P t.t.s.s.s.s.A q q P L P t.t.{ i.e.2 + . i.                                                                                                                                            ",
"                                                                                                                        + > 9 # = n P C : 5 < # } {.>X:XtXY . @ 3 P t.i.g.g.h.i.F w 0 L L P t.d.{ { e.6 . . t.                                                                                                                                            ",
"                                                                                                                        . : m + 3 t.} F # 6 > & [ =X:XiXdXE . 9 4 T t.t.s.h.s.;.W $ 5 C L D { t.i.i.e.6 + . I                                                                                                                                             ",
"                                                                                                                        . < M + 0 i.>.F . < w & H =X>XiXuXV X > > T t.i.p.g.s.i.n & 0 K P I { } R R R > . . D                                                                                                                                             ",
"                                                                                                                        + 4 m ; 3 a.f.J # 6 x = [ ;X`.~.f.@ X 2 2 W D m I { { { Z & # A m L i P -.R P 1 . . Z                                                                                                                                             ",
"                                                                                                                          < K ; p z.n.} . 9 q w a.:X:X;X-Xw + 2 < x c A L T i.U A > $ L n i m i x C b : + . B                                                                                                                                             ",
"                                                                                                                          9 c @ 9 d.h.P . : > # Z i.W 6 > . ; , , < < v c x c c c 4 1 M c 4 < , ; + + ; + . n                                                                                                                                             ",
"                                                                                                                          q # @ . Z 0 < . + + + + + + + + ; , , , , , ; , 1 + , ; ; , < : , , , , ; ; ; ; + B                                                                                                                                             ",
"                                                                                                                            + @ . # ; + + ; + + ; + + + ; ; , , , , , ; ; ; , , , , , , , , , , , , , , ; + B                                                                                                                                             ",
"                                                                                                                              3 # . + ; + ; ; ; ; + ; ; ; ; , , , , , , , , , , , , , , , , , v , , , , , + A                                                                                                                                             ",
"                                                                                                                              C @ A , ; ; + ; ; ; ; , ; ; ; , , , , , , , , , , , , , , , , , , , , , v , ; U                                                                                                                                             ",
"                                                                                                                              D.< K < ; ; + ; ; ; ; ; ; , ; , , , , , , , , , , , , v , , , , v , , v c ; +                                                                                                                                               ",
"                                                                                                                              D.9 c e., ; + ; ; ; ; ; ; ; ; ; ; ; , , , , , , , , , , , , , , , , , , M + .                                                                                                                                               ",
"                                                                                                                              D.c v j.; ; ; , , ; ; ; ; ; ; ; ; ; , , , , , , , , v , , , , v , , , , v # .                                                                                                                                               ",
"                                                                                                                              yXD n e., , : , , , , , , , , , , , , , , , , , , , , v , v , , , , , , 1 6 Z                                                                                                                                               ",
"                                                                                                                                9 9 g.g.t.V.V., ; , v < , , , , , , , , , , , , , , , , , , , v , v < 9 $ tX                                                                                                                                              ",
"                                                                                                                                6 T C.D.D.9XV.b ; ; v < v , < v v v , , < , v , < v v < v , v , v , 2 > 6 tX                                                                                                                                              ",
"                                                                                                                                  e.D.0XwXyX0Xr.. ; < v < , v < v < < < < < < v < < , 1 , v , v , c 2 2 X tX                                                                                                                                              ",
"                                                                                                                                  wXwXwXyX0XyXe.+ + 1 < c 4 c x b 9 x 9 c 9 c c c x c v < < c c x b < 2 % wX                                                                                                                                              ",
"                                                                                                                                    yXyXyXyXyXg.. ; < < x 9 c 9 9 c x c 9 b b b K A c 9 < c c c K K b w w ~.                                                                                                                                              ",
"                                                                                                                                        yXyXtXB.; : , : c w x w 2 x 9 9 9 9 w q b A c 2 1 9 v c K W b 2 w C.                                                                                                                                              ",
"                                                                                                                                          tXtXD.. , < 1 c c x b b b t A Z q 8 q b A b x < 9 b c b b 9 w w n.                                                                                                                                              ",
"                                                                                                                                            xX0X+ ; < 3 4 c w b b b A K W G Z J G.K b x ; 9 b c c 2 w b 2 G.                                                                                                                                              ",
"                                                                                                                                              wX+ ; # 3 0 n K Z x w A E E E I E E Z c c 9 x x c v 2 2 w 2 G.                                                                                                                                              ",
"                                                                                                                                              yX+ ; < 5 0 0 9 c 2 x b b A N A N b x c v 9 c c c v 9 2 9 % -.                                                                                                                                              ",
"                                                                                                                                                + # # 3 0 c x q 2 q w w t w 8 % c x < c < 9 9 v 9 2 2 w 2 ;.                                                                                                                                              ",
"                                                                                                                                                > + : 9 Z A W S E W W V Z S Y N b v < < 6 < 4 9 2 @ @ 2 2 {                                                                                                                                               ",
"                                                                                                                                                < 1 + T i.p.p.p.( p.( ( j.f.k.j.e.K E E P I Z Z K K b 9 2 (                                                                                                                                               ",
"                                                                                                                                                3 : 1 T ( p.-.j.-.:.a.f.f.k.n.n.W R e.i.R t.T e.E G.W w = Y                                                                                                                                               ",
"                                                                                                                                                3 < > i.p.h.f.;.j.j.f.n.n.m.n.h.W R p.i.t.;.p.p.e.p.E t 2 G                                                                                                                                               ",
"                                                                                                                                                c < < U f.f.f.j.:.f.f.M.N.n.M.n.s.p.j.t.p.p.R i.G.i.W b 2 H                                                                                                                                               ",
"                                                                                                                                                4 < > i.j.n.f.k.p.a.k.m.n.Z.N.n.f.e.i.e.t.t.R p.p.( E 9 % G                                                                                                                                               ",
"                                                                                                                                                9 > 9 p.s.h.c.k.,.:.n.N.N.h.N.n.p.E ( R -.R { p.G.e.E w w G                                                                                                                                               ",
"                                                                                                                                                0 > v p.f.h.h.h.-.} f.k.n.l.n.M.j.p.j.p.i.R p.i.e.G.E w w Z                                                                                                                                               ",
"                                                                                                                                                3 4 6 g.f.j.j.s.f.j.f.f.f.f.c.n.j.g.g.j.p.i.t.p.G.e.W x w G                                                                                                                                               ",
"                                                                                                                                                3 < x j.p.-.p.p.j.j.s.f.s.n.a.h.p.G.e.e.t.e.e.W K W K b w V                                                                                                                                               ",
"                                                                                                                                                3 3 x U G I E E I I I E s.f.Y j.e.W K A m x c m c c 9 w w V                                                                                                                                               ",
"                                                                                                                                                3 3 0 N N V q Z A x n I p.p.J G.( W x c c c x A b b b 9 6 D                                                                                                                                               ",
"                                                                                                                                                6 6 t E j.( j.F.F.p.j.a.f.m.f.A.S.G.N 9 c x b b 9 9 2 2 w A                                                                                                                                               ",
"                                                                                                                                                > 2 c Y :.( f.p.{ -.p.f.l.m.M.>XM.Y Z A E E E E E ( G.K t N                                                                                                                                               ",
"                                                                                                                                                3 3 q j.f.k.f.f.a.;.,.k.c.=X>XbXgX:X;.f.f.k.:.j.( Y 9 9 9 q                                                                                                                                               ",
"                                                                                                                                                3 3 W h.h.n.f.>.>.f.h.N.N.v.1XGXvXM./ :.:./ j J S I q 2 9 A                                                                                                                                               ",
"                                                                                                                                                < 5 x h.n.A.=X=X>.k.c.N.b.b.bXGXGXQ.J c.,.:.%.%.%.Y b 2 6 A                                                                                                                                               ",
"                                                                                                                                                3 9 R n.A.:XhXsX,.M.~.=XQ.=XSXFXSX=X%.A.f.,.:.%./ J b > 6 A                                                                                                                                               ",
"                                                                                                                                                A Z j.k.M.~.N.9.l c.0.N.#X>XsXBXhX>X:.Z.f.,.;./ Y G b 2 6 N                                                                                                                                               ",
"                                                                                                                                                  n.].=X    1X,X=Xc.~.M.].:X=X{.=X%.= I V Y Y / Y Y b 9 6 A                                                                                                                                               ",
"                                                                                                                                                  m.=X        rXA.C.n.>.>.>.a.f.i.I % @ 2 b ( p.I Y b 9 6 q                                                                                                                                               ",
"                                                                                                                                                            -XA.-.p.s.C 7 B i L K 6 ; @ w A ( G I Y x 6 > 0                                                                                                                                               ",
"                                                                                                                                                Z G V N -.G h V Z I E A N I 2 4 < > ; < 9 b A j.Z -.N < 2 0                                                                                                                                               ",
"                                                                                                                                                5 6 > q D.S.S W Z W E P U { x c 9 < 2 2 9 9 t Y J R b 9 > q                                                                                                                                               ",
"                                                                                                                                                D 4 5 A A.=Xf./ Y E ( R p.-.Z ( W 2 @ 2 w w A G G E q > > q                                                                                                                                               ",
"                                                                                                                                                t.c x { A.M.k.k.:.h.~.-X-X=X-XuXwXb w b 2 A A G H -.q > 3 q                                                                                                                                               ",
"                                                                                                                                                p.c A h.M.>X>X=X>XsXhXfXsXiX,XgXuXj.W j.G W G ( H E 6 < > 6                                                                                                                                               ",
"                                                                                                                                                t.9 N h.c.:X:XsXsXgXCXBXhXhXhXvXuXN.k.M.h.-.G E U Y 6 > 3 6                                                                                                                                               ",
"                                                                                                                                                t.x A h.n.:X:XsX:XAXGXAXSXgXgXgXrXM.M.~.;XwXW S ( ( > > 6 6                                                                                                                                               ",
"                                                                                                                                                t.0 L s.M.:X:XsX:XAXSXCXCXZXhXfX~.=X~.~.n.j.S ( S i.$ 2 2 6                                                                                                                                               ",
"                                                                                                                                                p.c L h.n.:X:X,X<XSXgXgXfXfX~.rXj.A.=XN.f.} ( W E ( > 2 < 6                                                                                                                                               ",
"                                                                                                                                                t.c U g.h.=X:X:XN.n.=X-X=Xn.G h j C.N.f.h.( ( ( ( ( > > 6 6                                                                                                                                               ",
"                                                                                                                                                d.C K h.k.A.n.k.;./ n.`.=X~.-X( U n.D.j.k.G.( ( ( ( @ > $ q                                                                                                                                               ",
"                                                                                                                                                y.C T C.C.Z.n.h.;.;.=XuX;X~.wXG W A.~.k.h.i.E / ( E @ > > w                                                                                                                                               ",
"                                                                                                                                                g.M i.C.n.A.n.k.>.;.-XrXrXA.Z.W ( ~.UXn.g.R b W ( W @ > $ w                                                                                                                                               ",
"                                                                                                                                                d.M e.z.C.C.n.z.j.p.uX~.=Xn.n.V ( B.A.C.h.e.b S / W @ > $ q                                                                                                                                               ",
"                                                                                                                                                d.M } D.z.Z.A.C.j.f.dX~.S.n.s.j.( j.n.f.t.b = W j.( . > $ 7                                                                                                                                               ",
"                                                                                                                                                y.P t.C.f.n.M.C.f.A.D.A.C.n.h.G ( F.n.f.e.Z S ( j.-.. $ $ w                                                                                                                                               ",
"                                                                                                                                                g.M } n.n.n.-.k.z.A.-XrXA.:XwXk.n.C.n.h.-.I S ( k.( . @ $ q                                                                                                                                               ",
"                                                                                                                                                y.P P Z.n.A.Z.].-XvXZXvXvXzXgXZX~.M.=Xf.U i.j.( k.G.. @ @ q                                                                                                                                               ",
"                                                                                                                                                d.P P Z.h.-X-X=X-XdXvXZXZXvXuXvX~.A.A.f.;.i.p.( f.( + + $ q                                                                                                                                               ",
"                                                                                                                                                y.C T C.n.~.=X~.~.vXAXZXZXvXlXuX~.~.Q.f.p.{ U ( h./ . + $ 7                                                                                                                                               ",
"                                                                                                                                                g.M D Z.C.~.~.-X~.dXvXZXvXlXdX~.~.~.A.f.p.{ G V j.Y . + $ q                                                                                                                                               ",
"                                                                                                                                                y.m C D.n.S.-X~.~.dXlXZXvXkXlX~.~.~.~.h.p.E V V :.S X + @ q                                                                                                                                               ",
"                                                                                                                                                y.M F z.C.[.-X~.-XdXvXZXlXlXgX~.~.~.C.n.p.L U H ( W . # # 8                                                                                                                                               ",
"                                                                                                                                                } m } h.Z.[.[.~.-XdXgXnXvXkXlX~.~.A.~.k.g.P I I -.S . @ @ 0                                                                                                                                               ",
"                                                                                                                                                { M P z.Z.].-X~.~.dXgXlXvXdXdX~.M.m.;.p.F U L D -.S X @ @ q                                                                                                                                               ",
"                                                                                                                                                y.m D z.n.A.C.A.A.hXfXvXgXdXdX~.n.n.;.;.d.L F F -.S . + # 7                                                                                                                                               ",
"                                                                                                                                                y.m F h.h.A.-X-XA.gXfXlXdXgXuXA.S.A.c.;.;.P B V Y S . + > w                                                                                                                                               ",
"                                                                                                                                                } M M z.A.[.A.~.M.dXhXgXdXuXuX~.=X=Xz.p.y.P F i ( V o # & 0                                                                                                                                               ",
"                                                                                                                                                } M C n.Z.A.=X-X~.hXhXgXhXfXtXS.[.;Xz.d.} } B i ( t + @ $ 0                                                                                                                                               ",
"                                                                                                                                                P C q h.A.-XS.-X=XhXgXvXlXvXdXA.fX-Xl.d.} P N g I V O @ $ 7                                                                                                                                               ",
"                                                                                                                                                | M m l.Z.A.-X~.S.gXvXlXCXnXuXm.-X=Xn.f.p.W 9 q E N . O $ 7                                                                                                                                               ",
"                                                                                                                                                } M n f.C.A.~.wXZ.lXlXvXlXvX:X3.M.A.f.-.( ( q q R b X @ $ w                                                                                                                                               ",
"                                                                                                                                                | C n h.A.~.UX~.Z.lXvXgXvXvXhXQ.=X~.~.n.N.j.( W i.A . @ @ 0                                                                                                                                               ",
"                                                                                                                                                P B i n.~.rXuX:XuXvXvXvXcXhX,X~.~.~.~.k.f.S V W G A @ @ @ q                                                                                                                                               ",
"                                                                                                                                                } M g n.-X~.,X~.N.^.N.4.5.5.4.K._ ) ` v b w 2 @ A n . O @ =                                                                                                                                               ",
"                                                                                                                                                | M B / :.4.k.4.3.4.K.5._ 5.5.^._ ) S G.W 2 @ 2 E A O $ O 7                                                                                                                                               ",
"                                                                                                                                                y.m p ;.&.5.4.4.5.4.4.5.5._ 5._ _ ) w G.b 2 2 w Z A . % O                                                                                                                                                 ",
"                                                                                                                                                y.0 B J 5.4.4.2.+.<.5.5.^ 5.5.5.) G.b G.b b w b V t @ $ O                                                                                                                                                 ",
"                                                                                                                                                t.L N S :.5.1.5.+.<.+.<.) 5.&.5.) ) t b w 2 t $ N t @ % o                                                                                                                                                 ",
"                                                                                                                                                U g q t :.=.5.1.+.<.<.5.~ 5.3.) ) j.k.S :.Y f.;.p.Z O $ o                                                                                                                                                 ",
"                                                                                                                                                B 0 w t :.1.1.2.+.X.+.<.~ 3.0.b.Q.M.M.a.A.k.,.f.;.Z . $ O                                                                                                                                                 ",
"                                                                                                                                                B i x h &.&.&.2.2.2.<.2...3.#Xb.N.c.c.c.A.n.l.;.a.G O $ +                                                                                                                                                 ",
"                                                                                                                                                { i q t &.&.<.2.2.2.0.2...0.M.#Xb.c.c.x.M.l.,.:.f.G X > >                                                                                                                                                 ",
"                                                                                                                                                { N w g &.&.=.1.1.1.<.3.X.&.#X=X].v.m.n.m.l.f.>.a.G X > $                                                                                                                                                 ",
"                                                                                                                                                i.B w t l &.=.Q.0.0.4.1.! 3.b.].].n.c.m.M.l.l.>.a.D . @ $                                                                                                                                                 ",
"                                                                                                                                                p.B w w ! =.1.1.X...X.^ ! :.N.=X=Xn.c.m.n.c.,.;.j.Y . > $                                                                                                                                                 ",
"                                                                                                                                                s.Z Z h ,.1.w.$.$.$.2.+.X.<.b.-X=Xn.c.A.c.l.f.;.a.G . $ $                                                                                                                                                 ",
"                                                                                                                                                d.V G t &.6.$.J.$.$.2.2.~ &.`.>X].m.n.m.c.f.f.;.j.Y . $ $                                                                                                                                                 ",
"                                                                                                                                                a.V J s %.2.$.).$.$.$.w.+.=.#X].`.A.A.n.f.>.f.;.a.I . $ $                                                                                                                                                 ",
"                                                                                                                                                s.V h h =.#.w.$.$.$.$.X.+.X.v.>X`.,.l.n.l.a.>.;.;.I . > $                                                                                                                                                 ",
"                                                                                                                                                } B H h 6.=.#.O.] z s d j s 9.>XM.x.>.f.a.,.f.;.j.U o $ $                                                                                                                                                 ",
"                                                                                                                                                H V ( s =.#.O.6.#.=.,.h - r 7.`._.M.l.,.l.l.l.>.;.R # $ $                                                                                                                                                 ",
"                                                                                                                                                V B U p l ..o.#.w.#X9./ s k 7.v.`.M.M.c.c.l.n.;.a.T # @ $                                                                                                                                                 ",
"                                                                                                                                                L t G j %.O.o.#.q.#.6.%.s s *.9.=X`.m.A.n.v.n.;.;.Y O # $                                                                                                                                                 ",
"                                                                                                                                                i.B / J 7.9.q.&X#X(.8.*.k | x.v.l.>.a.n.,.l.l.H { R @ $ $                                                                                                                                                 ",
"                                                                                                                                                i.D ;.l =.9.#Xq.v.(.v.>.f | '.v.x.[ g ;.Z.].m.H } -.$ # $                                                                                                                                                 ",
"                                                                                                                                                s.G ;./ ,.9.b._.(.q.v.7.f ' 8.q.`.m.{.{.{.`.f.H { { @ $ $                                                                                                                                                 ",
"                                                                                                                                                d.I ;.;.,.v.b.b.>X_.#Xv.k | q._.m.x.z.[.n.l.n.[ U -.$ o $                                                                                                                                                 ",
"                                                                                                                                                s.I -.;.=.v.v.v.#X>X<XM.k | '.>X`.x.y.>.| a.f.-.} -.3 + @                                                                                                                                                 ",
"                                                                                                                                                s.G ;.%.,.q.b.q.0.b.9.X.f | q._.7.[ } k H *.>.>.H R 3 . o                                                                                                                                                 ",
"                                                                                                                                                h.H ;.%.=.9.w.q.b.q.b.6.k | v.q.>.[ >.J [ *.[ h J -.> + +                                                                                                                                                 ",
"                                                                                                                                                h.G %.[ ,.9.q.&X&X#Xb.=.f >.'.}.'.,.d.*.*.[ -.[ -.p.6 > $                                                                                                                                                 ",
"                                                                                                                                                g.U %.%.,.7.6.q.q.q.c.7.s >.7.7.c.l.v.,.,.,.[ H { i.i + +                                                                                                                                                 ",
"                                                                                                                                                h.U -.%.,.6.q.q._.b.v.7.%.,.v.q.7.c.m.n.k.;.-.-.} a.0 + o                                                                                                                                                 ",
"                                                                                                                                                h.P [ ,.*.9.(._.(.b.M.l.l 7.q.q.q.m.h * O O 7 a.-.-.0 $ +                                                                                                                                                 ",
"                                                                                                                                                g.} H >.%.v.q.(._.v.q.*.l 7.6.q._.b.h & @ & 7 f.} j.q # #                                                                                                                                                 ",
"                                                                                                                                                g.F -.;.>.7.q.).(.w.v.9.l *.| '.b.m.l.} 7 w g ;.H p.q + o                                                                                                                                                 ",
"                                                                                                                                                g.F ;.:.7.6.w.q.).(.q.6.=.7._.`.`.v.m.>.g V B -.Y -.p + +                                                                                                                                                 ",
"                                                                                                                                                d.F %.[ >.7.q.q.w.w.6.*.%.>.8.'.v.v.x.| >.G V } U i.9 + #                                                                                                                                                 ",
"                                                                                                                                                h.F Y [ 7.7.7.q.q.q.*.%.%.7.v.'.x.v.7.' ;.[ V H Y i.7 # #                                                                                                                                                 ",
"                                                                                                                                                z.Z H / ,.7.v.' o.*.*./ | >.7.x.8.7.*.' >.[ N U { { 3 # #                                                                                                                                                 ",
"                                                                                                                                                B.D I ;.,.l._.7.*.*.,.%.[ | 7.'.8.| *.| | [ V } { -.= # $                                                                                                                                                 ",
"                                                                                                                                                B.Z G f.,.9.7.q.v.`.l.| F [ | ] k ] [ [ [ H V Y -.-.3 $ $                                                                                                                                                 ",
"                                                                                                                                                z.G Y f.,.7.[ 7.7.>.>.| | | ' | | [ [ | F H g U { { & @ o                                                                                                                                                 ",
"                                                                                                                                                C.D U k.l.>.' *.| | | >.| [ | *.8.| |  .| F m } -.R & # $                                                                                                                                                 ",
"                                                                                                                                                B.D G j.,.*.l l *.7.>.;.[ | | 8.| | | | ' F m } { i.& o O                                                                                                                                                 ",
"                                                                                                                                                B.I Z >.%.%.' %.7.l.>.%.>.>.*.*. .8.| k | H F H { { & $ o                                                                                                                                                 ",
"                                                                                                                                                B.I V a.,.c.7.7.7.7.*.,.>.*.*.*.8.|  .| | | H H R { & o $                                                                                                                                                 ",
"                                                                                                                                                B.C Z f.,.c.v.].].=X=Xn.,.>.,.7.| >.|  .| *.H Y -.G.& # O                                                                                                                                                 ",
"                                                                                                                                                B.C I h.,.m.c.=XM.f.-XyXA.].9.*.| | [  .| | H Y p.-.6 @ @                                                                                                                                                 ",
"                                                                                                                                                B.C D h.a.c.-.>.Z.[ A.~.S.A.:X,. .[ ] | | >.H { p.p.7 > &                                                                                                                                                 ",
"                                                                                                                                                F.C V z.,.l.m.].eXZ.wXdXdX].A.l.>.>.[ | | ;.H } p.i.6 $ $                                                                                                                                                 ",
"                                                                                                                                                g.m b h.f.m.m.S.[.[.tXpXpXrXrXiXrX[.>.[ [ } F p.j.-.w > @ 3                                                                                                                                               ",
"                                                                                                                                                h.m A n.f.c.n.Z.0X{.rXpXiXpXiXdXpX;Xs.;.z.l.} ;.s.a.7 $ $ 6                                                                                                                                               ",
"                                                                                                                                                g.m Z C.f.m.m.C.[.D.eXjXiXpXtXiXdX-Xl.z.A.f.-.j.p.p.w 3 $ 3                                                                                                                                               ",
"                                                                                                                                                g.M x h.,.m.Z.Z.0X0XtXkXdXpXrXtXsX-Xn.n.d.;.f.f.j.p.7 $ $ 6                                                                                                                                               ",
"                                                                                                                                                g.A A C.n.n.A.D.[.0XyXkXpXaXeXiXiXrX].m.m.f.f.p.j.j.w > 3 9                                                                                                                                               ",
"                                                                                                                                                g.A Z z.m.k.D.A.0X0XtXkXpXiX;XiXiXrXS.A.A.f./ j.f.j.q @ & 0                                                                                                                                               ",
"                                                                                                                                                g.K N h.n.f.Z.D.0X0XtXpXeXeX-XpXiXrXn.p.Y G h a.f.j.0 $ : 7                                                                                                                                               ",
"                                                                                                                                                g.K b h.M.f.A.D.0X0XyXxXtXtX-XrXdXrXs.E J j Y a.a.j.7 $ 3 0                                                                                                                                               ",
"                                                                                                                                                g.P n h.N.f.A.A.[.yXpXtXpXtXtXrXdX-Xj.z.f.l / p.p.j.w $ > 0                                                                                                                                               ",
"                                                                                                                                                F.C A h.A.f.S.A.{.0XyXtXpXpXdXyXuX-Xf.C.c.%.h ;.;.p.6 $ 3 0                                                                                                                                               ",
"                                                                                                                                                F.C Z C.A.l.].].{.eXyXtXtXrXiXeXtXA.:.N.c./ / ;.p.j.3 & > 7                                                                                                                                               ",
"                                                                                                                                                h.K A C.m.n.-X].{.0XeXiXiXtXtX].rXA.J f.N.( >.j.f.p.3 $ < 6                                                                                                                                               ",
"                                                                                                                                                g.M m C.h.n.].;X;XaXpXpXtXpXrXeXwXA.J j.c.k.f.p.j.j.& $ 2 6                                                                                                                                               ",
"                                                                                                                                                F.M m C.n.A.-XrX-XiXsXlXgXdXeXeX~.A.n.c.Z.C.n.k.h.j.2 & > &                                                                                                                                               ",
"                                                                                                                                                F.M K C.C.S.;XdX].Z.;XfXlXfXeXeXwXn.d.a.s.n.F.k.s.j.6 $ $ =                                                                                                                                               ",
"                                                                                                                                                g.K K C.h.A.-XyXiXZXlXsXeXdX[.aX-Xz.a.z.n.n.C.h.n.s.= 2 > 6                                                                                                                                               ",
"                                                                                                                                                g.M K C.z.].[.Z.dXPXKXMXJXfX{.yX[.m.A.A.A.].Z.h.n.j.2 3 & 6                                                                                                                                               ",
"                                                                                                                                                g.M P D.n.S.[.;XpXPXAXKXKXfX-XpXiXZ.Z.A.A.S.S.h.h.j.> 6 $ 6                                                                                                                                               ",
"                                                                                                                                                d.M K C.h.S.[.tXn.nXKXKXSXfX[.pXeXZ.n.A.A.S.A.n.h.s.$ $ @ 6                                                                                                                                               ",
"                                                                                                                                                g.K K C.h.A.[.[.A.nXnXAXMXfXrXpXpXZ.n.C.C.Z.z.h.h.p.$ & $ &                                                                                                                                               ",
"                                                                                                                                                g.M P C.h.A.S.].C.PXAXZXzXdXS.rXeXn.{ s.a.h.f.h.j.R $ > & &                                                                                                                                               ",
"                                                                                                                                                g.K L C.h.A.S.-Xf.ZXJXnXlXjXC.[.[.d.s.z.C.f.s.f.j.t.> & # 3                                                                                                                                               ",
"                                                                                                                                                g.K K C.z.Z.[.A.f.A.nXZXnXdXz.Z.n.;.f.C.Z.f.a.a.p.R 3 $ & &                                                                                                                                               ",
"                                                                                                                                                g.K K C.h.Z.[.[.kXZXZXmXzXkXh.-X;.s.h.Z.C.f.s.s.p.R $ 3 $ 3                                                                                                                                               ",
"                                                                                                                                                u.M L F.f.A.].0XJXKXZXZXzXpX-.-.} H p.h.p.i.>.p.p.T & 3 # o                                                                                                                                               ",
"                                                                                                                                                g.M L C.s.A.[.eXJXJXmXCXnXkXwXkXwXp.s.p.-.f.j.j.p.R > $ $ #                                                                                                                                               ",
"                                                                                                                                                g.M P B.f.A.S.[.lXZXnXlXlXzXwXeXm.-.g.g.z.f.j.a.s.T > 3 $ #                                                                                                                                               ",
"                                                                                                                                                g.m K B.j.D.S.[.lXZXlXzXnXlXwX-Xz.l.z.f.z.h.s.j.j.R $ 3 & o                                                                                                                                               ",
"                                                                                                                                                p.M P B.g.D.D.[.lXZXlXnXlXkX-XA.C.n.h.h.h.f.h.s.h.R # # # o                                                                                                                                               ",
"                                                                                                                                                g.K P C.g.D.[.m.lXCXlXlXkXfXwXA.n.n.h.z.z.z.h.f.h.t.: # $ o                                                                                                                                               ",
"                                                                                                                                                y.M P B.g.D.[.i.pXgXfXfXfXdX-XA.n.z.z.l.z.n.s.f.j.i.: 3 # o                                                                                                                                               ",
"                                                                                                                                                g.M P B.g.D.[.d.mXfXfXlXkXjX-XA.m.z.h.f.f.s.a.s.f.e.3 3 # o                                                                                                                                               ",
"                                                                                                                                                t.m E F.F.D.[.z.nXnXfXfXlXfXwXA.z.s.F h N V T p.j.p.> > # $                                                                                                                                               ",
"                                                                                                                                                y.K K F.B.D.[.z.lXbXnXlXlXkXwXA.S.} U ;.f.h.f.h.g.e.3 $ $ $                                                                                                                                               ",
"                                                                                                                                                i.M t.F.h.D.[.z.lXgXnXnXnXlXeXA.Z.l.{ a.z.z.f.h.g.t.> $ # $                                                                                                                                               ",
"                                                                                                                                                y.m P h.z.D.eXz.nXlXlXkXlXkXeXZ.n.h.} h.f.z.z.g.h.T $ 3 @ $                                                                                                                                               ",
"                                                                                                                                                d.m L F.B.D.0Xz.lXgXlXfXlXlXeXC.n.h.p.z.z.z.z.z.h.i.3 # : &                                                                                                                                               ",
"                                                                                                                                                y.M L B.z.D.yXg.zXlXkXlXjXlXeXD.n.f.h.f.h.z.z.g.h.R & # # #                                                                                                                                               ",
"                                                                                                                                                d.m U C.F.D.yXd.lXlXzXlXlXjXuXZ.h.h.C.d.z.z.B.h.F.t.@ > > #                                                                                                                                               ",
"                                                                                                                                                s.M e.C.z.D.[.t.dXzXzXkXvXjXwXC.n.n.Z.d.B.z.z.h.h.i.> $ # >                                                                                                                                               ",
"                                                                                                                                                g.M T B.h.D.zXJXZXZXmXmXZXZXjXD.C.Z.A.h.V.n.B.z.C.i.# $ 3 +                                                                                                                                               ",
"                                                                                                                                                g.m P B.B.C.HXJXJXzXmXJXmXZXkXA.C.A.D.z.Z.B.Z.z.C.p.$ $ > $                                                                                                                                               ",
"                                                                                                                                                g.m P D.D.V.mXmXmXJXZXmXZXZXdXD.C.[.A.z.Z.m.Z.B.C.p.$ 3 > $                                                                                                                                               ",
"                                                                                                                                                z.4 P C.C.Z.mXJXzXZXmXZXZXnXpXA.z.[.S.z.Z.V.C.B.C.d.# & $ $                                                                                                                                               ",
"                                                                                                                                                h.0 P B.B.Z.HXmXmXZXmXmXZXZXdXS.Z.{.D.Z.Z.D.Z.Z.D.t.# 2 % @                                                                                                                                               ",
"                                                                                                                                                h.5 T V.m.C.JXJXzXmXzXnXnXzXdXA.z.D.S.B.[.Z.C.Z.C.i.O > $ $                                                                                                                                               ",
"                                                                                                                                                h.5 { B.z.S.MXjXkXMXkXMXlXkXiXA.Z.Z.[.C.V.z.n.C.C.p.O $ O $                                                                                                                                               ",
"                                                                                                                                                B.0 { D.z.D.0X} } [.tXpXpXpXeXZ.z.z.s.} d.P P L T I @ = $ $                                                                                                                                               ",
"                                                                                                                                                g.5 y.B.B.Z.eXZ.pXpXfXkXdXpXiXZ.x.B.z.N F C 3 x L Z $ = % $                                                                                                                                               ",
"                                                                                                                                                B.5 t.C.z.z.eX[.xXiXkXkXfXpXrXZ.B.Z.Z.-.B { L t.t.I 2 & O $                                                                                                                                               ",
"                                                                                                                                                h.5 { Z.z.B.pX[.aXpXkXgXkXdXiXZ.Z.Z.Z.;.I i.t.e.E I > & $ $                                                                                                                                               ",
"                                                                                                                                                h.5 { C.z.B.tX0XtXpXkXkXkXdXpX].z.Z.C.d.t.h.t.t.K n 6 > O %                                                                                                                                               ",
"                                                                                                                                                B.0 { C.z.B.yXyXpXyXkXMXkXdX-Xa.z.z.Z.g.l.z.{ m L C 3 $ $ &                                                                                                                                               ",
"                                                                                                                                                z.5 { D.z.V.yXyX0XpXjXlXkXlXdXn.d.n.Z.f.z.d.F } t.U 6 @ $ 6                                                                                                                                               ",
"                                                                                                                                                B.5 } V.z.B.yXyX{.V.aXjXkXkXdXz.g.z.D.Z.0Xh.D.C.g.p.9 + # 6                                                                                                                                               ",
"                                                                                                                                                h.p T B.z.B.aX0XyXkXlXlXkXkXrXZ.z.C.D.z.g.[.[.{.D.s.6 # # 6                                                                                                                                               ",
"                                                                                                                                                g.m } B.z.B.eX{.tXkXzXjXkXkXtXZ.D.[.D.L n g.{.z.n.h.4 > # 6                                                                                                                                               ",
"                                                                                                                                                d.B { B.z.B.0X[.tXkXlXzXkXkXdXA.wX[.h.& i p.].D.D.h.6 > O 6                                                                                                                                               ",
"                                                                                                                                                g.m } B.z.B.eX0XtXzXlXjXkXkXdXS.[.].h.F h.S.[.D.S.h.3 > + 6                                                                                                                                               ",
"                                                                                                                                                x.m U B.B.B.eX[.jXlXlXkXkXzXdXm.z.Z.n.n.C.D.[.[.B.g.6 $ o 6                                                                                                                                               ",
"                                                                                                                                                s.B R C.B.z.eXwXkXzXkXkXkXkXpX[.[.S.[.[.[.wX0XB.h.h.0 $ . 7                                                                                                                                               ",
"                                                                                                                                                d.A U h.h.g.Z.[.-XtXjXkXkXjXpX-XwX[.S.S.S.S.D.C.p.h.0 $ o w                                                                                                                                               ",
"                                                                                                                                                p.M U B.g.D.jXxXyXpXtX0XtXjXtXeXrXwXyXU g m C h.g.g.9 & o w                                                                                                                                               ",
"                                                                                                                                                d.M R B.z.0XyXyXxXjXjXtXpXdXrXeXyXtXtXh & 5 U D.j.F.9 $ . 6                                                                                                                                               ",
"                                                                                                                                                i.B { C.C.0XwXxXxXjXpXtXxXpXpX-XeXtXtXS & 0 g.s.h.h.0 $ $ =                                                                                                                                               ",
"                                                                                                                                                i.M t.B.V.0XwXxXxXxXpX[.yXpXpXeXeXrXwXJ & i B.B.j.h.0 $ # 3                                                                                                                                               ",
"                                                                                                                                                d.i R F.C.wX0XxXpXxXpXm.dXfXaXeXeXeXrX-.= F z.B.g.B.0 3 @ 7                                                                                                                                               ",
"                                                                                                                                                p.n U C.C.wX0XtXpXpXpXeXfXkXpXeXtXeXyXC.} h.C.h.g.h.9 $ O 3                                                                                                                                               ",
"                                                                                                                                                p.C i.C.C.yXS.tXpXpXtX;XiXfXpXrXrXeXeX[.eXZ.D.p.g.g.v @ $ &                                                                                                                                               ",
"                                                                                                                                                d.m p.F.B.yX9XtXtXpXrXeXiXdXtXiXrXwXeX-X[.S.n.i.h.h.9 > $ &                                                                                                                                               ",
"                                                                                                                                                g.A p.h.Z.xXS.tXpXpXpXeXpXpXpXpXtXwXeXA.A.z.C.g.h.g.9 3 # 5                                                                                                                                               ",
"                                                                                                                                                d.b p.h.V.wX0XtXpXxXpXrXpXiXpXpXeXeXeX[.D.z.z.B.j.g.5 $ # &                                                                                                                                               ",
"                                                                                                                                                g.A p.h.V.wXS.tXtXpXjXpXrXC.[.tX[.eXeX[.A.z.h.g.g.j.9 > @ &                                                                                                                                               ",
"                                                                                                                                                s.D p.h.D.wXV.eXtXpXjXpX{.{ z.fX;XwX-XS.z.s.t.p.e.g.2 2 $ $                                                                                                                                               ",
"                                                                                                                                                s.L t.h.B.S.D.eXyXrXpXrXZ.t.;.z.yXeX[.[.n.g.j.V.g.u.9 2 # &                                                                                                                                               ",
"                                                                                                                                                s.M i.z.F.D.S.yXtXtXpXpXdXpXyXpXjX-XwX[.B.i.t.F.F.g.9 1 # &                                                                                                                                               ",
"                                                                                                                                                d.L p.h.y.B.[.wXpXpXjXpXpXtXpXpXpXrX[.[.D.z.z.B.F.g.3 # : $                                                                                                                                               ",
"                                                                                                                                                g.L t.h.z.[.[.wXtXpXpXpXpXpXpXtXtXeX[.S.[.Z.C.C.h.j.< : # 3                                                                                                                                               ",
"                                                                                                                                                g.K t.B.B.wX[.wXtXpXpXpXpXpXtXyX[.Z.f.S.].Z.C.C.F.g.> # > &                                                                                                                                               ",
"                                                                                                                                                d.L t.h.z.[.[.wXrXpXxXpXpXpXwXA.z.z.n.S.S.C.Z.V.F.g.< : # 3                                                                                                                                               ",
"                                                                                                                                                d.P t.B.z.[.[.0XpXfXpXpXpXrX[.z.A.Z.Z.A.A.Z.Z.D.B.g.2 > @ 6                                                                                                                                               ",
"                                                                                                                                                d.K i.B.V.[.[.0XpXjXpXjXpXpXpXeX-XS.n.A.A.Z.C.Z.B.s.2 ; . 3                                                                                                                                               ",
"                                                                                                                                                i.L t.h.z.{.[.0XtXfXdXdXdXpXdXeX-X-Xn.A.Z.Z.C.n.C.g.6 > # 6                                                                                                                                               ",
"                                                                                                                                                d.P t.z.B.[.[.[.rXjXpXdXpXiXiXeX[.-Xn.A.Z.m.C.z.C.g.6 > # 7                                                                                                                                               ",
"                                                                                                                                                d.P p.g.B.[.[.[.pXfXpXdXpXpXrXrX[.-Xl.[.A.m.C.n.B.h.3 > > 7                                                                                                                                               ",
"                                                                                                                                                d.P p.g.z.0X{.0XrXkXdXpXpXpXiXeXA.[.n.-XA.Z.C.n.B.h.3 > : 7                                                                                                                                               ",
"                                                                                                                                                p.P p.h.z.[.0XrXtXdXpXdXtXtXrX-Xm.~.n.-XA.n.C.n.B.h.< 3 > 0                                                                                                                                               ",
"                                                                                                                                                y.P i.h.z.0X[.iXiXdXdXpXiXtX;X].n.S.f.A.Z.Z.n.z.h.h.4 > > 0                                                                                                                                               ",
"                                                                                                                                                t.P i.h.V.[.[.{.0XkXdXdXiXiXeX[.[.A.,.n.n.n.n.z.C.g.6 # & 0                                                                                                                                               ",
"                                                                                                                                                y.P p.h.g.{.{.D.-XdXdXdXpXiXrXeX-X-XG n.n.n.n.n.h.g.5 : : 0                                                                                                                                               ",
"                                                                                                                                                i.T d.g.g.[.V.0XeXdXfXdXdXpXrX:X=X-X;.n.c.c.h.z.h.g.3 : # q                                                                                                                                               ",
"                                                                                                                                                y.P d.g.g.D.{.D.[.dXjXdXdXpXrXrXA.A.;.c.n.z.z.h.h.j.> 3 $ n                                                                                                                                               ",
"                                                                                                                                                t.T e.g.h.S.S.z.S.kXdXpXpXdXpX-XM.A.a.c.l.z.f.p.g.p.9 > o n                                                                                                                                               ",
"                                                                                                                                                y.P t.h.h.S.S.B.[.jXjXdXjXtXpXeXZ.Z.a.a.f.f.a.p.j.e.9 > + A                                                                                                                                               ",
"                                                                                                                                                t.M y.g.h.D.S.z.S.jXjXdXtXpXtXrXA.C.n.;.n.a.d.p.L T n > o C                                                                                                                                               ",
"                                                                                                                                                t.} p.B.h.S.z.z.h.tXyXeXyXyX-X-XZ.n.z.-.a.B & n T t.A > + I                                                                                                                                               ",
"                                                                                                                                                y.} i.F.h.S.S.wXtXiXpXdXpXpXpXrXA.Z.Z.a.H = p p.p.p.C > + T                                                                                                                                               ",
"                                                                                                                                                y.T t.h.z.S.wXpXzXkXkXjXdXdXpXtX~.S.C.n.z.7 i p.e.g.K < @ e.                                                                                                                                              ",
"                                                                                                                                                t.e.T C.z.[.[.eXdXkXkXkXjXdXiXrX-XA.f.n.f.p.p.p.j.G.K , + G.                                                                                                                                              ",
"                                                                                                                                                y.} T C.B.wXeXeXkXlXkXkXdXdXpXrX-XA.f.A.f.Z.g.j.g.u.A , + t.                                                                                                                                              ",
"                                                                                                                                                g.} P B.V.[.eXwXlXmXkXkXpXdXpXiX-XD.z.Z.z.l.h.t.p.g.C > + i.                                                                                                                                              ",
"                                                                                                                                                y.P t.B.C.[.wX[.kXkXpXkXpXpXpXiX-XZ.z.A.n.h.s.t.u.p.m 3 > t.                                                                                                                                              ",
"                                                                                                                                                g.} P C.Z.[.wX[.jXfXdXjXpXiXtXrX[.A.n.C.f.a.s.e.p.p.n < # R                                                                                                                                               ",
"                                                                                                                                                g.T U V.C.[.eX[.kXjXkXkXpXpXiXtX-XA.z.n.F a.g.R g.e.x 3 $ T                                                                                                                                               ",
"                                                                                                                                                y.y.K Z.z.[.eX-X[.[.-X0X0XiX[.-X[.A.A.z.;.a.h.T e.e.v 2 $ R                                                                                                                                               ",
"                                                                                                                                                y.} C C.z.S.wXeXzXkXmXmXkXeXS.-XwX].A.n.d.g.h.T j.e.< > > U                                                                                                                                               ",
"                                                                                                                                                g.} C C.C.[.[.;XKXKXZXnXkX;X[.[.[.{.[.m.z.f.F.e.t.E 2 > $ U                                                                                                                                               ",
"                                                                                                                                                y.} n C.n.-X[.rXJXPXZXnXnXlXZ.A.;XZ.-XZ.z.z.B.t.p.L > > $ L                                                                                                                                               ",
"                                                                                                                                                d.M M z.Z.A.;X=XLXKXnXnXnXkXZ.V.V.z.[.Z.Z.z.B.y.e.r.2 < $ D                                                                                                                                               ",
"                                                                                                                                                g.y.m n.Z.A.A.;XPXKXMXnXnXfX{.{.x.x.Z.m.m.l.d.y.e.W v < $ L                                                                                                                                               ",
"                                                                                                                                                y.| B C.m.[.{.rXPXJXZXMXnXkX[.{.m.n.`.v.`.,.;.g.e.K v 9 < L                                                                                                                                               ",
"                                                                                                                                                g.P i Z.m.[.-Xz.eX[.fXfXkXpX0X{.{.`.M.v.Q.9.f.g.e.K < < > L                                                                                                                                               ",
"                                                                                                                                                g.y.B Z.Z.[.[.l.l.>.{.kXzXpXeXm.7.>.f 9.=.=./ } I e.c c < K                                                                                                                                               ",
"                                                                                                                                                y.} g Z.Z.=X[.n.rXiXdXmXkXfX{.'.>.] %.s d &.%.,.f.h.c 0 3 C                                                                                                                                               ",
"                                                                                                                                                g.} M C.{.;X;Xm.lXlXlXCXnXgX;Xq.8.8.| f =.0.9.,.f.p.n x 9 A                                                                                                                                               ",
"                                                                                                                                                d.} B Z.A.[.;XA.lXdXfXkXnXZX{.x.x.8.*.u ~ 1.9.=.,.a.n N 0 B                                                                                                                                               ",
"                                                                                                                                                g.g.i C.].].eX].eX].D.{.[.kXx.x.x.8.o.f o.9.7.' >.{ & 5 3 q                                                                                                                                               ",
"                                                                                                                                                d.T 7 z.A.].rX:XJXIXkXxXpXZ.{.{.x.x.*.' =.9.7.| | I 3 6 6 n                                                                                                                                               ",
"                                                                                                                                                y.[ V n.S.-X].-XlXzXMXkXkXjXtXV.x.x.7.*.7.7.l.F H B 3 9 9 C                                                                                                                                               ",
"                                                                                                                                                i.d.p.Z.].].;XA.kXZXMXkXxXMXpX{.x.x.7.*.l.>.[ p 5 7 3 5 c Z                                                                                                                                               ",
"                                                                                                                                                y.F B { ].].-XM.kXmXzXzXkXzXxX[.x.f.7.h 7 p & 7 6 6 6 > 0 U                                                                                                                                               ",
"                                                                                                                                                i.p 8 p A.].;X].zXJXzXkXkXMXMX0Xf.l.;.h F B B A x q $ 6 7 T                                                                                                                                               ",
"                                                                                                                                                h.i i -.A.[.;XA.MXJXmXzXzXkXzX[.a.f.%./ f.m.a.j.( 9 @ 5 6 R                                                                                                                                               ",
"                                                                                                                                                B.{ B { {.=X;Xm.mXJXzXzXkXlXzX[.x.l.>.J ;.,.N.c.j.t + 9 9 t.                                                                                                                                              ",
"                                                                                                                                                C.U q ( A.=X;X].mXJXmXzXnXzXmX[.x.x.{ H [ f.N.f.;.t + 9 9 t.                                                                                                                                              ",
"                                                                                                                                                D.I Z Y M.{.;X`.mXJXmXMXkXMXMXeXx.} ;.F ;.n.c.f.a.V # 6 9 t.                                                                                                                                              ",
"                                                                                                                                                C.G S G m.].{.{.nXJXlX0XeXaXaXiX>.>.>.} l.Z.c.,.>.N $ 0 9 i.                                                                                                                                              ",
"                                                                                                                                                C.Z V J `.`.>X`.<XiX`.,.m.} [ [ >.,.>.[ ;.l.c.;.:.D & w 9 j.                                                                                                                                              ",
"                                                                                                                                                C.V H J ].`.>X{.#X>X_.`.*.m.>.%.,.>.f.} ;.l.,.f.p.S 6 w 6 g.                                                                                                                                              ",
"                                                                                                                                                Z.V G G `.`.}.`.}.`._.'.(.v.9.*.:.f.n.H f.c.>.:.;.V 6 9 < g.                                                                                                                                              ",
"                                                                                                                                                Z.h G G m.`.`.`.`.'.(.v._.v.7.l c.=.[ J } l.f./ ;.G 6 9 6 g.                                                                                                                                              ",
"                                                                                                                                                Z.h S k m._.`._.v._._.v.x.c.9.*.9.,.J * Y >.:.:.;.( 6 w 9 g.                                                                                                                                              ",
"                                                                                                                                                Z.F ;.J v.`.b.v.v.v.v.m.v.v.>.%.7.,.%.J h J j h J W i w 6 F.                                                                                                                                              ",
"                                                                                                                                                n.J ( J v.M.`.m.v.v.v.v.x.7.=.k =.3.c.:.>.,.:.h.( h i 9 9 h.                                                                                                                                              ",
"                                                                                                                                                z.J V / `.`.{._.x.v.v.v.l.7.*.' =.3.9.%.,.k.l.:.;.;.q 6 9 h.                                                                                                                                              ",
"                                                                                                                                                z.G Y J m.'.`.#X'.v._.v.q.7.7.7.b.c.c.:.c.,.&.,.k.>.t 6 9 F.                                                                                                                                              ",
"                                                                                                                                                z.G Y j c._.`._.q.q._._.(.7.9.N.=X3.,.3.3.:.c.,.;.%.8 9 6 F.                                                                                                                                              ",
"                                                                                                                                                z.J Y k v.v._._.v.q._.'.v.8.9.q.3.&.k.k.,.3.,.k.;.( t w < F.                                                                                                                                              ",
"                                                                                                                                                h.;.Y j v.v._.v.q.q.v._._.v.7.c.,.:.3.:.,.k.l J Y G N 9 6 B.                                                                                                                                              ",
"                                                                                                                                                f.;.Y Y m.`.v._.v.q.v.v.v.7.=.,.:.:.:.;.k.:./ -.;.( g q 9 B.                                                                                                                                              ",
"                                                                                                                                                p.-.G J 7.v.v.v.v.9.f.,.7.c.,.l.:.:.:.f.N.%.:.-./ ( q w 9 F.                                                                                                                                              ",
"                                                                                                                                                a.-.V %.c.M.b.M.M.b.M.b.b.v.v._.=X].m.:.k.f.,.,.;.( t t 6 h.                                                                                                                                              ",
"                                                                                                                                                ;.;.h ;.M.b.=X:X:XM.9.b.:XNX1XbX=Xb.c.[ %.-.j./ J J t q 9 h.                                                                                                                                              ",
"                                                                                                                                                { -.V :.b.v.`.b.v.c.7.9.#X>X<X1Xv.c.,.l h J G j t w t c 9 B.                                                                                                                                              ",
"                                                                                                                                                } p.J ;.v.v.b.9.,.3.=.9.q.q.6.7.9.:.[ k j Y h h ( S S q x g.                                                                                                                                              ",
"                                                                                                                                                } ;.J =.7.9.=.=.=.=.7.6.9.w.6...*...l l J ;.( h -.( W w 9 g.                                                                                                                                              ",
"                                                                                                                                                H >.l ,.6.6.6.6.6.6.9.6.6.w.w.=.3...d ( / :./ J ;.( V w 0 p.                                                                                                                                              ",
"                                                                                                                                                G ;.J :.7.w.6.w.w.9.w.=.w.q.=.=.=.&.s &.:.:.%.J ;./ V = 0 g.                                                                                                                                              ",
"                                                                                                                                                Y ;.J ,.9.w.6.$.w.w.9.o.w.0.=.&.&.) l :./ ;.%.:.,.;.( 6 3 g.                                                                                                                                              ",
"                                                                                                                                                } ;.[ &.q.6.6.#.o.o.o...w.q.=.&.%.&./ r j J / l J j t - & h.                                                                                                                                              ",
"                                                                                                                                                { %.%.9.0.q.w.w...%.&.o.6.w.*.&.&.%./ &.&.9.#X%.%.( S g 6 C.kX                                                                                                                                            ",
"                                                                                                                                                } } [ ,.v.q.q.q.=.=.c.6.w.w.&.%.) ) ) %.&.,.=.z ;.%.G t i Z.kX                                                                                                                                            ",
"                                                                                                                                                } } %.,.6.9.w.9.*.l %.&.6.q.l / ( :.&.,...=.=.l %.k t = 7 tXkX                                                                                                                                            ",
"                                                                                                                                                } ;.%.7.7.q.b.b.:.%.:.%.w.0.%./ &.3.&.1.X.=.%.k ;./ t q N S.lX                                                                                                                                            ",
"                                                                                                                                                Y } %.,.,.9.0.7.&.%.:.%.w.q.! / :.0.&.9.=.=.=.s l h S N N h.kX                                                                                                                                            ",
"                                                                                                                                                } } >.6.=.7.7.&.*.%.:.%.9.9.l J / &...X.....! l -./ g i w q P                                                                                                                                             ",
"                                                                                                                                                J [ *.,.] =.%...%.%.l ,.9.9.! %.%.*.&.%.' =.=.J ;.I G t 6 6 D eXkXwX                                                                                                                                      ",
"                                                                                                                                                H %.[ =.w.w.=.*.9.b.,.=.9._.*.,.=...=.*.b.q.&./ %./ N q 7 B C.[.wX                                                                                                                                        ",
"                                                                                                                                                [ [ %.v.w.$.O.#.9.o...6._.9.o.1.w.=.X...#Xb.,.;.;./ V w 6 3 h.tXz.                                                                                                                                        ",
"                                                                                                                                              eX>.[ *.q.(.#X|.$.(.o.(._.q.w.] O.#.O.] ] w.b.3.J J h = = = 7 o {                                                                                                                                           ",
"                                                                                                                                            A.m.| *.*.o.O.(.oXoX(.&X$.8.w.(.).8X*X8X#.] q.#X&.s h h p - w 6 i {                                                                                                                                           ",
"                                                                                                                                          m.7.7.*.*.o.o.#.|.oX|.w.#.(.).q.oXoX8X&XoX#.(.(._.%.k %.-.G 6 w O V jX                                                                                                                                          ",
"                                                                                                                                            >Xv.' 6.=.#Xw.#X(.8.] =.q.'.(.#.#.8X*X&X#Xw.q.(.%.j [ Y V p & $ g.                                                                                                                                            ",
"                                                                                                                                            >Xq.z *.' o.).&X&X(.f k [ *.' *.O.&X(.O.] 6.9.7.' l %.V S 8 6 # C.                                                                                                                                            ",
"                                                                                                                                            <Xq.f ] f o.w.&X&Xo.k h F [ u ' 8.oX(.6.f s l %.*.,.,.f.H 7 w > D.                                                                                                                                            ",
"                                                                                                                                            }.f ..' f  .(.oX(.o.k k k F k 6.).&Xw.6.s F J l.sXc.=X,.H w 6 6 S.                                                                                                                                            ",
"                                                                                                                                          1X<X(.#.] f #.(.(.(.o.*.[ f.m.*.'.(.(.6.6.l S J ,.,.*.l [ H 7 6 > S.                                                                                                                                            ",
"                                                                                                                                        <XbX}.(.#.O.' q.#X).(.,.;.F a.a.| (.(.(.#.6.J J ;.;.J r k H U 8 6 > [.                                                                                                                                            ",
"                                                                                                                                      m.<X  >X'.8.] *.q.'.(.7.' } B i.f.' 7.(.).8.o.J F Y U F S F V V 9 6 @                                                                                                                                               ",
"                                                                                                                                    l.v.      <Xv.] *.x.v.7.' p F H i.d.| _.).}.8.[ k 8 h g h A V V Z q 6 $                                                                                                                                               ",
"                                                                                                                                      -X      <Xn.a 7.,.} [ - - F D } } ' | ]  .' F B - p g F C n Z G w 3 &                                                                                                                                               ",
"                                                                                                                                                ;X| l [ J G 8 p F F } | '  .] *.] l F 8 B F T L q A I 6 & &                                                                                                                                               ",
"                                                                                                                                                7.[ {.<X;Xm.>.h [ J [ >.8.8. .8.8.,.[ A P } } H 8 B Z = & 3                                                                                                                                               ",
"                                                                                                                                              7.[ - {.<X>Xb.~.*.>.*.' | '.{.(.8.x.>.G Z G i.l.p 7 B I = & $                                                                                                                                               ",
"                                                                                                                                            k k k u | <X1XQ.w.O.6.=.] ' _.&X8. .%.%.H g p >.F * 7 q 8 = 7 o                                                                                                                                               ",
"                                                                                                                                          c.u *.].u d.sX&X#.O.#.w.6.] o.b.8.' * u h t H g k k [ D { R p.5 7                                                                                                                                               ",
"                                                                                                                                          ].*.m.>.a l.<X(.#.(.O.8.o.]  .f f f o p V -.p.h } } H E s.h.h.z.B.                                                                                                                                              ",
"                                                                                                                                          eX`.{.>.p 7.>Xq.&XNX(. .q.x.8.8.>XgX].f.Z i.I } %.>.B V h.V i.[.tX                                                                                                                                              ",
"                                                                                                                                            ;X=Xx.k } l...7.v.#X| 7.7.8.}.{.;Xx.B m L L U ;.>.h O 9 6 V S.pX                                                                                                                                              ",
"                                                                                                                                              ;XA.k p u s f 7.x.m.x.d.x.| a | [ F C C m i z.Z.[ O @ $ 0 0X                                                                                                                                                ",
"                                                                                                                                              ;XZ.} F } >.x.n.f.d.} | ;.' p >.;.p.P n $ i A.z.} O $ = q [.                                                                                                                                                ",
"                                                                                                                                              ;XZ.[ p } '.eXx.a.z.f.n.rX{.`.m.a.s.t.p.6 T V.C.H $ $ 6 0 wX                                                                                                                                                ",
"                                                                                                                                              {.m.k a | x.{.x.d.z.f.[.gXsX=Xc.;.d.i.i.. n C.B.B & & w 6 [.                                                                                                                                                ",
"                                                                                                                                              ;Xm.a | | d.{.d.z.f.z.eXsX<X>Xm.f.n.h.t.9 A g.C.p & $ q w 0X                                                                                                                                                ",
"                                                                                                                                              {.m.a | g.x.{.V.m.7.l.=XeX{.{.m.s.z.g.N q L A & 7 7 $ 6 w -X                                                                                                                                                ",
"                                                                                                                                              <X{.F P x.x.'.x.x.l.x.v.l.a.} U V C n & 9 0 i = 5 3 $ 6 6 0X                                                                                                                                                ",
"                                                                                                                                              ;Xm.k F | | F k F p u * p k i p & & $ $ i f.a.g.i.6 $ 3 $ S.                                                                                                                                                ",
"                                                                                                                                            :X>Xl.- 7 m p p 5 F [ h ;XiXS.-XG . i & g Z.{.[.{.A.& > 9 & S.                                                                                                                                                ",
"                                                                                                                                            aX>Xl.p 7 7 p k [ Z.z.k ;XiXdXtXG . T # } V.{.{.;X;X7 @ $ $ [.                                                                                                                                                ",
"                                                                                                                                            <X>Xl.a = 7 i F } ].H V ;XdXdXrXR 6 y.m } Z.].].;X-Xp O > # S.                                                                                                                                                ",
"                                                                                                                                            >X{.x.7 = 7 i F } x.F * a.iXjXpXp.3 y.{ P D.[.{.rX;XB & 3 # S.                                                                                                                                                ",
"                                                                                                                                            {.'.l.p 7 O p [ y.} D 7 m.kXdXdXg.p y.y.[ [.].=X;X;XF & & $ [.                                                                                                                                                ",
"                                                                                                                                          ,.*.m.n.p 6 7 5 F L } F p ;XmXdXdXh.6 } y.} {.[.;X;X;X-.6 # 3 wX                                                                                                                                                ",
"                                                                                                                                          ' %.].].i q q p - p B n B ;XnXgXkXn.5 P y.} D.[.;X:XeX} $ 0 0 kX                                                                                                                                                ",
"                                                                                                                                          *.m.].B.C q 7 h [ y.} p.-.=XlXgXfXh.6 } y.{ [.{.=X=X;Xf.5 R i R p.                                                                                                                                              ",
"                                                                                                                                        ].[ %.Z.Z.B 7 # g.{.eXjXlXlXnXZXgXlXrXi.d.B.f.[.{.{.].].g & > @ $ & &                                                                                                                                             ",
"                                                                                                                                        =X7.' Z.A.n 7 5 a.;XrXiXiXdXfXnXgXnX;X-XpXeXz.Z.`.].{.].w @ = 6 = o $ 0                                                                                                                                           ",
"                                                                                                                                        ;X=.[ Z.S.B 0 n z.eXeX;X;X<XfXnXbXnXiX{.z.z.| m.{.;X;X;X= $ 8 ].l.k - i                                                                                                                                           ",
"                                                                                                                                          >./ Z.S.C A p d.;X;X[.;X;X<XfXgXgXiXn.x.d.y.A.[.;X;X;XJ p | `._.q.[ p                                                                                                                                           ",
"                                                                                                                                          l.;.A.S.P m i x.[.;X{.{.{.eXbXfXgXeXn.l.d.h.`.{.<X<X;Xp * *.'.(.q.v.k                                                                                                                                           ",
"                                                                                                                                          l.>.C.S.E n n z.0X{.[.{.`.eXaXfXlXaXf.d.z.z.>.>.7.7.x.' a '.}.).'.x.[ fX                                                                                                                                        ",
"                                                                                                                                              tXyXP n n h.[.{.[.m.x.{.fXsXbX[.z.z.z.l.d.} ' | l.x.' y.).8.q.x.a d.                                                                                                                                        ",
"                                                                                                                                              kXtXe.m m g.[.{.z.d.F Z.aXiXpX[.i.d.T I F B d.d.d.p 5 a * - u k z.H                                                                                                                                         ",
"                                                                                                                                                tXK m n d.{.B.x.z.y.{.kXrXfX[.} L } i 5 * [ d.x.C # # * $ * p | &                                                                                                                                         ",
"                                                                                                                                                xXC n B z.eXZ.{.V.x.aXnXpXfX[.t.{ i.V 8 O ;.a.d.i > @ $ @ o [ F o                                                                                                                                         ",
"                                                                                                                                                tXA p i f.[.0X{.V.x.eXkXpXpX].} } y.G F o >.i.;.5 # @ = @ = iXa.5                                                                                                                                         ",
"                                                                                                                                                eXF i p z.-X{.Z.{.x.pXnXkXpXeX} g.g.y.U g s.s.j.3 @ @ $ $ g -Xv.[                                                                                                                                         ",
"                                                                                                                                                wXC i N z.eX[.{.0X{.nXmXnXkX;Xz.C.x.g.} H z.c.h.6 9 3 > o F ;X].Z.;X                                                                                                                                      ",
"                                                                                                                                                eXI B N z.eX[.-XeXeXZXCXrXuX~.m.{.Z.Z.m.n.A.Z.Z.A n # $ @ C l.l.d.                                                                                                                                        ",
"                                                                                                                                                eXF B B z.-X-X-X[.Z.rXrXrXkXtXA.m.m.m.a.z.l.f.s.c # > # + h.kX                                                                                                                                            ",
"                                                                                                                                                yXB B g z.-X-X[.A.].kXvXlXlXpXk.Z.m.x.f.;.{ Y g . @ . 3 + g.                                                                                                                                              ",
"                                                                                                                                                eXB n 7 D.eX[.A.C.-XzXmXzXvXtXz.m.C.x.>.;.f.a.I @ > + 3 + C.                                                                                                                                              ",
"                                                                                                                                                yXD 0 g C.[.[.eXeX].nXmXkXkXrXn.m.m.d.>.d.p.( E K A < > . D.                                                                                                                                              ",
"                                                                                                                                                eXG q B Z.[.-X;XA.eXkXkXfXlXwXf.V.x.d.} ;.j.( E E K > > + 0X                                                                                                                                              ",
"                                                                                                                                                yXD q B n.wX-XZ.f.h.aXkXjXkXrXn.d.d.F | >.a.s.p.G.A @ 3 + yX                                                                                                                                              ",
"                                                                                                                                                eXF i B Z.wX].[.{.eXkXmXkXlXtXn.V.x.x.d.g.d.j.p.p.K > 4 ; yX                                                                                                                                              ",
"                                                                                                                                                rXZ w A D.eX[.{.[.rXkXkXkXzXrXm.x.V.x.d.s.g.p.j.g.K @ 2 + yX                                                                                                                                              ",
"                                                                                                                                                eXB g B {.eX[.[.[.rXkXlXlXZXtXA.{.V.z.y.h.j.p.j.j.K < 1 ; yX                                                                                                                                              ",
"                                                                                                                                                eXV B N D.eX-X-X{.rXdXjXlXmXeXZ.m.x.z.} l.s.j.j.u.W < 2 ; yX                                                                                                                                              ",
"                                                                                                                                                eXB w n [.[.-X-X[.eXgXkXzXZX;XZ.V.z.x.} z.s.j.g.j.e.2 1 + yX                                                                                                                                              ",
"                                                                                                                                                eXV B B [.;X-X-X].eXlXlXmXZXuXD.A.n.d.F h.h.g.j.j.L 9 2 , yX                                                                                                                                              ",
"                                                                                                                                                eXB Z g [.-X-X~.-XrXlXlXZXJXdXS.C.h.} u h.h.g.g.j.W 3 > ; yX                                                                                                                                              ",
"                                                                                                                                                eXn N 8 S.eX=X[.[.rXnXAXZXZXdX-X[.S.[.C.C.B.g.g.j.K > 2 + yX                                                                                                                                              ",
"                                                                                                                                                wXq n q {.;X=XS.[.rXnXJXCXlX;X{.[.[.0XyXS.F.g.g.g.K ; 1 ; yX                                                                                                                                              ",
"                                                                                                                                                wXi F B [.-X[.-X].eXlXlXkXfX0XZ.[.[.V.C.9Xh.g.p.G.K 1 v ; wX                                                                                                                                              ",
"                                                                                                                                                wXi I q {.eX{.[.[.eXiXdXdXkXeXD.[.0XS.F.t.j.g.p.j.K ; 2 ; wX                                                                                                                                              ",
"                                                                                                                                                  i Z g A.;X].[.].eXiXlXdXkXeX{.-XeXeXZ.{ g.g.p.p.K > > + wX                                                                                                                                              ",
"                                                                                                                                                  i D 8 S.;X[.[.-XpXmXZXlXkXeXZ.wXeX-Xn.p.z.s.p.p.K ; @ ; 0X                                                                                                                                              ",
"                                                                                                                                                  i Z 8 Z.eX{.[.-XeXyXuXdXkXeX[.-XC.H p.h.g.F.p.j.K 1 > : S.                                                                                                                                              ",
"                                                                                                                                                  i L B Z.;X[.].-XwXrXlXlXeXD.h.A.[.A.g.g.g.g.p.j.K < 2 + 0X                                                                                                                                              ",
"                                                                                                                                                  i I w C.eXS.A.-X-XeXkXdXdXS.Z.tXdXyXZ.p.p.g.j.g.K < < + S.                                                                                                                                              ",
"                                                                                                                                                  i n = z.;XS.A.wX[.rXlXjXtXS.S.rXtXtX[.R j.h.g.u.W 9 < ; 9X                                                                                                                                              ",
"                                                                                                                                                  N A = n.-X[.[.-X;XrXzXjXtX~.wXdXeXS.h.P h.h.g.g.e.c 2 ; D.                                                                                                                                              ",
"                                                                                                                                                  q i 6 C.eX[.[.wXeXrXzXjXdXA.S.dXtXB.W 9 h.z.h.g.e.< < + S.                                                                                                                                              ",
"                                                                                                                                                  0 U = V.eX{.-XwXeXrXzXkXdX[.S.dXtXS.F.t.h.B.h.g.e.v 9 , 9X                                                                                                                                              ",
"                                                                                                                                                  i G & n.;X[.-X-XwXrXlXlXrXeX].rXwXD.B.p.h.z.h.h.e.9 2 1 D.                                                                                                                                              ",
"                                                                                                                                                  7 V w z.-XeX-X:XA.wXkXdX-XwXrXrXS.C.s.e.h.F.d.h.( < 9 + D.                                                                                                                                              ",
"                                                                                                                                                  w N 8 n.=X-X:X=X=XrXtXpXyX;X;XrXS.z.d.M F.h.s.g.e.6 < + D.                                                                                                                                              ",
"                                                                                                                                                  7 Z p n.].A.:X>X:XwXfXzXlXkXzXZXfXeXh.K g.F.g.g.R 9 3 + D.                                                                                                                                              ",
"                                                                                                                                                  7 Z g F d.l.>.f.c.A.lXZXZXzXnXZXmXkXV.M B.z.g.h.R 9 4 ; D.                                                                                                                                              ",
"                                                                                                                                                  6 g w } >.>.=.9.,.m.zXZXHXZXZXmXiX[.z.m C.B.s.g.e.9 3 : C.                                                                                                                                              ",
"                                                                                                                                                  = n - ;.v.`.#X=X`.M.ZXzXmXZXnXnXiXeXD.e.h.B.h.h.R 6 4 ; D.                                                                                                                                              ",
"                                                                                                                                                  = q g a.m._.b.b.b.-XmXzXJXZXmXZXaXpX0Xg.h.C.g.g.G.4 9 ; C.                                                                                                                                              ",
"                                                                                                                                                  & 6 8 a.m.b._._.`.>XZXJXJXZXAXMXdXrXS.g.h.F.g.h.e.4 3 + D.                                                                                                                                              ",
"                                                                                                                                                  $ 8 g a.m._._._.#XaXAXCXaXsX].-X].A.{.u.V.B.g.s.e.3 3 ; D.                                                                                                                                              ",
"                                                                                                                                                  = w p i.v.b.`._.`.b.nXfX:X<X=XfXpXg.g.y.g.h.h.j.e.4 4 ; D.                                                                                                                                              ",
"                                                                                                                                                  7 w p a.m.M.`.b.7.v.bXnXSXZXnXCXrXp i m T F T j.e.3 4 ; D.                                                                                                                                              ",
"                                                                                                                                                  w 8 g a.m.M.M.M.b.c.nXnXZXnXpXA.H = 7 * g G p.j.i.4 9 : D.                                                                                                                                              ",
"                                                                                                                                                  g q g [ ,.c.k.a.:.c.zXMXmXlXkXaXz.} h ;.a.;.p.j.e.w 9 $ D.                                                                                                                                              ",
"                                                                                                                                                  V 7 7 [ kXmXlXdXrXZ.C.g.g.y.C m [ d.} F ;.U i.g.R w 7 < D.                                                                                                                                              ",
"                                                                                                                                                  I 8 8 [ lXZXJXJXJX-X9 K g.z.z.z.V.d.H } } d.i.p.{ 0 9 3 D.                                                                                                                                              ",
"                                                                                                                                                  V q - } kXZXmXLXJXyXp.h.{ { x.[.d.>.>.} a.i.p.p.U 3 w & D.                                                                                                                                              ",
"                                                                                                                                                  H 7 g [ pXJXJXPXKXjXwXm.S a.[.D.z.} d.} d.a.i.j.U > 9 & D.                                                                                                                                              ",
"                                                                                                                                                  Y = g G yXmXpXjXZXxXZ O . a.~.g.i.y.g.} l.d.i.j.K > 9 $ D.                                                                                                                                              ",
"                                                                                                                                                  -.= h } [.>.d.e.UXzXzXS.E G.h.{ P [ t.} } { p.g.e.2 2 $ C.                                                                                                                                              ",
"                                                                                                                                                  -.7 i B m.[.ZXPXPXJXHXkXHXF.j.t.U C | | F C U p.K 9 9 $ C.                                                                                                                                              ",
"                                                                                                                                                  } = g p l.;.l.C.D.HXPXHXzXg.u.g.U } } a.} F T T n < 3 3 B.                                                                                                                                              ",
"                                                                                                                                                  } 8 g k z.].l.G I JXPXmXjXg.g.g.{ i.d.h.g.N L L x @ 3 # z.                                                                                                                                              ",
"                                                                                                                                                  [ = p H m.].].H d.PXPXMXjXg.d.{ T U g.z.g.m F K x + 9 # h.                                                                                                                                              ",
"                                                                                                                                                  } 8 8 J A.].=Xh.;.PXPXdXxXg.y.D n - H T H C C K b > 9 5 z.                                                                                                                                              ",
"                                                                                                                                                pX} g g H Z.A.rXpXi.PXJXtXyXg.e.p p k ] ' F F t.A n > 9 : h.                                                                                                                                              ",
"                                                                                                                                                kXi.p 8 } m.Z.iXpXZ.PXPXjXjXg.P p m.'.(.(.7.[ ;.A n 6 9 3 F.                                                                                                                                              ",
"                                                                                                                                                xXn.g 8 B n.S.-XtXyXdXIXxXxXB.t.a | (.&X&X).o.k i N > 9 3 h.                                                                                                                                              ",
"                                                                                                                                                jXZ.q 8 F l.z.n.S.S.h.F.D.D.B.y.p f ).(.oX).6.k 8 Z > c 4 B.                                                                                                                                              ",
"                                                                                                                                              -XC.s.G V >.H H ;.a.h.j.-.t.t.K L M | ).).).).f h F J 7 0 0 B.                                                                                                                                              ",
"                                                                                                                                              h H g 7 7 p s k h k S h p p p = B p | ).).).#.* k G I 5 9 5 B.                                                                                                                                              ",
"                                                                                                                                              [ H V B h ' >.7.=.' *.[ *.%.*.G J F [ | 8.#.)...J G I w 5 5 z.                                                                                                                                              ",
"                                                                                                                                              l.m.k = 8 l.q.q._.q.w.q._.q.`.].n.k k k  . .f s k k G 6 7 5 h.                                                                                                                                              ",
"                                                                                                                                              n.,.h 8 p >.q.q.w.(.q.$.#.q.(.c.f.u * o  .#.#.6.k n.{ > 0 9 i.                                                                                                                                              ",
"                                                                                                                                            ;X:.n.J $ h | _.q.6.#.&X(.#X&X&Xv.' p F a.{.<X<X] k h 7 < c 5 p.                                                                                                                                              ",
"                                                                                                                                            M.[ >.h - 8 [ _.#X8.] (._.(._._.>.' p i } k ] k a 0 7 7 > c > i.                                                                                                                                              ",
"                                                                                                                                            [ [ J H g p k 7.`.v.* z ] O.#.#.*.k F C i = 5 0 5 5 c 5 4 9 > T                                                                                                                                               ",
"                                                                                                                                            ' u J J g g J `.>.a f O.(.|.(.}.(.7.[ m p 7 = x 3 0 q x 3 q 9 L                                                                                                                                               ",
"                                                                                                                                            M.' n.j 8 g [ *.| o.6._.(.&X(.|._.>.p i F i 6 t 9 6 0 n q 0 3 T                                                                                                                                               ",
"                                                                        :X                                                                  >X%.,.J w g k >.o.] q.&X|.(.(.$.(...u [.f.h 8 w 9 0 n 9 3 0 5 {                                                                                                                                               ",
"                                                                        ;X                                                                  ].l   >.q 7 u [ ] o.q.(.(.&X(.q.v.,.p >.z.[ h 8 i < m 0 < 3 7 d.                                                                                                                                              ",
"                                                                                                                                                  l q $ G } 6.6.*.'.b._.#X7.l.;.p F f.| >.x.i.4 4 c c 9 & D.                                                                                                                                              ",
"                                                                                                                                                  k w > B a.7.*.' 7.7.l.%.>.Y V i F } l.[ p 3 5 0 v c c 0 0X                                                                                                                                              ",
"                                                                                                                              ;XwX              :Xh w w A i F k 8 h h V g w w 2 9 3 p p u O 3 3 v m K t.n                                                                                                                                                 ",
"                                                                                                                              tXyX              f.k = 2 3 7 = 7 7 w q N 6 @ > c 9 6 G n.a.F q 5 m e.M P C                                                                                                                                                 ",
"                                                                                                                                                J u = O p 5 F ;.[ S.C.S.S.p 7 t w 8 f.n.>.l U 7 n m m m i                                                                                                                                                 ",
"                                                                                                                                                >.H = w p } n.x.-XpXdXmXjXU & N G l.c.7.*.*.} p p 0 n i H JX                                                                                                                                              ",
"                                                                                                                                                =X;.* O F a.d.c.m.fXJXJXnXs.- { J l *.7.8.x.>.n 0 5 i m M kX                                                                                                                                              ",
"                                                                                                                                                - h $ & } a.f.c.m.nXJXKXJXz.F f.f.m.v.v.(.7.| i 0 5 0 n p F                                                                                                                                               ",
"                                                                                                                                                h.C.( . F a.z.m.x.nXJXKXJXZ.P Z.v.>X_.(.8.| k 5 m p p n 5 7 eX                                                                                                                                            ",
"                                                                                                                                                tX[.q w { d.z.n.v.nXSXJXZXZ.P {.;X#X#X'.#Xq.>.F m 5 5 M 5 a m.                                                                                                                                            ",
"                                                                                                                                                kXS.W 8 z.z.z.M.].nXAXZXmX[.F D.[.l.7.8.7.'.| a 5 5 m c 5 d.                                                                                                                                              ",
"                                                                                                                                                  S.Z g f.x.].;X{.sX:X;X{.d.C t.F u * u o u h p m m M y.0 M x.rX                                                                                                                                          ",
"                                                                                                                                                  S.N t p.[.;X=X'.M.l.l.l.a.} } g * p [ | k [ F } m } V.5 o ;.bX].                                                                                                                                        ",
"                                                                                                                                                  S.g 8 [ n.n.l.l.m.].=XeXA.[ 0X;.g %.l.,.>.| F } M M g.m o m.-X[.k                                                                                                                                       ",
"                                                                                                                                                  D.w 2 V d.f.f.a.z.].>X].v.} -Xa.H i.a.F k M B C 5 n y.t.p m.aXeXl.                                                                                                                                      ",
"                                                                                                                                                  D.t q } Z.Z.C.h.V >.[ l.F D U g B { | F m 0 a n 5 0 t.d.p {.fX                                                                                                                                          ",
"                                                                                                                                                  C.w V d.C.].{.z.U n.~.A.f.g U . > Z i.R L B q q q 0 n 5 F {.                                                                                                                                            ",
"                                                                                                                                                  C.w w } m.Z.n.f.-.h.~.-Xz.9 I > x E p.U G Z A q x q A 5 y.|                                                                                                                                             ",
"                                                                                                                                                  C.w h a.m.x.c.h.:.C.yXwXh.9 T N W G h.a.H N A m 9 m M M 0XP y.x.                                                                                                                                        ",
"                                                                                                                                                  C.6 V d.n.n.z.f.p.F.uX[.f.n i.I G g h p V 7 q m 0 p P 0XxXM a | eX                                                                                                                                      ",
"                                                                                                                                                  B.w g >.s.z.x.f.i.C.dXwX-.V -.Y p - - u V h F m p p g.qXHXP m } [                                                                                                                                       ",
"                                                                                                                                                  h.w t i.l.l.z.g.d.A.-X-X;.H Z.-XM.:.J B F G D F m P {.NXMXM m | p                                                                                                                                       ",
"                                                                                                                                                  h.t A >.f.z.x.g.g.;.;.l.| l.n.,.c.>.8 g t.U U m p | qXMXHXM i p p                                                                                                                                       ",
"                                                                                                                                                  z.w g } | h.d.z.z.a.A.M.iXiX-X;.,.;.u B U D B | 5 a 0XMXMXM 3 5 *                                                                                                                                       ",
"                                                                                                                                                  h.w = ,.:XiXsX-XH p.D.[.eXA.Z.G H q $ n m i 7 q 8 0 C t.M p.P B 7                                                                                                                                       ",
"                                                                                                                                                  h.6 = l.bXBXhX-XJ p.C.yXpXn.f.N A c 5 m K B n $ 6 q 9 5 5 S.t.pXp                                                                                                                                       ",
"                                                                                                                                                  h.6 - `.bXSX1X=XJ | z.0X0Xz.Y G w q A t.s.h.P 7 9 6 9 m D.yXl.[.p                                                                                                                                       ",
"                                                                                                                                                  h.w 8 A.hX1X&Xc.J y.d.{.{.n.p.Y g g G t.i.h.m > 9 6 K yX    eX{.k                                                                                                                                       ",
"                                                                                                                                                  h.w 8 A.`.c.:.! S C.[.[.[.{.M.M./ %.-.U t.i.7 6 > < T                                                                                                                                                   ",
"                                                                                                                                                  g.8 7 %.>.=.,.M.~.-X[.[.{.;X`.=XM.,.>.} } { 9 2 < 6 Z                                                                                                                                                   ",
"                                                                                                                                                  g.q 8 Y ,.3.I.Q.M.[.;X[.[.=X~.>X>XN.f.} i.{ i > c 9 n                                                                                                                                                   ",
"                                                                                                                                                  h.q 8 :.c.0.Q.:X=X~.eX;XrXrXA.~.M.m.N.a.p.{ m c x c q                                                                                                                                                   ",
"                                                                                                                                                  p.x w a.c.=.>XBX=X-XyXyXyXrX( A t V V h g D m x c c w                                                                                                                                                   ",
"                                                                                                                                                  g.N 6 ;.:.c.:XgX].D.eXeX0XS.B w % t V H { I n 0 9 5 n                                                                                                                                                   ",
"                                                                                                                                                    A w ;.:.M.rXtXA.C.-X0X[.{.k h y :.( ( ;.R x 0 9 9 0                                                                                                                                                   ",
"                                                                                                                                                    x t f.n.f.k.n.-.f.eXaXeXeX[.M.k.k.3.:.a.t.0 9 9 3 6                                                                                                                                                   ",
"                                                                                                                                                    b A A.-XN.k./ Y A.wX-X-X=XM.Q.N.4.4.%.j.Y 0 c > 3 5                                                                                                                                                   ",
"                                                                                                                                                    N t ~.:X~.~.-Xn.-XrX-X=X=XM.Q.4.k.4./ :.W 0 x 9 9 w Z.                                                                                                                                                ",
"                                                                                                                                                    x w M.M.#X~.~.M.rXtX;X-X=X~.M.k.3.,.J Y V 0 0 5 9 0 Z.                                                                                                                                                ",
"                                                                                                                                                    x t n.M.b.b.M.N.dXpXeX;X-XM.f./ t r t V A x 9 > 0 7 C.                                                                                                                                                ",
"                                                                                                                                                    9 6 n.M.v.c.c.;.].-X[.{.h.j.% w $ = 6 9 x m 9 > n i n.                                                                                                                                                ",
"                                                                                                                                                    9 $ c.M.M.b.m.c.-X-XaX[.-Xm.E N q A I E e.T x 3 3 7 p.                                                                                                                                                ",
"                                                                                                                                                    4 $ Z.=X=X:XrX:XiXrX;X;X>XA.A.s.T t.d.g.C.& 6 o 6 & t.                                                                                                                                                ",
"                                                                                                                                                    @ @ ~.:XsXBXgXgXsXsXaX:X;X=Xf.h } P t.s.g.5 # 3 i 7                                                                                                                                                   ",
"                                                                                                                                                    @ t -X:XA.~.m.;X:XiXiXsXrX=X,.-.[ { L { T = o R tX                                                                                                                                                    ",
"                                                                                                                                                    @ w A.S.[.S.m.m.=X=X=X>XrXrXn.;.;.{ t.P P # . z.                                                                                                                                                      ",
"                                                                                                                                                  tXs.S.-XC.S.D.B.z.n.C.D.S.[.S.g.d.{ } { L P 3 + n.                                                                                                                                                      ",
"                                                                                                                                                  jXZ q w w 0 9 & 7 i D U E C { P U L C C A 3 $ & {                                                                                                                                                       ",
"                                                                                                                                                  JX2 $ $ = > 5 $ $ p q A n q 4 3 3 $ & 3 < + 6 # U                                                                                                                                                       ",
"                                                                                                                                                  IX9 @ O $ $ $ . . + . # $ + + # $ $ $ # $ o 6 + 0 C.                                                                                                                                                    ",
"                                                                                                                                                  zX9 @ . X @ $ & p S.V.m t.> . 3 # $ @ $ $ o & @ 1 2                                                                                                                                                     ",
"                                                                                                                                                  zX< + + O $ = B ;.[.yXD.wXh.. $ . + # $ $ . i S.g.D.                                                                                                                                                    ",
"                                                                                                                                                  kX2 @ @ O w N g G ;XdXtXZ.i.n g 6 @ @ > 9 . p.wXwXtX                                                                                                                                                    ",
"                                                                                                                                                  kX2 @ @ V j.n.f.G A.lXiXA.z.{ 2 9 A # 6 3 > R -X-XeX                                                                                                                                                    ",
"                                                                                                                                                eXjXw 2 G Z.f.n.m.-.-XzXeXA.C.j.q b T > 9 > 3 F wXS.-X                                                                                                                                                    ",
"                                                                                                                                                eXdXp g f.k.m.Z.].a.dXfXm.f.h.s.q T E 6 4 > + N rXA.-X                                                                                                                                                    ",
"                                                                                                                                                yXpXk [ H n.n.Z.[.m.KXJXeX;X;Xn.S E E 1 4 > + D rX].>X                                                                                                                                                    ",
"                                                                                                                                                eXtXh eX>.f.n.m.[.Z.{.x.n.iXfXwXY Z L 9 3 9 $ H dX=X].                                                                                                                                                    ",
"                                                                                                                                                eXd.h A.n.m.l.n.[.Z.y.} s.A.n.:.G Z w $ 5 4 3 G fX{.n.                                                                                                                                                    ",
"                                                                                                                                                {.H ;.f.f.m.l.a.l.d.{ p G s.p.I G s.D . : 5 3 i fXA.h                             C.                                                                                                                      ",
"                                                                                                                                                0X* & h F >.a.a.{ } t.A I -.V A z.Z.p.n A c 5 N Z.| h -X                        t & h S.-X                                                                                                                ",
"                                                                                                                                                eXi & g f.=Xf.dXzXmXHXKXdX-XG V j.j.( D n 0 & & p 8 F [.pX                    yXN - J ].a.,.].                                                                                                            ",
"                                                                                                                                                eXF o i.n.:X-XPXJXPXPXPXJXc.V q ( W E L N i 7 7 7 = } z.h.[ >.A.eXeXeXeX-XwXn.V w = ;.-X;.S [ J n.].                                                                                                      ",
"                                                                                                                                                eXF # h.c.].KXPXZXKXPXPX-X} W O b b 2 @ & & 6 x N N C B g 7 7 8 7 - - = - w 6 8 @ 7 A.sX=Xh - O - d.].;X;XrX                                                                                              ",
"                                                                                                                                                wXB 7 { ;.-XfXPXiXf.dXeX-.D R b A 9 @ @ @ > 9 5 c p.A 6 6 6 3 t i = = = $ = = 6 O t j.-Xc.k . O p f.l.f.M.~.:X>X                                                                                          ",
"                                                                                                                                                wXB A D ;.f.f.A.l.p >.a.H L R N A < 1 > 6 9 4 4 v 0 x 6 6 3 6 S.S.} h g = 6 $ = 2 j.rX:Xn.n.8 8 H rX%.,.f.,.c.M.:X                                                                                        ",
"                                                                                                                                                -XB i = f.;.p.a.| F f.n.s.j.p.> : ; 4 > : # > > 3 3 0 5 & # g B.S.f.=XA.A.Z.w $ = j.-XgX;Xf.8 h >.A.,.A.c.7.k.3.=X                                                                                        ",
"                                                                                                                                                wXB A i f.n.k.f.} G h.n.h.z.h.n x A x x q 0 q L n $ # # $ 7 6 S.-X>.].m.-XA.h $ = g n.Z.:.- g = c.rXc.f.c.f.:./ C.                                                                                        ",
"                                                                                                                                                wXB B D h.f.n.f.%.F l.A.f.:.H V I Y E I G g q j.B = + # # 7 # C.rXn.eXiXiX].z.= $ 8 S h 7 . 7 g V G Y S G ( h - f.                                                                                        ",
"                                                                                                                                                wXF I Z f.a.f.:.H p F >./ f.>.H Y } Y ( a./ U p.g Z & + # & O d.-XAXdXfXfXiXh.= = tXdXA.g w $ 6 @ - 8 8 2 t 2 g J wXkX                                                                                    ",
"                                                                                                                                                wXH U B :.;.;.J 7 . o F >.a.[ G } ;.h.p.H } p.i.g 7 5 7 6 & 5 z.dXx.n.n.f.f.g i 2 h.p.S t q x 2 2 & 8 6 x w 6 2 @ & = 8 t A g g h V t X O = t t S S p.p.f.j.Z.-.                                          ",
"                                                                                                                                                  T Z B -.s.n.z.[.d.m.A.>.f.} G { p.s.} H F Y >.{ { f.p.0 3 p ].[.A.pXfXjXkXg i 6 w = t t w 9 w & = 0 i c t x w & = $ % @ @ % % % w t t - X % % 2 - t t S w ( E &                                         ",
"                                                                                                                                                  { i.q H >.a.a.z.,.;Xv.a.z.{ L L C i 7 3 5 o C h.C.f.} C p h.[.[.Z.[.[.[ N i F H H h f.f.C.~.p.O w w 7 V Y j.W = h I ( E j.e.E ( Y I S h = O = w w w G.j.j j.W w                                         ",
"                                                                                                                                                  { N q V ;.f.n.A.c.hX{.[ z.p.6 . # # $ $ o . 0 z.m.x.d.} F g.{.| F B h h F z.Z.m.rX-XfXgXlXyXh.= 6 $ w Z A.G 8 j.-.s.h.S.zXzXkXdXdXuXpXtXh.N j.F.k.t G.( w W A w                                         ",
"                                                                                                                                                  i.i 7 - l.;.,.,.;XBX1Xn.c.i 6 @ @ @ @ # # . C z.Z.x.h.| 5 p } g.d.>.z.rXiXrX=XA.:XrXAXsXdX~.E 6 8 q w U a.J ( a.f.h.i.P tXdXpXdXrXtXdXjXwXp.[.rXUXt ( ( W ( q 6 g.S.eXpXmXzX                            ",
"                                                                                                                                                  g.w 6 w f.>.].M.-XsXfX:Xn.q @ @ $ $ $ @ 3 . d.D.Z.Z.f.P p z.0XeX[.z.H [ >.m.m.M.>X>XgX=XrXn.S 6 q 7 q ( Y J :.k.n.Z.;.i [.dXgXhXdXlXzXkXyXz.Z.D.h.G.( G.G.h.q & O . . . . O R                           ",
"                                                                                                                                                  z.@ N -.m.].=XM.c.,.;.Y V t 2 6 2 2 @ 6 $ o z.S.{.Z.z.} k } eXrX{.} a u } >.l.m.A.~.-X~.~.p.t & w w 7 t - k %.>.f.;XZ.a ;XgXCXnXnXnXdXs.B 3 + @ 6 w x x w A t & V N I R S.wXjXC.                        ",
"                                                                                                                                                  S.B w = k k u - * O * % = @ 9 q A N $ $ 3 . V.].[.Z.x.y.p | eXiX[.l.>.f.a.l.n.m.=X-XuXjXD.Z Z N q & w >.rXlXiX;Xl.| k a l.>X<X=Xb.M.k O > 4 : > > < > 2 @ > @ > n q 9 A wXzXzXwX                        ",
"                                                                                                                                                  yX$ O = = - t 8 = } f.>.H I U C C n 5 3 $ + D.[.[.].n.d.5 B {.eX{.f.>.l.l.n.l.m.:X-X:XC.W C.C.2 w O = f.fXfX<X;X].7.] ' 6.9.v.'.SXhXk = 2 9 < > : < 3 < 1 < < 2 9 3 6 $ # + q Z                         ",
"                                                                                                                                                  eXV = = = 8 8 = = ;.m.f.p i x A q n > 3 5 + S.S.[.[.Z.d.5 | eXiXiXc.>.,.l.n.>.A.:X-XrX-Xj.W x > 6 O 7 f.CX;X<X;XiXfXsX<X<Xq.7.fXnXbX[.X + A 2 ; < > < < 9 9 @ > 9 3 9 6 9 x x 2 C.                      ",
"                                                                                                                                                    Z 7 7 u t g 8 8 c.l.z.g n D m M n 5 3 3 # S.0X{.[.Z.f.6 B eXeXiXm.%.;.f.l.>.M.rX;XiXwX( A t w % 2 q C.lXaXMXbXaXNXbXBXbXc.a k fX-XO $ ; 2 > ; @ @ ; @ 1 9 c x b 9 2 < 9 K K v e.                      ",
"                                                                                                                                                    B & O = - g & 8 f.l.a.F C C m n n 5 3 7 > wX0XwX-XS.Z.p U iX;XrX:.h h F a.F ].rX:XeXwXp.p.V V % = A m d.Z.nXbX1XNX1XBXbX].o 7 h u o X 2 @ ; ; > ; > 1 > 9 c c 9 9 2 > 2 A K c K                       ",
"                                                                                                                                                    t.6 = - h h h H f.l.[ V i 5 5 # 3 3 $ @ + yXyXyXtXeXS.8 F [.A.:XV - u } x.[ ].iXrXrX~.p.:.h V t t b m 0 {.bX1X<X1X&X1X<XA.p . o . . + $ ; > @ 1 2 > 1 2 w v c 9 9 2 1 v K K x K                       ",
"                                                                                                                                                    h.q g [ Y } F h H H ;.F i i 5 5 3 & > 3 3 xXpXpXiXtX[.B F eXZ.rX;.h.-X[.].d.A.rXrXrXS.Y Y t X g = w i 0 z.SX1X&X1X&X&X{.k h o 0 < @ # > @ ; 1 < 2 > 2 2 < 9 9 9 2 < 1 , K K x K                       ",
"                                                                                                                                                    C.7 V f.z.m.;XdXnXlXnX[.m } P K P m : 5 A kXpXpXpXwXA.B H eXA.;X;.J n.].].n.A.iXrX;XS.G J 8 X uXdX=X-X;XM.=X<X}.<X>X].} * . o 0 < # # # > + < 1 1 1 1 2 ; 2 9 9 9 6 2 < K A c K                       ",
"                                                                                                                                                    C.3 G t.{ d.d.[.iXaXfXx.m } P P } m 3 & i jXpXxXpXeXS.h F [.m.m.h * :.m.Z.m.A.iXrX;X=XH J - . pXgX>XhXvXhX>X&X_.`.>.* & o + + : c 5 : : < 1 2 2 2 2 < 2 9 1 c > > < 2 2 c x A x                       ",
"                                                                                                                                                    C.7 F ;.d.x.x.dXkXsXfXm.m } } P P M # 5 T jXxXxXpXpXS.h V -XZ.A.h p f.m.m.m.A.pXrXeX~.U U q . z.[ ..1XSXgXgXaXM.a & o o . @ ; : < < v c 2 > < < c x x c 2 2 9 > @ 2 < 1 v x c c                       ",
"                                                                                                                                                    D.i D a.z.x.`.aXkXpXfXZ.M t.t.P P M # 5 } jXpXtXtXyXS.k h -X].Z.o * f.m.n.].Z.sXrXeX[.I } g o C.,.' =XCXSXmXgX-Xo : + 3 > + # 1 1 < v c < ; < 2 2 c 2 c c w 9 2 2 ; 2 , j.9XF.                        ",
"                                                                                                                                                    C.p D d.d.x.C.pXlXiXfXA.L t.P y.} M 3 3 { zXpXpXpXtX[.k 5 eXZ.A.Y J f.c.m.A.A.iXrXwX=XJ H g . n.rXsX>XsXgXnXZXeX2 ; 2 ; ; @ ; ; : < 4 9 2 + + < 4 0 c c ; 2 9 9 > $ 3 7 zXIXzX                        ",
"                                                                                                                                                    Z.7 L a.g.m.m.fXfXiXfXA.F e.r.t.{ m $ $ d.jXxXpXtXtX0XL k rXA.wXf.;.f.m.n.].Z.pXeX;XS.G H i . C.rX:X{.].pXkXzXrX9 ; , 2 ; ; ; ; ; 1 < 4 ; > : # < c 9 9 9 > < 2 3 $ @ N                               ",
"                                                                                                                                                    S.= B d.h.z.V.aXfXiXfXZ.B t.e.e.P m # * g.pXpXtXpXyX0XU F rX{.eXz.-.,.n.n.{.Z.iXrXwX~.J H p + C.C.J h * i.dXZXzXh.+ , : ; , , 1 1 < < < ; > > + : 4 9 9 > 6 @ + 2 > $ n                               ",
"                                                                                                                                                    S.5 F i.x.x.m.pXdX:XhXm.B t.e.P } m # # d.jXtXpXpXpX[.U F iX[.A.;.[ >.x.x.Z.n.rX:X;XA.J G q + B.f.p 7 . n xXuXrXh.+ : 1 1 ; 1 1 , , 1 1 ; ; @ ; : m K 1 > > 2 j.A o o 3 zX                            ",
"                                                                                                                                                    S.7 F a.l.z.Z.fXdX;XaXm.m e.t.e.} c $ $ h.jXyXpXpXyXwXL F pX].A.f.J :.l.n.A.m.iXeX;X=XY G A + B.[.A.F.. W ~.w % ; ; : : : , , , , , < < ; > : # 4 P A v 1 > x yXyXD.L d.                              ",
"                                                                                                                                                    S.0 F a.i.x.z.aXaXiXfXm.m t.e.e.} c $ o g.jXxXpXxXaXeX} [ yXA.].f./ >.C.x.A.n.iXiX;X=XJ G n + D.dXZXJXUXi.zXb 2 < , ; ; 1 , , < < < c c > ; @ # 1 P M 4 > 5 A                                         ",
"                                                                                                                                                    S.p F a.z.{.A.fXaX;XfXx.M y.e.e.P M & 3 V.jXxXpXpXpXeXP H yX{.A.f.k ;.n.m.].m.iXrX:X[.J G V @ D.=XtXD.D.e.yXx < v , , , , , , , < v c b > @ ; # 1 P M 9 > 5 L                                         ",
"                                                                                                                                                    S.p F a.d.z.z.iXfX=XaXn.p y.r.e.P m & & V.jXpXxXpXyXeXL F pX{.Z.,.k ;.n.m.A.c.rXrX;X=XJ h g . wXlXdXG.u.K c 1 ; , , , v , 1 , , , , r.c ; ; # : < P A 5 > 9 T                                         ",
"                                                                                                                                                    S.p i ;.} h.d.iXpX].iXn.m e.e.e.K 5 5 6 S.xXjXpXjXyXwXF F tX].].l.J ;.A.A.A.x.rX;X;X=X/ G g - wXtXT > < ; , 1 1 < , , , < , , 1 , , x c 1 ; @ @ 4 L M v > 2 {                                         ",
"                                                                                                                                                    S.7 p d.d.h.x.aXdX;XaXZ.F P r.P P c 6 3 h.jXxXtXpXtXwXG F eX].Z.c.%.%.n.m.].m.rXrX:X-X;.V V = D.W 1 + , , , 1 1 1 1 < , , , , 1 1 1 c x ; > ; # 5 P A 9 2 2 p.                                        ",
"                                                                                                                                                    S.p i } d.z.z.pXpX;XaXm.M P t.r.P m 3 $ i.jXtXpXpXtX-XS F eXm.m.f.h j >.m.].m.rX:X:X-X;.g V + x 1 ; ; < , ; 1 1 1 1 , < , , < ; , 1 9 c @ > > + 4 P K c 1 2 g.                                        ",
"                                                                                                                                                    S.0 p >.d.x.l.aXaX=XaXm.M t.P M P m 3 + g.jXxXjXtXtX-XS F ;Xm.m.f.J [ l.n.].m.:X;X-X=X;.V g 6 9 , ; ; , , , < 1 1 , 1 1 , ; , > > 1 9 c @ ; + ; 4 P M v 2 w g.                                        ",
"                                                                                                                                                    S.0 p d.d.x.l.pXdX;XfXm.M t.r.K P c 6 2 B.jXxXpXpXyX-XV V eXm.Z.n.J ;.l.A.].m.iX:X-X-X>.W q N < 1 , , , , 1 1 1 1 1 1 , 1 , : 1 ; 1 c c @ 1 + + 3 P K c 2 w C.                                        ",
"                                                                                                                                                    S.n u d.} x.d.aXfX;XaXm.M e.e.e.P 9 9 $ z.jXxXdXjXtX[.S F ;Xm.m.c.Y [ n.m.].m.rX-X:X>Xa.W q N < 1 , , , , , , 1 1 1 < , , 1 , 1 + 1 c x 1 @ @ + 4 e.e.x 9 2 C.                                        ",
"                                                                                                                                                    [.p p i.d.d.l.pXfX<XaXZ.L e.e.r.P c 0 > h.jXjXxXxXpXS.S V rXm.Z.l.k k a.m.].m.:X;X-X>Xf.I t W 6 ; ; , 1 , 1 1 1 1 1 , , 1 , : , ; 1 c c 1 @ @ + w e.r.b 9 2 B.                                        ",
"                                                                                                                                                    S.p p } >.f.x.pXfX;X<Xn.F P e.P P c 3 3 g.jXjXxXpXtXA.h F eXA.`.l.l a.=X].].m.rX-X=X-Xa.I q Z 2 ; ; , , , , ; , 1 1 , < 1 1 : : 1 v x x @ 2 @ + 9 e.r.b 9 2 C.                                        ",
"                                                                                                                                                    [.7 i a.a.d.d.iXaX;XiXa.M P P M M m 5 # g.fXpXpXpXpX[.m g rXM.=Xc.[ :.n.n.m.c.;X-X>X>X:.Y $ A 1 ; , , , , , 1 ; ; 1 , , ; , 1 , ; 4 m m 1 ; @ + c t.P M 9 2 C.                                        ",
"                                                                                                                                                      7 p ;.d.l.,.{.;X;XiXl.i } P C M a 5 # z.kXjXpXpXpX{.B F eXn.`.,.l J >.[ n.n.-X>X-X-X,.Y t Z ; , , , , , , , 1 , , 1 1 , 1 ; : ; 4 c x > $ @ . i e.e.c 9 2 C.                                        ",
"                                                                                                                                                      i h a.d.f.d.{.;X;XiXn.m M M M M M 5 & z.jXjXpXjXpXD.B D eXl.b.c.[ [ } } m.A.-X;X=X-Xf.( t W 1 1 , , 1 ; , ; , , 1 , , , ; 1 1 + c m x @ @ O + c t.e.A 9 2 C.                                        ",
"                                                                                                                                                      7 p } i.d.[ >.l u ' F M M M P | r.m 5 g.pXpXpXaXpXD.C F rXl.l.>.[ j Y f.].-X-X-X=X=Xf.;.V I 0 < 1 1 , , ; , ; , 1 , 1 , 1 ; ; : 4 c m # @ @ . c e.r.K 9 2 C.                                        ",
"                                                                                                                                                      7 * H | } a k k k x.x.M } y.y.y.| p # h.jXdXdXpXpXD.D G -Xc.=.k * O h ;.z.n.].;X~.-Xf.;.g D 6 4 4 c c c c 9 ; , 1 , v , 1 ; ; 4 c M M ; ; @ . n e.e.M < 6 F.                                        ",
"                                                                                                                                                      8 & H { z.y.x.{.'.aXx.B } y.y.y.y.5 o d.jXpXpXdXpXC.U U ].,.l.,.%.h S F k 8 U :X-X-Xc.%.h V 3 9 9 c c 9 c < , 1 , , , < , 1 , < x c K + + . + m e.e.K 6 > h.                                        ",
"                                                                                                                                                      * o H >.x.d.`.<X'.<X8.a y.y.y.y.y.p o z.jXpXaXdXpXB.{ G ].' %.>.J h J } } ;.-.rX-X-Xk.;.h V & 9 9 c c c v < 1 , , , , , ; 1 ; < c M m + @ + . K e.r.K 2 6 h.                                        ",
"                                                                                                                                                      & o F d.x.x.m.aX{.{.x.| y.y.y.d.y.m + z.jXjXdXdXpXh.{ D ].;.*.[ l * h J -.z.Z.;X-X~.z.>.g V $ 0 0 c 2 c < 1 < , , , , , 1 ; ; v c c A : + + + K e.e.K < 6 h.                                        ",
"                                                                                                                                                    pX7 * x.{.{.{.0XaXaX;X].f.p.{ y.} M i # Z.zXdXiXfXdXp.t.G ].c.M.m.:.h f.f.x.].S.-X=X~.f.:.g V O 9 0 c x c c v 1 < , v , v , 1 1 < x M x + @ . + K e.e.r.w 2 s.                                        ",
"                                                                                                                                                    jXF H Z.V.D.g.d.| k p - 5 = & $ # * # & 5 z.z.A.rXdXp.i.F A.l.v.,.>.S [ u h J -.A.=X~.z.f.h S & 0 c c b c v 2 1 , < , v < 1 ; > 9 x c M + + . . M t.e.r.2 2 p.                                        ",
"                                                                                                                                                    kX5 o q 0 0 2 2 $ $ - t % 2 & 3 i F L q ;.kXmXkXdXpXY h.H A.c.m.c.f.J -.k [ ;.>.A.A.A.n.,.g D 6 9 c x x c c < 1 , , v , , < 1 ; v m K K , + + . K t.e.K 9 2 {                                         ",
"                                                                                                                                                    pXi O N A x E g.( S ( z.t = 7 i m P B 5 zXzXdXdXtXrXD z.[ m.m.M.M.l.h ;.a.f.z.n.c.M.A.f.j.g G 6 c c x c c K v 1 1 < , , < 1 1 ; < K c K ; + . + K t.e.K 6 6 T                                         ",
"                                                                                                                                                o p } i = A R A E ~.f.;.M.n.t 2 5 i m L A i pXmXkXdXtXrXZ n.>.m.v.].M.c.g z.f.h.z.>.Z.M.M.n.a.g D = 3 A x c m c 9 1 , ; , , < 1 ; ; 9 K M m + O . + K e.e.M < ; I                                         ",
"                                                                                                                                              ;X& p A.F * n P B ( S.f.c.M.k.w w n i B F C i eXzXkXdXtXwXV z.l.>.%.7.f.;.t H D G g -.n.M.Z.k.:.h V 3 3 m x m c c < , 1 , 1 1 1 1 ; ; 9 m M A @ # # + P y.e.r.9 $ F                                         ",
"                                                                                                                                                6 = S.h o B I h ( ~.N.N.k.&.h S i B m B F i tXZXdXpXrX0XB l.m.%.f l l X O 6 6 = > w z.C.m.n.a.V B w 4 9 1 < < < < < 1 1 1 , , 1 ; + c K K K + @ . . K e.e.M 2 $ N                                         ",
"                                                                                                                                                8 X -XS * V V = j A.~.,XhXsX-Xj.U C m D C n zXzXpXpXtX-XF h.M.:.,.l.l.k - 6 6 3 9 A h.N.n.n.;.g i & : # > ; 1 1 1 , 1 1 1 1 1 @ 1 1 x K K K # + . o P e.e.K > 2 i                                         ",
"                                                                                                                                                t g rX( g -.Y Y / 9.b.>X1X1XN.j B D m m M F MXJXkXdXdX[.L h.A.a.M.=X>Xc.h g & 7 C B f.n.n.n.-.p w # # : + @ @ 1 < 1 @ ; ; > @ 1 2 c W L W m + . + . L t.e.m 4 6 0                                         ",
"                                                                                                                                                g = n.t G ;.p.>.%.b.q.&X1X<Xk.h g B m m m i B nXmXlXpX-XL C.A.c.v.=X=Xc.} f.8 g 7 Z ,.n.c.f.-.g 7 > + # @ > > @ @ ; 1 1 ; @ > @ > @ L W P T D Z F Z T { t.m 4 > 7                                         ",
"                                                                                                                                                B * J t p | >.f.=.q.$.I.#X,X,.- i A n 0 m p d.nXnXgXpX0XD Z.-Xm.v.=X`.c.;.Y o & 6 $ l.m.c.l.-.g 6 6 + : > $ $ + @ $ @ + + + + $ + x E T P T U { } T p.d.t.n 6 3 0                                         ",
"                                                                                                                                                { = * H h ;.,.c.b.1X1X1X1X<X:.- p t n n m 5 x.NXlXgXaX[.C S.>Xv.v.b.b.].%.h & O 6 - >.v.c.c.-.q c 6 > N D C A 0 @ @ $ 2 9 q A Z n A C P { { } } } t.d.p.p.0 3 & 7                                         ",
"                                                                                                                                                z.. 7 z.7 >.>.c.`.1X1X1X#X,.J t g i m 0 m 5 d.nXfXgXdX`.p [.c.....] f s * O = 6 6 - [ 9.v.,.U 7 9 > > n B C n n 3 q q q n n N n N F } P } } { y.} a.i.d.d.0 3 # 3                                         ",
"                                                                                                                                                eXF B.[.u >.,.c.q.b.Q.(._.Q.%.h g n n 0 M a >.MXnXfXfX{.p ;X>.' 6.b.q.v.;.[ F 7 & * f.c.>.:.W 6 > 9 > i L B i i q 0 x x n N N n B L } } y.} } ;.i.d.a.d.D 6 # $ &                                         ",
"                                                                                                                                                      {.V ;.,.9.q.9.q.9.3.:.%.S V A m i M 5 | aXhXsXkX{.o S.;.7.7.c.9.7.,.H * i 6 q H - s g t 9 > 6 # n m i n i 0 m n m A m B F F } { } } y.} d.d.a.g.{ # . @ O                                           ",
"                                                                                                                                                      d.p ;.>.7.9.v.9.b.c.l.J h V N p 5 M 5 [ {.n.z.-XZ.& p.[ k >.*.*.>.>.} 7 6 # q p h g 8 @ 9 > > > 9 p p 0 q 4 q A A A A A C L { t.d.y.>.y.p.h.z.7 . . . . .                                           ",
"                                                                                                                                                    eX} . J ,.>.,.9.c.9.c.m.>.= i i i 5 0 m } Z.V.z.D.p.c F.Z H V H } ;.i.0 9 $ > C L T L A c @ 1 @ @ @ @ @ # < < 9 x n A Z Z U T { { { U L Z q w $ . . + C.wXwX                                          ",
"                                                                                                                                                    yXd.o %.;.7.f.,.,.c.c.A.;.t 8 & p n e.d.g.[.0X0XF.h.P s.G B p N N B i 5 5 4 < 3 4 9 9 < @ @ 2 < > @ % @ : 1 < 9 5 6 9 9 q q q q 7 6 3 $ & o @ + 1 + 9XHXzXzX                                          ",
"                                                                                                                                                  pXeX} - U Y a.f.l.a.a.f.j.U g w = w 9 c x i $ 3 : 4 0XxXMX[.g.{ n 5 n 0 9 4 4 3 : : : : < > > > < > + $ @ + ; + @ # # $ + @ $ @ # + @ @ O @ @ $ $ 2 . yXHX                                              ",
"                                                                                                                                                  ;Xz.m - g B B i 7 & 6 6 = O 6 2 . + . > # O @ . : , JXJXHXpXjXwXn 9 < > 4 4 : < > # + + < 2 @ x N # > > @ @ # . + . . . . . . . . . . . . X @ @ $ 2 + j.                                                ",
"                                                                                                                                                h.B h g 7 7 + 3 3 > + > & $ # $ & . . + @ + @ # @ + + HXHXJXjXMXkXq + . > + ; + + + ; ; ; # > 9 A L c ; # # . @ . wXyXyXyX    yX0XD.C.C.D.D.Z.S.wXwXyXwX                                                  ",
"                                                                                                                                                F { g = = 7 5 3 4 b t.T K L { i.6 # + @ > @ @ @ @ @ ; HXHXmXMXkXyXi.R g.g.j.h.p.4 # : # : ; @ 3 C D m : > + + + 9 JXkX                                                                                    ",
"                                                                                                                                                Y 8 U I F H i D N B S.G.T T T B p & $ $ @ $ $ $ < : $ JXJXMXMXMXlXZXMXMXxXyX0XF.> : # ; + # + # m C c , ; + @ $ 9 HX                                                                                      ",
"                                                                                                                                                i.g V t 7 - F | D { s.-.D [ [ >.h.} * $ $ @ @ @ : : 5 JXtX[.S.D.Z.D.Z.g.y.e.A < ; + ; # ; + . 3 p C 5 : + 5 9 3 9 JX                                                                                      ",
"                                                                                                                                                z.6 B 7 p | | | k `.JX=X`.<XhXhX{.| : > < 3 9 < > > 9 W n 5 & < # 5 # # : < , > < @ ; @ 1 @ @ 3 5 5 4 3 5 c 9 x A JX                                                                                      ",
"                                                                                                                                                [.7 [.# * l.>X<Xx.{.nXCX1XhXbX<Xv.' $ w x x 0 > > + > 9 1 9 4 4 4 5 1 < < v , 1 < > 1 @ @ @ 3 > < 3 @ > > 5 $ $ c zX                                                                                      ",
"                                                                                                                                                wXO 0X. 7 A.#X<X<X#X<X<X}.&X_.9.[ 7 9 9 m P > < x c 1 < < 9 c 2 4 4 1 4 9 < 2 < 1 > # @ ; @ @ 5 5 # . $ $ @ . . q                                                                                         ",
"                                                                                                                                                  W D.o p iX{.>XaXbXNXbX1X<X7.*.u 7 6 b A C 9 < e.1 9 v 2 > > $ 3 $ $ 5 c v 1 > > > @ @ @ O O N k 7 = g U { g.                                                                                            ",
"                                                                                                                                                    B.6 $ f.} [ f k ' [ o.' u p B i q g A n @ < b 1 + > 4 q H k k f F } P K c 9 6 @ 3 6 w * | x.x.x.                                                                                                      ",
"                                                                                                                                                    T 3 * & n B k l.`.{.m.l.B $ i i 7 q 0 n $ + 9 > + @ $ p.l.].`.x.7.[ m A n q w q = = p 5 8. . .8.                                                                                                      ",
"                                                                                                                                                    B.# + 7 0 7 a m.aX<Xx.l.t.3 7 > $ & o 3 = . & @ $ $ @ p f u u - * * . . @ o O = w 8 * u 8.#.] a ' ].;X                                                                                                ",
"                                                                                                                                                    g.3 o w x x & l.bX;Xx.7.{ m > $ o # 3 O 6 . # o . $ . o lXiX                      dX[.[ ] #. .a u u v.;X                                                                                              ",
"                                                                                                                                                    s.& . n P m 5 m.iX].d.} } n 5 # m C.n.f.2 @ @ @ @ # . . tX                          -Xk o.#.#.f * k ' v.>X                                                                                            ",
"                                                                                                                                                    p.$ o D t.m P V.z.s.} F m p 6 0 K g.B.l 2 @ @ < q $ > +                             rXk  .#. .] *  .8.*.>X                                                                                            ",
"                                                                                                                                                    i.3 $ n N L p i 7 5 # # : 5 0 9 A L { Z t > > m                                       ]  .). .O.] u o.q.(.                                                                                            ",
"                                                                                                                                                    { 7 O = 7 7 p N n x : : : 5 & + < 1 > 9 A 9 c C                                       ] #.#.#.#.6.o.z o.q.                                                                                            ",
"                                                                                                                                                    U 7 . * 5 u 7 3 @ > + ; + : 3 3 < 2 9 x A = 5 P                                       >.#. .O.&X>.`.].                                                                                                ",
"                                                                                                                                                  pXa.8 7 V >.f.} g i 8 u m i n 0 3 1 1 > t.p.6 n P                                       7.).#. .gX                                                                                                      ",
"                                                                                                                                                a.iXY = O a.m.>.>.l.m.<XdX;Xp i 5 5 9 3 5 >.Y 6 5 n wX                                    *.(.(.' bX                                                                                                      ",
"                                                                                                                                                -.eXB = & H k | | | v.}.}.8.k u 5 m i o * >.[ * i 0 eX                                    u ' x.*.                                                                                                        ",
"                                                                                                                                                7 C.7 & 5 5 m |  .| ).}.'.8.| p m P 5 5 p | -.& 5 5 0X                                      u p                                                                                                           ",
"                                                                                                                                              n o + 3 $ & m a k |  .}.}.(.| [ | P L c 5 m d.} 7 # n [.                                                                                                                                                    ",
"                                                                                                                                              7 $ # 3 o i F B [ | | (.}.8.| F P L K m c m t.T V 5 n C.                                                                                                                                                    ",
"                                                                                                                                              0Xp n 0 p m B F } ' | x.x.} F m 0 0 c 4 3 3 i h.R : c t.                                                                                                                                                    ",
"                                                                                                                                            eXtX# C.9 0 P } } a.l.f.| } C x 4 # + > < 1 < 1 q 2 : 4 n                                                                                                                                                     ",
"                                                                                                                                            D o 5 h.n 3 P } >.>.} } { F 4 4 4 > ; > 6 4 9 9 2 < : 4 c                                                                                                                                                     ",
"                                                                                                                                          pXh.X # q q 9 P F N w 0 5 7 $ ; > 6 > @ 2 6 < < 9 @ v < < 0                                                                                                                                                     ",
"                                                                                                                                        zXzXwXq + q B 5 p i 0 w 5 i D = 2 $ 6 @ @ > > 2 > > ; > , v 4 d.                                                                                                                                                  ",
"                                                                                                                                      [ { xXt.q 9 A n C M 0 0 i i D R 2 $ @ @ @ @ @ 2 ; @ + + < < : : n                                                                                                                                                   ",
"                                                                                                                                    tXP o n & 9 w q 7 5 p # * # 3 i Z.6 > > @ % = $ O % O O O O + # # p                                                                                                                                                   ",
"                                                                                                                                  I & o # o o 3 7 7 0 p a p F M m m k p $ + O X o . o * - u f k u p & g                                                                                                                                                   ",
"                                                                                                                                  o o # # # # * q 7 5 o 5 F | M i k *.| k u h *.k *.6.' 6.*. .' u | a }                                                                                                                                                   ",
"                                                                                                                                  p . w [.& 3 T F B 5 5 a p k | a | 8.8.8.] #.(.8. .#.8.8.#. .f a a a '.MX                                                                                                                                                ",
"                                                                                                                                MXeXI & g.i $ p u 5 p 5 a F F F * k #.).8.] 8.8.q. . .#.8.|  .] * * * {.dXeXA.                                                                                                                                            ",
"                                                                                                                              & Z.pXZ.5 L @ . i z.A.m a * a a * * 8.#.).).#.#.8.q.8.] *.| ] - * . . & & h 8 * B                                                                                                                                           ",
"                                                                                                                            5 o g jXU + 6 C.      eX7 5 p k a k a | }.(. . .| | a * . o O * O + # # N i = X & n                                                                                                                                           ",
"                                                                                                                            $ . # 6 3 . B           5 # 5 | | | 8.8.'.}.u * . O # o O + $ 9 9 + @ $ : 5 @ = &                                                                                                                                             ",
"                                                                                                                            3 + @ + . .             7 5 p z.[ | a | >.5 o @ . 1 < < ; > < c c @ + # : p.B 0                                                                                                                                               ",
"                                                                                                                            T + . . + 7             N i p i.t $ o + 5 5 @ X @ > < > > > 6 c 0 + # + $ JXzX                                                                                                                                                ",
"                                                                                                                            0X3 . + o               i 3 & 5 @ 2 : , F.e.> . : > 9 < > > : < 5 + # : o jX                                                                                                                                                  ",
"                                                                                                                              C.+ $ q               G D N 2 O @ 3 + V.E @ + 3 4 9 > 3 4 4 9 9 + + # &                                                                                                                                                     ",
"                                                                                                                        o o D.yXB 6                 3 # $ $ @ @ > o [.D.& $ 3 5 5 9 n c 9 5 7 + o o &                                                                                                                                                     ",
"                                                                                                                      . . . . i 0 H                 i 3 $ 2 @ % > + { C.V C D.D 9 & i n i 5 9 o o $ &                                                                                                                                                     ",
"                                                                                                                      . . o . . o                   w $ > $ @ $ & o i.[.;X[.t.C m 5 5 n c 7 7 # + o 5                                                                                                                                                     ",
"                                                                                                                      L # $ o . o                   i 2 3 $ & * L ;.;XiX[.{.V.M C 3 0 n 6 i q o O o i                                                                                                                                                     ",
"                                                                                                                      V.o . @ .                     D @ + # # V.[.].{.;X{.{.>.B m 9 0 0 5 i c + # . i                                                                                                                                                     ",
"                                                                                                                      tX. + @ &                     h.i 5 y.M z.[.;X-X<X:X{.>.P B m m n 9 q q # O + i                                                                                                                                                     ",
"                                                                                                                      tX+ # 6                       Z.m p u.| z.{.eX;X;XiX{.y.} P i c q 5 0 q @ @ . i                                                                                                                                                     ",
"                                                                                                                  [.qXV.+ + S.                      V.5 5 g.| g.].eX=X;X:X{.d.B } m 5 c 9 7 0 > @ . B                                                                                                                                                     ",
"                                                                                                                M , , , : .                         Z.p 5 d.F f.{.;X:X;X:X].l.L } M : i q 0 0 @ @ O N                                                                                                                                                     ",
"                                                                                                                r.: ; + # +                         Z.5 o L p y.{.{.:X;X<XA.x.} d.m $ i 0 7 0 $ @ . i                                                                                                                                                     ",
"                                                                                                                V., ; + + +                         C.* o m a y.;X].:X=X;X].S.{ t.m m m n 0 0 : $ . i                                                                                                                                                     ",
"                                                                                                                IXv ; + # +                         C.* o F 5 } [.{.;X<XiX;Xz.B } i # n n n 5 3 $ . q                                                                                                                                                     ",
"                                                                                                                IXv , , + .                         C.$ o P M } 0X{.[.].;X-X{.F i 0 5 n 0 5 i # # o 7                                                                                                                                                     ",
"                                                                                                                IXv , , : .                         C.& # m P } z.l.} ;.>.A.d.T n 5 B M n n 0 # # o 5                                                                                                                                                     ",
"                                                                                                                IXr., , # o                         B.$ # 7 B F F F - } 8 g n m m i 0 i 0 c 0 # # o &                                                                                                                                                     ",
"                                                                                                                IXr., : # o                         C.$ O 5 0 9 0 p F H p.V n B 7 p m n i 0 5 # # o 5                                                                                                                                                     ",
"                                                                                                                HXM , ; # .                         C.3 $ 3 0 7 i & * F g i p # n B I C 9 5 i * # o &                                                                                                                                                     ",
"                                                                                                                IXr., ; # .                         B.$ $ 3 m B } H Z.>.x.d.>.p } F p p p n 0 # # + #                                                                                                                                                     ",
"                                                                                                                HXr., + : .                           & @ 5 F } } | ].`.].`.l.} } } G i 5 7 0 # * o O                                                                                                                                                     ",
"                                                                                                                  u., , ; .                           5 7 7 { i.} } m.].=Xl.f.H } } i 7 u p 0 # # o .                                                                                                                                                     ",
"                                                                                                                  u.; ; ; +                           p D 6 { i.;.f.l.m.].c.>.G U h F B m i n 3 $ # o                                                                                                                                                     ",
"                                                                                                                  V.; , ; +                           p 7 7 U ;.} n.l.m.].f.} g B C d.i.C m 0 3 $ + o                                                                                                                                                     ",
"                                                                                                                  9X; 1 ; ;     5                     p 3 7 Y d.} n.z.n.,.u . & & B A n 5 m 0 3 $ o o                                                                                                                                                     ",
"                                                                                                                    4 v M     5 o #                   p 6 6 } ;.a.n.A.n.>.- g . 7 i q 3 D 0 i 3 & . $                                                                                                                                                     ",
"                                                                                                                        9X, : + : 5                   p 7 6 -.a.f.f.].;XM.l.;.N U E L F m n 5 3 # . & H                                                                                                                                                   ",
"                                                                                                                        r.1 ; ; : $                   p & 7 } >.>.H m.`.:Xc.k g U Y Y n H p 3 3 $ o o q                                                                                                                                                   ",
"                                                                                                                          9X, , 3 : g                 p & q U -.[ a %.>.v.7.- h H U V F m B * 3 o + . 7   tX                                                                                                                                              ",
"                                                                                                                          xXr.c < @ =                 p 5 7 F [ l >.k %.| z h * G U H p B g & $ . O > @   tXtX                                                                                                                                            ",
"                                                                                                                            u.e.; o 5               tXi 7 q F } | x.{.iX<X-X;.H V F p B B N @ O . O @ &     eXeX                                                                                                                                          ",
"                                                                                                                            V., 0 q 5               pXi n m } } } l.n.].].l.[ P V F } m } C i 6 O . $ o                                                                                                                                                   ",
"                                                                                                                              0X0Xh.5 D.z.          rXp i 0 } | [ >.l.{.>Xm.J [ F ;.F P } } w = X O . O     =X~.uX                                                                                                                                        ",
"                                                                                                                                  xX: c p |         eX7 5 7 } } k ' p ,.l.*.[ H [ } F P -.-.g t j s s % cX,X,X^ uXuX                                                                                                                                      ",
"                                                                                                                                  0X+ # 5 a.        [.p 0 i F F F l.x.l.x.>.F } B } [ F G J / ~ SXDXLXFXe ^ K._ e uX                                                                                                                                      ",
"                                                                                                                                  j.. . # y.        {.i p m P | } x.n.>.7.,.[ k i [ H p q J ~ VXDXFXLXFXQ.` Q e _ ) uX                                                                                                                                    ",
"                                                                                                                                    . . + O p k     A.p i m z.d.| m.v.x.v.l.[ } ;.H s h y hXVXVXDXLXLXLXVXVX6XQ /._ Q k.                                                                                                                                  ",
"                                                                                                                                    . X . + @ =     Z.p 5 5 P | a d.x.x.x.m.| ;.} :.s Q.LXDXVXH.%XVXVXDX6XVXVXR.VXH.^ Q vX                                                                                                                                ",
"                                                                                                                                    . . . @ + 9 Z.  B.p 5 & B B a x.8.| | {.k F - n.hX,X0.^ Q.K.d r d Q.@.H.VXVXVXOX!._ Q.hX-X                                                                                                                            ",
"                                                                                                                                    + . + @ @ $ * - Z x 6 & E T 5 | x.>.x.z.z.g t vXLXr r % e r y r ! &.,X%X3XK.Q 6X6X^ 2._ %.gX                                                                                                                          ",
"                                                                                                                                    + + @ O X % & g Y 9 @ w e.-.* x.| d.d.z.a.F ! &.Q.e X % % e - % % t ( 5.,X3X` 6XQ E.!.cX^ 5.uX                                                                                                                        ",
"                                                                                                                                    . + . O * s %.,.V w q x L n . H F } T h.E S LXBXe e ^ VXVX,X! X X X X X X ) K.3XVX` Q 6XcX,XvX-X                                                                                                                      ",
"                                                                                                                                    @ % X t 1XSXGXSXkXw 6 9 W n = g * = = j r % ! ,Xy gX5XVXR.3X>X% X @ @ % % % @.DX!.E.Q ` ` ^ ,Xj eX                                                                                                                    ",
"                                                                                                                                    O V O k _.(.BX<X;.= @ 6 L p.g.{ -.% % k.DX1X% e e PX,XFXDX~ % X X -X,Xe % % e &.,XQ !.Q ^ e ) k.AX=XA.eX                                                                                                              ",
"                                                                                                                                    O g %.s z o.#.u O X $ > 0 7 7 o z.:.~ FXLXDXX y e :X3.CX% r % y e N.,XcXQ % % e &.cX6X%X6XK.^ Q ~ Q LXk.                                                                                                              ",
"                                                                                                                                    o i 7 [ *.q.&X&X`.O = > & t = O &.! r ,XDX%XBXFXDXy X / N.LXcX5X5XsXBXVX5X,Xy e % j ,X3X4XT.4XR.+.e k.[.L eX                                                                                                          ",
"                                                                                                                                    6 w & [ ' 6.).(.7.o O X 2 = O d cXLXd % ~ $XFXFXhXh % r d Y.7X5X2.% e U.6X3XcX~ % % e cX7X4XOX3X3X` j X Z.zXtXyX                                                                                                      ",
"                                                                                                                                    O w t [ J 7.).(._.' S 7 i.u ] FXDXLXFX#XDXDXFX3.r X % y 2.Q.Q r 0.1.2.6XH.6X6XQ.% X X d DX$XH.W.H.` _ e y ^.jX                                                                                                        ",
"                                                                                                                                    = w V ;.k 8.).(.&Xs & . = O z VXQ Q FXFXFXFX~ r * ! hXDXBX5Xs ! :XDXBXFXH.@.^ ^ 4./ X % ~.O.VX7X6X3X` Q vXvXf.                                                                                                        ",
"                                                                                                                                    = 2 h ,.p 7.).oX&Xz - = KX..FXFX@.` FXLXDXd X r w.GXVXVX7XVXj y d cXLX5XVX4X4X XL.0.) % % % 3X$X4X3X$X!.Q ~.JXZ.                                                                                                      ",
"                                                                                                                                    8 6 h f.[ >.).&X8X..t w PXLX5XFXQ !.DX~ d e d SXVXFXFX7X7XVXQ.~ X 3.cXY.FX5X5X4X%X#Xy b X X % DX4X6XH.6X_ Q e t ZXdXyX                                                                                                ",
"                                                                                                                                    i & 8 a.k 8.#.#X&Xs * o sXPXQ ~ 4.LX5.e ! - 0.FXFXVXVXFX7X7X6Xd ~ r r r *XVX5X$X%X%Xy t @ X X d 5XFXU.^.!.^.) r uXzXg                                                                                                 ",
"                                                                                                                                    I 7 8 >.' v.q.GXLXj h O &.0.y !.PXPXd uX,X- VXGXVXFXVX7XVX7XVX+.~ I.1X,XcX7X5X5X4X,X%X:.N.:.e - DXQ e I.!.H.y % % O f.                                                                                                ",
"                                                                                                                                    { = - >.%.*.~ hX~.- - X.LXFXFXBXDX- . GX0.~ VX7X7X7XVX7X7X7X7XVX7X7X7X7X7X7X4X4X4X4X%X#XN.5./ X % y VXVX6X6X6X5.y X JXyXwX                                                                                            ",
"                                                                                                                                    j.8 8 Y %.! ..4.r j Q.FXLXFXVX1.j r v.FX#X@.7X4X7X7X7X7X7X4X4X7X4X7X7X7X7X4X4X@X4X4X2X%XL.+.%Xj % % VXDX%X~ VX!.cX_ % w f.                                                                                            ",
"                                                                                                                                    h.= % ;.' z *XFXFXFXFXFXFX#Xd %.M.f O.&X$.@.7X4X4X7X6X7X7X4X4X7X4X4X7X@X@X4X4X4X2X4X2X%XR.K.K.K.% e DXk.e % H.6X6X~.% w [.                                                                                            ",
"                                                                                                                                    C.& - ;.%...*XFXFXBXDX*XL.~ r AX=X*.|.7X&XL.7X4X4X4X4X4X4X4X4X4X4X4X4X4X4X4X4X*X4X4X*X3X#X+.^.$X~.% t e % % !.6X3X%Xe e dXAX                                                                                          ",
"                                                                                                                                    Z.w = -.%.l FXVXGXw.) ..9.=XM.b.=Xw.|.7X%XoX7X@X4X4X4X+X4X4X@X4X4X4X4X4X4X4X4X4X*X4X3X*X%X% ^ K.!.! X % @ % cX6X6X6X6X!./ JX                                                                                          ",
"                                                                                                                                    S.q = J J %.7X..~ #X~ j ~.=Xc.9.0.w.oX7X*XXX7X7X4X@X4X2X4X+X2X2X2X4X@X4X4X+X2X2X2X2X3X%X%X~ I.Q.,X!.e w @ % y 3XVX7X^ ` e e = 0 JX                                                                                    ",
"                                                                                                                                  jXwXw = g h J ,X:.d ,X) g ,.=X3.v._.w.XX7X@X@X7X7X@X4X2X@X2X2X$X*X4X4X2XXX2X2X4X*X*X3X4X*X%X^.,X6X!.%X) y @ % % ~ cXe @.3X%X0.% n t.mX{                                                                                 ",
"                                                                                                                                  tXA.t % j vXN.j 3.j AXN.s c.M.7.b.9.$.oX4X@X7X7X4X2X+XXX*XXX%XXXXXXXXX|.T. XXX$X%X3X4X4X%X%XI.I.@.2.@.~ 5.) % X w y !.7X4X4X,XX . + W dX                                                                                ",
"                                                                                                                                  dX,Xd y 5.3.~ ! d ! BXv.%.{.' * ] o.z O.w.*X5X7X7XXXoXT.T.XX X XXX@XXX X|.|. XXX%X*X*X5X4X#X2.0.~ r +.4.#X>Xd % X % Q.6X7X4X6X~.e e F.zX                                                                                ",
"                                                                                                                                  sX,XI.Q U.cXcXBXDXb.1X,X<X=X].#X(.#XO.$.*X4X7X7X5X4XXXY.XXoXXX|.J.7XVX*X%XY.|. XXX4X5X7XBX,XQ.Q.1.1.I.L.!.Q.<.k.% X X >X5X6X_ Q ) uX) b @                                                                               ",
"                                                                                                                            yX    3.4.~ VXFXVXVX#X,XcX1X1Xq.q.q.#X|.*X$.|. X X4X*X*X*X*XO.|.|.XX*X$.oX|.|.|.@.Y.Y.Y.|.%X4X%X#Xw.1.1.2.Q.2.%X2.Y.3.r % X X / ,Xe ~ 6XcXt X e.eX                                                                            ",
"                                                                                                                            W n.CXDX4.+.1X5X1X~ r % 1.#X&XX.1.#X&X|.#Xw.*X#X$.|.*X4X*X8Xd |.J.|.oX|.#X*X|.&Xw.#X$.O.O.J.$X#XL.L.@.@.2.%XI.%X%XI.<.e j % X X k.e !.6X6X!.Q G.vXZXS.                                                                        ",
"                                                                                                                            j.e ^ ,XQ.^.% % k.:.! - &X*Xw...=.0.$.$.w.9.0.2.O.@.O.I.|.Q.1.|.J.@.$.I.~ O.$.%X$.cXL.Y.H.$X4X$X|.J.@.|.oX2X*X%X#X1.~ N.>XQ.X X t ~ 5X6X6X6X^.j / N.yXwX                                                                      ",
"                                                                                                                          f.SX>X! #XLXhXd ) k.X m._.0.1X(.O.w.|.Y.|.0.1.#X|.O.O.X.w.1.1.0.Y.$.^ e 1.Q ~ L.5XU.LXBX7XOX4X4XP. X*XJ.4X4X4X*XY.l % % +.Q.Q.N.% % w VX5X%XK._ % j % $ q                                                                       ",
"                                                                                                                        jXl.DXFX,X,X5.^.y y UXt >Xw.6.1X5X#X#X*X|.|.Y.w.3X$XP.U. XU.%XL.$XU./.H.H.P.U.K.U.5XQ.FXFXVX4X6XXXH.J.XXXX7X4X*XI.X.z / Q.Q.#XI.Q.) X @ % y y !.6X<.~ ! % %                                                                       ",
"                                                                                                                        ZX>X%XLXI.sX~.vXS b jX( #X|.w.8XGX*XoX*X|.T.0.+.%X XXX.X X$X3X$X$XP.K.W.W.W.K.` @.4X1XFX7XVX7X7X6X7XJ.4X@. XJ.0.1.! %...0.0.2.2.0.5.% X @ X ,X5X$X%XQ.vXk.e h                                                                     ",
"                                                                                                                    :X:XQ.~ Q 6XDXDX^.~.) X 9 JXCX%X#X8XFX%X|.*X|.J.$.w.@.T..X.X.X.X2XR.P.T.P.H.W.R.Q y 1.5XcXcX5X5X5X5X4X7XQ.%XH.L.Q &.&.3.3.3.%XQ.Q _ K.U.3.r X % cXY.6X6X^ ,X,X^.) r C.S.yX                                                            ",
"                                                                                                                  >.J vX^.^ VX!.cXy % % y W ( vXLX&X1X1XBX&X|.%X|.J.2.1.L..XOX2XOX.X2X3XR.R.E.P.P.R.Q r cXVXBXcX5X,X5X*X%X*X@.4.+.^.e l N.N.k.2.*X,Xe ,X!.$X!.&.% X &.&.DX5Xe ,X^ K.DXy % F.& MX                                                          ",
"                                                                                                                eXrXn.j SXcXVXU.5.S t G./ y N.>XDXBX#X&X1X|.|.oXY.J.L.#X%X$X.X$X2X.XR.R.P.P.H.@.@.I.e % % y S % r d d Y.XX4XQ.! j j % r k.I.2.Y.6X3XP.3X$X$XR.Q.5.- X X A.j X % !.6X,Xe @ S wXUXyX                                                        ",
"                                                                                                              nXn.nX>.X Q.cX!.Q 3.~.N k.s ! 1X#Xw.&X&X&X1X(.|.|.$.J.$.0.L.P.T.T.T.R.E.E.T. XR.$X!.Q.~.k.% V G.b j ) d I.%X*X3.) N.M.j c.0.Q.I.L.!.E.!.3X.X.X.XR.3.y X X X % X ~.cX3X!._ _ y k.PXkX                                                        ",
"                                                                                                            l.>.% vXgX% Q.Q.Q e N.<Xb.9.#XGXBX*Xz 1X&X(.&X#X$.|.J.$.$.$.J.XXXXOX.XOXOX.X.X.X$X%X2X%X1.,.% c.pXuXuX,Xy K.#X%X5.:.=XM.%.l.0.0.@.+.@.L.E..X XU.U.~ % y % X X % @ k.VX6X6X6X$XcX^.j.JXD.kX                                                    ",
"                                                                                                    pXpXpX{.l.k :X^.DXcX) k.3.! hXBX&X).#XBX*X&X] 8X&X}.(.|.J.|.|.J.@.$.J.T.OXOXOX.X2XXX.X+X3X2X.XXXO.+.d #X>X~.!.Q.<.+.%X%X&.&.`.Q.&.9.0.I.O.~ P.$XOX+X.XR.%Xy 5.,XuXj X w @ e I.I.3X+X` _ _ y w b zXyX                                                  ",
"                                                                                                  p [.NXnXaXm.- ,XcXvX^.^.:.e 3.GXFX7X7XFXFX&X#XO.*XoX(.|.#X$.XXU. XJ.w.T.XX.X.XOX.X.X+X$X+X$X.X.XXXH.P. X%X,X!.%X%X%X,X%X6X&.&.#XQ.,.N.0.#XR.R.+X2X+X+XOXE..X%X^ %X%X#X% w @ % X e 5XH.H.6X3X!.% y G dX~.yX                                              ",
"                                                                                                  {.nXMXaX>XKX,XcXcXy e ,Xr O 1X7X7XoXoXVXFXBX|.O.8X|.|.#X X$. XXX$X|.J.T..X.X.X.X.XT.T.R. X.XE..X+XXX XJ. X X$X6X6X6X3X%X5X<.,.=X~.7.b.Y.%XE.2X+X+XOX+XOXT.2X3X@.%X^.!.) y e e X r cXU.+X3X3X3X^.5.r PXjXtX                                              ",
"                                                                                                  F F pXt M.DXVXcXcXQ e LXLX- 1X7X8X@X8XVXBX#Xw.#.}.&X5X7X%X$.%X%X|.2.$. X.XR.R..X X XU.2.R.K.P.@.H.H.P.T.W.T.T.E.W..XE. X5X3.! >.>.[ =.w.L.J.E..X+XOX+XOXE.OXE.P.I.!.I.) ,XuX~ % % y ! 6X6X6XK.6X,Xe _ y zX                                              ",
"                                                                                                  i . . Q 6XDXVXDX^.w % eX,.rXLXoX8X7X7XVXBX,X1. .&X&X5X7X5XJ.|. Xw.I.#XU.R. X$XT.R.U.~ @.Q.U.J.^.$X$XR..XOXT.T.W.T..X.XR.5XQ.j - J %.X.U.U.W..X.X.XOXOXOXOX3XP.3XI.~ X y !.3X!.!.% X X 6XcX^.e W./.!.cXS X rX                                            ",
"                                                                                                  G f.n.Q cX6X,XuXe b @ F p kXl.).&X*XGXBX5X,X$.).&X).$.w.Y.L.|.#Xw.w.0.w.L.Y. X.X.X%X+.~ Y..X.X2X.X3XT.OXOXT.E.T.E..XE.T.5X4.r r ! &.0.*X.X.X.X.X X.X2XOXOXOXE.6X$X*X~ Q ,XR.!.^.y X X @ ) r % !.3X!._ % ) N.                                            ",
"                                                                                            gXSXc.s N.vXK.cX^ y ) ( W w i i JXkX] 8.&XBXcX1X1X1.).oX(.|.1.w.J.|.Y.$.~ d ~ U.U..X.XU.!.+.@.U.T.OX.X.XR.P.W.E.T.E.E.E.E.T. X4XQ.r y 1.I.Y..X2X.XOXT.T.E.E.OX3X3X3X4XR.>XQ.e %XR.E.!.&.% X X + % X ,X6XE._ e ) CXBXk.                                        ",
"                                                                                          s.H hX4.^ DXDXFXQ.y e 2 e $ = w 6 jXC.P {.<XBXcXcX5X$.(.8X#.] o.1X|.|.|.@.O.1.K.$XR.$X+X$X#X~ 2. XR.OXE.E.W.H.W.T.T.OXE.T.R.E.R.3X%XL.P.R.P.T.OXXX.XXXE.E.R.R.OX3X3X3XU.Y.d =.e 2.H.T.T.!.Q.3.. . # r cX!.$X6XK.6X!.uXy n.                                      ",
"                                                                                      5 & ( y ,XVXU.FXSXDXCX% :.j t ,.sXf.j.G.2 P D.M.CXAXcXBX(.#.(.f * f 5X|.J.|.@.X.2.K.R.R.$X.XR.%Xd 2.%X XOXE.E.P.H.W.W.W.T.E. X XR.R.R.3XP.T.T.J..X$X$X$X.X.XE.K.R.$X3X3XOX~ I.+.^ ~ 2.$X2XE.R.!.Q.r . $ & - <.3X3XQ Q ` /.) S PX-X                                  ",
"                                                                                      9X>.>X% ^.%X6XcX!.j uXd 1X5X1XBXGX9.N.J 2 g / J hXSX,X*X&X7X1Xu o z 1X|.$.J.$.X.1.I.R.I.$X.XY.Q.~  XXXE.OXOXW.P.^ W.T.OXXXR.T.U.%X$XR.4XXXXXT.P.T. XU.!.R.2X.XR.E.3X3XOX!.e I.$X.X%X!.2X3X.XOX2X%XQ.= . X . s ,XP.!.^ P.<.e y S rXtX                                ",
"                                                                                    PXKXm.=Xe K.DXVX^.K.% y FXVX5X7X7XVXI.3.! j j % k.ZXLXBX>X#.w.o.k * z #X|.|.$.w.~ ^ ~ P.P.$XE.T.Y.~ $XOX.XE.E.E.T.^ T.T..XJ.@.X.~ +.L.3X2X4X$XY.U.+.~ ~ ^ Y..X2XE.P.E.E.E./.U.%X4X+X2X.X!.T.W.E.!.I.^.r X X X X % 2.%X3X,X%X_ uX3.% .                                 ",
"                                                                                    = t w >XVXcXVXcX% uXQ ~ 5X7X4XoX5X5X!.!.~.,XN.s 9.gXbX1X|.#.w.* s s l #X#XJ.@.w.~ +.P.OX$X$XE.R. XL.2X XP..XE.E.R.^ E.E.3X3Xd s j d O.$X4X4X|.e ~ &.d y d 0.XX.XOXT..X.XT.H.E.+X+X+XOXOX.XT.T./.R.H./.,Xk.X X X X ,X3X3XN.N.,X,X^ _ X PXzX                            ",
"                                                                                  tXj % ~.hXcXVXQ.~.% ^.BX6X5X2X%X2X*X5X,X6XcXuX>XX.q.cXGXBX*X|.#Xz 1X>X*.b.|.$.$.w.+.L..X$X$X$XE.J.Y.R.%XP.Y.%XOX.XU.@.T..X$X%Xw.l r s ~ *XXX4X%Xr N.f.j / h Q.T..XE.W.T.T.E.W.E.+X+X+XOXOXE.P.U.!.K.K.!.,X^.~ e % . uX,X%Xe % I.2.U.DXe ( ~.                            ",
"                                                                                  sXj % vXDXVX~.% % X j Q.%X5X2XXXXX*XXX%X%X%X%X#X! 7.BXBXBX*XoX&XO.&X1Xq.Q.#XY.|.Y.0.I.%X%XI.U. XT. XL.@.@.0.%X$XR.I.O.L.XXXXXXw.9.s l z 1XXX2X#Xd l %.J =X' Q.T.XXE.E.OXXX.XOXE.OXOXOXE.E.E.P.R.R./.R.R.3X@.2.+.d % k.>Xr X X ~ %X6X%Xe 2 @ jX                          ",
"                                                                          mXpXmXdXA.CXe 5XVX5Xy % t k.k.5XR.4X4XXX@X%X X%X*X%X%XI.z w.BXFXFX*XO.u s 1.0.w.|.|.$.Y.w.O...0.1.~ +.L.P.$XL.~ 0.2.%X%XI.&.d @.U.T.|.0.v.l l z *X|.XXY.s - - h %.*.0. XT.@X+XOX+XW.OXOX+XOXOXOXOXOXW.R./.P.P.P.R.H.R.%X,Xe X 2 X X X Q.Q.P.!.^._ S JXwX                        ",
"                                                                        o z.F.D.& lXBX,XcX+.d e e 4.cX%XY.H.$X$X$X%X4X*X%X*XY.oX5X0.GXFXGX7X&Xf |.#X|.$.&.q.|.*X*X*Xj d d s r Q.R.R.U.J.+.0.@.%X!.+.d d +.H.@.P.$.6.l s f #XXX$X%X% - t h d f 1.OXE.+X+X+XXXOXOXOXOX+X+X+X+X3XE.H.R.!.$XE.W.H.^.^ K.uXX X X @ % Q.%X6X3X/.~.e ZXS p.                      ",
"                                                                      i N h.+ > X AX,X#X:Xe % ! ,X*X6X4XXXJ.3X$X$X XXXY.|.*X$.*X7XY.7XBXGXbX(. .(.&Xb.=.! U.4X4X*X*X&.j J r d %X$X.XT.P.2.U.2.Q.R.U.4.1.H.Y.^ $.~ ..j f %.BX4X2X%X~ J j r k ! ~ J.W.+X+X+XOX+XW.E.OX+X+X+X+X3X+X$X3X3X3XOX!.R.K.` uXvXe X % @ % ~ ,X5X6X` _ _ _ ) % JXZX                  ",
"                                                                    zXp.g -.y C.y JX~.r % r O Q.%X4X4X4X$X4X4X3X$XXX X$.%X7X|.oX_.~ =... .f a f ] o.&X9.] #X7X7X4X&XX.z d :.+.L.$X.XW.T.P.!.2.R..X$XU.Q.U.H.W.T.0.#Xb.l f r J.$X!.e r ! ! z ~ Y..X2XOX+X+X+X+X+XE.OX+X+X+X+X+X+XOX3X3XOX3XOXR.2.e ~.N.2 X X @ X X ~.~.e % e Q y 5.y :XpXt                 ",
"                                                                    J h :.N.,XDXS y w r r y d Q.$X2X+X@X+X3X6X6X%X%X4XY.&X8X*X&X(.s z a  .{.' * *.*.' *.u  .7X7X*X|.=.d s Q.U.J.2X+XW.E.P.U.@.U.T.R.P.H.J.@.P.P.$.@.d u l ! U.2XU.1.I.#XY.Y. X%XXXXXE.OXOX+X+XE.E.W.E.OXOX+XE.+XOXOXOXE.!.!.!.^.e k.X t j / X X % S g . 5.6X6XP.DXQ y X 2 t               ",
"                                                                  ~.k.vXVX5XVXDXKX% % t ! ,X%XJ.R. XXXXX+X+X4X6X5XXX4X1.q.] &X7XNX}.'.| a x.x.* `.| %.% * o.VX7X*X%X=.s z Y.*X4X+X+XOX.XR.R.L.6XE.OX.XE.E.3XR.H.Y.w.- f f !  X+X$XL.Y.%XJ.|.Y.@.R.J.R.H.E.3XOXOXOXH.OX+XOXOXW.W.OXE.R.T.T.R.P.!.Q j e ~.Q.I.k.r % O @ % ,X%X3X_ _ y ) @ @ Z               ",
"                                                                ~.DXDXDX6X6XI.DX~.w % ) %X$X.X X X$X2X.X$XXX2X3X4X$X*X#X<X* ).&XNX).a a * * a k '.].J = O z 7X8XoX%XY.s ..0.T.XX+XOX.XE. X$X,X5X%X2X2X4X2XE.H.^ %X~ r d j O.$X2X$X*X*X4XY.J.w.X.*X2.R.H.E.E.E.E.OXW.6X6XOX+XOXW.E.R.E.R.R.R.L.Q.~ j Q.!.K.Y.Q.X.X % @ % Q 6X!.%X` ^._ ` w S JX            ",
"                                                              ~.5.` JXLXVX6Xy ) t g - Q.!.$X.X.X.X$XOX$X2X$X.XXX2X$X4XBXbXs |.&X&X}.k m * & . * V.Z.{ G 8 [ 8X*X|.#X0.- z X.J. XW.|.E.U.R.%X2.,X#XR..X4XOXH.^  X X^ z ! ..1.3X%XU.$.w.b.w.#Xz z N.O.Q Q.E.OXW.H./.` /.OXOX+XE.E.E..XE.T.R.R.E.!.! ) #X!.K.!.Q.4.X @ @ % % vX%Xy ) k./.6XQ S JXlX          ",
"                                                            %.,X` y 5.PXFX4.y y t r c.Q.%X$X2X2X2X+X2X.X.X$X+XOX2X3X*XBX1Xu $.7XNX}.| | N F X B kX;Xf.D g J %.q.#XQ.=./ s 0. X XH.J.P.L.R.%X! X.~ ^ 2X4XW.E.4X4X4X#X..%.%.3.0.U.I.1.~ z - d d f 9.<.1.%X$XOXE.E.OX/.+X+X+X+XOXE..XE.E.W..XE.W.$X~ Q.!.R.U.R.R.K.% e % w % w uX% X y 3X/.^.y - R           ",
"                                                          . Q.1XVX_ % k.k.% e y r 4.5.0.#X.X+X2X2X2X+X+X.X.XXXXX+X4X6X*X#Xd $.Y.6.b.>.-.g - X t J Y J / h h s - u d u k u X. X XJ.J.P.Y.%X2.d - - ~ 7XR.J.6X4X5X%XQ.z J h j s d =.l z &.q.O...e 1.I.$X3XOXOXOXOXOXW.OX+X+X+X+X+XOXOXOXOX+XOXE.!.^ K.L.P.R.Y.U.Q.Q y r S y % % X X % K.$X3XQ @ @ .         ",
"                                                        ; . 5XVXVXQ t zXW @ w j 4.cX4.<.L.3X2X3X@X+X+X+X+X2X.XT.4X+X3XR.U.U.%X6X%X>X&.J u h . h N.N.M.h.- = * - O h - c.&.O. XXXT.T. XT.R.$.- u h d U.+.H.R. XJ.J.d s h 8 p s s j l r >X%XY.O.d I.L.R.6X3XOXOXOX+XOXOX+X+X+X+X+X+XOXOX+XOX+XT.!.+.K.R.T.R.P.L.+.% 5.Q.,X~.r X . X % Q !.3XH.% + : 3       ",
"                                                        2 X 7X7XcXQ r yXE X % <.U.L.4.~ ~ %X6X3X2X+X+X+X+X2X4X+X4X4X@XE.4X.X+X6X3X,X5.:.k [ * ~.,XQ.Q.;.- = & t t % / c...Y.*X+X XR.$XR.U.2.s f l d Q ! ^ Y.H.Y.%X$.f f u f =.q.0.r s #X*XoX$.z @.O.P.!./.OXOXOXOXOXOX+XOXOX+X+X+X+X+X+X+XOXT.U.+.P.P.W.W.P.P.K.Q K.Y.%X^.) X . X % e 6X$X_ X . 3 0       ",
"                                                      Z ; . BX7XVXe % x b r &.Q.!.P.^.I.^ ,X%X X2X4X4X2X3X3X4X+X4X+X4X4X@X+X4X6X6X5X<.c.- k d sX,XQ.3.! o 7 w j.c.:.! %.Q.*X*X$XT.T.T.U.T.2...%.<.! Q d 0.Q.I.L.$.#XO.l s %.w.1.Q.~ r w.XXoXY.@.+.w.^ ` /.OXOXE.W.W.H.OXOXOX+X+X+X+X+X+X+XOX.XP.^ @.T.W.T.T.T. XT.Y.@.U.%X1.% O X % % uX3X_ X . 3 i       ",
"                                                      q > X VX5XcXe % A ( k.!.R.L.@.@.^ <.^.%X^ @.!.$X4X%X!.4X3X+X3X+X4X@X+X4X4X7X6X%X,X&.,.,.hX%XQ.5.) - h 5 -.3.1.d ..#X|.P.R.W.P.Y.P.T.|.+.~ ^ I.+.4.<.U.Y.2.@.1.=...- b.#Xw.Y.0.z %X4X|.O.z Y.Y.~ ~ +.U.E.T.W.K.H.3X+X+X+X+X+X+X+X+X+X+X+XT.2.Y.OXE.XXW. XT.3X.X@.P.%XY.- . X . % cX!._ e % < C       ",
"                                                      2 @ . bX7XVXe t b wX^.K.$XY.H.!.$X!.%XI.<.+.I.+.%XI.R.3X2XOX2X+X+X+X+X@X4X4X3XY.#X&.=.c.Q.4.Q.N.&.r t * %.! 2.d =.Y.2.L.R.H.^ @.@.J.U.J.@.!.%X!.U.X.1.O.$.|.O.s s - 1.#XY.O.O.=.#X5X|.s s O.1.&.&.+.Y.P.P.R.U.K.!.3XE.OX3X+X+X+X+X.X.X$XT.@.%XE.E.T..X.XW.T.!.+.#X5X,X% . . X % cX!._ % @ : t.      ",
"                                                      + $ X BXBXBXj t N zX^.I.K.R.H.E.2X2X2X$XR.U.K.y K.Q 5.!.R.2X3X+X+X+X2X2XXX4XI...z s l l h s ! %.J 8 i 7 ;.d +...1.0.+.L.%XK.Q H.@.J.%X|.|..XT.R.U.+.~ X.~ o.9.l s r z l z z ~ z &.,X~ - - ' =.....1.2.2.!.I.@.^ I.!.P./.E.T.T.E.E.XXR. XU.~ P.P.E.T..X XU.I.e X ! ~.:.X . . X X cX!.^ % @ + h.      ",
"                                                    zXO w X 1XcXuX5.8 9 ~.3.Q %XP.J.E.+XOXOXOX3X$X!.^ !.!.U.K.!.E.OX+X+X2X4XP.%X5X1X=.6.* | x.u u l ,.:.g B p f.~ +.~ @.@.~ L.6X%XH.R.Y.+.Y.W.XXT.P. XP.2.~ 2.=.O.z b.l s d z z X.z z ,.=Xl r p %.,.l l ! ) +.K.<.^ +.4.R.P.@.K.K.H.H.W.P.U.U.K.^ 2.P.W.W.T.L.U.N.- h N.&.X X . + O % ,X!.Q % < + D.      ",
"                                                    zXO % . ~.vX6X^.2 b b % ) %X$XP.OX3XOXOX+X2XOXE.P.!.2X3X.XOXOXOXOX3X3X3XP.%X5X&X6.7.* d.{.a >.7.,.%.h N p c.O.w.+.~ 2.@.J.4X$XP.P.K.^ @.$.W.W.T.T.H.I.+.1.1.=.d =.d - d J.*XXXw.z s &.,.l u >.,.u - r &.I.U.5._ 2.I.I.2.^ 2.@.@.U.L.+.2.I.@.+.2.Y.L.L.I.X.0.d y ! >X~.% X X @ % y ,X!.Q 2 v . S.      ",
"                                                    zX6 w X S gXDXZXS D.W % ~ Q.R.W.R.E.E..X2XOXE.T..XOX2X+X.XXXE.E.OXOXOX3XY.%X1X#X6.7.a '.{.a 6.9.=.' p i - N.~ Y.@.1.X.X.I.*X$XR.2.O.X.+.H.P.T.E.R.P.P.L.1.4.1.z d s f ] @X@X@X*XO.d c.=.l h %.' - * * ! 2./.K.<.+.<.<.@.@.2.K.L.2.+.O.+.<.+.@.H.L.L.+.X.0.+.% j d S ( r % w w e Q 3X!.Q 2 c +         ",
"                                                    zXw 2 $ @ X S ( t ( b e ) ^.%XT.U.P.E.OXE.E.E.W.W.W.OXOXT.W.E.OXOXOX3X3XH.%X*X#X$.q.a x.{.| 9.v.3.%.h t = N.X.I.1...! r ..X.O.J.X.s ..X.L.T.W.E.T.T.P.Q.+.1.X.~ z %X@X@X@X@X@XoX] 9.3.X.' s J %.,.' l =.K.Y.2.^ 1.1.2.2.@.L.2.L.H.@.+.~ +.2.L.L.Y.L.+.2.I.1.) r % X 2 X 2 uXy ` _ !.^.% X < +         ",
"                                                        . . $ # n.vXN.k.y e I.^.I.L.U.L.P./.W.OXW.OXOXE.OXE.T.T.E.OXOX3XOX3XH.R.*XJ.O.$.s v.<Xo.9.b.=./ w w w k.z 0.1.=...l &.=.w.I.o...O.~ J.E.W.W.T.T.J.%X2.~ O.d z $.oX@X@X@X@X#.u ! ~ s - . * s 3.b.*.3.I.K.+.1.2.+.+.2.@.2.$.@.0.2.0.@.X.0.2.2.I.Q.2.Q.U.2.k.t O % @ X ) ^.k._ ^.!._ y 2 > +         ",
"                                                            { tXZXvXVX1X^._ ^.DX! d 4.Y.L.R.R.!.K.$XOXW..XT.T.E.E.OX+X.X@X4XJ. XXXT.4X4X!.cX1XQ <.k.4.&.t q 2 j.- :.:.:.h r d N.|.|.3.z X.+.Y.E.P.E.T.E.P.P.1.s ~ z O.@.|.oXoX@XoX$.- s - - O o % s %.! ..&.0.2.X.X.1.$.X.2.@.2.$.@.@.1.0.2.! 3.1.o.O.X.+.U.K.2.N.r @ . X % ` _ cXQ _ ) t JXzXzX          ",
"                                                              tXk.y Q.Q.Q ` _ ,XuXe e ! %XI.U.%XU.P.!.T.E.E..XE..X.XOX.XXX4XXX@X4XoX4X4X2.%X6XQ.%X!.Q.3.g q r :.- %.=.:.h t j ! +.%X1.r X.2.L.U.E.3X$X.XR.!.I.O.6.@.@.$.@.oX@XXXoX$.s [ l ;.a.J *.M.#X,.....4.X.~ X.X.1.1.0.X.+.1.1.1.w.0.0.=.3.9.d ..X.I.I.4.<.r % X S y ) ` ` ^.e % b t JXzX            ",
"                                                                w X ;.N.Q !.` cX,X) % l 9.3.0.4.2.~ 2.1.L.K.T.E.E.E. X|.|. XXXXX@XW.J.@.y U.%X%X%XU.I.1.r = w G = [ :.=.j h j d d =.=.d z 3.@.P.R.!.E.W.K.Y.L.Y. X@.@.$.J.oXXXoXoXJ.f / J :.:.%.&.6.,.&.J &.X.1.@.X.1.~ X.2.&.! ! ! ~ X.2.0.X.3.9.y ~ ~ 1.&.j h t % t ^.e 5._ _ e e % X % PX              ",
"                                                                  + n t % _ Q _ /._ e O - j ..N.,XN.! ! P.U.@.P.R.R.J.J.Y.XXH. X@XXXXXXXO.,X XXX$X|.@.1.j = w t % / ,.%.s r - ~ +.X.w.1.r X.~ L.R.R.K.H.@.H.2.L.|.H.$.J.oXoXoXJ.oXJ.d h J %.h k k ! %...l ! X.w.1.+.<.1.&.! 3.~ d z X.1.0.0.X.1.N.d X.! 3.&.% O w y 5.K._ /.` ` e % JXC..                 ",
"                                                                  w q V r ) ! Q _ /.^.1 O * - ,.~.,.r <.I.R.^ L.U.H.J.R.XX X~ J.XXXX X|.2.%X$. X X X|.0.- % h y X j 9.Y.....0.#X|.J.L.Y.1.~ +.U.R.T.W.@.P.P.@.K.2.J.oX|.oXoXoXoXoXJ.d f >.J h 8 - h z ! ! :.&.1.#XQ.0.&.j ~ N.<.) <.2.I.%XI.~ 4.4.4.k.! t r % w e ` K.K.I.5.y % y t                       ",
"                                                                    Z G KXt b e !.,XvX^.t 8 - M.>Xh j ) K.K.+.2.K.I.R.R. XP.$.X.XX X$.w.#X|.@.L.Y.|.J.+.s % %.Q.r r 1.0.1.2.%X|.$.w.O.2.Y.@.K.Y.P.W.+.~ H.P.@.2.@.$.%XoXXXW.oXoXXXoXw.z l.J p u s s h J %.,.%.z z 3.%.j t S ~ _ @.K.2.L.Y.2.<.4.5.>X5.e % e y ) ) ^ K._ ^.y X X uXwX                      ",
"                                                                      dXp.2 b % ^.cX,XK.k.c :.AXk.Q ) _ _ _ Q ! _ K.cX%XL.2.@.2.%XY.d j &.) ) <.2.@.R.#X&.- w.>XO.z w.$.O.X.6.X.X.z - z o.$.+.$.P.P.K.^ L.U.W.H.O.@.|.$.J.$.).J.oX|.w./ f.G s p 8 8 V S -.j l s * } h g g S d 5.!.U.L.P.P.+.0.5.:.~.) t e Q _ ` ` ) ^.` y X X f.%                         ",
"                                                                        zX> W % uXcXuXK.5.y ) vX) y ) ) Q _ ! ! <.I.I.2.^ 2.2.2. XY.r r S j j ) y Q.+.L.&.d |.%X6.~ |.w.z z s - - * X s ..=.+.L.U. XY.H.R.R.Y.Y.z ! 6.O.] O.f a $.$.O.u u h 8 - * O 6 r t t J } i B q = = t y N.!.!.R.U.Q.<.&.5.:.:.t 2 Q _ _ _ ~ Q e k.( j..                             ",
"                                                                          yXn 6 hXcXcX6X,X_ _ vXG.2 e b y b Q G.K.^.k.) ~ 5.~ I.R.L.j w V t S ) j Q.<.) ( d #X&X=.z b.b.d h V 8 - B - r &.~ 2.R.J.T.P.P.!.R.<.X.! s k u u u - u $.$.9.s u h s u 7 O - Y N.~.~.( 5 3 A w V t r 4.,XL.J.2.1.~ y j j r e e ^._ /.K.e e e ~.% W zX                            ",
"                                                                            6 7 - ,X,XR./.K.Q j.G.w % W ) y b _ K.^._ ) y ~ X.Y.U.<.d = t w S k.y Q.5.! / d N.9.%.X s :.8 - g 7 q i.- * ' O.$.T.J.T.P.P.R.L.X.l u a k a u f f - (.(.6.s h k H k p - H f.~.Q.f.G 5 > Y z.G j J 3.Q.Y.+.1.5.) % e e e G.) _ K././.,Xy e k.yXS JX                            ",
"                                                                              + . e Q !././.y ( b G.b c G.b ) ^.^.^.! ~ ) Q d 2.I.<.r O % 2 t S t N.k./ S r h S h % J :.h * 7 $ q j.i - O.+.H.L.@.H.H.H.L.^ r - o u [ | v.'.&X(.(.#.O.u s [ ;.H p 7 h N.:X,X:.t = = ( N.:.:.N.Q.Y.0.+.../ t b e S ) G.Q _ _ _ /.,XN.X w h.wXpX                            ",
"                                                                                . @ % ~.~.!.!.~.W ^.k.` _ y S ~._ _ ~ ~ ) y ~ w.2.+.r = % e s y Q k.j y t 2 % 2 % % j f.t O = = 9 t.h k q.w.@.@.+.+.@.+.2.~ - - * 5 ' ] ] ] 6.O.$.w.7.z h -.} B q 8 [ M.>XN.h w = = j k.,.3.Q.Q.0.X.<.:.y 2 Q G.y _ _ e e Q ^./.N.hXt .     eX                            ",
"                                                                                j.= $ :X,X5.,X~.b ^.^.^.` b S ) k._ ^ ) ~ ! X.I.Y.X.s t t M.~.Q.k.5.~ j % 2 2 t t b W S V = % $ $ D F %._.Y.w.J.@.@.K.2.+.! w t p k k f ' k z s f ..f h g G S N A i } Q.>Xj.e w w t d 5.1.N.I.0.0.b.) e % e ) ^._ _ 4.~ e ) y j :.k.vX      A.                            ",
"                                                                                  p.o p - @ Q.c.2 ` ` ` y w y b Q Q _ ` ) 4.U.6XQ.1.j y t k.Q.Q.Q.2.5./ = 9 t Z A E ( j.-.h 7 * = 8 p l 1.$.L.J.@.@.+.@.~ ~ % = p p a * u 8 O * o s h s g V V N i 7 / A.~.) w q S / 3.k.) ) 0.2.9.c.- r w y ` K.^.` 5.^.b uXk.@ % vX        eX                            ",
"                                                                                  xXaXM $ O n.,.@ ~.cX6X^.y 2 e Q ) _ _ _ I.!.U.L.+.:.:./ Q.N.&.0.^ ) j % 6 t Z G ( / f.%.- O * - g * s ] O.$.@.+.~ X.~ ^ X.h J [ k k s h k s f u 6.>.k g h g N 0 i :.M.k.h = w Y ( k.5.~ e &.b.N.:.- % Q ^.5.Q Q k.! e X X W uXdXZXlX                                    ",
"                                                                                yXtX0XpXtXo A.iX% ,XvX!.!.K.w W ~ _ 5.` ~ 4.!.R.I._ :.:.% y j ) 3.) &./ w 2 t S S / ..:.l u u l k l ' >...O.L.Y.$.J.Y.$.L.Q.z h h k k h h G l *...=...u p w g t 8 U ,.:.G = = g G.k._ 5.:.y &.N.j * % % 3.4.U.^ e ) ,X:.% X S tXkXgXdX-X                                  ",
"                                                                                  pXaX0XaXV.[.x.= vXvXI.^.) % G.S y ) ) Q ^.K.5.I.! j / % t y ) ) y ) y 1 2 w - r %.=.O...f =.6.6.=.*.z s X.$.L.H.H.$.@.2.X.d l p p F h * - - u u %.%.- = 6 q A p m.b.9.:.- w V f.:.:.k._ ) 5.) w % 2 G.K._ /.3X5.^.N.=X:.o -XiXdXfXeX                                    ",
"                                                                                      aXqXxX{.x.- rXvX^._ ^.e k.k.e S Q ) K._ ) 5.) / / e j Q j Q S W S 2 % w = - ..#.$.$.] w.#.o.z z u f 1.0.2.@.$.@.H.I.2.X.J k u h k u - h a s ! l - = = q g F >Xb.=.h - - q p.Y n.j./ ~ N.5.% 2 ) Q _ _ K.^.^.vXvX:X:X=XrX;XeXiX-X                                    ",
"                                                                                    xXqXeXaXkX0Xk p F V ) ) w _ G.b e S ` k._ _ 5.Q S S ) 3.<.3._ _ k.( e S b % - d o.).).w.w.O.' f s - l ,.1.+.2.+.@.H.@.^ <.l 8 * h ,.*.k ' z ..=./ t - q p - a l.9.9./ h q i ;.i.D g % = ;.k.e S k.Q ` 5.!.^.e ~.ZXjX:X      ].                                        ",
"                                                                                    aXyXaX0XtXaXz.* # $ @ ~.y C._ ` y y W ^._ _ k.e % y 3.0.2.K.k.K.k._ j ) C.e s =.w.#.$.$.=...z f h r l %.z ! z ^ 2.4.2.<.! j r * [ 7.' f f f o.6.k F h 7 p a f [ f ' G g i N N i 0 6 # . g t Q ) K.` Q ~.:.Q y @ ~.ZX                                                  ",
"                                                                                    pXyXyXqX'.{.Z.k & # o S b _ ^.UX) e 2 y ) j ( Q r N.Q.@.K.P.U./.K.~ ~ 5.M.- h v.6.O.] ....l s k s k j h t r d &.2.<.+.<.&.j t g ;.- s [ 6.6.(.w.f h O u k k ' *.' >.-.B N q 9 6 n x c x A r ) k./.^.) ) t / F.% w                                                     ",
"                                                                                    pXpXyX{.aXaXaXeX{.} o $ % t ^.6X^.Q e S j / y S ) k.1.Y.U.P.H.^ _ y ) ) ;.X - b.#.O.z ' s l k l l l h 8 = = y ! ! ) +.) ) l - u s o u *.O.#.w.O.- l %.,.>.| %.7.[ h g i q 0 9 6 c c c W b % :.5.K._ N.e S h V t pX                                                    ",
"                                                                                        qX}.aXNXNXNXaX{.* O * h Q cX^._ b A w ) S :.:.&.Q U.R.P.^ ^ ^ ^ L.&.j O s &.*.o.l l l %.k j %.l s w o 8 g t ) ! ! d s s u f a O s *.O.w.w.w.1.q.#Xq.' ] 7.b.l.p 5 3 3 3 3 3 3 9 < 9 6 = t 5.S b 2 J h V N.kXlXnX                                                  ",
"                                                                                        0Xx.eXNX{.<X{.NX].{.p k 2 vXK._ Q t % b k.~.s - z 2.R.K.+.K.^.^.%XQ.N.s h l z ' ..s s j h %.%.f 8 p = F / J j j y h - f f v.} p f =.9.w.w.|.+.$.#.a * *.*.l s * $ 3 $ $ $ $ > > @ b q w r k.j w @ h.          lX                                                  ",
"                                                                              [         ;X| '.{.<X{.}.aXNXbXaX8.* >X) _ 5.Q e b S b t e <.P.K.K.H.K.Q.2.Q.&.:.- - j k s s - r s r %.o.s - h u j :./ S y e l z l k %.J s l 7.=...X.2.0.=.X.f o.*.' z s O * @ $ $ $ @ $ 7 8 H A g j 4.) b 3 S.                                                              ",
"                                                                              q.v.    <Xx.aX{.{.{.{.{.<XNXNXaX}.a k z y ` ` e W ( S X $ ! L.Y.U.@.2.2.~ ~ ! ( r = S H J l s l %.&.b.' - * u - k ! ) ~ ~ ) &.1.0.z l u u ' ,.z z ~ <.Q.0.%.z ] o.&...,.%.J Y ;.p 6 & & 8 Y - q S ) 4.Q ( n 0X        eX                                                    ",
"                                                      3 o 5 G               '.7.8.>X;Xx.' aXbXaX<X<X<XaXNXNX<X}.| a h y _ _ y b ) ( O X y :.,X,X! ! l ..d r / t V Z G Y / s r O d ,.o.f k l k r d ) 4._ 0.Q.&.&.z s u u ' ..s ! 4.5.<.I.&.- ..w.$.w.0.=.,.N.;.p $ O r k.S X h &.4.2.! j.B z.      ;X{.x.                                                  ",
"                                                    C.o o $ 7               [ | f NX  aX{.fXbXNXNX<X<XaXNXaXNX<X'.a # e _ K.e e ) _ t @ - y k.N.%.- s s - S F.t $ % = J f.%.h r - %.' z f [ d l y ) <.5.I.I.&.&.s k - - ' l l X.<.^ ~ ) ! % 1.w.I.b.6.d l ,.s g 6 S :.3.3.t j k.I.5.! k.N d.eX    {.d.                                                    ",
"                                                    a.# U V q               [.[         -XaXiX1XNX<X<X1XNX1XNX1X}. .* * ^._ t y ^.K.) w t t l :.J u k j j / -.t $ 6 % H :.J j - O =.=...l l s / ! &.2.<.) X.Q ~ s h * * l :.1.! ) ) ~ 4.! :.3.1.%.:.% % X r % 2 r ) <.N.3.d e k.K.~ ~ k.n d.-X                                                            ",
"                                                    g.i wX~.q B                         n.v.'.{.NXbXNX1XNX<XNXbXaX{.k F uX! 2 t _ ^.^._ t = t j h - 8 h h S t 2 w - - H ,.l s z - ..] l l / k ! ! <.4._ _ ) d ! r s u s ,.#XN.) _ _ 5.I.3.1.! / h h 2 2 2 t % t / y 5.4.:.e % N.Q.^ ^ 3.h } n.                                                            ",
"                                                    {.m h.P #                             {.<X).8.}.<X<X<X<X<X<XNXbXl.H Z.t @ A 2 k.5._ h D X w V w b t b % t - = = h ,.;.j k j s ..z z l %.z J ! 4.K.<.~ _ ) :.s k h J c.Q.&.% ~ 5.+.2.3...- t X $ 2 w c t % ;.N.d 1.&./ % t N.Q.~ @.I.s >.s                                                             ",
"                                                      m 5 5 :                             {.NX}.8.8.NXaX}.NX<X&X1XhX| * - 6 K P : S K._ j 6 2 t t t % w ) t r t O O k %.%.' ' ..z l - u - k h z ! 4.2._ _ 5._ ) j H k h %.%.r d ^.Q.I.2.X.d - = + > w 2 X X h :.&.) X ) f.S J M.Q.<.K.I.z x.a                                                             ",
"                                                      | pX0XMX                            '.NX<X'.a <XNX<X}.<X}.1X<Xf * & 5 A p 1 e _ ` y e e W t t b ) 5.` b W O O ' *.6.6.*.' O O u u f ..l ! ~ 0.K.<.5.5.<.k.d J h u k j % e 2.K.U.w.w.l t X O = q 8 O j f.,.t X X C { i p >.! 3.!.#X..Z.x.rX        kX                                                ",
"                                                    xX{.{.d.{.V.                          x.(.<X}.a }.NXNX<X8XNXNXNX| * 6 4 i 6 2 y ` _ k.) y ) ( S F.Q ` ) y b k %...=.6. .*.z f *. .] ..b.&...~ 1.1.~ ) 5.~ &.- h * o - u - ! K.~ @.X.&.h 8 w - S ;.%.l k.k.J 2 + + , 5 # o 5 % 3.^.Q.J S.g.g.      eXxX                                                ",
"                                                  aX-XaX{.m v 5                           ].`.<Xk * a }.GX8X<X}.<XNX{.a & 9 3 @ 6 y Q _ /.` y S t j.k.b ` ` S y h *.=.6.o...l u ' ] f f f ..%.z z X.2.4.4.5.<.:.r - * . - l z <.4.X.z s - 7 2 t S t %.9.3.:.h % + ; : : v < + # O 3.~.Q.F N 4 o eX    eXkX{                                               ",
"                                                {.x.} } P 5 v M                         MXAX;Xk a o a aXGXbXNX&X}.>Xx.k & w 6 + 9 t e ^._ ` ^._ e b ) y W ) ) ) ' ..$.#.6.] l u ..=...] f l z u z 0.0.0.I.N.4.! - h [ . [ ' X.9.&.3.h g & & 2 / e d 1.9.c.s X > # 1 1 4 : 5 # : $ a.=XM.p 0 m . eXeXaX;XlXwX                                              ",
"                                                          | M 0X              F F J x.z.iXAXeXa o * k AX . .NXNXbXNX<Xk . $ $ & F.V y Q.^ K._ 5.j h % % b y ) 3.' f O.w.*.f s l 6.w.#.| s s s * f &.&.! 3.3.4.=.d %.s s %...,.=.l / w 9 w @ % :.) ~ 2.3.J . @ + > ; 1 1 < < : < O Y A.A.t.: v 5 pXiXaX{.jXyXp                                             ",
"                                                          M M 0X            & 7 & 7 C P -.AXaXa o o {.| * {.NX8X<X<Xv.a o X - f.p 8 j k._ ~ y ( ) ) j - w y 3.>Xo.f ] b.*.u * u =.6.] u u O u k h l ! ! z ! =.X.=.! - %.! f :.s - h I 6 b t t :.1.<.3./ w . ; 1 1 ; 1 1 , : : 3 5 i p i m 5 v : xXaXaXeXlXtXo #                                           ",
"                                                          5 5 V.            i n 9 m V.V.} -XrXk & & a a 5 '.'.NX<X&Xf.p . O 8.&X%.* t t & O * 7 h M.M.r X t 3.AX..u u [ ' - - k u ' f - u - * l s t r - % d ..X.o.% s %.[ 8 t $ @ 2 6 ;.a.r j 3.1.3.&.w + . @ : 1 : > : : : < # 7 & * 5 5 v c 5 kXpXfXfXkX[.# # D.                                        ",
"                                                          * 5 V.            n 0 & m D.P = - [ i 3 & 5 m m k  .<XNXNX{.B 8 u }.1Xx.u & > : # # 3 a ].c.X . - k.M.l * f [ f o u k l ,.>.B g * * - J 8 w % = j ] q.w.....l h = $ 2 @ % n.%.l r %.N.! &.-.. + @ : : : : : < > : > $ * 5 i P M m 5 n kXfXnXfXxXg.. 5 g.i                                       ",
"                                                          m o V.            n 0 = ;.mXn.O X = Z N w 9 q o * 8.GX<X}.aXg o [ 8X&Xf * & $ m c v v a `.}...- ! >.l.] u a ' q.u u k [ >.l.Y V % = g 8 Y S t S ! =.o...z l k t $ = $ w / :.=.! l / f.& S U $ + > 1 , : : : @ 4 @ $ $ o f.m.P p P m M kXlXjXjXpXM * y.y.0 {.jX                                  ",
"                                                          A . g.  bX        q i w n.KX    E t.n c c @ w ' &XNX(.f a } p * } }. .u 5 p 5 M r.y.P 0 | q.q.q.#X..' ' * u o.'.6.u l k >.a.k 8 = - h h Y t t t :.%.o.' ] ' a = = $ % d ! <.&.j h O & . $ b @ @ > 1 : : # : : $ . @ 7 7 a.[ h n.iXn M kXMX].yXjX{ M HXV.p 0X                                    ",
"                                                          m . V.    lXnX    x A 9 q       yXg.v c b 2 h }.NXGX8X .* m i # o a a o = 5 5 c M r.u.& * s 6.#.w.o.'  .a o._.6.u u l z %.' h - i g h h -.b t h ;.....' z k h = X % l &.! =.! X . . @ + @ b 1 + + ; : : : # 6 w 3 $ V . o - `.fXl.* t.mXiXm C m v P qXy.p aX                                    ",
"                                                          K + y.            9 K c P       0Xc , K Z A ;.<X&XBXbX8.p p 0 $ * F | * 8 5 4 c M r.M i - o =.O.(.o.' | 6.q. .f f ..] f f [ ' * - g h s k.b r S / ' ' ] z J 7 $ O - k.%.X.,.j . + @ + ; + q ; > ; > > # # : 9 $ $ 6 f.. . u `.'.m.p B.pX} p 5 < y.y.u.5 *                                       ",
"                                                          z.+ V.jX    Z.Z.S.c K c p.      D.W 9 Z b t A.:X*.v.u * 7 N w 5 F k h - 7 m c M M M n 5 5 = J o.' ] s  .q.).(.oX8X(.). .#.*.l * * * o X k.b % y J z ' z ' J = $ = r Q...&.Y O + + + @ 2 2 > @ > # > : : $ # 3 o i 8 a.+ o F 1X<XiXU t.c 4 5 : v v M t.5 p MX                                    ",
"                                                            : 0XHXMXkXlXfXtXm P c e.          A 2 t = U [ u u * & 3 7 6 7 B h V D F A n 0 c m i 3 $ & p f u f ' 6. .O.).(.oX(.#. .). .a * k [ - h f.S % j l k l l %.V 6 9 6 S 9.! / t . : + 1 ; > > 9 + 6 9 # @ # # 3 7 . B J Y + + f.rXl.[ n m M M e.c 5 < < 4 5 | MXJXMX                                ",
"                                                          yX, V.MXaX| d.tXtXx L c e.          t.& 6 O w = - 7 O 3 0 c > w 8 g q 0 c n m 5 m i m 0 5 O h l.l k >.' f ] 8.).oX).).).).oX).O.(.q.=.l f.S e h k s ' ' %.w 6 9 6 %.:.J - 6 + < : @ 9 9 b E 6 p.i # @ # $ o 3 O U H G > : z.S.P 3 : < v u.M 5 5 : : m 5 g.MXHXMX                                ",
"                                                        mXxX< xXHXfXP S.kXkXc K c p.          B.$ w A Z g & 6 0 x A c 9 D B B L L m m n 4 4 5 C B p * ;.c.' f k 8.|  .q.(.$.#.).).oXoX&X).(.o.*.S S t % g h h f s k O 2 < & h h - = + + + + + 6 6 q E q R = # # @ > 3 o . g h 8 # + D F n 5 : c v M v , 5 : < m 5 P {.V.x.                                ",
"                                                  B D V.xX0X< D.mXxXV.0XzXkX0 n 0 i.          C.$ Z W Z i 8 N n x c 9 6 q A C n x x 0 0 + 5 p m H a k [ *.k * k l.| ' v...o o ] ] ).(.).).6.7.J h 8 w t g u k u h t $ 3 & w h a.. i q 6 A + 7 F } i g p m p p $ @ ; x # O [ p 7 & 6 b ; + + 9 4 : < < < 5 : : 5 0 c 3 7 B                                 ",
"                                                  3 $ n r.M v t.{.[.V.u.pXjX3 c 3 p.          D.. 6 9 q 8 8 D B b 9 6 > 3 c e.P m m m C c i 5 * a * * ' [ f a k k u a 7.f.s f ' #.).(.(.#.o.] h = - w t g h h h - = $ @ q V 8 8 = h.p.p 7 p G i i H 7 & p F B o $ . c . * g O & @ 6 c v 1 1 + c P < : < 5 : : 5 n m 4 : 3 6                               ",
"                                                  q 7 m V.e.c B.i.} i m { F o 6 $ s.zX      xXg.w 6 & 3 $ & & & & $ > + @ @ c n A C Z C 0 & p | |  .' ' ' ' F u o u *._.l o h ..q._.6... .,.J & % w w w g h k V 7 6 O w t t X > 6 7 { i.o g V i 7 & o . & p 5 O @ @ 0 * * 7 $ $ + + v v < ; : n M 7 3 : : < 5 : v c v 4 > 7                               ",
"                                              * * = 7 B L r.A N n B L L B i w 8 $ V { i.p.p.W $ & 7 $ $ o * * a k l * p $ 6 9 6 9 0 6 & & o a 8.}.#.8.8.*.| k o u ' 6.=.l * k ' %.] u f ' k h O 8 6 & * = h V 7 & % O ( S t + + $ 6 g w o * = > $ $ @ . . # O o $ $ & o O @ + > & < c K c 1 9 e.C # # 3 < : : v v M < 1 > }                               ",
"                                          p a 7.] u * p g N q w * 8 t A D i q = $ g h h h h h q 7 7 6 6 * f a f 6.8.' *.O = w $ c 2 . * * a ).).(.).]  .*. .' * o.<X_.*.%.s l k f - * f s o u t = $ $ O - 8 q O - t ( ( t # $ 6 = $ $ o . 6 6 > 9 6 2 @ $ $ # 7 6 # & = 7 9 3 6 & $ 1 < v ; < p.e.9 3 # < < < < v v v , & wX[.                            ",
"                                      3 > u s *.*.] k k p 8 * O O O t 8 N w q 8 & = * - - V h * O 8 $ [ 7.o.f #.q.#.] f * O O w t.5 . * 8. .).).).8.o.* ' v.`.' q.&X6.*.6.s k k - s ..c.u h l.f.g = % O 8 - = - ) :.) S > @ + $ 3 6 3 # $ + $ + > $ > + + $ 7 p w 3 F { @ > > > @ $ @ 4 c v A u.e.c : : < < 9 4 v v c v m D.h.                            ",
"                                    & > < & * '  .k k * = = 8 B h t 8 8 0 7 & = - g 8 O & h p O V k - ' v.q.).#.).8.#.q.=.- X 2 t.p a x.).).oX8X).#.#.] f p u a o.6.] z ' f s %...=.9.' u [ l f J t $ & w = s &.&.&.t 2 . + + o $ 3 3 9 x 7 w 3 w 9 A q # 7 8 * # # 5 5 $ > 1 > # # # : 9 w < c < : # > 3 : > 9 4 4 x c M M 5 :                           ",
"                                  = u p * o o k [ ] ' p 7 t F k j.V 6 6 O # * * - f f - s k h & H J J k f f 8.] f  .] O.q.v.t 9 L | >.8. .] ).7X8X(.q.s * [ 7.f o.6.%.z 7.[ s k s z #X9.u ' l k h - 2 w = - %.3.N.! % $ + $ $ o + $ 6 9 > 3 5 & 5 6 5 & . 7 u O o * i & # 2 > # # + $ o * * $ O $ 5 + < 5 @ > > < 3 # A P g.m 5                           ",
"                                p - ' | [ * & B | p 7 5 5 6 7 7 g i 9 $ o * * u &XoX).#.(.' u = 7 * h 7 o O s u *  .6.8.#.o.7 c p.Z.*.q.(.#.] w.|.#.o.u k >.%.u ] ..' l [ %.k u u - l [ s ' 7.%.H = @ = = :.3.3.3.y . @ . $ . O O = $ 3 + $ 7 k s.w 3 O * ;.,.a * 3 # : # > # + & p * a a k a k m * # + > # $ . 5 o 5 P 5 B.} a |                         ",
"                              5 o -  .*.*.u . 5 F p 5 & & & = 7 - 7 $ & * a 8.#.).).).). .* u k * - k d.-.6 i = u {.&X}.q.6.o = 7 p k 8.(.w.(.&X#Xq.' s l >.*.* - =.7.s - h F j - -.h p g h u %.H = @ % p ;.,.! J - O O @ $ O o h n.= w $ o 7 i.p.$ $ 7 i [ >.>.5 # # : o $ . 3 i k ' a a ] 8.| a o > 3 @ & a | 8. .p o 5 C.| | aX                        ",
"                              5 . o 8. .| k . o 5 & p m * a h k = - * s 8.(.#X#.#.&X8X).).).).#.#.}.&X}.| 5 q g k v.=X'.f ' m.k 7 h g *.'.6.}.&X8.q.f ' ] %.h o ..<Xv.s - - w w V 2 @ w g h - %.G 2 $ @ g H %.- * = 7 $ $ $ $ O ,.`.l O O $ * -.F + @ 3 7 o p p $ # + > # & > & * a f k a a ] k 5 3 : < * a ).(.}.}.k o 5 e.d.0 3 *                       ",
"                            : : 4 p H [ k = . # # # $ p >._.7.a u ' f q.}.#XoX).] ).oXoXoXoX).oX8X&X}.(.' o h } l * * f a q.`.s u B C H x. .q.'.(.8.' h - h h - ' v.%.h p 8 w @ 2 > @ 9 7 8 / J h X @ $ 8 H p & = = N & @ $ 3 . 6.`.*.o * $ * 7 7 O . 7 i.* & 0 3 # # > # 3 3 0 5 B a a a ] f k 5 $ < 5 * | 8.}.).8.a # : 9 n . o #                       ",
"                          O & < 9 n w = = > $ # # o o | q.(.#.8.] $.q.&X(.#.#.]  .#.).).).#.$.).).).).(.(.] #.<X>X- * f f &X_.f u P P t.h [ ,.l.d.k H g O g g = % 8 - O 2 b < < > 2 + 2 6 g :.l g O @ & O & = * & 7 7 @ @ @ > O ).}.(.f o O . O p * . B F & 3 : > # # # : > $ Z o = & & = * * $ : < : : * * a | | ] o : : < c # o p M                     ",
"                        = o > > 4 c 9 w > > $ : # o * v.(.(.(.oX).).(.(.O.]  .).).).).$.).).oX#.$.).$.).).).).NX'.' 9.9. .w.o.' k } t.A 8 g B V 7 7 q t 3 6 = % $ % w 8 b b v 2 1 1 @ @ @ S f./ S % O % O $ $ o o o = @ $ O 2 * '.&X(.).o o . o c.a . h B o # : $ # 3 $ $ $ 3 U 6 @ @ $ @ # > : > < : : : # . . o o # # 5 5 c . * V.Z.                    ",
"                    *.>.h * $ 6 3 9 2 9 6 > 6 > : # o ' q.#.).).).).O.* a #.oX).#.#.#.#.|.}.&XO.] #.]  . .#.).(...z *. .8.). .a u { A 9 7 6 b 9 3 9 9 6 & 2 & 2 9 % % 2 b < 2 1 @ 2 > X O J :.j y r % = o * . o * [ Z 2 @ $ $ * *.&X(.(.f o . O v.f ' >.h O o * # # & $ & # 6 L 9 ; ; > # # # : : @ # # # # # + # + + # : , 4 # F {.{.[                   ",
"              o s =.#.o.%.u O 6 & 6 2 9 6 6 6 3 3 # o a ]  .).).#.).). .}.(.(.).#. .).$.).#.(.] ] f *  .a ] a a u a ] ] #.8.f f * 8 q > 6 6 9 c c 9 ; 2 3 > > @ @ @ & 2 W 1 < @ + ; 2 . h c.&.&./ J * * o o * * %.x.g $ @ $ $ * a &X(.oX(.* * l '.&X] * u k * o * * # $ $ @ 3 A 4 < 1 1 1 # # , : : : # : : 1 ; ; 3 + : : : 5 * y.tX{.k [                 ",
"      A a.h X . 8.(.).(.6.f . @ & = $ 2 % 9 w 6 n $ o a  .}.).}.).oX).#.(.).o.] a  . . .a ] f ] ).O.] a * a }.#.}.#. .| a  .8.a * p i 3 $ w w 9 w 2 > 2 2 < 9 b 9 @ n V B q @ > # + > . = l =.q.O...] u * a a a 8.a a * o * o o * }.oX).).(.).(.#X#. .).}.(.a o . . . O % o O 0 # : v v : : < < 1 ; ; @ # : > ; > > > < ; 0 P 5 | V.z.p p                 ",
"  - = V dXh - o #.oXoX).o.u O O o + X O X g N & & $ 5 a (.<X). .).oX#.$.).] ] ]  .a ] a * * ] }.<X] ] [ | 8.&X . .8.(. .a 8.#.<X>.H g - - 8 6 6 2 & > > 2 w e.g.w q ;.F p g @ : > > @ O t :.=.O...] ] >.| 8.8.8.| ] k F * * o o * 8.).).#.#.).).). .#.).). . .a * k u - * o 7 = $ 3 < < 5 : v < 1 1 ; > ; + ; : > ; ; + < 4 A L B.g.5 o o o               ",
"$ 2 . Z Z.[ ). .#.).(.|.6.s & @ ; ; 6 S ,.;X[.& > @ + a 8.).o.] #.).).). . . .k a ] (.] * * a 8.#.] ] | x.a u * a  . .a * a 8. .] [ l k [ >.h O X & @ 6 9 t A R L i.} g - Z N > > 2 X = / ,.z l f 6.x.f | 8.8.). .a  .| | | a * a #.).oX).).).8.8. .).8. . .] *. . .8.8.u ' k 7 o 3 v c v < < < 1 ; > ; ; > > : : : < : c # + # & 3 . > o # 5             ",
"- - & - k  .(.oX).(.&X&X=.k g < ; j.-XeX;XnXdXp $ > : p |  .] ]  .#.(.).). .f a * | '.*.a ] #.|.8.(. .x.k a * i | | | F o a | a | x.7.6.7.,.*.l s - O w N 9 q T p.R D V 7 V Z 2 $ w = h / l s - k u * o * a 8.}.8.f a  . .(.8.8.#.(.8X).).#.#.#.8. .8.).8.).a #.8.8.).). .| f h o 5 5 v 4 < < < < > ; @ @ : + ; : : : 9 x < > @ 3 : + > + : F.            ",
"6.*.* * a q.&X&X#.O.6.o.a p A w ; h.{.yX{.{.{.p o 2 $ = | k a k f 8.(.).).] u * * * ]  .]  .8.oXo.f * h u 7 p H } x.k p o M * 5 k 8.8.6.1.6...! l ] l j t o > 9 9 0 3 & 3 q w w b j S g t 8 % O * 8 h O O - k ' * a  .8.).).).).).#.$.#.&X}.] ' a a k ' | ' a k | '.(. .| 8.u u 3 < c c v 5 < > ; @ # + @ > : # : ; 4 9 9 4 > < < < < > : : K v           ",
"(.o. .| 8.&X8X).u o * * - i N 9 9 c B.x.x.{.d.5 @ @ @ = p u p - a ] 8.8.| a * * & u a f ]  .#. .f u - u u * 6 7 n p 5 5 3 0 5 o - ' q...z z f ] O.....[ p = 6 < 4 4 9 3 # @ 8 h j j r 2 O O % - 8 = t w O & u f | ).8. . .).).).).#.]  .).#.- - 5 a u k F } * p * * * * a * a 5 5 0 c 9 4 4 2 ; < @ # # + # > # : > < < 4 1 > < > 1 > ; ; , M , ;         ",
").}.).#.).).).).f ] =.u p q $ @ + $ $ o a * 5 o & $ O 3 $ $ 3 i * a *.f s O o o o $ * k f  . . .] 8.] f p * 7 3 # 3 & > 3 # 3 # & | `.s ..d ..O.O.O...f g = 3 3 > > 3 > + . w j y r X @ O O @ O O O O & X . f (.(.).] ] ).).8. .).).).).).8.' o * 3 * p d.p 7 = * * * s * | | ' # # c v 1 > 2 > @ + @ $ @ @ $ ; ; > + ; : + ; ; + > ; @ ; + v , + >       ",
"8.a  .).).).oX).(.(.>X- * # # . @ O # # M # 5 * $ = @ O . > # 3 $ g * o X + . o + . . o  .#. .#. .#.| ] u u # 5 # $ > 3 > # # $ o h s - ! ' O.] o.....l - = $ @ # o + > @ O = t j r $ % @ @ $ + X O + + O . o.(.).).a  .}.).]  . .).8.).#.o.J O 3 # # 5 p 7 & 7 5 u F f.* ' | a 5 3 4 5 > ; ; @ # @ @ @ @ # : > @ 1 ; > > + + + + + + + @ @ @ ; > > #     ",
"a * u ).).).oX).(.(._.o . + + ; # # # 7 B + $ $ $ = $ o = $ O $ & = G * & O $ o . @ @ 7 ' ] ]  . . . .' ' [ + @ 9 # 2 > $ $ > $ > @ . - / l ' ..' ' ..J q 8 $ @ @ . O @ $ & 2 t w % O . . X O X X X O @ O O o.&X(.#.' k >.' s u - s f 9.' %.[ % = $ O $ * $ = 7 & 7 k J p B k h & 5 > ; @ $ @ @ . # $ @ @ @ + + + + ; @ + @ ; + @ + + @ @ @ . @ + > # T   ",
"* o [ o.).).(.(.q.8.F * o + # # + : 3 3 i $ o @ $ o & O * o o o . o & O $ o $ o + @ X O ' |  .| ] ] ] k u * & @ $ > 2 > @ + X @ 9 9 . $ h h l h h l h - w % = O @ & = 2 $ O X = . . @ = & = $ O $ @ O $ O u '.}.q.f s - - - * $ O O - - - s = 2 O O & % = & 7 7 7 i D G p k p p & > @ + # @ $ . @ @ @ . . . + + + + $ > b 6 . X @ $ + . + @ @ $ 3 > #     ",
"s s :.7.&Xo.z - * - $ + o 0 7 & O & & = & . o . . . . . . . O o . . o O O O O O . @ O % k k p u u - 5 p - 6 & 6 % $ $ X @ O 2 $ 2 2 > 6 2 2 = 2 6 6 6 % w 2 $ 2 $ @ % @ O @ X O X X X X X X X . X X X $ = h #X&X7.u p - O O O - h h h - s - g & X X O $ = O & = * g V V F k G - & @ + + . . X X . . X . . . . . . . + 2 t.@ @ O X X . X O @ $ o & # $     ",
":XA.J s - X O X X 6 ; + C.ZX                                              zXkXpX-X= X $ & & o o # O o & & $ % b 6 t q b A Z G W I I Z W Z Z W I E E A W W E E R G.j.h.                                    gX1XsX* . X % O O % X O - 8 h %.t t t 8 q g N A V g t % * - = & % = O w & D.S.wXS.D.D.C.Z.D.D.S.S.wXwXtXtXjXjXwXA . . X . . . . . . . & o p     ",
"                                                                                    Z.n.a.F V D D Z x q 7 i B U C.zXzX                                                                                                        A.M.n.N.a.;.l g J G ( J S S h g t % = % 8 8 t 8 t t q -X                                                    s.h.D.C.        ",
"                                                                                    } } } U H { -.{ p.g.B.h.S.U C.                                                                                                                                                                                                                                        ",
"                                                                                        C F D Y R { t.t.t.g.}                                                                                                                                                                                                                                             "
};
