/* XPM */
static char *out[] = {
/* columns rows colors chars-per-pixel */
"344 959 256 2 ",
"   c None",
".  c #020404",
"X  c #040A04",
"o  c #0A0B05",
"O  c #04050B",
"+  c #09060C",
"@  c #050A0B",
"#  c #0A0B0C",
"$  c #0A0505",
"%  c #120C0A",
"&  c #0B1304",
"*  c #0D120C",
"=  c #091805",
"-  c #12130D",
";  c #141B0C",
":  c #161A07",
">  c #040513",
",  c #060A13",
"<  c #0B0C13",
"1  c #06091A",
"2  c #0B0D1A",
"3  c #070617",
"4  c #110D13",
"5  c #130E19",
"6  c #0D1213",
"7  c #0D121B",
"8  c #0C1817",
"9  c #121314",
"0  c #141A14",
"q  c #1A1C14",
"w  c #13141B",
"e  c #151A1B",
"r  c #1A1C1C",
"t  c #1A1518",
"y  c #231C19",
"u  c #26190D",
"i  c #182607",
"p  c #1B3503",
"a  c #1C2314",
"s  c #1C221C",
"d  c #192618",
"f  c #132B0C",
"g  c #242A0A",
"h  c #273807",
"j  c #22241C",
"k  c #242B1C",
"l  c #272917",
"z  c #293618",
"x  c #35391A",
"c  c #342F14",
"v  c #090B23",
"b  c #0D1323",
"n  c #131523",
"m  c #151B23",
"M  c #1B1D22",
"N  c #181A29",
"B  c #0F132F",
"V  c #291C26",
"C  c #1D2323",
"Z  c #1D232A",
"A  c #1A2725",
"S  c #1C2930",
"D  c #222424",
"F  c #242B24",
"G  c #2A2C24",
"H  c #23252A",
"J  c #252B2B",
"K  c #2B2D2C",
"L  c #2A2626",
"P  c #342B28",
"I  c #2C3324",
"U  c #2C332C",
"Y  c #293727",
"T  c #32342C",
"R  c #343B2C",
"E  c #373927",
"W  c #282B33",
"Q  c #2C3333",
"!  c #2C3737",
"~  c #323533",
"^  c #343B34",
"/  c #3B3C34",
"(  c #343B3B",
")  c #3B3D3C",
"_  c #353638",
"`  c #352C33",
"'  c #463A29",
"]  c #453B35",
"[  c #4D3430",
"{  c #49361D",
"}  c #2A4505",
"|  c #354907",
" . c #385607",
".. c #2C4417",
"X. c #374718",
"o. c #3B5617",
"O. c #2C5308",
"+. c #3A680C",
"@. c #384628",
"#. c #3C5426",
"$. c #3C4334",
"%. c #3C433C",
"&. c #394738",
"*. c #33492F",
"=. c #31561A",
"-. c #444A1A",
";. c #455819",
":. c #48570B",
">. c #486607",
",. c #4A6718",
"<. c #546A19",
"1. c #56730F",
"2. c #657B13",
"3. c #464829",
"4. c #475728",
"5. c #43443C",
"6. c #444B3C",
"7. c #4B4C3C",
"8. c #464735",
"9. c #544A38",
"0. c #4C533C",
"q. c #485636",
"w. c #56573A",
"e. c #54512A",
"r. c #655536",
"t. c #4B6527",
"y. c #566928",
"u. c #5A7627",
"i. c #576738",
"p. c #546E35",
"a. c #647A28",
"s. c #667838",
"d. c #6B6C37",
"f. c #65510D",
"g. c #373C43",
"h. c #2C3743",
"j. c #192643",
"k. c #3C4342",
"l. c #3A4847",
"z. c #3A4D4D",
"x. c #434543",
"c. c #444B43",
"v. c #4B4C43",
"b. c #474B4A",
"n. c #4C5344",
"m. c #4C534B",
"M. c #485647",
"N. c #535444",
"B. c #545B44",
"V. c #53554B",
"C. c #545B4C",
"Z. c #5B5C4B",
"A. c #5B5945",
"S. c #4B5654",
"D. c #545B53",
"F. c #5A5D53",
"G. c #565957",
"H. c #4F4D4B",
"J. c #635B49",
"K. c #665B52",
"L. c #5C634C",
"P. c #596647",
"I. c #5C6354",
"U. c #5C635B",
"Y. c #586656",
"T. c #566E4B",
"R. c #65674A",
"E. c #677648",
"W. c #656958",
"Q. c #697558",
"!. c #767859",
"~. c #75714C",
"^. c #5C6664",
"/. c #596C68",
"(. c #666B66",
"). c #6B7467",
"_. c #757968",
"`. c #6C7574",
"'. c #767A76",
"]. c #6E6C6D",
"[. c #575D63",
"{. c #423E44",
"}. c #887852",
"|. c #857C6A",
" X c #846F2C",
".X c #6F8D16",
"XX c #789627",
"oX c #6F8931",
"OX c #648E20",
"+X c #768748",
"@X c #778658",
"#X c #738D4E",
"$X c #798568",
"%X c #7B8577",
"&X c #768D67",
"*X c #7EA353",
"=X c #85982F",
"-X c #90AD2F",
";X c #92AB24",
":X c #ACC938",
">X c #9BC431",
",X c #8A9053",
"<X c #92AC4F",
"1X c #A7B54F",
"2X c #858869",
"3X c #889668",
"4X c #969769",
"5X c #868A78",
"6X c #8A9579",
"7X c #95987A",
"8X c #948B6E",
"9X c #99A678",
"0X c #94A96B",
"qX c #AAAD73",
"wX c #A79665",
"eX c #B2CD4C",
"rX c #AFCB64",
"tX c #C9E05D",
"yX c #C3C15E",
"uX c #777D83",
"iX c #7B8785",
"pX c #7884A0",
"aX c #868A86",
"sX c #8B9488",
"dX c #959987",
"fX c #8C9694",
"gX c #959A96",
"hX c #908C8A",
"jX c #9AA487",
"kX c #9BA498",
"lX c #92A78E",
"zX c #A5A989",
"xX c #A5A996",
"cX c #ABB497",
"vX c #B5B999",
"bX c #AFB489",
"nX c #9BA6A5",
"mX c #A6ABA7",
"MX c #ABB5A8",
"NX c #B5BAA7",
"BX c #B6BBB6",
"VX c #ABB5B2",
"CX c #9E9B91",
"ZX c #C5B99E",
"AX c #B7C591",
"SX c #BAC4B7",
"DX c #BAC2A8",
"FX c #C6CBB5",
"GX c #CDD3BA",
"HX c #D4D7BA",
"JX c #C9CAA9",
"KX c #CED498",
"LX c #CFD3C8",
"PX c #EAECD5",
"IX c #E8EDDC",
"UX c #B9C0C4",
/* pixels */
"                                                                                                                                                                                                                                                                                                                                                                                                                                                                                                                                                                                                                                                                                                                ",
"                                                                                                                5X%X5X%X%X%X_.).Q.W.U.Y.I.C.          sXBX                                                                                                                                                                                                                                                                                                                                                                                                                                                                                                                                                      ",
"                                                                    gXsXaX).- ; & 0 G R $.5./ $.5.5.$.$.R $.$.R $./ $./ c.%.6.&.6.$.@.Y G Y j R R n.  ^ U W.                                                                                                                                                                                                                                                                                                                                                                                                                                                                                                                                                    ",
"                                                    _.F.).V.k j k G E R $.n.E j & k / 6.v.n.7.7.7.6.8.8.v.n.F.N.C.C.Z.F.C.(.c.6.c.M.R $.v.6.c.5.I T v.x.q j                                                                                                                                                                                                                                                                                                                                                                                                                                                                                                                                                     ",
"                                          Q.C.P.6.6.8.E 8.Z.E R z $.N.F.I.m.$.*.I Z.$XW._.%X%X_.!.).!.(._.Q.W.!.(.W.Z.J.'.W.c.W.Q.I.Y P.Y.V.W.K.5Xv.G D 6 9 -                                                                                                                                                                                                                                                                                                                                                                                                                                                                                                                                                   ",
"                                      @.P.n.P.M.@.$.3.0.0.B.0.0.W.Q._.2X5X$X$X6XM._.$X5X$X$X2X$X$X_._.!._.!.8XhX7X7X7X5X6X%X6X5XdXjXjX7X5X6X6X7X5X5XW.T e 9 ;                                                                                                                                                                                                                                                                                                                                                                                                                                                                                                                                                   ",
"                                  ).J F &.8.P.P.0.5X7XvXDXJXFXFXGXGXHXLXGXHXHXHXLXHXGXFXFXGXFXFXFXDXFXFXZXJXZXNXZXZXNXvXcXcXvXcXvXJXDXJXvXzXvXzX8XxXhX/ s t * kX            $XB.E h   3X                                                                                                                                                                                                                                                                                                                                                                                                                                                                                                                        ",
"                                `.K 0 d q.P.cXbXJXFXHXHXHXHXHXHXHXHXGXHXGXGXHXHXHXGXGXHXGXGXFXFXFXFXFXFXGXHXHXHXZXJXvXzXbXzXcXzXjXDXbXjX7X8X9XzXzXxXxX7.D K a N.I.n.M.&.Y s j i g P.3X<X,X+X                                                                                                                                                                                                                                                                                                                                                                                                                                                                                                                    ",
"                            kXsX%.s s ^ 7X$XbXJXHXHXHXHXHXHXHXHXHXGXHXHXLXHXHXHXGXHXHXGXGXGXGXGXGXGXGXGXHXHXHXLX~.ZXzX9X8X,X_.!.P.7X8X7X7X7X9X9X8X7XdXA./ W.n.0.&.@.*.Y Y s a l & s.+X*X,XoXp.                                                                                                                                                                                                                                                                                                                                                                                                                                                                                                                  ",
"                        = a v.dXm.I R 5XjX!._.LXHXGXHXLXHXHXHXJXHXHXHXGXGXHXGXGXHXLXLXFXGXFXFXFXGXFXGXFXGXLXHXZXQ.vXzXzXzXzXqXzX!.7XzXzXzX7X7X7X7X7X2XA.A.W.dXDXNXkXfXiX`.Y A n.i.,X,X<X=Xa.4.P.P.Y.W.Q.Q.W.Y.T.6.Y *.                                                                                                                                                                                                                                                                                                                                                                                                                                                                                          ",
"                        ; a / jX%X0.@.$XW.Q.J.FXHXJXDXJXLXJXHXZXGXFXFXGXLXLXHXLXGXGXGXDXGXGXGXGXGXGXGXGXGXGXHXNX9XHXZXvXzXqXbXzXzX7XCXjXjX9X3X9X6X6X2XP.R.Q.5XDXSXDXMXMXkX/./.&X3X4XqX1X1X0X0X4.x @.&.@.&.&.$.$.*.*.f                                                                                                                                                                                                                                                                                                                                                                                                                                                                                           ",
"                        s 0 U M.n.8.P._.!.Q.!.HXLXZXxXxXCXNXxXdX7XDXDXFXcXDXHXHXHXFXDX$XGXGXGXGXLXGXGXGXHXGXLXvXzXJXAXbXbXbXzXzXzXzXqXzXzXjX7XjX7X2X2XZ.L.W.W.FXGXSXSXSXSX%XP.&XJXrXyXrXyXrXbXz R N.%.c.C.L.R.W.D.P.Y                                                                                                                                                                                                                                                                                                                                                                                                                                                                                           ",
"                        J s s 6.W.L._.jX7X!.6XLXLXFXvXNXzXFXHXGXvXHXPXSXcXvXNXDXFXGXDXcXHXLXGXHXHXGXHXGXLXGXHXvX7XDXbXbXzXzXjX7XbXbXxXbXbXcXjXzX7X6XjXL.W.L.R.LXLXGXSXGXSX%X).9XHXKXKXtXKXyXbXq.M.c.C d 0 q : q j l @.                                                                                                                                                                                                                                                                                                                                                                                                                                                                                          ",
"                  fX'.m.A k n.B.W.P.$XcXAX!.vXPXLXDXHXHXJXJXHXHXbXHXHXFXJXDXFXGXDXDXcXcXFXNXFXLXHXLXGXLXGXFXLXcX7XvXjXjX7X6X6X3X7X6X7XdX6XjX6X3X$XQ.sXL.T.M.P.LXGXGXGXSXDXlXQ.lXKXKXKXyXtXrXbX@XU.dX(.%.I k k j ; 0 d                                                                                                                                                                                                                                                                                                                                                                                                                                                                                           ",
"            X X 0 w e F Y R C.I.L.Q.6XDXJXzXJXHXHXHXJXGXHXJXJXHX9XvXFXvXcXxXjXzXdXcXcXcX_._.6XcXcXcXcXMXcXxXxXsXdXdX5X&X$X$X_.).$X$X5X6X&X6X%X&X&X$X%X*.&.L.W.DXSXFXSXDXDXiXP.zXJXKXKXKXqXqXjXT.c.~ D.j I 8.] U q 0 - F                                                                                                                                                                                                                                                                                                                                                                                                                                                                                         ",
"            q G &.Y.C.C.0.T.Q.Q.Q.$X9XcXDXzXbXxX7X7X%XjX7X5X7X7X%X2X6X6XjXdXdXjX7XdXkXcXW.Q.$X5X5X%X'.2X5X_.6X5X6X6X6X6X7X6XdX7X6X6X7X6XdX6X6X6XsX%X5XI n.C.I.6X&X%XsXlXsX%XY.$X@X$X@X3X@X@XR.m.D q v.V.v.E E ] v.q * w                                                                                                                                                                                                                                                                                                                                                                                                                                                                                         ",
"            m.L.%X$Xm.$XT.).@XQ.Q.@X$X$X!.Q.P.R.P._._.FXxX5XdXdXdX%X5X5XdX7XdXjXdXjXjXjX_.$X5X6X5X5X6X6X5X6XdX5X5X5X6X5X5X3X6X6X5X6X6X6X6X6X6X5XsX_.$XB.W.).Q._.T.Q.$X%XiX`.P.*.z z @.@.q.P.C.c.t 4 sXhX|.].!.].v.t @ # 8 g.`.`.iXiX(./.'.5XaXaXsXsX%XaX%X`.`.).).].(.(./.U.U.(.Y.Y.U.Y.D.D.m.m.m.m.m.m.m.G.G.Y.(.^.W.^.^.(.(.(.].(.).].(.).].).).].).).].).).(.(.(.(.%XF.                                                                                                                                                                                                                                                                                                                                      ",
"            sXM.Y.6Xq.!.i.@XQ.E.T.T.E.E.Q.!.E.Q.P.!.2XSXxX6XdXgXdX_.5X6X7XdXdXjXjXjXzXdX$X%X$X5X7XsX6X5XsX6X7X5X_.2X5X5X6X6X5X!.6X2X6X3X6X6X3X6X2X%X5XM.L.).$X3X9XbXMXcXkX%X$XW.&X&X0XjX9XQ.(./ t $ gXdX|.~.K.K.W.j = X O 6 2 < < 7 O o < j d 9 @ * @ 6 @ , < @ + > < 6 @ * # * * * # , @ < * 9 9 4 - 9 t q r t t q t t t q r y s j C y F F D H D F D D F H L q e q t K 0 (.                                                                                                                                                                                                                                                                                                                                    ",
"            iX/.).6XT.T.#.Q.E.T.i.R.Q.Q.@X$X3X2X6X&XQ.MXcX6XkXsXkXdX6X6X7X7XjXjXdXjXjXdX$X5X5X6XdXdX7XdX7X6X7XdX2X5X6X6X6X6X5X$X5X%X$X$X!._.2X5X5X_.%XL.Q.@XQ.3XvXDXDXxXMX%X6X&X@X#X3X3X&X%X%XG 5 + 5XsX|.!.|.|._.y o . # < 5 4 5 < 3 # 8 D r 0 0 e 6 2 < 2 7 w 2 b 8 b e 0 w e 6 9 6 6 5 9 w w t 9 w w r r C C s C y j s D L K K F L H ` K ~ ` ` ` ` T ` ` ] ` T j P y T V.gX                                                                                                                                                                                                                                                                                                                                  ",
"    S W W ( Y M.).&XT.P.@.Q.P.w.B.T.E.E.Q.3X,X2X3X2X$XxXdXsXdXzXcXdX$X6X6X7XjXjX7XjXzXxX!.7X6XjXzXdXzXjXdXdXdX5X5X5X5X7X3X7X6X$X7X6X$X2X2X7X5X6X7X8X5XK.Q.).p.6XzXvXvXvXjXY.$Xq.@.E.#X4X@X@X5Xa + . D.NX_.|.|.|._.% @ O X @ > 3 > > + 6 sX(.S.D.M.b.b.S.b.b.z.b.z.S.^.[.^.^./.^.^.^.^.^./.].(.(.`.`.`.`.uX'.'.'.aX%XiXiXaX%X%XaXaXaXaX5X5XaX5X%X5X'.5XhX7XgXsX6X%XW.F.W.v.R 5XhX                                                                                                                                                                                                                                                                                                                                ",
"  , , , v 7 8 l.).).P.q.@.R.!.L.q.0.P.E.!.3X3X3X3X$X5X5XdX7XjXjXzXjX&X$X6X7XjXjX7XkXvXDX$X7XdXjXzXzXdXzXjX7XdX$X_.).2X6X6X7X5XQ.$X$X$X$X2X2X2X6X7X6XdX_.&X&Xp.6XzXzXzX6X6X*.P.T.E.@Xi.3X@X!.Q.q 4 + '.cX_.bXzX~.|.t + # O C [.H.{.(.].] hXaXaXaXfXfXnXnXnXnXkXnXnXgXnXlXnXnXnXmXmXmXkXnXnXnXnXnXgXgXnXnXfXfXfXfXfXfXfXfXfXsXfXlXfXsXfXfXfXsXfXsXfXdXxXcXcXvXxXkXsX$X7._.W./ E 5XhXCX                                                                                                                                                                                                                                                                                                                            ",
"  m , S B B 7 %./.Q.M.0.z 7.W.P.@.l x 3.i.!.@X2X3XP._.6XdXxXcXvXzXdX2X2X8XCXzXxXjXcXNXDX6XdX2X_.6XsXdXdXsX6X6X).W.^ ).$X&XQ.Q.Y I.I.i.!.R.R.W.5X6X6X6X_.Q.sX$XlXcXvXxXjXjX@X&X7X6X9XE.&X@XQ.F.q + 9 J 5XdXZXzX|.U.y < @ . ^.aX5X|.|.5XK.kX%X'.'.aXaXaXaXaXiX%X%X%X%X%XiXiXiXiXiXiXsXaXhXsXaXsXaXfXsXfXaXsXhXfXfXfXfXgXfXfXsXsXsXsXsXsXsXsXsXsXsXsX6XkXNXNXNXkXdXkX_.Z.Q.W.A.5.v.(.5XgX                                                                                                                                                                                                                                                                                                                          ",
"  S 7 h.S h.7 &.W.Y.Y k a k @.&.0.L.P.L.w.Q.E.~.!.q._.sXxXcXdX7X6X6X@XW.dXxXjXxXjXxXxXxX_.jXxX$X7XdXdXdXdX6X6X).)._.6XsX$X5XU._.$X_.$X&X7X_.L.)._.!._.Y.*.iXB.q.Y.E._.6XjX!.$X&XE.Q.T.T.4.B./ - % < . W.W.9.9.9.K.q + # . k.aX|.|.5X5X(.kX5X$X5XsXdXdXdXsXsXsXsXsXsXsXdXlXlXhXdXfXhXhXsXsXaX6XsXaXhXaXaXsXaXsXaXhXdXsXsXhXsXsXsXsXsXsXsXsXsXsXsX6XsXxXSXNXBXMXNX%X2X0.W.v._.Q.] T N.hXhXCX                                                                                                                                                                                                                                                                                                                      ",
"  ! 7 Z Z g.0 &./.Y.Q d D %.F.W.L.P.L.R.E.!.$X2X2X!.$X6X5X7X6XsX6X$XY.$X7XdX6XdXxXjXxXzX_.jXlX%X6XdXzXdXsX6X5X5X%X).dX6X6X$X).Q.$XQ.$X7X$X' 7._._.P.$XU.q.6X$XP.).Q.I.Q.5XT.Q.W.P.w.E.$Xz z ~ C < + . D.J.9.J.A.Z.r # + . c.hX8XhX8XdX|.dX5X_.2X7X7XdX7XdX6XsXdX7XCX5XdXCXdXCX8XdX6X6X5X5X5X5X5X5X8X6X6X2X|.6X8X6XhX5X5X5X5X6X5XsX6X6X5X6X5X5X6X5XaXxXcXMXxXxXxX6X6XZ._.0.5X_.v.; P (.|.|.dXCX                                                                                                                                                                                                                                                                                                                  ",
"  h.b A A Q 8 R Y.&.; . = F ^ n.B.w.w.P.R.Q.Q.3X6XQ.L.W.q.B.0.C.W.).Y.Y.I.&.L.$X5XxXdX).z v.7.n.W._.%XW.Q.W.).).%XR I.W.M.B.V.Z.M.3.2XjX6XK - )._.0.W.I.Y.xX$XP.Q.W.W.6.C.P.W.T.I.I.P.$XL.^ ^ 9 < + . D.N.9.r.9.V.t + + . %.dX5X|._.!._.CXdX|.5X5X7X7X7X8XhX7XhXCXzX~.|.CX8X7X|.|.8X|.2X|.2X|.|.|.|.8X|.2XR.2X}.2X|._.$X_.|.$X|.$X_.2X_._._.2X)._.W._.dXdXkXdX7X_.5X/ W.Q.).W.W.- G 7.P V |.|.hX                                                                                                                                                                                                                                                                                                                ",
"  S 7 7 m e 8 d z k = = z 6.V.I.L.0.l k j I I 7.L.n.8.j j k R Y 5.n.n./ G k s j ~ 5XW.j . q G T / b.c.^ ( ^ ^ ( k.^ S.v.%.%.k.5.(.R 5XQ.).K . (._.U I.F.W.).).L.L.L.B.M.C.c.6.q.%.$.I Y U ~ K M # 2 O S.v.9.9.9.A.t # + . C (.7.9.P y 4 K.W.v.9.J.J.J.J.K.J.9.9.A.A.' 9.!.K.K.J.K.J.J.J.J.J.J.J.r.w.R.r.J.9.J.A.R.J.r.J.w.A.J.Z.J.Z.R.J.Z.Z.Z.K.N.9.n.'.%XQ.W.Q._.2XR !.5XI.K.W.7.G E G { ].hXhX                                                                                                                                                                                                                                                                                                                ",
"  S m , 8 8 8 l./.Y.*.X z n.n.B.B.M.@.k ~ ) ) 5.$.N.m.U a T m.D.k._ [.H.G r t G K BXhXK r ) ) ) k.k.x.K J J U Q W g.H.x.) ( ( ) U a $XU.U.r w M s ^ &.j 0 $.n.$.$.*.Y Y f a F Y ! $.F R ( K ~ r + 6 , S.v.9.9.9.V.t + + . K c./ ] {._ V.].|.A.K.K.R.R.W.J.W.K.J.W.Z.W.Z.K.9.N.w.A.A.9.w.w.r.w.w.w.w.J.A.A.A.J.R.R.w.r.w.J.J.J.J.Z.J.K.R.J.R.J.A.A.N.B.N.Q.I.Z.W._._.R W.!.n.Z._.dXW.] P N.|.].8XdX                                                                                                                                                                                                                                                                                                              ",
"  ! 7 O , , O l.z.! Y d U &.&.%.&.6.&.0 ^ ) H.S.F K K 9 * ~ Q K _ b.H.H.J w M r - aX_.F w ] g._ ( ( ( ( J J H H H H H L W J H W r 0 # _ g.6 @ # 9 # 6 # . + 0 U s F Y F a d a d I &.$.C.&.) H.r < # . G.B.N.0.n.V.9 $ < + J ) ) _ K K V.W.K.W.L.F.Z.Z.Z.L.Z.L.Z.C.B.B.C.H.N.A.Z.A.Z.Z.L.A.A.J.Z.A.A.A.w.N.A.A.w.J.Z.L.Z.J.P.Z.A.A.w.Z.A.J.Z.A.A.N.A.0.Z.L.B.A.L.W.).$X!.$XB.R.6XdX_.8.l 9.K.r.|.7X                                                                                                                                                                                                                                                                                                              ",
"  h.v v 7 8 , h.S.W A 8 J k.k.! *.%.&.U Q _ b.G.g.( ) M K _ Q J W ( g.g.N M M r D D.U X # J J W Z H Z Z Z Z Z H V Z C M M M M M M < # D J 3 3 @ 9 < 4 < # + g.b.J ^ %.c.%.l.&.&.6.%.&.m.D.b.S.e @ + O [.N.A.N.v.V.9 # < $ M t y L L W ] m.6.6.v.m.n.n.n.m.V.n.v.v.v.M.c.c.v.M.6.q.n.6.M.n.N.N.N.N.V.C.N.9.N.n.N.N.N.C.N.N.N.B.A.B.N.N.N.N.N.N.N.9.N.7.N.Z.N.B.A.B.W._.Q.$XQ.R.2X2X|.A.P P ~.9.J.8XdX                                                                                                                                                                                                                                                                                                            ",
"    > B S v 8 8 @ > . , , A J 7 ! b.( Q H.%.) 5.` x.) K K Q Q Q Z _ ! K t e M e q U F I w Z W H H W J W H W H H W H H C D M D D 9 r < J Q 5 9 7 < m w 2 N 9 _ K K ( k.^ J ^ ! J Q Q ( h.) k.^ e + , O G.v.7.7.7.v.9 % + O M n w M w M w t D D s M j M r D D C D K K K K U Q ^ / _ ( ) &.k.x.x.x.x.b.c.x.x.5.5.5.v.v.c.v.v.6.v.c.5.5.6.7.5.5.5.v.] 5.R 5.5.5.v.V.Z.W.U.8.L.!.R.!.Q.R.W.N.K ] N.9.' 8XCX                                                                                                                                                                                                                                                                                                          ",
"    pXIXLXB n , > < . , , , n W ( b.A Q K C r K H ^.K C C D H e w H Z C 9 m D 9 s K s 0 0 C e M M M M M N M M C H C M w r r r e 6 w 6 w 9 + 3 < 2 9 < M H H H H e C H J s e 8 s e A C A C t m 6 < < . c.$.' / / ] # + + + 5 > < 5 < w 5 < < 2 9 9 4 4 4 < 5 2 < < # 2 9 < 6 6 < # 9 6 9 w t r e w e e w e q e e 0 0 0 w 0 0 0 0 - 9 9 9 4 t t t 9 q t y P K T / G.V.5.m.Z.W.Q.6X8X_.W.K.~ 5.G A.9.~.dX                                                                                                                                                                                                                                                                                                          ",
"    UXIXIXB S > 3 , , , @ , 7 _ ! J 0 e q * 9 9 w ) H 9 r r w 9 w 9 9 9 # 9 9 + 6 6 r r H H M m r M r M M m M M r M r r e t r e # 6 # 9 3 > < < 2 < , M w H W C H J J W S S S S S A A Z w w w n 2 3 + x.5.] E / / 4 + + 3 < < 5 2 5 < < 4 2 5 # 5 < < 4 # 4 4 4 4 4 % # % # % # # 4 # # # # < 6 9 w w < 9 6 9 < 2 9 7 9 9 9 9 w 9 9 9 t t w 9 t t r 9 5 - t 9 D T P ~ c.U.W.0.$X$XF.J.7.q G y ] ' [ 8XCX                                                                                                                                                                                                                                                                                                        ",
"      LXUXB B B v v > O > O w K H D D s K C D D D J C M r C C C M M t M w r r 9 e r t r H D M m M M M r M M M C V M V M r e e t e t 9 9 M w 2 9 2 9 O m e N J Z Z H H H A S Z Z S A N Z Z W W H @ # < b./ / ' / ^ % + + + < > 4 5 + 4 2 < < < + < < # # + + # % + + % + % + % $ + 4 + + $ + + + > 4 + + < + < + + + 4 < 4 < 4 % < 9 % 5 5 9 9 w 5 4 4 4 9 w 4 w D r M x.H.v.@.W.R.8.y E o s T ] ' { 9.hXCX                                                                                                                                                                                                                                                                                                      ",
"        UXj.B uXh.v < 3 O 3 2 H W H ~ K ~ ~ ` K D D L r M H H L H M M C r D D D D H r M A D C M C M M C M M C C M C C y r t t e w w 2 9 2 9 9 e w 9 7 9 e e w 7 3 2 v 2 1 , 7 < 1 , 7 w n v n Z 3 3 , c.R l k P T + + # # # + $ . . . $ - # % + $ + + $ $ # $ + + $ $ $ $ $ $ % $ $ $ $ . . $ + $ + . . O . + $ + + + 4 + # 4 9 t 9 t 5 y C r H K ) C $ D r % t t - 9 K k.v.6.W.W.8.E E U H.K.K.P P c |.dX                                                                                                                                                                                                                                                                                                      ",
"            j.pX[.B 1 2 O > 7 Z W g._ ~ K _ Q K M D C H H J J H H N V H H D H L K D K D D A M C D M Z D Z M V M M M r M r M r 9 e r t M M r e M r M m e w 7 7 w 5 5 5 5 , 3 < < , , 5 w n N n 2 + + , H./ 8./ / K $ $ + # . aXV.(.hXhXgX      gXhXhXhXhX|.aXaX5XaXaXaX|.|.uX|.uXuX|.|.'.aXaXaXhXaXhXaXaXaXhXhXhXgXCXgXgXxX          BXNXBXBXBXBXBXUXmXT D t H.P t 9 K K / v.R R.dX_.W.J.%.F.K.].A.u V c hXCX                                                                                                                                                                                                                                                                                                    ",
"                    `.n O 7 n N ! _ _ _ ` Q W W C D y H D D D M M V Z Z L L H H H H H D M w M r M M r M M r r w t r t t w t w w w 4 w 9 w < w n 9 6 6 < < 7 2 6 3 2 < 2 2 2 < 2 9 2 5 2 4 4 3 < + + 6 ) V.N.7./ ~ $ @ O + 4 BX'.dX                                                                                                                  '.- r g.[._ y t y E 5.0.7.L.jXR.W.K.v.W.J.8.K.[ u u 9.CXgX                                                                                                                                                                                                                                                                                                  ",
"                    uXn O n N O , < < # < < < < + + O + + @ @ O 2 < 5 n M M r r e w 9 9 9 9 w 9 9 2 9 6 9 < < < < < # < < # < < < + + # 3 O # < 3 2 7 5 < < < < 2 < 6 < < < 5 5 2 # t 9 < < # @ . + C G.5.5./ ] D < $ + < H                                                                                                                         5XT fXuXC ].D y t T B._.Q.L.xX8XW._.N.A.9.E J.R.u % u 5XgX                                                                                                                                                                                                                                                                                                  ",
"                      N > Z _ O @ . . @ . O O + O O O + . $ . . , + < M 4 < < % # < < # 9 3 w w 9 w 9 9 9 9 < < < < 4 < 4 5 6 5 # < + 4 r w 9 < 9 9 w 9 t e e w t 9 9 9 - % # 9 % 6 > < + < # < + + C b._ H D M q # + + t K                                                                                                                           ].aX'.b.].V.9 % j W.0.8.l Z.W.A.Q.8.7.A.] x ~.y - u L                                                                                                                                                                                                                                                                                                     ",
"                      W 3 M h.O O O O O O + + 3 > > + # @ o @ @ # < < w w w w 9 9 6 < # < 9 M r r M t < w 9 9 6 4 9 4 9 9 5 9 9 2 9 < 9 w w M r M r r e e e t e e q q q 9 9 9 9 # + 4 < < # # , < + + 2 4 < + + + # # . 9 K                                                                                                                           (.VX].fX(.].K y t R 8.7.0.W.R.R.W.A.7.J.w.u 9.] y y y 8X                                                                                                                                                                                                                                                                                                  ",
"                      `.w w 2 > + @ + O + > > O + > + + @ # + $ + 2 w w 5 9 5 9 9 9 < # @ w M w w w 9 # < 2 4 6 5 4 9 5 9 9 9 5 9 4 6 5 w 9 w e e t w 9 9 9 0 - 9 9 0 e q 9 9 t 4 # < < w # 7 O < > w < 4 # 2 < < # 9 - -                                                                                                                               gXiXfX].[.H.% r L N.@.A.Q.L.|.R.w.J.W.W.W.J.5.t t y K.NX                                                                                                                                                                                                                                                                                                ",
"                        O > + O + X @ . + + # # + + # + # $ # # 4 w w < 5 9 9 9 5 < + O + 6 w w 9 w 9 4 4 9 9 5 4 5 4 5 4 9 4 9 4 < 2 9 # 6 9 9 9 9 0 9 9 9 9 0 q 9 9 0 9 9 - 4 w # BXG.. O + + + # + # # $ # $ X @ q                                                                                                                                       fXsXg.].+ w j 6./ R.n.L.7XR.R.A.l 8.|.W.5.t t P [ NXhX                                                                                                                                                                                                                                                                                              ",
"                          S.K % G U & X $ . % . . 9 D # - ; o X - 9 9 # < 4 < # < + O O $ < 6 < 9 2 < < # < < 2 < % 4 < < 6 < < < # # @ # < * # # * * 6 6 - 9 6 9 9 9 9 - 9 0 t 0 H LX    BX5X9 $ T V.].`.iXgX                                                                                                                                                mX~ uXb.r F v.8.).R.Q.9XQ.!.$XE 8.).9.R F : - y y %                                                                                                                                                                                                                                                                                               ",
"                          kX%X8.I.Q.T.W.n.. # # $ m.D.B.n.n.q * < 9 8 # + + @ + # + O . + @ # + O , , + @ + @ @ . . O . $ O O O $ + . $ $ + o # o # o # o o o # o # o # # # # * # _.      mXW./ q sXBXBX                                                                                                                                                        G.fXfXD j 5.W.N.Z.R.R.R.R.~.9.$.7.I / j l y q - %                                                                                                                                                                                                                                                                                               ",
"                          %XQ.q.E.@X,X@X6.0 - t < 6.E.@X~.i.j # < M < $ X X . . . $ . . . 6 g.k.H.b.b.H.V.m.V.V.V.D.V.D.m.D.V.D.m.m.m.m.m.m.m.C.S.C.D.C.m.V.S.m.m.m.c.c.                    B.z @.n.                                                                                                                                                            mXgXmXr s T v./ 5.G k l q.i.q.c ] Z.A.6.G H.P 4 %                                                                                                                                                                                                                                                                                               ",
"                          iX&Xp.E.#X,X+Xq.; 9 t 6 6.P.#X+Xd.k 9 @ W K ~ G G I @.8.R 0 * c.                                                                                                  Y.T.I.L.                                                                                                                                                              aXMX^ s q L j y ; % R R.7XW.c A.Q.R.Z.G T H.u %                                                                                                                                                                                                                                                                                               ",
"                          fX$XT.E.,X#X#Xq.q - w 0 M.T.,XE.i.k 6 w ( k.~ k I w.~.~.~.C.&.aX                                                                                                  @XT.Q.T.                                                                                                                                                              iXmX(.q ; - % t y y A.4XbX~.h R.~.!.w.j L K t :                                                                                                                                                                                                                                                                                               ",
"                          iX$XT.@X,X#XE.i.a - 9 8 Y.T.3Xs.q.I r 7 _ S.H q a x t.d.y.Q.B.5X                                                                                                  &XT.T.T.                                                                                                                                                                nXaXj U y y l j l 0.,X4X~.e.2X7X~.w.j F j % q                                                                                                                                                                                                                                                                                               ",
"                          sX!.E.@X&X#X#Xi.g s e 8 Y.T.@X!.q.s 8 9 W g.D k i z 4.d.s.E.I.5X                                                                                                  /.T.E.E.                                                                                                                                                                fXgXK K j P P P T 0.!.!.!.i.2XzX}.w.a L q q u 5X                                                                                                                                                                                                                                                                                            ",
"                          sX!.E.@X&X*X#Xi.z c.H S M.*.z M.q.s w M Z W M F d f 4.y.oXE.W.5X                                                                                                6XQ.#XE.Q.                                                                                                                                                                sXnXK H t ` E P E w.E.R.~.P._.zX2Xw.- r t y l ]                                                                                                                                                                                                                                                                                             ",
"                          6X!.E.@X*X3X&X#X&.! J S ! *...T.T.k M n M M M s a = #.<.a.i.~.%XdX                                                                                              %X#XT.Q.&X                                                                                                                                                                iXmXQ r 9 ] / T E 0.R.w.i.9.E w.P.3.j r - - - & X o o .                                                                                                                                                                                                                                                                                     ",
"                          5X!.T.@X&X3X*X*Xp.@.s *.$X#XT.Q.P.k * # ; 0 j d k f p.oX<.p.Q.%XfX                                                                                              sX#X&X#X&X                                                                                                                                                                iXVXK r 9 / ] T E 0.e.e.R.R.3.w.!._.j y t j 9 # # o $ . c.                                                                                                                                                                                                                                                                                  ",
"                          2X+Xp.@X*X*X*X#Xt...z #.*X0X0X<X2Xi a z q.t.X.z x p *XoXa.u.!.2XdX                                                                                                &X&X&X&X                                                                                                                                                                5XBXK r t ] ] P z 3.;.d.~.w.e.w.!.A.k q y / P r + < # @ m.                                                                                                                                                                                                                                                                                  ",
"                          ~.,Xd.&X*X0X*X*XOX....o.*X0XrX0Xs.h 4.i.s.s.o.i X.p oX2.1.y.!.6XdX                                                                                                &X*X&XiX                                                                                                                                                                  BXK y - ] T l ; 3.w.@X,Xw.q.w.R.9.k - L P ` V 9 q , + G.                                                                                                                                                                                                                                                                                  ",
"                          q.s.p.3XlX0X0X0XOXO.O.O.#X0XrXrXXXh ..} p.oX;.: p f ,.2.=X,X$X6X                                                                                                  &X0X&XiX                                                                                                                                                                  BXG y - T / ] T 9.J.!._.R.9.7.N.x.G r T K C M < 2 + + G.                                                                                                                                                                                                                                                                                  ",
"                          q.i.;.&X9X6X0XlXOXO.O.O.0XbXrXeX<Xo.p } u.,.h i f = ,..X<X4X$X6X                                                                                                    lXlX                                                                                                                                                                      G q % ^ T G E ] x 8.Z.N.^ P K P C F H L y r < 2 , O V.                                                                                                                                                                                                                                                                                  ",
"                          R.q.T.$XlX      oX+.O.O.0X0XbX<X-Xo.p y.oXOX| p = } >.2.=XoX$X2X                                                                                                                                                                                                                                                                              P u q K U K K ] T P / K L t M 5 t M 5 # # # # # 6 O c.                                                                                                                                                                                                                                                                                  ",
"                          %XjXsX          #X=.+.O.0XjX0X<X<Xh ..t.+Xu.h f = h ,.1.=X+X,X5X                                                                                                                                                                                                                                                                          fXr q t t C 5 t 5 5 r t L 4 5 5 3 5 5 n 5 5 3 < + # < . %.                                                                                                                                                                                                                                                                                  ",
"                          %X6XlX          #X+.+.O.#X3X0X-XoX| z h q.q.p z i }  .1.XXoX3X5X                                                                                                                                                                                                                                                                          (.- % r y 5 n n 5 5 + y g.t g.N n v 5 5 5 2 + < + < < O ~                                                                                                                                                                                                                                                                                   ",
"                          %XsX            #X=.+.O.3XqXrX1X=Xh i : i i a i i } <.1.oXs.qX@X                                                                                                                                                                                                                                                                          a * @ 9 < 4 t t V ` ~ aXSX` V 5 3 3 3 5 > > < # # # < O U                                                                                                                                                                                                                                                                                   ",
"                          %X!.            #X+.+.O.*X9XrX-X.Xh : q l : i X...+.,.a.a.y.~.                                                                                                                                                                                                                                                                              X . + r K K.uXnXBXFXPXIXxXuX[.(.(.G.g.W _ D t 2 < + o K                                                                                                                                                                                                                                                                                   ",
"                            P.            &X+.+. .*X#X0X<Xa.h q.g E X.c o.h O.>.a.=Xs.~.                                                                                                                                                                                                                                                                              W.CXxXxXxXCXxXNXxXHXPXPXbXxX|.].(.K.G.H.H.( _ t M + $ j FX                                                                                                                                                                                                                                                                                ",
"                            q.            3X+.+. .T.R.8.P.s.X.@.w.$X!.h | } } <.,XvX                                                                                                                                                                                                                                                                                xX_.gXgXxXxXxXxXzXdXJXHXHXqXdX|.].W.K.V.H.v.) ` M M + # j LX                                                                                                                                                                                                                                                                                ",
"                            #.            3X+.,.,.2XSXLXDXDX@.3.6X6X!.-.| ;.} u.,X                                                                                                                                                                                                                                                                            D.H.aXW.Q.5XdXdXjX7X7X7X7XAXJXKXqX7X|.!.W.K.V.V.v.] _ W H - - H.BXhX(.                                                                                                                                                                                                                                                                            ",
"                                          6X+.1. .T.SXLXLXGX@.T.5XdX7XX.i 4. .1.#X                                                                                                                                                                                                                                                                        k F C D C < 5.W.Q.!._.5X8X7X7XbXvXJXbXzX|._.W.F.W.F.m.k._ _ Q r w H J $ X .                                                                                                                                                                                                                                                                           ",
"                                          lX+.+.o.@XUXLXLXSX*.P._.kX7X3.i } <. .+X                                                                                                                                                                                                                                                                        ; ; 9 w 2 # 0 F q k 7.6.0.Z.W.R.W.!.!.!.W.n.v.5.5.( ` U D D m 9 < 9 < @ . $ `                                                                                                                                                                                                                                                                         ",
"                                            =.OXo.p.MXLXLXNX@.q.Q.xX7X-.= } 1.+.+X                                                                                                                                                                                                                                                                      %Xs w w V M r 9 t 9 0 9 r y j j q t l l ; y t t - 6 o . < + # . @ + < # + # 0 xX                                                                                                                                                                                                                                                                        ",
"                                            =.1.o.4.SXLXLXBX$.i.@X7X9Xw.i O.1.>.oX                  Q.                                                                                                                                                                                                                                                  SX) 8 M Z t t 9 w M W m 4 9 % 4 + % y L % 9 % 4 + + 4 $ < + # + + # + + < # D NX                                                                                                                                                                                                                                                                        ",
"                                            +.OX;.p.SXLXLXVX@.i.$X3X,Xy.h | >.>.#X                  _.                                                                                                                                                                                                                                                  SXc.9 r M 9 6 9 0 Z ~ r 9 % + t r y G W.r - % + y y y $ % + $ < + # # $ # - H LX                                                                                                                                                                                                                                                                        ",
"                                            +.,.O.4.NXLXLXmXE q.@X@X@X;. .| O.>.<X                  sX                                                                                                                                                                                                                                                Y BXA 6 + 4 4 % * r j t 9 r t y % u t G J.u o $ $ $ $ % % $ $ + # < O $ $ - r / ~ * 8 C r                                                                                                                                                                                                                                                                 ",
"                                            +.,. .4.nXUXUXkXz y.@X#XT.| p |  .} p z q.Q.@XE.6X_.dX%X                                                                                                                                                                                                                                                  %.VXl.6 + 5 % V 5.G G T P c P y P [ { w.}.e.c ' ' ' P P u % 9 9 4 # # q j 5.8.U.) $ < Z n n                                                                                                                                                                                                                                                               ",
"                                            ,.+.o.4.kXUXBXsXh p.#X&X+XX.} o.O.p = = = f i = g f I                                                                                                                                                                                                                                                     aXLXBX].k.{.L v.]._.8X].}.!.~.|.}.!.8XwXqX8X8X2X8X|.|.~.K.v.b.x.) K / 5.5.6.n.n.5.K M N g.n uX                                                                                                                                                                                                                                                            ",
"                                            ,.+. .t.xXUXVX%Xh d.&X&X!.4.p O. .O.p = = z z p 6.lX                                                                                                                                                                                                                                                      NXGXvXF.m.G.{.U.U._.!.|.~.~.~.K.}.~.}.2Xd.,X,X~.~.~.R.K.J.] 5.{.] 0 T $.8.8.6.8.5.W H n b.H aX                                                                                                                                                                                                                                                            ",
"                                            ,.+.| 4.%XVXnXS.h @X    2X4.} | O.;.| #...X.#.q.FXDX                                                                                                                                                                                                                                                      V.R.9.E G k.! U W.W.|.!.~.~.}.}.}.~.}.wXbX X8X4X2X}.!.W.A./ 5.g.) s H $.$.6.8.&.&.C C M (.C                                                                                                                                                                                                                                                               ",
"                                            +.+.O.X.d D.iX'.l       dXq.p =.}  .O.t.u.;.} @.vXGX                                                                                                                                                                                                                                                      B.bX5X8.$.$.U ^ C.R.!.~.d.d.d.d.d.e.}.,XbXR.8X|.Q.W.F.m.] A W W H 8 s ( / &.&.$.$.F e H W s                                                                                                                                                                                                                                                               ",
"                                            t.O. .4.6.gXmXuX8.      dXq.p p }  .} o.oXoX .g 4.NXDX                                                                                                                                                                                                                                                    E 8.A.%.C.c.F 6.N.R.~.!.R.R.d.r.d.-.,XwX7X}.P ' T L F D e O 7 7 + O A ^ &.8.$.$.$.M K e F U                                                                                                                                                                                                                                                               ",
"                                            +.O.>.o.i.cXBXxX_.      jXX.= =.| #.p h ,.XX<X| g i.sX                                                                                                                                                                                                                                                    F @.L.6.M.6.I 8.V.A.~.!.~.J.d.~.r.-.2XqX,X~.P / % y K w 6 < , , 3 @ 8 ^ $.$.*.R $.w '.iX_.                                                                                                                                                                                                                                                                ",
"                                            t.,.O.O.u.cXNXdX$X      6X@.} p.+.E.p h | u.tXrX} = f %X                                                                                                                                                                                                                                                  # $.W.v.V.6.G 6.A.R.~.}.~.R.~.~.~.e.}.vX4X~.P y . 9 9 % . O O O O 2 w K _ ~ ^ R G 6 aX                                                                                                                                                                                                                                                                    ",
"                                            +XO.+.OXp.9XdX2X@X      3X4...t.o.p...= i | p.XXs.= p &X                                                                                                                                                                                                                                                U o %.V.V.n.7.T T W.~.!.$X2X,X2X8X4Xw.2XKX2X!.E t 4 T 4 < O O O > > < > M N m n w M O `.                                                                                                                                                                                                                                                                    ",
"                                              +.+.+.y.E.R.i.          ..p p h *.q.i p o.y.<.t.O.o.@X                                                                                                                                                                                                                                                / # ^ V.x.v.5.) ) F.Z._.2X@X2X$X2X7XdX6XzX6XhX_.b.].].G.b.{.> < < 3 > 3 < > > > 1 v O `.                                                                                                                                                                                                                                                                    ",
"                                            0X+.+.+.u.4X              z i i z z ; i p #XoX<.u.t.u.+X                                                                                                                                                                                                                                                &.6 _ %.) Q Q _ 5.x.c.) c.c.v.7.0.0.B.&.R $.5.5./ ) ~ K D M r w > < + # > 3 3 1 v v O `.                                                                                                                                                                                                                                                                    ",
"                                            0X+.+.+.oX                z = l i T l q p #X| } | ,.o.;.                                                                                                                                                                                                                                                  # o n 6 6 6 9 w 6 6 @ @ @ o o * * X X . $ # # . . . . O . + + O O O O > > 3 < 2 5 O                                                                                                                                                                                                                                                                       ",
"                                            *X+.+.+.*X                d : ; q j F ; g f f p p h i h                                                                                                                                                                                                                                                   * @ 7 2 9 2 9 9 < O # # # % - o @ X @ # # o % $ o + + @ # # > O O O + + + + > < 3 O                                                                                                                                                                                                                                                                       ",
"                                        *.p.,.OXOX+.#X                k - I V.`.`.U 0 ; i a w.@.= z Y                                                                                                                                                                                                                                                 $ @ 9 < 2 + < 5 # < t 4 # % # + $ @ + > + $ # @ # # # # # < < + O + O O O + + < < O                                                                                                                                                                                                                                                                       ",
"                                        ..o.OXOX+.+.*X                I - 7.aX  hXm.= - ; a a i : l @.                                                                                                                                                                                                                                                # # 2 5 + + @ # # 4 w 9 9 w e t 5 w Z t 5 < < 9 # 4 4 + + < + O + . O O + < % 5 6 C                                                                                                                                                                                                                                                                       ",
"                                        p O.OXOXOX+.0X                I q H.      W.q = ; z 3.i i l C.                                                                                                                                                                                                                                                  fXgXhXG.$ $ % # # 5 # 4 4 n y M r 5 r M H ( ) ` J H H M M 9 # # . . . `.UXLX                                                                                                                                                                                                                                                                            ",
"                                        O.p OXOXOXOX*X                I t v.      (.9 a = @X3Xd.i.@X                                                                                                                                                                                                                                                      gXhXhX@ + < # r (.(.F.v._ ` H.D.|.].~ ` {.%.~ W K ` Z C M + @ . O .                                                                                                                                                                                                                                                                                   ",
"                                        f OXXX-XOXOXOX                I j m.      _.q l i @X<X*X3X7X                                                                                                                                                                                                                                                          gX$ + < 4 L ].(.[.K.v.V.CXdXxXCXN.T U K D K ( ` L V M . + + # .                                                                                                                                                                                                                                                                                   ",
"                                        &X#.+.OXOX1.*X                G q ]       '.q a = p.3X<X0X0X                                                                                                                                                                                                                                                            # < < 5 ~ (.|.5X5X5X5XxXzXvX7XW.~ T D D L ` W C Z M < + O @ O                                                                                                                                                                                                                                                                                   ",
"                                        MX3X+.OX+.1.                  j - 5.      5X0 j i &X0X<X<X                                                                                                                                                                                                                                                              9 # < 9 ~ '.].5X7XsX7XzXCXZX7XK.%.~ A e L L V M V r < + O + .                                                                                                                                                                                                                                                                                   ",
"                                        cX*X,.+.+.OX                  z l 6.        : l i q.y.<.a.+X                                                                                                                                                                                                                                                            0 o $ # / 5XW.2X6X2X8XzXwXbXCXK.^ ^ J W W W C H H t # + @ @ @                                                                                                                                                                                                                                                                                   ",
"                                          E.O.} O.OX                  I l 5.        & a : f p h | | O.                                                                                                                                                                                                                                                          q o $ * 5.5XR.2X7X2X4XzXqXzXzX!.^ ~ J Q ~ _ H T C r < + + @ X                                                                                                                                                                                                                                                                                   ",
"                                          #.f p p O.                  D & /         - y ; @.,.O.>.:.} T.                                                                                                                                                                                                                                                        q # @ < 6.sXB.7X7X8X7XbXbXzXvX|.K ~ K _ ) ~ r D C V 4 + @ # @                                                                                                                                                                                                                                                                                   ",
"                                          #.= p } O.                  F r x.        q s = #.+X+.>.:.} +X                                                                                                                                                                                                                                                        j 4 O + 5.dXw.jX2X8X9XbXvXbXZXCXn.b.g.v.v.c./ 5.T ~ r + + @ X                                                                                                                                                                                                                                                                                   ",
"                                          6Xh ,.+.OX                  G ] )         q a = i.oX,.:. .} E.                                                                                                                                                                                                                                                        j - O # k.dXI.vX9X7XbXHXKXbXbXbXQ.] v.v.V.v.5./ ~ ` j . + . @                                                                                                                                                                                                                                                                                   ",
"                                            #XoXOXa.                  U ^ /         q - = 0.#X+.:. .O.E.                                                                                                                                                                                                                                                        q # + 9 M.sX).cXdX8X!.2XzXzXbX7X)./ ) %.5./ / ~ T ~ K + . O @                                                                                                                                                                                                                                                                                   ",
"                                            *Xu.2.1.                  T K ~         - 0 X q.E.,.<. . .s.                                                                                                                                                                                                                                                        9 - > r '.6X$X).Q.).zX_.zXqX7X7XE 9 y w 9 9 5 4 w 2 < > O . @ kX                                                                                                                                                                                                                                                                                ",
"                                            #Xa.2.1.+X                F q F         q 9 = 5X  E.a.| ,.                                                                                                                                                                                                                                                          q - 2 r hX%XU.(.(.F.x.8.7X9XbX7XN.# 9 9 2 9 9 5 w b 4 3 + + . fX                                                                                                                                                                                                                                                                                ",
"                                            +X2.1.>.s.                F x.U         t 0 *       ,XoX#X                                                                                                                                                                                                                                                          q # # # U G V M % t t y e.7X9X2X0.% t w t 9 9 < w 5 < 3 + + @ sXfX                                                                                                                                                                                                                                                                              ",
"                                            s.1.1.>.oX                U b.^         q ; @         #X*X                                                                                                                                                                                                                                                          - + 9 9 j K t K t M q u ' 9X8X2X0.; K K L F r 9 9 9 < # + < @ ^.gX                                                                                                                                                                                                                                                                              ",
"                                            s.,.>.1.+X                K b.P         ; 0 &         ,X@X                                                                                                                                                                                                                                                        |.9 9 9 T 7.V.V.F.K.).K.l A.zX!.!.0.' 8./ T T ~ P G j L 4 + + @ ) _.aX                                                                                                                                                                                                                                                                            ",
"                                            +X1.>.>.#X                F ) K         ; ; X         ,X3X                                                                                                                                                                                                                                          x.c./ (.G.W.G.(.x.x.U.].W.)._._._.W.W.V.W.8X!._.W.V.v.7.v.] ) _ ~ T G 9 $ + O t a F.%XdX                                                                                                                                                                                                                                                                        ",
"                                            #X>.>.1.@X                D ~ s         ; 9 ;         @X&X                                                                                                                                                                                                                                          * 9 r m.K.G.hXG.) ( v.J.W.W.J.W.J.W.W.W.W.W.K.V.Z.N.v.v.b.5.] _ K K K q # O . r s q k dX5X                                                                                                                                                                                                                                                                      ",
"                                            #X .>.1.s.                C r           0 0 =     @X  E.Q.                                                                                                                                                                                                                                          # q 9 9 % q - - t H G / ~ T G P T ) ] x.x.] T y j G y j j F D V y K F r < O . H._.'.G.6._.                                                                                                                                                                                                                                                                      ",
"                                            #X,.>.>.p.                r D           & ; i       @Xp Q.                                                                                                                                                                                                                                          9 # C q E CXbXNX_.r L ) x.g.K W K ` H K H M t M r t 9 + + # + + # + + + + O . G.%X5XhXW.T W.                                                                                                                                                                                                                                                                    ",
"                                            *X,.+.,.+X                q r           * ; ;         @X&X                                                                                                                                                                                                                                          9 $ 8 - xXzXJXJXW.w w M n t Z n w M M V H ` n t < 5 + + 5 % 4 4 4 # + # > + . D D.I._.%XW.F.                                                                                                                                                                                                                                                                    ",
"                                            2Xo.>.<.#X                0 C           & 9 i         3X                                                                                                                                                                                                                                            - * r 0 zXDXZXzX; @ 4 < 4 % 4 4 4 % + M N v < # 4 + + 4 + % < # + + # # + @ < 9 V./ N.5XaX5X                                                                                                                                                                                                                                                                    ",
"                                            2X|  .,.E.                0 D           & ; ;                                                                                                                                                                                                                                                       # q ^ K FXNXNXdX* @ # 2 + F K.K.V.v.] b.] 7.v.] y % - ; : - - % y w < + < + $ 9 G T W.FXxX'.                                                                                                                                                                                                                                                                    ",
"                                            @X| >.;.s.                q -           & a i                                                                                                                                                                                                                                                       . s 0 F C w F.T # # o 9 $ ] Q.Q.~.R.~.}.2X9XqX7Xg ' 3.3.E $.E l 0 F + < @ O + K   / X 8.mXC.dX                                                                                                                                                                                                                                                                  ",
"                                            3Xa.a.a.@X                K j           & a i                                                                                                                                                                                                                                                           ) Q ].gXBXiX+ # 6 q q N.E e.4.y.r.=X,X,XwX Xc -.-.c x x u ; ; K + # . @ . b.    hXE I R sX                                                                                                                                                                                                                                                                  ",
"                                            0Xa.2.oX@X                m._.          X ; :                                                                                                                                                                                                                                                                     ].O 7 w e y 6.E 3.e.e.e.s.,X<X1X}.c w.-.-.-.h g - ; G o + O O < )     sX%X_.q 5X                                                                                                                                                                                                                                                                  ",
"                                            qXoX1.<.+X                %X).          o ; =                                                                                                                                                                                                                                                                     '.< e w w C / q.R.R.!.~.}.,X<XyX,X-.e.<.-.x c i : - G o + X . O ^       sX5XG '.                                                                                                                                                                                                                                                                  ",
"                                            3Xs.>.>.i.                W.Q.          . : :                                                                                                                                                                                                                                                                     '.# w 6 M s 5.Q.@Xw.d.~.~.=X1X1X,Xh e.;.;.-.x l & y G $ o + O @ K MX      gXI.                                                                                                                                                                                                                                                                    ",
"                                            @Xt.,.>.t.                I P.          & ; =                                                                                                                                                                                                                                                                     _.@ w 6 e F Z.!.2X!.~.~.,X=XwXyXwXc e.-.:.-.x k - q P o + + + @ D BX                                                                                                                                                                                                                                                                              ",
"                                            @Xy.,.<.p.                z w.          X ; =         %X&X%X                                                                                                                                                                                                                                                      _.o w * t K F.!.!.d.R.E. X1XwXwXwXh e.;.-.-.x l - a I * # . # + e FX                                                                                                                                                                                                                                                                              ",
"                                            &Xu.,.<.T.                x L.          X ; =       = f z d Y                                                                                                                                                                                                                                                     _.o 0 < q j 9.!.}.=X}.,X,XwX<XwX,Xu -.:.:.-.X.l q j I # * + @ @ 0 GX                                                                                                                                                                                                                                                                              ",
"                                            3Xy.<.<.s.                              o = X       f d k R R                                                                                                                                                                                                                                                 dX  D.o # - D r N.,X~.}.}.wX=X1XwXyXwX% 3.-.-.-.X.l : k T # # $ + @ o MX                                                                                                                                                                                                                                                                              ",
"                                            @Xy.<.,.p.                              & ; X       $X*.Y I 6.                                                                                                                                                                                                                                                %X  L.o * 9 D 9 K.d.,X,X=X,X1X1XqXqXqX{ w.y.<.4.3.x q l / o % O $ o o ).xX                                                                                                                                                                                                                                                                            ",
"                                            @Xy.<.,.p.                              * = X         c.Y a &.                                                                                                                                                                                                                                                  DX5X* < w K q N.d.~.,X}.wX1XtXwX1X0Xc E.e.e.e.3.R q j _ # 5 . + o o PXLX                                                                                                                                                                                                                                                                            ",
"                                            @Xt.,.y.q.                              & & X           d l                                                                                                                                                                                                                                                     FX5X# 6 M W k 0.9.,X,X,X,Xd.wX,XwX,X& e.e.:.-.E k t j _ # # X $ + # a s                                                                                                                                                                                                                                                                             ",
"                                            3Xy.,.<.i.                              ; X X                                                                                                                                                                                                                                                                 ] G.( $ # w K G @.!.8X8XwXwX~.f.,XwX,X: 8.e.X.E l y 9 C ~ 9 % $ $ $ # M < @                                                                                                                                                                                                                                                                           ",
"                                            3Xt.,.,.p.                              ; X X                                                                                                                                                                                                                                                 C d F !         hX`._ # * r D G L.!.8X7X8X7XqXwX~.4X2Xi 3.x x a j 0 r W {.9 9 . + + 9 n 2 ,                                                                                                                                                                                                                                                                           ",
"                                            *Xy.<.,.E.                              a X o                                                                                                                                                                                                                                               ^ * 8 e M e     (.BXaX^.9 q r s E 5.] hXhXCX8X8X4X,X9X6Xl E Y ; a r 5 w 9 M w < + + O 4 w 6 6                                                                                                                                                                                                                                                                           ",
"                                            3Xy.<.,.T.                              0 X &                                                                                                                                                                                                                                               b.@ m /.S.N     G.UXnXuX0 r r q k j $ 9.K.J.A.r.-.h ,XR.E &.X.i : a + 9 # 6 < O . + . O # . *                                                                                                                                                                                                                                                                           ",
"                                            &Xy.,.,.P.                              ; X X                                                                                                                                                                                                                                               S.O S A v Q     K.LXMXuXC * - q G 9.~.|.r.[ e.~.,X4X8X$Xg Q.4.o.4.z k j @ # 7 @ . % y _.N.$ #                                                                                                                                                                                                                                                                           ",
"                                            3Xp.<.t.E.                              ; X X C.                                                                                                                                                                                                                                              8 h.[.W W     G.BXgX(.s * 9 q l w.|.7X|.8X8X8X8XqXqX2Xg R.u.;.,.t.Q.z # 6 b.c.@ &.@XjX$Xz ;                                                                                                                                                                                                                                                                           ",
"                                            &Xu.,.,.Q.                            %Xs & X V.                                                                                                                                                                                                                                              , @ , b Z fXBXG.LXgX].s 0 0 j z w.~.wXwXqXqXqXqXqXKXwX& i.u.2.,.oX4.z : # ].R X B.6XlX0XE.d (.`.dX                                                                                                                                                                                                                                                                    ",
"                                            &Xt.<.t.!.                      a f = = a = & m.                                                                                                                                                                                                                                              b h.g.N N fXVXL.UXhX].y 9 y l a q.!.9XwX8XqXvXqXqXqX,Xi w.u.oXOXy.p.h : 9 '.b.X $.Q.#X+XT.i = . X                                                                                                                                                                                                                                                                     ",
"                                            3Xt.<.,.E.                      z h ..p.R - o n.                                                                                                                                                                                                                                                  z.l.h.aXVXm.SXhX].y 4 y j l w.}.qX7XwXwXZXbXqXwX+X& s.o.a.a.oXp.h q q /.d X X X X X # o + +                                                                                                                                                                                                                                                                       ",
"                                            &Xy.,.,.E.                        Q.t.T.z 0 & 6.                                                                                                                                                                                                                                                        aXmXM.SXfX`.s 9 q j x J.2XqX8XwXwXqX4X4XqX+X= p.| t.u.s.i.i o o 8 X @ + @ , < < < < @                                                                                                                                                                                                                                                                       ",
"                                            3Xt.u.t.Q.                          =.oXf = X $.                                                                                                                                                                                                                                                        '.gXz.SXlX`.s 9 t P I L.2X}.~.R.r.r.x ,X,Xs.p p.o.oXt.t.i.z . # 6 X . @ , < 2 2 < , @                                                                                                                                                                                                                                                                       ",
"                                            3Xy.u.,.E.                          =.u.i - X $.                                                                                                                                                                                                                                                    %X(.m.aXM.SXnX`.y t t G P W.4X~.d.J.r.e.d.E.9Xs.p T.oXp.#.#.k k # 2 @ @ @ , , < 2 6 < , @                                                                                                                                                                                                                                                                       ",
"                                              t.<.,.E.                          o.u.z = o R                                                                                                                                                                                                                                                         aXkXS.SXMX&XG C s c.q ~.wX}.,X}.,X,X,X,X4XE.f T.T.#Xz d & @ # @ O $ # + # , < 2 2 ,                                                                                                                                                                                                                                                                         ",
"                                              ;.u.o.E.                          O.t.f = o E                                                                                                                                                                                                                                                             J Y.lXU.C * e _ l ~.wXwXwXwXqXqX9X4X,Xe.= f i = = + + < # # + + # + + < @ < , @                                                                                                                                                                                                                                                                         ",
"                                              t.<.,.P.                          } t...= o G                                                                                                                                                                                                                                                             A &.iXv.9 r 9 K P ~.,XwXHXKXHXKXbX}.4Xx . # . . . . + # . + + + + + + O < 8 @ ,                                                                                                                                                                                                                                                                         ",
"                                              p.,.,.T.                          } +.x & & k                                                                                                                                                                                                                                                             *.d ; E D 4 9 j V }.d.qXHXHXPXHXAX2X7XL.. ` H.) 9 K 6 < < < 9 9 # r 2 ) ^.'.G.6                                                                                                                                                                                                                                                                         ",
"                                              y.,.,.T.                          O.,.x & - q                                                                                                                                                                                                                                                             /.d & L V t t F % J.8XbXKXPXDXNX6XZ.C.F.5 b.|.hX(.G.b.( D Q _ e 4 % 4 r H W _                                                                                                                                                                                                                                                                           ",
"                                              y. .;.P.                          o.+.z X - q                                                                                                                                                                                                                                                             sXU q j M 9 t r q k 9.E u u : ; & & # 0 w 6 . # 0 s d e C J A # $ % # G.`.V.H                                                                                                                                                                                                                                                                           ",
"                                              t.>.o.i.                          ,.+.z & : ;                                                                                                                                                                                                                                                               S.k y t 9 9 t 9 9 6 r u u 9 q y q t 9 s J 9 0 F W ! W J K q # . . . fX  gXmX                                                                                                                                                                                                                                                                          ",
"                                              t.oXt.i.                          O.o.g : - q                                                                                                                                                                                                                                                               ).].b.t n e 0 r C W L P P r K / K J A A U ! ! H U Q W K J 6 + + . @                                                                                                                                                                                                                                                                                   ",
"                                              ,X<.u.4.                          p p i o - k                                                                                                                                                                                                                                                               aXb.` 9 O 9 t t H M M M C s e q 9 e r A S J *.J J Y ! F J - . . . &                                                                                                                                                                                                                                                                                   ",
"                                              oX>.a.d.                        @Xp p = o : q                                                                                                                                                                                                                                                               aX{.Q n < w ) ` K K C V V t u t t t r 9 s U S J J U Y A K $ . . . @                                                                                                                                                                                                                                                                                   ",
"                                                OX<.s.                        @Xp p & : : o                                                                                                                                                                                                                                                               hX( J M r _ (.V.H.] {.{.V u u : u : % o t Y ! ! Q J J ! F # . . X @                                                                                                                                                                                                                                                                                   ",
"                                                OX1.s.                        @X+.t.#.i.W.(.                                                                                                                                                                                                                                                              6X/ D e 9 r r t % $ $ $ % { |.}.r.9.J.A.].%XS.Y Q J J Q K . . X O @                                                                                                                                                                                                                                                                                   ",
"                                            u.-X2.OXa.  R.                    @X,.+.h @._.                                                                                                                                                                                                                                                              _.aXV.e 6 $ # # % % + $ $ $ { }.ZXZX}.r.J.8XdXM.J A A K ~ K . . . X *                                                                                                                                                                                                                                                                                   ",
"                                          a.>..X.X1.>.,X#X4X                  E. .O.| @.6X                                                                                                                                                                                                                                                              _.hXG.M r < < - + # + # $ $ E J.8X}. X[ u [ c D D A F J U K $ . . . ,                                                                                                                                                                                                                                                                                   ",
"                                          u.OX.X2.XX2.1X,XE.E.                E.|  .-.h %X                                                                                                                                                                                                                                                            SX'.gXG.H M 9 2 9 - < t r 9 o X hX9.c u u % $ 4 9 e s A A A D $ . X . *                                                                                                                                                                                                                                                                                   ",
"                                          oX<X2.>.XX.X<X  E.@.$X              +X:.O.| h $X                                                                                      G j                                                                                                                                                             c.$.NXNX5XgXU.V w 2 # t s A F A y 0 A s u u % % * # w 8 6 8 s e r M . . . X *                                                                                                                                                                         R s ; : : i                                                                                               ",
"                                          y.o.t.>.oXoX    !.z E $.M.        lX#X .| | x 5X                                                                                  _.: o o # .                                                                                                                                                     (.q 9 j xXxX].aX[.H 5 9 < 6 d J R ! ^ R M.q.9.c u % q d s * X 8 C e J J . $ O O *                                                                                                                                                                       q ; q c x x ' !.R.                                                                                          ",
"                                            6Xp.u.>.oX    2XR Y a I %.      6XE.;.| | x 5X                                                                                Q.R.5XK.y % 0 :                                                       U.X @.                                                                                    %XA 9 + r dXjX].'.K.V < 9 < K '.%X$X%X%X&XjXDXvXbX7XbXdXNXsXl.Q ! J A J J . + + . @                                                                                                                                                                       j l P 7.R.|.7XvX_.]                                                                                         ",
"                                              9X3X<.>.    $X$.~ I I $.$.  %X@XT.,. .o.h dX                                                                          U.E T / x.y 9 q q 9 y BX                                                  NXQ.X f z E W.                                                                    U ( U.aX).A 0 < < # hXsX|.].^.{.# t r K $X%X6X&X&X&X@X9XbXAXbXAX3X!.8.Y ( ! K J J K + + + . *                                                                                                                                                                     5Xj - * a a l y ] ] K._                                                                                       ",
"                                                4X;.:.    NXY.z.%./ 8.z '.6X_.@Xt.-.X.h                                                                           %.G F r t 9 % # ] v.y j BX                                          z h h X.@.X.i i h X.X.c i z E                                                           F . @ 6 C * X - 6 + t ).dXCXmXBXUX< 4 j j ).6X&X%X&X@X3X0XqXAXbXqX~.i.*.A %.! D A J K . . + . #                                                                                                                                                                     U.a $ ; k z P E u t V j                                                                                       ",
"                                                  i.t.    _.b.G.%.&.n.z 5X      i.;.X.g                                                                           ; * a y y 4 y V.'.W.; e K V.                                    sXz i g h } | o.} :.oX=X,X| 3.l G k                                                         c.. O 6 9 X X d ^ X ! gXNXZXBXLXFXr 9 r j ).%X&X&X@X@X,X9XbXqXbXqX!.P.$.U c.( J A J D O O + . O                                                                                                                                                   @XQ.Q.Q.L.B.B.N.C.$.j z E 5X8XzX7X5XV.y 9 T                                                                                     ",
"                                                  o.o.      c.k.D s M.Q.        i.4.X.g                                                                         # - 0 q - o t ].aXhXgX`.+ w 6                                     q.t.t.~.oXa.oXs.} 1.=XXXXXy.,Xx z a                                               Y.s o       9 6 G.].Y.a %XsX%X        DXFXUX0 - q q ).%X$X$X&X+X*X0XqXbXqX9X!.B.T Q z.! A M H C . . + O o                                                                                                                                 !.$X3X          #X3XP.C.I.P.R.Z.5.C.U j G 0.dX9X7X9X8X].u - 9                                                                                     ",
"                                                #X| O.        aX( U %X      NXNXr.3.3.i                                                                         X X . - B.R.u (.|.CXhXH.< 9 * #                                 @.q.#Xu.=X=X2.,Xs.| 2.=X.X.X<.s.| @.a                                   dXaX        q X X s     sX(.                        SXBXr 9 0 ; Q.%X$X&X&Xp.3X9XbXbXbX9X).n.Q ( S.^ J r K H O + $ @ @                                                                                                                   Q.5X          @X*X#X,X<X,X3X3X+X3X@.d @.@.3.Z.W.5.G k T (.L.8.Q.2X|.!.l ; *                                                                                     ",
"                                                u.} y.          (.x.        NXNXR.-.@.g                                                                       m.. 0 U 5XW.w.z Q.5X|.(.H < w 6 *                                 q.#X+.u.-X2.=X=Xa.h 2.s.1.a.| :.i.4.z                                 kXY - ;     $.- X $ & sX    %X                      NXSXSXj t q q /.6XQ.&X3Xy.,X9XqXbXbX6X_.M.! z.m.Q J 8 K H . O @ . @                                                                                                                   I.Q.          3XoX*X*X<X*X<X*XE.@X&.R I.R.R.R.v.R o j q k k a 3.R.Q.w.y s 0 U.                                                                                  ",
"                                              @X,.u.s.          aXW.        NXBXR.4.X.g                                                                       '.. - . m.W.).L.5X$X(.b.M + 9 * o                                 h }  .=X1X=Xf.| g g | h } p } o.d.3.c                         $X'.$XU.$.& # X m.xXj o # X o n.    D.(.Y.6.W.              SXSXFXF t D k /.6XE.3X,Xy.<XqXqXqXbX3X@XM.! z.S.( U m L r . # @ @ X %XSXSX                                                                                                              W.          +X#.#X3X*X*XoX#XoX@XE.3X7X3X3X7X6XL.q o o r ; & J.2X7XdXy D.F D.                                                                                  ",
"                                              p.>.+.p.          (.            FXR.4.X.g                                                                         q D - `.sXW.T.sXlX).%.r * t e s                               Q.h ;.<XeXKXtX=Xa.y.z i z t.#X+Xp d.e.3.              C.Y d Y ^ &.c.C.).*.* 0 s (.fXK X * * * &.fX                            BXBXj t C y ).6X#X3X,Xd.0XqXbXbXqX4X&Xq.&.U.S.( K 9 Z 4 + + O . X S d f                                                                                                                           E.f t.#X&X#XoXoXs.#XE.~.4X4X6X6X$XL.0 0 G j P . W.!.!._.G v.r (                                                                                   ",
"                                              4.+.1.oX                        NXW.4.X.g                                                                           F J mX].Y &._.kXaX~ C A C s D                               P.i d.rX<XtXeXXX1.s.p p @.p.t.h = <XoX3XAX  sX'.Q.(.(.Y.C.Y.).%X6XsX                                                          BXSXr 0 M r Q.6XQ.3X4Xd.0XqXqXAXqX0X3Xq.d `.M.( Q w V C + + O + @ Q d @ C 1                                                                                                           $X$Xw.w.E.&XY.8 d = p.#X+XoXu.~.i.3.2X7X6X6X3XI.s s T T P : W.J.3.I * q - 0 '.                                                                                ",
"                                              #XoX,.u.                        BXE.e.X.i                                                                           K e D e X * a C.D.K _ J q F K                               I.g i.AX<XrXrX<X#X;.i z 4...X.z f E.0XqX7X$XsXkX                                                                        SXVXSXSXSXe e M e ).sX@X6X0X!.0XbXbXbXbX0X6X4.z `.D.c.x.W {.Z . O O O . J z.z.[.uX%.                                                                                                      5X2X$XT.i.T.Q.M.A A X z #X#XoXp.+Xw.$.7XcXlXlXsX(.F C F ^ P q k l l ; * & . * = K hX                                                                            ",
"                                                ,. .p.                        BXR.4.-.g                                                                           q 9 6 $ . . o D D Q J J r D F                               $.; j X.x -.c h g z z ..I I Y Y z *.#.q.#.B.n.I.                                                                      %XiXiXsXnXkX0 w r C %XkXlXlXAXzXcXjX9XdX9X7X2XY.M.^.U.U.H.{.G.{.+ 4 O < n J ( k.z.b.A fX                                                                                                    5X%X$X).@XT.).Y.S S @ f &X#XE.E.Q.P.! %XsX6XlXlX).A d H x.c.R 0 $ % $ # * @ X * o x.kX                                                                          ",
"                                              #X| a.E.                        DXR.4.-.g                                                                           s + # # $ . # hXG._ P K D D s                               s * - ; = ; i z l z l z z F k d a 8 f i = ; a k                                                                       J k.Q J C J 6 6 e C /.Y.C.l.M.q.R R a a g k k d F ! Q Y D J K w + + O O O O O O O O @ S.VX                                                                                                5X%X$X$X%X).&X%XS.l.! 8 H (.R.L.L.L.M.8 K $.c.n.m.G.0 8 A c.~ F a . . . 9 6 # X X $ 9 sXkX                                                                        ",
"                                              0X,. .t.                        BXi.4.X.g                                                                           5.t + # # T _ './ G T ~ D r q BX                            * * 0 * ; a l @.3.w.@.Y z z a ; ; # - ; ; ; a s                                                                     X = e m C H r # < # + $ X X X X $ . . o X X X # * * ; * 6 @ 9 < # O 4 < + < < > O @ * 8 ( BXSX                                                                                          6X5X).Y.U.Y.S.M.z.D.Q W N C ~ N.P j G G.~ + 4 r K x.F ) 9 # M K K ^ ! Z n n M 8 8 * # # - X                                                                           ",
"                                              y.| | +X                        BXi.3.X.i                                                                       mXBXH.9 4 e r G.H./ j T T U D q r xX                            s a I d Y z @.E.bXw.3.@.z g d a a & : i g f a ;                                                                     & - 6 8 M 8 # 6 w 9 9 * # < 6 # + + + @ # * * 6 6 * * @ * o @ # < + O # + < @ @ @ # @ @ = MX                                              Y F F a j a d a d R c.W._._._._._._._.Q._.R.M.Q.Y.P.&.@.R c.M.n.c.L K K j P E y G P ~ D + % - t a - I 0 w e J s H U M N S A e 0 8 , # # X `.                                                                        ",
"                                                ;.o.!.                        DXi.e.-.g                                                                 c.s I W.'.F.L C x.g.^.V.G R 5./ ~ t 9 q sX                            z &.i.w.i.o.4.#X+Xu.4...o...#.a : x 4.s.,X#Xx X.                                                                    k ; j Y J s e 0 F Y ! Q F j A J Z H W C 0 r 8 9 9 9 9 6 6 8 9 # # + < * 8 e s e s J ^ *.).                d 8 %X          P.&.Y C.Q.W.0.R T Y k I R $.&.@.q.0.P.R.E.W.~.!.Q.Q.~.W.A.9.w.0.0.R.J.W.C.K.W.W.W.N.R.J.0.P.!.w.e.9.R.E - q l 3.!.$XL.F 0 C C 9 C r + + 2 5 < 8 d *.8 r K ).                                                                        ",
"                                                4XE.Q.                        DXq.4.-.g                                                       B.6.@.) / k ; y / ) ) / _ ( A J ! U T / 5.x.r q & * z 5X                        6X!.Q.i.i.4.4.p.E.t.;.X.x ..#.& ; @.p.+X+XE.i.3.                                                                    5X5XsXsXfXkXkXmXMXSXMXMXMXMXMXmXmXmXmXmXMXmXkXxXMXBXmXVXMXmXnXkXgXfXfXgXkXMXMXDXVXMXMXSXDX          W.C.C.%.*.T.Q.M.C.L.B.L.W.Q.Q.).Q.W.R.L.R.Z.L.R.W.Q.&X$X_.@X!.!.~.!.!.@X2X2X2XR.-.L.I.i E E E 3.R.5X8X2X!._.!.!.vX4XE.i.i.i.q.L.Y 3.R.3X,Xi.R F K C t K G._ ` g.` [.uXfXnXnXS H.(.MX                                                                      ",
"                                                  +X!.                        NX4.;.X.g                                               B.8.8.0.B.C.C.Q.V.q j T 5.v.V.^ ( ( J C F L G T K v.q . o o o 9 q y l k k j s G T G G k I R @.E z z x E X.@.z ..x @.@.s F $.B.q.4.4.q.6.W._.%X'.$X_.$X$X_.$X$X$X!.$XQ.Q.&XQ.Q.W.R.P.P.P.A.P.Q.8.q.0.w.0.0.L.W.I.Q.(.G.Y.W.%X%X%X%X%X%X7XdXsXkXxXmXxXMXxXkXkXkXkXkXxXkXkXdXaX%X%X_._._.`.$X).).Y.L.L.L.L.6.8.E 7.B.B.A.C.N.Q.!.R.w.w.w.w.w.9.w.w.R.R.R.w.R.R.R.R.w.W.Y.Q.$X$X!.@X@X!.}.@X}.,X~.R.e.8.3.: l l l & x w.e.X.x @.-.h E.,Xa.<.;.y.4.i.z e.w.R.w.3.E I T R P ~ b.H b.iXgX|.G.Y.Y.iXiX&.m.k.G j j l E 7._.E ; k k k                                               ",
"                                                  @X@X                        NXX.-.X.z                                         P.M.6.8.$.4.7.7.8.$.8.N.l G T ^ E T U T ^ K 0 D F r y G 5.y q # o # 9 0 * & - ; q 9 - 0 - j ; j q a a ; : u a a a l q a a z a 0 ; l d a i a s 0 ; 0 a i f g f g z z z z @.x @.$.$.@.&.3.8.8.8.8.8.Z.' E 8.@.$.E / $.8.R 6.$.^ ^ &.M.m.n.T.T.Q.Q.$X$X5X&X$X$X$X%X_._._.).).).W.W.W.I.C.C.M.0.M.0.&.6.0.6.3.8.$.$.E / G ' 3.8.9.3.w.w.R.9.w.w.w.w.w.3.q.w.w.w.Q.!.@X!.!.R.I.C.Z.B.L.Z.R.e.r.i.w.J.3.w.w.w.E 9.J.9.7.7.7.8.w.w.w.w.X.3.4.w.;.<.:.X.o.4.E.#.4.3.-.-.3.4.$.$./ 5.5.y # %.gXLXUXnXSXsXiXiXF.F.).T - q y [ W._.G . X o s                                               ",
"                                                  !.$X                        NX4.4.-.@.                                      ! l.M.0.0.0.7.7.7.8.] / E T l l l k j k k G j D _ ~ ~ ) L t y y t # # 9 0 q q q j a a ; ; - - : & - - - q - - : u q y y q ; 0 j j j j d d k d d a a a k k x I E z z x z Y E E R ' R R $./ ] R E / / 8./ E / E $.R R 8.$./ 5.$.] ] &.$.5.8.0.w.Z.w.0.L.A.0.9.8.8.8.E z l k E R R ] R $.R R R R E E R R E E E P E T T G P ' E G E 8.E 3.7.3.7.8.3.$.3.8.3.E l q 3.8X7XQ.q 0 s s r t y E 8.3.E [ x c P l E E G E T E E G z I k c c P g c @.4.g -.-.| 4.4.i.q.q.3.3.x 9.8.8.] v.5.5.P 9 _ S.].U.m.iX(./.Q.( G.|.q % - L { H.K.t . @ X q                                               ",
"                                                  !.$X                        MX#.4.X.@.                                    C m S &.#.E x E ' ' ] ' ' y I P $.7.5.0.5.@.P P G K ~ _ K y t y q ; - s F &.b.n.n.N.7.c.6.5.n.7.7.0.B.N.8.5.9.N.v.] 7.5.5.6./ $.$.8.8.v.0.$.@.E E z q l a l g c l g l a l l c l c P l y G l l l k l l l l j l j L l l G z P P x E E ' 8.] 3.9.r.R.J.w.w.e.3.' { x E c x l c c z c x E c l l l l u g l g u l g u y u u t l t - - F U a k q & j j j y j j P G q t 8.6XxXdXG * 9 r M M t ] V.' ' [ P E c j l : - y g q l a a l u u u u % u c l g g { [ 3.@.@.8.R @.R 3.x G G G G D r + + < w < 9 # D + X ; * F 9 $ % - u P 9.K.y . + $ r                                               ",
"                                                  E.@X                        cX..| X.3.                                    8 , , L.Z.w.r.w.N.A.N.9.N.v.V.v.6.v.B.7.8.E 7.[ V V C V e j 7.0.Z.5.&.6.R 0.C.C.B.C.A.B.B.w.A.B.w.L.Z.R.i.A.9.Z.A.N.9.0.9.9.0.0.7.9.3.R.d.i.c 3.x E 3.' 3.3.3.3.3.3.3.3.3.8.9.9.9.9.w.9.9.9.9.9.' 9.8.J.9.' 8.7.9.7.9.Z.R.R.Q.W.!.!._.!.|.2X!.!.|.~.r.w.e.e.9.w.r.w.w.3.9.e.8.9.3.e.3.3.' { ' ' ' ' { P { E P c P E G T D % 4 < J ( %._ U y K L L L H r H L t q q I Z.5.+ . + 9 M H t E ] P P P ' P L j a s q G I T R P P ` P ` ` V : P j y u y c V E x q q a ; q e j V % % o % # O + # + O . . 4 $ X X . . . 4 o - y ` ] U.L . @ + e                                               ",
"                                                  i.!.                        kX..X.3.w.                                    7 , o W.w.w.w.r.J.r.9.J.A.N.V.c.U j G N.J.9.A.A.y r 4 > 9 F 6.L.0.0.q.w.C.I.I.L.C.B.Z.B.L.A.P.L.R.R.R.R.R.R.L.J.J.K.A.Z.Z.A.Z.A.w.w.w.R.i.+Xc x 9.3.8.8.8.3.w.w.w.e.e.w.3.w.9.w.J.~.R.r.R.r.R.R.r.R.R.R.R.R.R.W.W.W.R.Q.!.!.!.!.!.!.!.!.|.}.|.2X!.R.x 3.w.w.9.9.3.3.3.3.8.' { { e.e.' ' ' ' ' ' ' 3.9.3.' ' ' ' ] ] P / ~ # e e ( k.k.( &.Q _ _ ) _ ` ` ) ( K D 9 _ H.G + . 4 w M n 5 D c u u P u y j P I T P / 8.5.] ] ] ] [ {.[ [ ' [ H.[ ' ] [ H.V.x.% % # # e K G.x.r # . M 5 . $ + . . . - ].L o 9 o 9 L T G y P ] H.W.D . + O e                                               ",
"                                                3XT.@X                          x } #.q.                                    , , 6 K.A.J.w.A.9.9.9.9.w.K.W.q * $ o 9.9.e.8.[ t t M M 6 s n.L.L.n.B.0.7.R.C.F.C.N.N.0.7.0.9.0.0.B.w.w.0.0.w.B.A.W.Z.K.Z.C.W.P.P.w.w.P.d.R.c T E / c G P E 8.7.w.9.9.e.A.N.7.6.9.K.R.R.J.R.R.R.~.R.r.R.d.R.9.R.K.Q.Q.!.~.Q.~.!.!.!.~.!.!.!.!.@X_.c & c l y l I I z l ' [ { c ' [ [ { ' { ' x { ' 9.' 8.9.' ] 9.8.] / 5.^ 9 e w k.x.c.c.5.%.k._ Q ` g.( x.) K ` K V.x.T + + 4 4 2 5 9 K j P ' P P P ' / ' T ' ] ] ] 9.9.9.9.9.9.[ 9.[ ] 9.K.9.] [ [ V.] $ 4 @ @ 6 _ b.b.] ` {.S.W . . . . . . ] (.H.7.7.v.V.W.(.T ` x.H.H.K.G . + + w                                               ",
"                                                3Xp.&X                          X.} X.B.                                    7 , 9 F.N.9.w.r.J.r.r.r.J.J.(.o # + . 9.r.{ [ c 4 w 5 < 6 s 6.P.q.0.q.0.k n.m.c.N.F.N.N.7.7.8.8.8.8.R 3.8.8.7.8.N.m.v.T j ; ; x 3.8.n.i.w.w.; 9 - - q % # D - G 8.3.3.' 9.A.j k j 7.9.8.A.J.J.J.R.R.x e.w.R.3.N.Z.Q.W._.!.!.!.!.W.!.!.W.!.!.!.!.Q.j . t r # & 0 ^ ( 0 v.9.c { e.r.[ [ P [ ' [ [ ] ] 9.9.8.7.8.N.H.9.v.5.Q 0 e e ( ^ ^ %.5.%.x.k.%.x.k.%.x.( K F C ) v.R 9 < < w N Z e ~ / ' ' ' [ ' E [ ' ' ] ] ] ] v.9.9.9.9.9.H.9.H.J.J.K.H.9.K.K.N./ . < + O O ( 5.H.H.x.{.{.V . . . . . $ D.F.V.5.5./ 5.v.v.7.] 7.H.H.K.` O + + 0                                               ",
"                                                0Xp.@X                          x } #.q.                                    8 1 + G.] 9.9.w.r.w.w.9.w.J.5.+ $ $ . N.e.[ { V 5 5 t M H D n.B.B.0.N.5.. * @ . T V.I.B.B.N.B.N.7.0.N.N.N.N.n.V.F.~ . # . $ . k n.0.q.w.0.n.9 % # - q r r r r T K.0.9.w.A.N.j 9 9 y P y ] 8.9.] 3.] : c c E g 5.N.W.W.~.W.R.J.Z.R.Z.W.I.I.L.R.W.W.C % r H # w C ^ m.F H.P E ' { [ ' l u u P P { u ' 8.7.5.5.{.K.H./ 5.] ( M M 7 K $.^ $.$.%.x.k.) %.k.) x.) K D K 5.6./ r J ( {.b.l.J ~ P ] ' 8.9.] ] ' [ ] E [ [ ] [ 9.[ 9.[ 9.N.9.9.A.J.J.K.9.K.9.9.` + + < 3 > {.) H.V.V.(.{.M . . . . . + 5 ~ / T 7.) ] x.N.5.5.v.H.H.K.L . + + 9                                               ",
"                                                0X,.E.                          X.} @.M.                                    7 1 @ D.n.9.3.e.e.w.9.e.e.9.v.9 + + o A.[ { [ V t H W V W A n.B.B.B.Z.n.. o @ # I W.L.A.B.C.N.N.N.C.V.N.V.V.V.V.V.K + . O . $ U n.0.7.0.7.v.# 4 9 q V D y r V R 8.9.w.9.8.7.9 w 9 y V l ] v.8.E ] 8.7.] 7.E ] E N.Z.N.9.3.G l E 7.N.n.@.@.6.6.Z.v.r 9 C j # r Q Q ^.G 6.E ' ' { e.c l - G P P { [ ] 5.H.8.5.x.H.7.] 5.x.( M M w Q %.$.$.6.%.m.c.k.x.x.%.x.) K D G ^ 7.$.L K Q ) g.( D K ` E / 9.9.8.' ' ] 3.[ ' ' ' 9.9.9.[ 9.9.J.[ [ J.J.9.9.K.A.J.H.P # 4 > M < {.) v.V.D.(.{.% . . . $ O O > 4 * t N.H.b.v.A.H.H.J.V.V.(.K . + < 9                                               ",
"                                                #X,.E.                          h h #.i.                                    m , O V.V.w.9.r.9.e.9.e.9.9.6.t # + . N.3.{ { c y M Z C M K c.P.B.P.C.C.$ @ < O T C.Z.A.Z.Z.B.Z.C.Z.B.A.A.V.V.U.F.4 + . O # @ n.n.B.P.C.F.F.G w 9 r _ _ ~ K G ] w.L.w.w.9.7.I t y K E / / 8.9.9.A.H.K.] ] ] / / N.9.9.A.Z.A.N.N.N.Z.N.Y 6.k N.] ^ $ # L y $ G a o G V.7.9.e.' ' ' { 8.l ' [ c P 9.' 8.7.5./ ] g.] 5./ g.{.C M w Q %.) $.R ^ ) ~ ~ %.) &.x.^ ~ K K %.n.Z.D.W.D.D e < % - P ] P ' P ' ] ] ] ] ] ] ] ' 9.9.9.' ' J.9.9.[ K.J.K.9.J.A.J.v.` 4 < 5 n 5 {.] v.D.H.(.] 9 . . + > + < # b.F.k 5.x.v.H.N.H.V.V.V.J.K._ $ < + 6                                               ",
"                                                E.O.+X                          h h #.T.                                    m 1 O H.n.w.w.w.9.w.w.w.e.9.x.# % $ $ 9.[ { ' P L Z H Z m U 6.B.P.B.Z.Z.s ; e j R B.B.B.A.A.P.Z.A.A.P.B.A.B.V.C.F.# o . + . 9 m.N.w.P.Z.Z.F.q t # H ~ ` ` T l 9.9.A.R.R.R.Z.5.j G 8.5.7.' 8.8.3.9.] 5.] 5.9.9.7.B.7.J.R.R.J.B.9.B.q.8.q.$.k l N.V./ ~ N.8.W.Q.W.Z._._.Q.9.3.3.8.' 3.' E ' ' 9.u ] ' 8.v.v.6.%./ / c.x.c.b.J A M K k.%.%.$./ %.) / %.%.%.x.) Q K U $.0.B.7./ U * # o $ * : P T L ' P ] ] ] ] ] 9.9.9.9.9.r.3.[ J.A.9.J.J.~.K.r.J.J.K.H.P 9 2 5 w 9 x.5.x.H.H.].5.j . . . O O < . ~ H./ 7.x.b.H.A.H.V.V.K.A.].^ O + < 6                                               ",
"                                                E.4.Q.                          z h #.T.                                    m , , H.n.w.w.J.R.w.e.9.9.7.7.9 + + $ 9.e.e.{ P L J C C e F 6.B.0.B.Z.0.R I 6.6.6.B.w.Z.L.L.Z.L.L.P.A.A.A.Z.Z.C.V.j . . $ o q B.q.R.R.P.R.I.H.y # H ~ K K T P 8.w.R.~.Q.E.R.n.l 8.N.w.9.9.9.9.w.9.w.9.9.9.] ' 7.9.9.J.w.J.w.w.R.9.9.A.w.R.q.8.B.Z.W.R.W.R.W.!.W.Z._._.W.8.0.7.8.3.8.8.8.' 9.r.' 9.3.9.9.N.v.6.$.6.v.c.c.b.Y M e ! c.6.6.&.%.c.c.%.6.%.5.v.%.~ K U %.n.P.n.@.R k 9 - # 0 y 8.7.E T P ] 5.7.9.[ ] 9.9.J.J.J.' [ J.9.N.[ [ r.J.9.r.J.K.J.L 9 9 9 t q H.v.5.g.N H K H $ . . > 9 e 9 5.V.N.v.N.N.H.H.A.H.G.V.J.(._ + # < 9                                               ",
"                                                q...@XlX                        h X.X.T.                                    m 1 , b.v.w.9.9.w.9.w.9.w.9.5.s . $ % 9.[ { [ P L V M M e F &.0.0.B.0.w.E I 8.8.7.B.B.Z.L.R.L.Z.R.L.P.Z.L.Z.Z.B.B.I.E / n.v.v.C.L.P.E.R.R.W.V.G 5 g.` ` K T l 9.A.~.E.~.Q.A.8.E 8.N.w.A.w.e.w.R.w.r.w.9.3.] / 9.A.A.R.R.J.!.J.!.R.A.Q.~.R.R.w.W.L.B.W.!.!.!.R.R.J.Q.5X/ 5.@.a s E 8.8.8.9.w.3.3.9.3.v.N.v.n.c.%.6.6.6.v.b.J A Q ^ c.M.6.c.6.m.n.c.k.%.x.c.%._ K U 5.B.L.q.&.6.^ k F o - G T / P E T / $.5.8.7.9.] ' [ 8.9.' e.J.9.9.8.[ [ r.9.K.J.J.A.j % < # D D v.7.x.N O L H.) 9 K K g.V.V.G.V.C.V.N.N.H.H.N.H.A.V.V.V.(._ $ @ # <                                               ",
"                                                E.@X6X6X$X%X                    i @.@.E.                                    S , 3 H.V.9.E 3.9.3.' E 3.3.3.E ' ' ' 8.e.[ ' c j D M V w D $.q.0.0.0.7./ $.8.$.6.N.Z.L.R.W.R.W.R.L.L.A.A.B.Z.Z.Z.Z.N.B.Z.W.R.R.L.Z.R.R.W.Q.W.L 5 W W M D T E 7.Z.i.w.w.9.7.7.R 3.7.w.w.3.e.r.R.9.3.w.9.w.' Z.Z.N.A.9.K.w.J.w.R.R.9.J.Z.R.w.Z.A.Z.C.B.A.L.L.7.7.V.N.W.E R U = G ; $.$.I 3.8.7.3.5.n.8.n.B.n.c.6.c.c.H.c.m.%.G %.c.&.c.c.c.c.n.M.c.c.%.6.c.&.k.U U c.C.I.0.0.6.6.%.%.s # v.R 8.T E T 5.8.] 5.9.] ' ' ' 9.9.9.[ J.N.A.7.' 9.N.J.K.R.A.Z.t # 0 K Q 5.H.5.T s . L 5.5.G ^ &.x.b.m.V.F.U.D.I.F.Z.G.V.V.G.V.V.H.U.x.. < + #                                               ",
"                                                        7XdX6X                  = ..@.E.                                    W 2 > G.V.A.w.J.J.9.w.9.9.9.q.3.9.9.9.9.9.[ ' P l y M C w U 5.0.0.7.0.7.] c.5.5.7.C.F.F.F.F.I.K.W.I.L.Z.Z.Z.Z.Z.Z.Z.Z.N.Z.B.W.W.R.F.I.W.W.W.W.5.9 W H ` D j R N.J.W.W.R.W.V.7./ N.A.Z.R.J.w.w.R.R.J.r.w.w.' A.A.N.J.Z.W.v.B.8.N.K.A.R.Z.L.L.W.I.(.W.U.(.W.U.C.V.V.m.x.x.%.x.&.c.c.m.B.&.6.c.c.n.c.6.$.%.6.%.c.k.k.c.c.x.b.k.( %.b.k.c.l.x.x.b.c.b.m.k.k.l.%.k.~ J %.D.I.B.C.m.m.m.b.v.U %.%.^ T {.x.V.G.H.V.C.V.N.N.9.N.A.v.F.Z.V.V.v.8.C.F.J.K.W.F.C.^ d d c.b.G.V.b.~ q X / x.v.b.v.H.S.D.F.F.G.Y.G.U.^.W.U.U.U.^.K.[.].].H.+ + @ #                                               ",
"                                                          &X                    p ..#.Q.    sX                              Z 1 > H.U.J.J.J.R.J.w.w.r.9.J.w.J.r.r.r.r.[ [ E P y r M 6 Q 6.v.7.8./ / / x.5./ ) v.F.F.F.W.W.F.F.D.V.H.V.v.N.N.v.v.N.N.N.v.7.5.v.5.5.5.5.v.b.( V Z H 4 < w L ~ T ~ P _ L ` T r K.F.Z.R.R.Z.J.W.W.W.W.B.A.N.V.F.V.U.F.W.K.U.W.U.(.'.(.(.(.(.].`.).(.].).(.^.G.G.S.b.x.l.x.g.g.g.b.g.( k.) k.k.l.x.( ( _ ( ( ( ( ( ( ( _ ( ( ( ( g.( ( ( ! ! _ ! Q K C e M 6 7 w 7 J 5.c.6.%.x.x.k.x.g.( _ K K H _ g.g.g.g.g.M.b.v.b.c.c.b.v.m.M.D.c.c.x.C.I.W.F.C.C.m.&.! A ) x.k._ K D w w H D C 6 w w m M C C H J K K W H J H H L ` V J V w O . # #                                               ",
"                                                                                p ....@X    5X                              e w > L (.).W.Q.Q.~.!.!.W.Q.W.R.Q.W.K.r.9.9.] ] ~ H Z Z @ J 5.v.] ^ I P K ~ ~ L H D D y y M M r r r H y H y r r y r r t y r t q q q 9 0 9 9 5 t n M 2 < < + + + < # 4 + # < 4 9 y D L l G y l j j j r j L K K t L r y F D D 9 M H t M m w w 6 2 8 2 2 , , , > < > O O O O , O 3 3 2 7 w w n e M C M Z M w M w 7 w w M e m H C Z w n 7 w 7 6 7 w 7 7 6 < < O O + @ 6 6 9 0 * 6 6 8 w r e C r m , v B B 1 2 + @ @ , * o . # * @ 8 * 6 * 6 8 e e e s H A A s e 0 < 9 < < 2 9 3 < , , < O O O O > O O O O O O O O + . @ + 4 + > O @ @ # *                                               ",
"                                                                                t.} #.Q.      ).                              3 < y ].5./ y t q t 9 t % y j P T L L P P ~ W H M 2 7 2 6 + 4 5 5 9 % r L L C V D H D C M V V M M M M t r C M M M M M M r t w w w t t t w t 5 5 < < < < + + < + < + 4 + # 4 4 + 4 t 9 9 % 4 4 4 9 9 9 9 9 % 4 4 4 9 5 9 5 % w 9 O O + + O @ O O O @ @ > O O > O > > O > + > > > > 3 > 3 , 3 3 2 2 w n n w 6 w M M M r M M e m s M w 8 6 6 w w w 9 9 2 @ O , @ < # 6 9 9 9 9 6 # @ 4 6 9 < t 6 > 2 2 > < . @ @ X @ O . . @ @ . @ O . + @ @ # + O + @ * @ @ # # # > + , 3 > + < + + , # + O + + O O O O + O O . . @ + + + O # # 6 C k.                                              ",
"                                                                                t.o.#.Q.      sX                                _ ].uX. . . + . O . $ + + $ + # $ + + + O O > 1 > > > > O > 3 O O + O + # O + + + O O O O O > > > > + < 5 5 5 w w w 5 w 9 5 5 w w w w 5 5 5 < + > + + > # @ + > 3 + 4 4 + 4 4 4 < 4 < 5 w 5 w w < < < + + + + # 4 + 4 4 # + O O + O O O O > O > > O O O > > O > > O > O O O > O > > > > O > > < < 3 < < < + + < , # , < < @ @ @ , @ @ @ < < # , < # + + O @ @ # # # < @ # # 9 e * # + + 9 5 O O O O O O . . O . O O O + . . O . O + > + O O O + @ # @ @ @ > @ + > @ > > < < 3 . > + O + + O > O O . O . + . . $ . @ $ . V.aX                                                    ",
"                                                                                t.o.#.$X                                            ^.. . O . . . . . O . + . . . . . O O > > > > > > > > 3 [.^.> O . . + O O O O O O + O O . + O O > + + > < < < < < 3 + # > > + > + O > < + > > + + + + + + > 5 3 + + + 3 3 + 5 5 5 4 < 5 < < 3 w N w < # # 4 + # 4 4 4 < t $ . + . O O O > O > O > O O > O > O > > O O O O > O > O O O O O > > > > @ O + , + + + + @ @ @ @ , 6 7 w e w 9 < + + # + + @ + + + + + O + + @ O + + + # # 9 > O > O > + + . O O . O O . . . . O + . . + O + O O O O + $ @ + + O + @ O # + . + O + + + + . O + + O O + + . . . . . $ $ 0 aX                                                        ",
"                                                                                o.,.#.&X                                                  # + + + O $ . . . . . . . . O > > > v v 3 v 3 > h.uXpX^.> . O + . . O + O + % 9 M W x.[.].].uXuXaXuXaXaXuXaXuXuX'.`.].].[.G.b.) W 5 O + + + + + + + > < + % 4 + + 3 > n 5 < > 5 5 7 5 < 5 < . > + + + 9 w M C C L ].. . . O O O > O > O O > O O > O > O > > O O O O O > > O > O O O O 2 < < < < K ~ D D D D G D C 6 * X . . . . O + + O + + < + + + + + O O O . O . . $ @ # # K + O . . . + H VXUXUXVXgXaX'.(.S.g.L K H H C t M > . O O . . . + + + O + $ + @ . * @ H # + + O + O + + O + O + . o . G aXt ) kX                                                        ",
"                                                                                 .o.#.).                                                                      fX].aX6 . > 3 3 3 v v v v > [.uXpXuX1 O O O . O % $ + uX                                                      G.O L M % + 4 3 4 ^.K.].V t {.[.` + t t w '.            `.%.@ b.g.G.'.        BXUX5 + + . O O O O O O O O O O O O O O O > O > > O > O > > > > O > > @ O < . `.                        %X(.].|.aXaX# # O > < 3 9 @ < 6 < 6 '.BX                . . . O O > M UXIXLXLXUX                      uX> + < . O . . # ^ b.b.x.%.O r G.H./ 5X^ . O + O 3 O + > < > + . # hX    (.q                                                           ",
"                                                                                o.,.#.@X                                                                        SXUXm > > > 3 v v v v v v /.iXiXfXg.> > . O . M 4 ] aX                                                      ].. [.uX{.$ $ 5 r ].mXCXH.{.gX_ G.H + t 5 uX                                    BX9 . . O O . . O O O . O O > O O O O O > > > + > > > > O > O O O 5 S.2 < + ).                            '.R ] H.w + O > 5 H ].K O O . @ O                   O O + . O . . v g.uXmX                        [.O 2 < . . X . b.W.U.D.D.V.. _ (.V.W.V.v.t . O . . . . O + + O @ &.                                                                    ",
"                                                                                o.,.#.@X                                                                          iX@ > 3 v v 3 v v v v v uXiXiXuXuXO O > O + x.P v.'.                                                      '.% ] hXV._ . ` G.V |.hX].hXhX{.H.` . 4 V H.                                      J . . O O O O + . . + O + O > O O O O O > > > > + > > > O O + > ( nXg.< w 6.                            k . . 6 H.# . G.mXQ # 6 + < @ 6 *                   . . O O + O . > > . v                         ! 1 n 2 O + + . ).'.(.F.I.).. ^ W.5X_.5X].y O + O H.S.b.K @ # - . S.                                                                    ",
"                                                                                #.t.o.Y.                                                                      SX^.. /.v > v > 3 v 3 v v v uXiXiXhXaXv O + O + _ ] ] ].aX                                                    uX- x.gX].5X$ ].[.% 4 {.|.CX|._ H.v.V.- - r                                       K O O + 4 t t 5 + + + + + + > O O O O + > > > > > > > > O + . . b.gXS.@ J                                 9 * S.`.O + kXVXw . @ @ @ # 6 *                   . O O + O . . O 6 Q                           e Z 2 O O + @ . W.(.R.W.W.'.0 D.C.$X5XsX%X~ + 5 9 V.).'.aXC 9 D X ].                                                                    ",
"                                                                                o.o.@.P.                                                                          nXLX> v 3 v > 3 1 1 v v pXiXaXiXgX[.O O > O K.v.` W.5X                                                      $ L ].aX].` ` |.H.+ 3 {.gXG.+ A.xXCX|.% r [.                                    k.O + + 5 M V D L H V r 5 4 M M C M t < + > > > 3 3 > > > O . . S.NX'.r         %X                          6 O 6 6 < UX(.X + O < @ @ < 8 X                 O O @ @                                       w < . . . $ o T %X$X2X$X2XdXa I.Q.6X6X2X5X` + 5 4 T ].|.].9 9 U 6 '.                                                                    ",
"                                                                                ..X...C.                                                                              b.uX1 1 3 3 3 > v v pXiXlXhXfXfX3 . + O |.b.' Z.5X                                                      9 t ) v.^ 9 '.hX  ) + 9 H.C $ (.xXdX7XU 7 ,           _                         S.O + + w L V D P L M y 5 # J ` H M M 2 2 > 3 3 3 3 3 3 + + O O V.LX            %X                            6 O , ! BXw @ , < O , < 6 w @                 O 7 O W                                     aX$ . % o # V.`.%X%X&X$X!.2X7Xq.kXjX7XdXdXsX] 2 5 5 9 _.5X].- q K * iX                                                                    ",
"                                                                                ..p z T.                                                                                BXuXO > 3 3 1 b b pXlXiXfXhXfXh.O > + gXH.' 0.'.                                                      C 0 _ F.J + |.      9 O w C e C ).%XH.W , >       ! W N 7                       ^.. < # 9 H H L K L L M t > ` ) L j r 9 7 < 3 3 3 3 3 3 + O O > S.                                            ! O 2 W nX> @ 7 b.aXr 8 , @ 8                 > 8 @ U                                     '.F %X].'._.dXsX%X$X$X@X!.@X_.8.7X6X3X7X6XdX%.# 4 9 9 '._.W.$ * t # aX                                                                    ",
"                                                                                p ..p T.                                                                                BX`.. > 3 3 3 v S pXiXiXgXhXfX`.t + + CXN.3.8._.                                                      J 5 ) '.&.k.        '.< e M m . S.'._.G.O H     ).O ! S.w                       [.. # < 2 M y L K L K t t + W ~ C r e w w 5 3 3 3 5 v 3 3 O O > S.                                    R       J 7 b 1 gX> O nXmXBXw < @ @ @                 > 7 @ A                                     `.`.MXgXgX5XaXdX$X$X@X@X@X3X!.z $X6X7X3X6X5X/ O + 5 9 5X5X5X. 6 r - '.                                                                    ",
"                                                                                = p f Y.                                                                                  _ . + > < > b S.nX/.iXuXaXhXaXuX# . aXJ.3.Y (.                                                      ~ w H.'.V.hX        sX%XF S.e @ V.hXxXxXF.-     I X 5 ].$                       ^.. < < + D K K K K G V M , M H r r C w w 3 3 3 4 n v 3 + O O @ k.                      e 6 8 . 7 ^.`.6 c.    7 v 2 > S.e W gXBXVXC 7 @ . 8 *.              . O , J                                   &.n.C.Y.~ ( K D.'.5X).).$X$X$X_.Y %X6X5X6X6XaX~ # < 9 9 5X5X_.V.D r 9 hX                                                                    ",
"                                                                                o.p h T.                                                                                  S.O , O 3 @ 7 /.z.> iXaXaXaXaX].+ . 9.W.' F ^.                                                      %.+ {.|.F.              ).x.9 - 9 ].dX6X].% %X  k.. X o |.                      ].. < < + L ~ T K K P D W H e M K C K t N 5 3 < 3 n v v 3 O . O &.                    k., J C , O 1 7 . m.LX  8 , b , C * gXfXfXgXiX. . X S.d               O O # J                                   X & & @ . . . + J '.Y.Y.T.C.Q.B.F 5XsX6X5X6XgX%.* 6 9 0 5X6X5XW.F t % hX                                                                    ",
"                                                                                o. .z L.                                                                                  aXO 7 , , , < B b > /.iXaXaXaX'.H.. o |.9.q H.                                                      G.4 {.aXF.                aXG # # e ).aX`.< W   `.$ % $ !.                      ].. 4 > 4 _ g.) ) ) ] L G.S.K F ) K J M C 5 2 2 3 v v 3 3 O . @ U                     . O 6 C m.aXkX%X. c.SXS.8 , O O e .       mXaX. , @ ! 8               O . # Q                                 l.X o $ . . O O < D V.Y.q.M.P.W.0./ 6X$X5X5X5XhX%.< < 2 9 dX  dX'.F 9 # 5X                                                                    ",
"                                                                                *Xu.#.T.                                                                                    w w < , > 3 , > O [.iXaXaXaX5X].$ . 5XJ.t )                                                       ^.+ ` gXV.                    F 2 , `.xXgXW 7 /.! % v.y % 5.%X                UX[.. + + < W ) ` _ {.G.) ] v.R a T ) C C M 9 5 2 < 5 v 1 > O X @ Y       & s         5Xj . . . U mXSXmXF '.* X @ * O , m .         gX`.C O A 8 Y             O . @ !                                 Y X j (.b.c.(.%XaXgX%XY.T.Y.P.W.@.& E I E |._.aX! < + 4 9       5Xs # $ ].                                                                    ",
"                                                                                oX<.#.&X                                                                                    O 2 < 6 3 1 ^.S , iXaXsXaX5X5X'.x.. Q.W.q T 5X                                                      4 _ dXI.                      G.< r hXxXgXq > 9 ).sX].. $ D w > ^.LXLX    BXFX(.. O + > 4 5 5 M V t C / ).$X8.k T A M C n w 9 w n n v > @ . @ F       ; q 6 0 o . 5X5X8.& . d aXMXMXVXsX@ . = UXW < z.<           mX8 . 8 * X             # O #                                 K ; X sXgXlXgXgXgXgX  ).M.L.C.q.W.dX5X_.5X%X_.5XgX^ < @ 9 0         U # $ ).                                                                    ",
"                                                                                oXu.t.@X                                                                                    > 2 # + 3 7 iX! 1 fXfXsXaX5X5X|.].. ^ _.L H ].                                                      4 b.gX                          S.H MXCXCXkXM S.hXhXdXG $ # v w LX'.H.'.BXUXBX[.. O # + 3 3 3 3 4 + t A.R.@XR.6.U C H C M M 9 2 w n v 3 O . @ 0       _.aXV.. . . U HXDXkXkXsXsXmXMXBX'.. . d UXM w                 n . . @ X             @ . #                                 d 0 * MXgXlX          I.&.L.L.R 5X                _ 9 3 9 -         T + #                                                                       ",
"                                                                                p.t.4.$X                                                                                    > w < 2 1 (./.S.O 2 gXhX5X5X5X|.'.O * _.P y D.                                                      D H.aX                            (.Q 6 G.G.+ r CXxXhXW.. + v ].b.M + . CXUXLXuX. $ < 3 5 5 5 3 + + y / E.@Xq.$.Y w C A K K H M t N n 3 > O @ X             I.~ # (.SXFXSXkX(.J K m.m.* $ X &.LXn 2                 aX, O 8 e `.          < . O                               d 8 0 * 6.kX            c.&.Y.P.@.$X                ! 7 < # 0         R % -                                                                       ",
"                                                                                o.+.X.Q.                                                                                    O 2 @ 6 @ iXiXfXO < gXhX5X5X5X2XuX% 6 (.P P 5.                                                      H.'.                                aX7 [.^.. - CXNXCX7X7./ w S.b O + + t LXLXuX. # 9 < 5 n n v + M r W.E.@X@.k I 0 r H K U K L 5 V B 3 > O O .               BX`.b.MXBXVX'.# . @ * * . 6 . fXLX`.                    . . 7 d Q           < . O                               F @ 6 o X               @.M.T.T.6.6X                J < + * -         R 9 -                                                                       ",
"                                                                                o.o.#.i.                                                                                    O 2 # < @ fXfXkX, O aXgXsX5X5X6XhX'.L F.' ] L 5X                                                    aXhX                                  G.W (.9 q mXxXNXNX_.LXH.H N > + 3 + '.LX_ + < + < t n n 5 > t t N.p.3X3.z ^ K D H M y C C M n B 3 3 O O .       W.. 9 H M O O 2 9 t * . . o X X $ - $.                          b.[.S 8 *         S.6 @ o                               * . 6 * X               q.W._.Q.L.                  K 9 . # q         k 0 $                                                                       ",
"                                                                                 .+.o.*.$X                                                                                aXO 7 < @ @ gXfXgXnX> O fX5X5X5XsXhX5XA.' ] K.D ].                                                    hX                                        > x.y T W.vX6X3.BXH O [.V > < 4 4 H 2 O , + > + 5 5 n + n r v.4.@Xq.q.v.( K D D D D C t n n v > + O + `.VXxX. . t l.! O 1 7 O @ . O O . - o '.                                nXb 8 7         b.# . .                             %.* # 9 o ,             5X0.$X@XQ.I.                  U 6 X * 0           o .                                                                       ",
"                                                                                o.t.X.#.3.$X                                                                              iX> < 6 8 8     gXfXO O K gX5XhXhXhXgXaXy H.H.q v.                                                                                                5.9 ; - ].o q %.+ . mX5XM r 5 3 > > O @ > 5 w M V Z M V j 5.q.!.R.0.n.6.F C F G F C n n n v > > O O (.NXxX%XW.. O O O b IXC F.fX! < 8 X . IX                                @ O @ @ F       ! < @ o                             Y.- k R * c.            _.6.w.Q.C.@.                  Y 9 X # q                                                                                     ",
"                                                                                #.t.X.#.q.Q.P.                                                                            `.< > 6 6 A         w O . xXhXdXhXhXmXhXo $ # + / _.                                                                                                F.t + L < k.6 . K MXdXV.@ b.'.H O . < 9 D C Z V N M C t k R 0.L.C.6.^ k D K U K M M n n 3 + > O O + e {.H.FXmXK `.h., fXD . e UX    mX                                    . . O . 8       F # @ 8                             Y.U.xX                  %XI 8.P.P.$.                  U 9 X * q                                                                                     ",
"                                                                                o. .z @.0.P.w.                                                                            (.> O 9 w (           O . H.gXgXgXkXmX$ . . . . F x.                                                                                                  {.C w w t . t '.CXNX'.. S.BXfX` ( D < D C V Z H Z H 9 j R $.$.$.%.T j F K F K H t n v v 3 + + O < + . . mXgX'.mXUXg.A 7 . O Q                                           fX. 6 e *       6 # o e                         sX0 8 '.                    ).8.4.q.8.6.                  G 6 X * q                                                                                     ",
"                                                                                ..O...6X                                                                                  ^.< O w 9 U.          # . . aXfXgXgXfXO . . . . j 5.                                                                                                    G.M 5 < + # x.zXxXV.. s `.gXy b.D q C q C A Z C s j U ) R $.^ ^ Y A F J K U H M N N 3 > O O O 2 < # # # gXLXBXVXN , @ /.M O s                                         SX* UX8 X @     X @ # Q                 R . = Y I * . (.                    C.B.4.P.6.Y.                  k 6 X # q                                                                                     ",
"                                                                                p =...fX                                                                                  ^.9 O M w             '.@ . g.gXnXkXG.. . . . . K %X                                                                                                      (.D P # t _.).I k $ $ t q U.G.w s D s r M C e U %.n.I.$.^ U U J F F F K K D n V B v 3 > + > < O O < . C w l.> > > O g.VXA .                                           0 VX@ o .     # @ < c.                  n.= o * # @                       0.I.P.R.5X                    s 6 $ * s                                                                                     ",
"                                                                                ..=.@.fX                                                                                  ^.3 . M 6             fXX . * nXfXkXZ . . $ + . v.kX(.                                                                                                      hXx.& W.MX)._.hX5X5X(.] LX] t F F C s e 0 C ( D.$.R I U K J J A F A H H M M n b 3 > + @ + O O 7 H $ C , n > 2 m O . . S.W                                           %.(.@ @ @ S UX@ . 6                       $XU C . e                       B.Q.P.R.dX                    0 * o o s                                                                                     ",
"                                                                                #.O.z jX                                                                                  G.< . t w               b.o H VXnXgXl.. + > . $ ~ hX`.                                                                                                        MX~ K t D ^ Z.!.5XNX|._.8.` ) R &.Y ^ U U F / R k R U K J J F s K Z N M t 3 3 1 O . @ J W ! fXaX8 C O < > N gXmX'.* `.                                              O W O @ b LXO @ @                       %Xd (.d ;                       6.Q.R.P.dX                    e - X # q                                                                                     ",
"                                                                                t.} z aX                                                                                  S.@ O C r                   BXmXnXgXaXr O > + # # iX5X                                                                                                          aX# . $ . ; 3.8.JXJ.R.9.A.] 6.' $.k R $.U k R d s R F J Q U U _ H N M M 3 > + O 7 J w S.(.hX( %.iX@ . e                                                             uX, O O LX@ . *                     * X = k VXM.                      8.Q.P.R.                      q 9 # % s                                                                                     ",
"                                                                              MX#.O.p %X                                                                                  S.$ @ D C                   aX^.'.      `.O O + . fX'.                                                                                                            '.t . X o dXB.NXN.J.9.N.7.7.E $ I F.n.R k I : 7.U H H Q _ Q W Z N n N n 2 > . ( C . W aX^.M U.%Xs ~ x.                                                              S., > VX, . O                 `.d . X & X s                         $.Q.P.L.                      s 8 $ # j                                                                                     ",
"                                                                              MXt.O.p &X                                                                                  (.O @ r 9                   . . @         fXO @ . gX].k.s                                                                                                           aX@ . $ c.I |.v.N.A.v.Z.N.] q N.dXJ.3.g E q.l a ; t H K Q 2 2 5 n M N M 9 , &.'.K g.` O g.gX&.. BXBX                                                                (.. aX9 @ #               &.* o d s W.Y..                         &.Q.E.L.                      e * $ # q                                                                                     ",
"                                                                              AXp.O.p T.                                                                                  gXA t ) 8                   . . . .         G.. . nXg.s                                                                                                               %X< @ # # r K K 5.T 7.v.5.y W.9.e.9.w.g g x l q # r b.N 9 3 n 2 5 n H , X J ( `.W r + _ %XlX. %XLX                                                                  . m 8 # 7             ! e . 9 C.sX                              8.L.!.Q.                  gX%X0 * @ # r                                                                                     ",
"                                                                              MXp.O.p q.                                                                                  mXF * D 9                   C . X . S.      ].@ . (.Q ^                                                                                                                 %X% . . 2 7 * < t 9 q F y j c 3.J.~.bXqX_.E E - 5 Q 5 2 3 5 3 2 Z W > 6 e m.G.C M J * S.SXd (.                                                                    $ . * @ O           6 A 8 C Q                                   B.P.!.!.                D.%.(.C # @ * D                                                                                     ",
"                                                                              cXt.} p 4.                                                                                    G # J j                     U.+ . G.      iX@ U D s ).                                                                                                                  `.. # w 6 @ X 6 # + . $ . V : ' !.9X9X2Xw.8.o + t 2 w 2 n w n 5 5 > 6 6 6 , C k.D.8 Y SX)._.                                                                    6 O < , .         U , @ , W ).                                  &.B.Q.                    aXaXM @ . 4 j                                                                                     ",
"                                                                              MXt.p f 4.                                                                                    H 0 K s                       (.+         [.* 0 # X m.                                                                                                                      # t e < @ < @ # < 5 # + - l xX2X~.!.J.] 9 + + < 2 < 6 < M w < 2 2 < O . D.`.%XA A %X                                                                      . > O < < + G.    %XX # w , , C                                   I 8.B.                    kXaXC @ O # j                                                                                     ",
"                                                                              vXt.} p @.@X                                                                                  J 6 r D                                 '.. 7 fX7 + @ (.                                                                                                                        %.# @ @ # # + + % t - 9 q q - $ $ + + 5 e U K G G Q H D > 3 + + @ @ H.aX^.`.S *.                                                                      Z w > @ < . k.  NXmX/ . , @ @ O                                   _.$X                        sXe # . + k                                                                                     ",
"                                                                              DXo.O.i z ..                                                                                  J w s H                                 < . (.mX'.O b g.                                                                                                                        aX. # # @ # O 2 9 < 9 9 r t y 5 5 5 n t v.) E G I U Z M , < O O O + gX                                                                                  ].O < > O S.VXMXm.~ H.J Y S O                                                               hXM # . # j                                                                                     ",
"                                                                              AXo. .= o.@X                                                                                  H e s ^                           . O ^.O .     uX+ e b.|.                                                                                                                        D.& # + # 6 9 w 9 9 w w 5 n t t w r w F U U U ~ _ ` J < 2 2 6 # 6                                                                                       gX+ 3 > nXaX, @ @     /.SXm                                                               fXM 6 X o F                                                                                     ",
"                                                                              bXo.,.p o.s.oX                                                                                D M r (                           . < ! O O     hXo 8 b._.W.T j                                                                                                                   aXo o @ + # @ $ # 4 9 - % 4 t 9 # 9 t c.6.^ K D D n M 3 9 < < # # C                                                                                     UXO < @ M , . O A     8 iX                                                                fXM 6 X o F                                                                                     ",
"                                                                              +X .,.:. .oXs.w.                                                                              J A D k.                          l.W M , O       L + 9 (.].q G.                                                                                                                    s X X $ 0 $.$.$.Z.W.!._.|._.W.W.l l T & X + @ < < O 9 2 @ # @ # w                                                                                     LXO O w < , , , (     * S                                                                 fXC 6 $ + F                                                                                     ",
"                                                                              :.,.a.<.} oXy.X.                                                                              Q H M x.                            . 9 Z 6 BX    H.+ @ K b.c.q                                                                                                                     ).o % X xXxXjXxXcXvXDXAXvXvXvXbXW.Z.$.G k.x.b.b.N 5 9 2 + @ . 0 D                                                                                     UX. # < % 6 , 8       g.                                                                  fXM 5 . o K                                                                                     ",
"                                                                            p.y.oX>.<.:.s.<.@.                                                                              J H e %.                                G.w fX    hX# 7 C M V.^ q                                                                                                                   ).o - - 6XxXcXcXvXAXDXAXZXZXvX2XR.; * M N M n n < 2 2 < @ $ X w D                                                                                   SXLX6 > 2 # # , d       G.                                                                  gXC 4 . $ F                                                                                     ",
"                                                                            p.u.<.2.,.:.,.o.3.                                                                              D e w )                               aX^.6 e     gXw m aXW 6 kX(.                                                                                                                  _.. - & xXDXxXcXDXAXvXvXbXdX7Xr.R - . @ 9 2 2 < > 9 5 < @ # @ + r                                                                                   mXVXg.3 < O * @ *.                                                                          fXD 9 . $ F                                                                                     ",
"                                                                            E.s.u.y.;.;.h h Q.                                                                              D H M x.                              w @ . .       ^.O fX5XH - aX                                                                                                                  '.X o 9 mXkX%X&X).Y.R.0.8.l ` V j s w 9 9 3 4 5 5 # # 9 + # . r 9 K                                                                               iXsXgXb.3 > O 6 0 S.                                                                          gXC 5 . o K                                                                                     ",
"                                                                              4.} } } } z g                                                                                 D J e )                               A . . .         . (.gX].o G                                                                                                                   gXo - = * * * = = ; 5 % u y ` V y r t 4 4 5 5 5 5 5 6 # # * . '.9 j                                                                               S.UXnXuX> , > 2 < e                                                                           gXH 5 . $ G                                                                                     ",
"                                                                                4Xo.X.#.q.cX                                                                                D H Z x.                                ( . * I.      . D.kXdXy F uX(.H H.                                                                                                          %Xq * o ; f a * q L [ [ [ [ [ [ [ ' P P [ P V M q w 9 O @ $ + nXr t                                                                             iX. lX/.pXm 1 , + < <                                                                           gXH 4 . + K                                                                                     ",
"                                                                                zXo.o.+XR.                                                                                  M H K g.                                S.+ 0 q       6 mXgXhX] % L J 5 w H 9                                                                                                 6.$.V./ 9 9 D M.N.I C P E J.r.9.[ [ [ [ [ ` ] ] ` V L L H r + # . 6 mXK r                                                                             '.. nXz.%XnXb 7 < + D                                                                           gXH 5 . $ J                                                                                     ",
"                                                                                jXX.t.oXQ.                                                                                  D H H K                                 BX8 9 0         U.= m.sXM y W hX                                                                                                    . # * q D U W ] Q.0.G y t [ J.r.r.r.r.[ ] ' ] ] [ ] [ P P L J + # O + mXH y                                                                             G.@ sXfXiXiXnXb 2 > w [.                                                                        gXF < . + G                                                                                     ",
"                                                                                  X.y.oXT.                                                                                  H H t Q                                   . 9 9 gX      - ^.%X(.b.4 t hX                                                                                                    . o * q D D D K G l 9 - % [ [ [ [ [ ' [ P E P P P P P V L H H # $ $ @ mXD r                                                                           aXl.@ fXfXg.nX`., 7 b , 7 O                                                                       gXH 5 $ $ J                                                                                     ",
"                                                                                  | ,.oX4.                                                                                  K H H D                                   . = @ X ~           V.hXV 5 H.xX                                                                                                  . o # 9 9 9 < 6 . . . . 4 % % % % o $ $ $ . $ + + + . + . + O . . + @ fXw +                                                                           b.H 8 iXfXv h.S.pX! 8 6 * @ k.                                                                    mXK 6 + + G                                                                                     ",
"                                                                                  }  .oX4.                                                                                  K M W 9                                     * 0 9 -           A.gXhX6 - '.                                                                                                %.o 9 s q D J r H w w 2 > 4 4 4 - : % o . . . + O O + > + . + . + . . + J < .                                                                         0 (.U r (.%XW pXgXgX  J 6 X 2 '.                                                                    nXK 5 . o K                                                                                     ",
"                                                                                  h >.oXp.                                                                                  A r M r                                     X * * $ fX        ].cXxXx.+ < sX                                                                                              (.- r Q 6 6 9 M e e C J J r _ ] ] ' ' [ ' q t + > + > + + + > O O + . @ , .                                                                         nXe ` S.w b.D U.          8 $ w nXBX                                                                  kXK < . + G                                                                                     ",
"                                                                                  } ,.u.                                                                                    q 8 M D %.                                    . ; . gX        W.cXxXhXK w M aX                                                                                            c.* - s 9 + 9 @ w M M t 5 r / ] ' P c P V P V.M 5 > 4 5 t 4 5 + > O O O _ b.                                                                        aX9 e 9 8 A fX              6 , ,                                                                     mXK 6 . + G                                                                                     ",
"                                                                                   .u.y.                                                                                    9 9 r r )                                       I q           M CXdXxXhX4 M V T                                                                                   '.      F . # 8 0 $ O 6 < > + O . r T ' 9.{ c u c / ` t 2 V M M M 5 5 + O O + .                                                                           K d . 6 6 s                   F < O                                                                     nX_ < . # G                                                                                     ",
"                                                                                  o.<.u.                                                                                    6 C 9 D /                                                     $ T _.7XCX$ t + + D                                                                               * s D U G.D r ~ ^.e $ % 6 6 V./ / 7.5.] ] J.[ 9.J.9.5.] M N w M 5 4 t n + + O . .                                                                     . $.aXX X . w (.                      2 C x.SX                                                                gX_ 2 . o G                                                                                     ",
"                                                                                  ;.s.#X                                                                                    6 * < D x.                                        fX        G.O x.].dXgX(.M r . [.5                                                                             j %.%.F ]._.- ) ^.s . $ # D R.!.|.!.~.3.' J.9.9.9.] 8.` H H M Z w 3 y M + O O . .                                                                     . * F # @ s                           ) n 7 [.G.                                                              mX_ 9 . $ U                                                                                     ",
"                                                                                  ;.p.#X                                                                                    U w K _ (.                                        fXK       V.Y MXSXMXxXaX+ hX(.aX4 5 ]                                                                           `.%Xv.`.G ].hXaXl.. + # a @X-.d.~.~.3.[ r.9.9.9.' 8.` L H m m e , M M + O $ . .                                                                     0 %.aX0 ].                            8 O O O .                                                               nX( 6 . o K                                                                                     ",
"                                                                                  h 4.#X                                                                                    9 Q 9 6                                           gXn gX    ^ F MXLXMXmXuXO CXmXaX% y ) xX                                                                                  sXsXaXH.. + - q !.~.e.~.r.{ ' 9.[ e.e.' 8.] K ~ ! ! ! 6 m t + . O . .                                                                   kXs kXkXt MX                            , O > nX_                                                               kX) < O o G                                                                                     ",
"                                                                                  } p.@X                                                                                      kX                                                , g.    d d ).%X5XaXl., mXBXP y b.'.v.A.c.                                                                                  mXx.. # * ; !.~.e.d.J.e.e.9.9.e.e.3.E ] K {.g.! Q , r r + . . . .                                                                   aXs F M..                                 W h.uXw C                                                             mX( 6 . + G                                                                                     ",
"                                                                                  t.p.@X                                                                                                                                        l.z.@   /.iX      hXg.m mXfX6 _ `.aX] 5 #                                                                                     g.. @ * r 7X3.3.e.~.9.9.{ 9.[ [ [ ] 9.^ b.H._ ~ 6 e e $ $ + + .                                                         &.F 5X).J 6 O , ^ U                                 ` G.e @ .                                                             nXx.< . o K                                                                                     ",
"                                                                                  t.t.+X                                                                                                                                        lXpX!   fXfX        fXA nXl.'.aX    aX% . J                                                                                   Q @ @ # 0 G g a - % L 9.[ [ [ [ { [ ] ] H.G.x.W t 9 t . + + . .                                                       X 8 X 6 $ @ @ @                                       $ 6 > < + xX                                                            x.2 $ # G                                                                                     ",
"                                                                                  4.4.E.                                                                                                                                          pX%XpXfXnX                        gXM . 6 S.  )                                                                           S.C # 6 o 8 - 9 # . 5 P 9.9.f.r.[ { 3.' j T ~ H r w 4 t + # O . .                                                       d @ * X @ . *                                           9 X 6 9 LX                                                            b.< . X K                                                                                     ",
"                                                                                  ;.o.T.                                                                                                                                            %XiXiXiXfX                        ) < 7 9 Q r                                                                             (.8 < $ * q w # 2 5 [ r.r.9.[ [ c e.' ; t 9 w t r 9 < 9 + X . .                                                       ^ . kXJ O 6                                             # + D D ).BX                                                          x.< . $ G                                                                                     ",
"                                                                                  o.;.E.                                                                                                                                                fXnX                          '.M x.6 # s sX                                                                          mXC * + * 9 # 9 V % [ r.[ r.r.r.e.}.9.j D 9 5 4 2 < 2 w < O . .                                                     hX9 . BXMXO 6                                               e gXM # @ D                                                         S.# @ + G                                                                                     ",
"                                                                                  ;.X.#X                                                                                                                                                                              K e `.< . 9 G.                                                                            e 6 @ # - < 4 r y v.J.r.[ 9.9.[ R.W.P 9 O O > > 4 < t < O . .                                                 C A j . . xXSXr                                                   LXN < . O O                                                       H., . o F                                                                                     ",
"                                                                                  ;.o.!.                                                                                                                                                                                k.].C 9 s D.xX                                                                          r 8 * # 9 < # 9 % K.9.[ e.3.' c J.J.F 9 + < 4 5 < < n < @ O .                                     U U (.iXG.6 . + 9 # . ).LX                                                    BX. . O . gX                                                      H.@ @ $ G                                                                                     ",
"                                                                                  4.X.#X                                                                                                                                                                                            C * * * * F                                                                 e w 6 # % 4 4 # 5 ] 9.{ x [ ' y L L - # 2 4 < < < < t 4 $ X .                                   . . . @ @ d . . . # . . I.                                                      K . . O . VX                                                      H.@ X @ L                                                                                     ",
"                                                                                  X...Q.                                                                                                                                          = 8 f                                             * # e * X . ;                                                               w < # % # # # % t y c ' u P P u P 9 # $ O < + # 3 5 b 5 + . .                                   r @ @ o X 5.F.. . o 9                                                             . sXC . hX                                                      S.# X o G                                                                                     ",
"                                                                                  L.4.$X                                                                                                                                        fX. @ @ n S                                         J J K e @ * Y.BX                                                            w 6 2 t 9 q 5.A.7.A.W.|.~.J.}.[ P j % $ $ % 9 < < 5 5 w O . . W.                                y < # o 6 LXmX].                                                                  O LXx.. s                                                       S.+ $ $ F                                                                                     ",
"                                                                                  dX$X&X                                                                                      fX                                                '.. < O m h.                                        0 * # A ^ - 6 K 5.(.                                                        t # 6 7 # m.7XqX7XwX4XwXbXZXJXqXE ~.R.f.q.w.q # 4 2 9 w O O O x.                              hX9 $ . . *                                                                         O LX(.M . %XsX                                                  G.* + + K                                                                                     ",
"                                                                                  kX6XsX                                                                                      sX                                                sX. 6 . w C k.kX                                    K X 0 `.kXmXaXr . . 5.'.                                                  VXw < $ @ + @.!.0X4XwXqXwXwXqXwX-.. x y.a.,X}.E 9 5 3 5 w O > $ K                           aX) y r # . * F                                                                           VXaXD.. a Y.                                                  D.* + o K                                                                                     ",
"                                                                                  kXsXdX                                                                                    gXhX                                                  . . . @ , H (.c.0 0                                           gX< . - S.5.q # F fX                                      I.VXUXN 6 @ d e R !.3X,XqX1XwX1XwX<Xr.$ i.d.,X4Xr.E q O < < t 3 > + t                     M.( Q w r _ ) # 9 9 F.aX                                                                            fX. . aX  o                                               Y.9 # o K                                                                                     ",
"                                                                                  kXfXdX                                                                                    sXaX                                                  (.c.V.  UXUXBX                                                  (.x.'.) s X X J sX(.. X # - s v.'.aX                &.: : Q uXn , 8 U e @.@X4XwXqX1XqXyXwXwX}.{ ~.d.KX,Xr.w.L + 3 < Z 3 + # @       k.&.m.).%XiXJ s D 8 # w                                                                                             . . BX( $                                               U.9 # $ Q                                                                                     ",
"                                                                                  lXjXdX                                                                                    sXaX                                                    SX      MXBX                                                    b.* . . * s fXkX$.. . X X * q s j 0 j G W.5XhXc.U f X X 9 # O < # # 6 @.2X@XwXqXyXyXyXAXwX~.g i.d.,Xd.c ' y + 5 J W 3 < @ . 9 * 6 < O $ % G.MXU . L D 9 t                                                                                             , O H # 9 aX                                            G.0 # . ~                                                                                     ",
"                                                                                  lX6XsX                                                                                    hXaX                                                      fX        5X&.-                                                 S.X X X H     %.. . o o s b.W.n.x./ G H.(.).c.e 6 $ X o % # 6 < 7 8 &.4X,X,XqXwXwX4X8X!.!.. R.i.d.r.{ 3.y 5 5 W W 9 , O @ X @ @ 6 3 9 H H Q &.. $ aXx.D                                                                                             @ O @ @ M m.                                            G.9 # . _                                                                                     ",
"                                                                                  dX6X$X                                                                                    aX5X                                                                  & * c.sX                                                          R . . . . . . . . X . o W.(.U K e o * o & 9 F 8 C 8 a 0.3X!.~.s.R.R.!.|.Z.G.$.7.B.r.R.w.5.j M M M N n w > M O @ # < 3 3 n @ 7 8 < < D q *                                                                                             Z 2 O + < 6                                             F.0 * . /                                                                                     ",
"                                                                                  5XQ.T.                                                                                    aX%X                                                                    U.sXm.aX                                                          . . . . X . X . X & - aXxX9 9 # * q Q I.%X'.S.S.l.c.W._.L.P.J._._.].V.V.] P G F y - # * @ 2 5 2 2 7 2 , w < 3 9 w < > 5 9 r ` (.H.iX) $                                                                                             m 8 . . . 6 LX                                          Y.t # @ )                                                                                     ",
"                                                                                  6.3.@.                                                                                    %X                                                                        $.; '.                                                          F.).%XsXfXkXkXlXfX  aXxXgX@ . $ o * 0 s J F J J Z r 9 r q q q t w M M + < 9 2 < < < # < , 3 3 1 1 < 3 > < 2 w n n 4 w 9 G.F.gX                                                                                                      O < . + # D LXBX                                        G.0 # o ]                                                                                     ",
"                                                                                  l @.x                                                                                                                                                                 %.hXkX  %XD.                                                  gXfXdXfXfXfXfX        kX'.. @ @ X . X + O 6 < < 7 9 < O < 2 5 9 w < M 5 < < 5 2 9 2 9 < > 3 1 1 1 3 + > > 2 2 2 w L W.aX5XW.                                                                                                        . e . M 6 J LXSX                                        G.0 * + 5.                                                                                    ",
"                                                                                  z z Y                                                                                                                                                                   U I.aX%XV.dX                                                fX                      sXA # . X . . O . O # 2 w 9 9 < < 5 w t M H H 9 5 < > # < < @ , # 3 3 1 1 , 2 O O < w N ].'.dXfXgXx.gX                                                                                                        F . sXmXQ gXgX(.                                      D.q + # x.                                                                                    ",
"                                                                                  d z I                                                                                                                                                                         G.%.                                                                          sXfXiX(.S.^ ~ W h., 3 3 < o $ # + + 4 # % w H < + + < # # # # @ @ , , @ , , + O O < (.].'.dXxX5XaXy |.                                                                                                              LX_ X . gX.                                     G.t 6 % b.                                                                                    ",
"                                                                                  f z z                                                                                                                                                                                     '.                                                                fXfXsXfXfXfXfXnXnX, 3 2 6 < # < 9 4 5 t r C ) + > # > > < > # @ , 6 @ , < , 2 O O w W.sX'.aX'.m C M )                                                                                                               SXw . . S.O ].                                  Y.e 9 # H.                                                                                    ",
"                                                                                %Xa x z                                                                                                                                                                                     s                                                               kXlXfXfXsXfXaXfXnXuX2 2 , + # 9 H.G.G.^.(.`.`.(.t + < + < < # < @ , @ < < , 2 N O 6 5.aXdX%XD.W m H mX(                                                                                                                 @ * . X ! mX                                  W.q 9 # V.                                                                                    ",
"                                                                                5Xa *.a                                                                                                                                                                                   ^ %.                                  A                       iX%X'.%X%XiXaXsXsXkXVX(.O 3 @ < # 6 b.D.F.].(.(.].W.V + + . 4 # 2 9 M e < , 1 2 2 2 O 6 (.%X'.&.2 , O G.LXx.                                                                                                                6 @ o @ C LXIX                                U.9 w % G.                                                                                    ",
"                                                                                sXz R a                                                                                                                                                                                     D.    $.A fXR n.                  kXf                 X U %XMXLXMX`.%X%X%XsXCXmXmX[.< > > 2 @ 8 M.).W._._._.'.W.D.K W b.S.S.V.[.D.K # , 2 v 2 2 + 9 '.G.J H m b O iXLXK                                                                                                                 . @ @ . . _ ].                                Y.0 q 6 G.                                                                                    ",
"                                                                                  Y E                                                                                                                                                                                               k &.%XVXY.                  `.              ^ . . 4 C F &.lXIXIXIXLXBXMXLXfX@ > > v O O ! G.F._._._._.).F.U A Y.S.S.W.G.x.0 < 3 2 7 1 7 , 6 G.D w n N uX, mXSXE                                                                                                                   0 %.b.. K M                                 G.9 r % G.                                                                                    ",
"                                                                                                                                                                                                                                                                                    '.U.BXmX(.d                                 x.O . + + . . 0 Y &.F Y %.).SXBXk.W S S., , k.M.n.I.W.Q.!.).W.Y Y Y.T.Y.I.G.5.9 # < 1 2 3 7 3 2 2 n 3 b [.S e gXBX3.                                                                                                                        t # .                                 D.6 r - F.                                                                                    ",
"                                                                                                                                                                                                                                                                                        BXMXaX'.                                  O > + $ @ @ e z.F . . 6 6 6 8 0 6 8 8 m A l.l.M.W.W.Q._._./.&.z.z.l.M.c.m.) 9 , < , > , , 3 2 5 3 2 1 B m , kXNXL.                                                                                                                        r . r SX                              G.< r - G.                                                                                    ",
"                                                                                                                                                                                                                                                                                        kXsXsXaX                                  9 # # C C S aXIXLX. O O O @ @ * # 6 8 8 A [./.M.W.W.Q.W.Y.^.k.! ! S A 9 K Q 3 > + @ O , @ , 1 > O O r S.b 2 fXNX$X                                                                                                                        . $ j LX                              G.* M 4 F.                                                                                    ",
"                                                                                                                                                                                                                                                                                          $.c.                                      SXLXSXSXVXVXLXUXn O . O @ @ 2 + # 8 * A %.U f - $ . $ # e m 8 , @ @ + t > O > + + X O , , , , `.fXfXiXQ 2 gXvXDX                                                                                                                        . e # U                               V.< r 9 F.                                                                                    ",
"                                                                                                                                                                                                                                                                                                                                        SXMXVXMXUXUX/.> . O + > 3 < # < 8 J Y.~ L N.R.].G.{.2 w > , , 6 3 n ` 5 < + + X @ O > , 8 iXkX).^.C C BXcXFXdX                                                                                                                      gXw . # o X                           V.# C - G.                                                                                    ",
"                                                                                                                                                                                                                                                                                                                                          MXDXSXUXLXfX> . @ 2 H W 5 + # @ ^ ( s ] K.'.5X'.uXN O @ @ @ @ 5 H.g.+ O > < @ , 8 O * d MXkXJ # + - x.^ 6.%X                                                                                                                      aX6 # o . . .                         b.4 r % G.                                                                                    ",
"                                                                                                                                                                                                                                      ).(.D.                                                                                                NXBXVXLXkX. . < 7 g.N 2 + O + M C w F P K ` x.` 2 O O . . . % ) ` t W ` ( g.S J 6 o k SX%Xe . 6 o # . . _ gX                                                                                                                      fX< 9 # $ _ LX                      c.6 C < G.                                                                                    ",
"                                                                                                                                                                                                                                    fXY Y.U.D.                                                                                                BXSXLXaX. + , B l.Z 7 < @ + + + O . O . O > > . . # @ # # % P P V ] ] ~ J e w s @ Y MX).6 + * # @ @ + # H F                                                                                                                       nXaXj BX).G v.                    x.# H % G.                                                                                    ",
"                                                                                                                                                                                                                                      s A J                                                                                                     MXxXH.. $ < 2 W n , > O + 3 > O > < < + O O O > @ @ @ + 4 ` ] V V V F s 6 8 s * M.SXD.o * < < < 3 w N V .                                                                                                                         SXhXmX# . .                     %.< K 9 D.                                                                                    ",
"                                                                                                                                                                                                                                                            C.                                                    ; sXMXMXNXBXDXSXNXd k k q - - - 9 * + # 2 n W N 2 O O > 3 v 3 < 6 M m S.`._ Z W h.g.e t ) ` y t 5 6 6 6 8 C @ `.MX%.* # # 3 w m N N H .                                                                                                                           _.. . . o                     ( < K % D.                                                                                    ",
"                                                                                                                                                                                                                                                          fX                                                      o lX'.%X).U.L.Y.C.& ; ; - q q 9 9 5 % O < < h.g.N 2 < S./.`./.).(.(.Y.'.fX^.].`.S.l.A F K ~ M t t m b 8 8 m @ (./.F # @ 9 5 n w n w w +                                                                                                                           (.. . $ q                     ~ 6 K 6 D.                                                                                    ",
"                                                                                                                                                                                                                                                                                                                  ; (.* 6 0 8 8 * @ @ * 9 9 t t 4 9 5 4 < 5 5 g.N 2 # > {.[.[.G.^.U.W.P._.gX].W./.z.l.d s ^ P t t m m m b b 1 @ 8 6 6 w M n 5 b.5 7 < r 9                                                                                                                           mX. % $ BXSX                  K 9 D # G.                                                                                    ",
"                                                                                                                                                                                                                                                                  aX).                                            U gXY 0 8 w e 6 < * 6 9 4 < # $ 4 3 + # 5 2 l./.3 @ + h.hX].[.Y.Y.Q.B._.hXW.W./.T.&.8 a U K # 7 7 b v b 7 , > @ , n n n 2 w M 6 # * K &                                                                                                                             . t v.t t F                 D e D 9 G.                                                                                    ",
"                                                                                                                                                                                                                                                                  iX$.8 '.kX                                      F (.s w e e e @ 6 6 6 # # # 6 < + < 3 # < > [.G.+ O O h.uX].(.W.Q.Q.8.).$X(.Q././.l.s ; P L 9 n 2 v b b 2 , 2 5 5 n M w 5 9 9 # . X .                                                                                                                               K 9 D . $ . e nX            s e H 9 D.                                                                                    ",
"                                                                                                                                                                                                                                                                  gXA k v.(.0 o 8 s J ^ m.).fXgX              mXaXD q # @ # 6 6 6 * 6 e C C s 9 H.G.O 3 + < 8 ].].+ + . V.hX'.].`.'._.c.).$XW.).&X/.D.C $ ` / + < m A b b 2 2 2 2 b n N < + 5 # ^.mX                                                                                                                                    sXVX].`.. @ z.nX          0 m A                                                                                         ",
"                                                                                                                                                                                                                                                                    S.%.kXmXF o * 6 0 e e e q 0 e s C F J D C e 0 6 e C s 9 * 0 U S.).aXsXaXaXfXgXb.5 4 < # 8 %X'.# + . (.sXaXaX%X5XaX).(.(.G.^.`.iX(.U 4 ] ~ t m m b b 7 2 2 w 5 b w M 2 < 6 # aX                                                                                                                                          SXUX/.X * w S k.      d C                                                                                           ",
"                                                                                                                                                                                                                                                                        BXBXaX* F D s e 9 * < * * < < # # # # # 9 9 s kXaXaXaX%X%XiXaXfXhXfXfXhXgX{.< + < @ e uXS.9 6 . `.hX5XaXfXhXaX%X[.[.(.(.[.S.S.g.y ) {.H w n n n 6 3 5 9 9 w w 9 w 4 w 5 aX                                                                                                                                              BX@ . O @ , 6 $.%XA                                                                                             ",
"                                                                                                                                                                                                                                                                                * 6 e C M e w 9 w 9 8 8 9 9 9 6 6 D ( mXsXsXgXgXdXlXdXsXgXgXgXhXgXH.< # < 9 w S.Q $ + . q j D r H H H Z V M N N M m M 5 M W K Z w 9 < < , @ 3 M M w 2 5 < < 9 9 aX                                                                                                                                              UXS.. . @ @ @ @ 9                                                                                               ",
"                                                                                                                                                                                                                                                                                                                  gXiXgXaXsXgXfXsXsXfXsXlXfXfXsXhX(.. + * @ 6 0 6 + $ @ o * 6 5 2 5 2 4 3 2 2 5 4 2 5 2 t M M 9 2 < < < @ 6 < O O > + O 9 < 9 6 aX                                                                                                                                              UXS.. . O # O O @                                                                                               ",
"                                                                                                                                                                                                                                                                                                                      ).sX%XsXsXsXfXfXsXsXsXaXsXkX_.4 + . @ , , * @ + # < < < 9 5 w w n 5 n n 5 5 5 9 < w t 9 2 @ < < # < @ < 6 H J W (.9 2 9 < sX                                                                                                                                              sX. . O [.8 < ,                                                                                                 ",
"                                                                                                                                                                                                                                                                                                                      `.fXiXnXmXkXaXaXiXiXiX%X%XfXfX'.V.8 , @ @ < + $ @ < + + 9 < 5 2 5 5 5 3 5 + + + # < 9 w 9 O , # < 6 @ . _ UXUXUXLXw 6 6 # hX                                                                                                                                                X X 8 nXJ m 8                                                                                                 ",
"                                                                                                                                                                                                                                                                                                                        . 7 . * 8 Y Y.`.nXMXMXnXNXNXBXVXfXiX, n 6 + @ + < + < + < + + > 3 + + 4 < + + > < 9 w < < < 6 9 < , @ x.BXmXmXmXM 9 9 # fX                                                                                                                                                                                                                                                              ",
"                                                                                                                                                                                                                                                                                                                          M S.gX].A , A ^ A A F ^ m.(.iXfXfX[.W 6 + + + + + . o o # $ . 4 # # # $ # + < 5 t C 4 < 7 7 8 6 6 @ k.VXmXmXmXV 5 9 < sX                                                                                                                                                                                                                                                              ",
"                                                                                                                                                                                                                                                                                                                                  w * . X $ * # @ O . O O > < < < @ + # . # v.Z.V.5.5.V.5.5.5.] R ] ~ y 4 M D 4 5 9 w w 6 7 # %.VXmXmXmXV 5 9 9                                                                                                                                                                                                                                                                 ",
"                                                                                                                                                                                                                                                                                                                                  J + O X # @ . . . + 5 2 4 5 < < # + # . # 5.C.Z.N.F.W.K.V.N.9.N.8.I j # V t 4 9 2 7 7 , 7 @ ( VXmXmXmXH 2 5 6                                                                                                                                                                                                                                                                 ",
"                                                                                                                                                                                                                                                                                                                                      e J m.G.G.S.H.l.l.x.g.V.x.9 t + % $ % ) A.N.K.!.W._._.W.R.A.3.E T 4 C D 9 2 2 6 6 , 7 o Q BXmXVXmXW 5 6 9                                                                                                                                                                                                                                                                 ",
"                                                                                                                                                                                                                                                                                                                                                              aX% 5 % 4 5 r N.V.9.V.K.F.F.V.v.8.] 8.j P w V t . 5 2 9 6 , 6 , K BXmXmXmXK 2 6 9                                                                                                                                                                                                                                                                 ",
"                                                                                                                                                                                                                                                                                                                                                              sX# 6 + 4 4 L b.L L L K V M t t t 9 r C r t V M 9 7 3 8 , , 6 6 D BXVXVXmXD 7 9 6                                                                                                                                                                                                                                                                 ",
"                                                                                                                                                                                                                                                                                                                                                              sX* 4 . + < V ] j L V 5 . 5 4 4 5 5 t 3 4 5 M y 4 6 < 7 < @ 6 6 r UXmXVXmXH < 8 *                                                                                                                                                                                                                                                                 ",
"                                                                                                                                                                                                                                                                                                                                                              fX9 < + O + ] x.N.9.] 9.P ] ] ] P P y V P L V M M C w # < < < 6 8 VXVXmXVXe 9 9 6                                                                                                                                                                                                                                                                 ",
"                                                                                                                                                                                                                                                                                                                                                              kXF V w < t ) V.7.9.9.9.E N.9.7.9.' P ` L t y L W D w 7 , # < 6 * nXVXVXnX9 2 9 #                                                                                                                                                                                                                                                                 ",
"                                                                                                                                                                                                                                                                                                                                                              aXG 9 < 9 G.x.b.q.8.3.A.r.R.r.9.3.3.[ 9.7.] / x.K H Z w , , * * # < M W S r 9 e - hX                                                                                                                                                                                                                                                              ",
"                                                                                                                                                                                                                                                                                                                                                              A 9 @ X 6 M H F T.!.7XdX7XzXbXbXqX2X8X8X8X7XV.~ F Q H N 7 6 6 # . . O v 5 w 2 9 < sX                                                                                                                                                                                                                                                              ",
"                                                                                                                                                                                                                                                                                                                                                              * $ $ . * _ U.c.&.5XbXbXvXbXbXZXwX7XqX9X7XzXN.T ~ _ W W , r 0 o mXJ > 3 3 5 9 6 9 sX                                                                                                                                                                                                                                                              ",
"                                                                                                                                                                                                                                                                                                                                                              O $ + q x.).gX5XI.dXZXbXbXbXAXJX9X8XqX7X8XcXB.%.x.g.! W 8 r + < VXVX[.b.pX2 % 6 * hX                                                                                                                                                                                                                                                              ",
"                                                                                                                                                                                                                                                                                                                                                              `.e D j Q.%XxX%X%XzXvXvXvXZXvXJXvXzXzX7XdXcXW.I.S.l.g.l.l.r < O sXUXUXUX(.< < 9 # sX                                                                                                                                                                                                                                                              ",
"                                                                                                                                                                                                                                                                                                                                                                e r a '.5XaXW.5XCXvXvXNXvXvXvXFXdXkXxXxXxXsX'.G.b.z.c.c.r w . uXVXVXmXS.> 5 6 + dXxX                                                                                                                                                                                                                                                            ",
"                                                                                                                                                                                                                                                                                                                                                                t + - r D s q t j V P G P P G G ` T K K ~ ~ Q Q K W D e < 6 , ^.nXmXnX[.O 4 9 + U.'.W.V.I.                                                                                                                                                                                                                                                      ",
"                                                                                                                                                                                                                                                                                                                                                                # . + # # % # # % + % # # % $ # # < + < < < , , # 6 * + @ 6 O fXnXVXnX[.> v 9 @ j j l / R 5X                                                                                                                                                                                                                                                    ",
"                                                                                                                                                                                                                                                                                                                                                                * # o # + # % # + + # $ . % # % + + + + < @ # # # < # # # + O fXnXnXnX[.> 3 9 + / 5X_.W.N.                                                                                                                                                                                                                                                      ",
"                                                                                                                                                                                                                                                                                                                                                                9 * $ # % o . X $ o - - = r j s - # # # # < # < # # # # 2 + O nXnXnXVX[.O < 5 + G.                                                                                                                                                                                                                                                              ",
"                                                                                                                                                                                                                                                                                                                                                                0 # + # - z I q I _.5XsXdXdXgX%XT j y 9 o @ O 9 w w r 8 6 O > nXnXnXnX[.+ < 6 + W.                                                                                                                                                                                                                                                              ",
"                                                                                                                                                                                                                                                                                                                                                                9 # + & N.R.).0.W.5XsXdXdXsXjX'.$.^ U F D H C t 9 9 m 7 5 # , nXnXnXnX[.@ < 9 @ G.                                                                                                                                                                                                                                                              ",
"                                                                                                                                                                                                                                                                                                                                                                e # # 0 C.W._.0.$X7XdX7XdXjXjX_.6.$.R Y %.U ~ D < 6 M 5 < < , mXmXmXmX[.@ < 9 @ D.                                                                                                                                                                                                                                                              ",
"                                                                                                                                                                                                                                                                                                                                                                q + # 0 0.W.).P._.sX5X7XjXsXjX).$.&.R Y ^ 5.s ^ + < M w # , @ VXmXnXMXS.@ 6 9 # v.                                                                                                                                                                                                                                                              ",
"                                                                                                                                                                                                                                                                                                                                                                e - # q B.W.W.Q._.5X5XsX7XdXjX).$.&.Y *.&.z $.T * # 2 # @ * X mXVXmXmXS.+ < 9 # ^                                                                                                                                                                                                                                                               ",
"                                                                                                                                                                                                                                                                                                                                                                q - + s N.W.W.W._.5X6X7X7XdXdX).&.&.! Y q.E 0.q.9 < 6 < , @ , mXVXnXVXS.+ 4 4 * %.                                                                                                                                                                                                                                                              ",
"                                                                                                                                                                                                                                                                                                                                                                q # + D C.R.Q.W.).5X5XdXdX7XdX).6.&.*.*.*.P.P.6.q # < < 8 @ @ mXVXnXVXl.o 5 < - ^                                                                                                                                                                                                                                                               ",
"                                                                                                                                                                                                                                                                                                                                                                9 # * j C.L.W.B.W.6X5XhX6X7XdXQ.6.q.Y *.*.B.L.M.j 6 < < o , O mXVXVXmXW + 9 < - G                                                                                                                                                                                                                                                               ",
"                                                                                                                                                                                                                                                                                                                                                                9 9 # I v.M.x 6.W.6X5X5XhX8XdXI.&.&.*.*.z 6.q.q.s 9 < @ < @ 1 VXmX].N n 9 4 4 9 G                                                                                                                                                                                                                                                               ",
"                                                                                                                                                                                                                                                                                                                                                                2 # 9 ^ V.N.W.P.W.sX5X5XdX8XdXI.d Y Y *.*.q.3.d # w + 6 < + 9 ^.W 6 w 3 5 4 2 % T                                                                                                                                                                                                                                                               ",
"                                                                                                                                                                                                                                                                                                                                                                t 9 * T V.R.W.L.W.5X5X7X8XhXdXW.R Y *.Y &.T.0.$.T < , # + > 3 7 w < t 2 # % < #                                                                                                                                                                                                                                                                 ",
"                                                                                                                                                                                                                                                                                                                                                                t 9 9 T V.Z.7.6.C.%X6X6XdX5XxX$XsX@.*.*.&.B.@.n.r + 2 < + 2 3 O O < + + < # # #                                                                                                                                                                                                                                                                 ",
"                                                                                                                                                                                                                                                                                                                                                                r 0 9 ^ n.0.n.6.6._.5X5X8X6XdXW.&.d z *.T.M.Y R C w + < # < < g.G.v.H.b.# < + w                                                                                                                                                                                                                                                                 ",
"                                                                                                                                                                                                                                                                                                                                                                9 9 6 T 7.n.V.C.v._.|.5X7X5X5XH.I d z @.@.&.E R V 5 + O @ < 6 LX    BXLX[.[.M L                                                                                                                                                                                                                                                                 ",
"                                                                                                                                                                                                                                                                                                                                                                9 q 0 T v.V.D.D.m.].'.5X5X5X5XZ.F Y Y *.&.*.R T r < > O < # . mX      VX( l.C                                                                                                                                                                                                                                                                   ",
"                                                                                                                                                                                                                                                                                                                                                                4 t 9 K / E 7.F.m._.'.5X8X5X5XF.Y ! Y *.z Y U F 5 3 > < # @ @           m W 7 D                                                                                                                                                                                                                                                                 ",
"                                                                                                                                                                                                                                                                                                                                                                r # q V.F.(.).I.n.`.|.5XhX5X5XV.Y *.*.*.z @.@.K M 5 < + 6 . @           6 Q O M v.                                                                                                                                                                                                                                                              ",
"                                                                                                                                                                                                                                                                                                                                                                r 9 9 / Z.I.Q.Q.6.'.5X5XdX7X5XJ.Y P.&.#...Y U T N 5 < @ 6 @ @           X < < M )                                                                                                                                                                                                                                                               ",
"                                                                                                                                                                                                                                                                                                                                                                C 9 o R Z.I.W.).I.5XjXjXzXvX6XZ.R M.q.q.*.*.R %.N 2 < @ @ @ @           6 ^., e G                                                                                                                                                                                                                                                               ",
"                                                                                                                                                                                                                                                                                                                                                                4 % * V.W.B.T.).jX%X9X6X2XjXvX6XY 4.*.#.z *.R _ t 5 < O @ 8 @           2 z., # j                                                                                                                                                                                                                                                               ",
"                                                                                                                                                                                                                                                                                                                                                                + 9 # v.I.B.C.&X6Xp.i.Q.E.E.7X9Xq.z p ..p &.6.^ M 2 @ @ @ X @           @ ^ X X                                                                                                                                                                                                                                                                 ",
"                                                                                                                                                                                                                                                                                                                                                                # 9 q T v.V.0.E.6Xq.3.#.4.@XdXT.w.@.h =.*.q.8.^ t 5 + @ @ O @           O J # 0                                                                                                                                                                                                                                                                 ",
"                                                                                                                                                                                                                                                                                                                                                                9 9 9 F / / I 8.#.4.i g i 3.R.3.3...*.*.*.q.&.^ r 6 @ O O o @           . F a fX                                                                                                                                                                                                                                                                ",
"                                                                                                                                                                                                                                                                                                                                                                9 % # P ^ ] %.#.q.q.M.f E c i : @.E p f @.Y A I r 6 + @ @ @ *           sX                                                                                                                                                                                                                                                                      ",
"                                                                                                                                                                                                                                                                                                                                                                6 w * R R @.Y &.t.&XE.#.i.q.: a k k @.T.&.g $.k t @ . + @ X ,           sX                                                                                                                                                                                                                                                                      ",
"                                                                                                                                                                                                                                                                                                                                                                # 9 % R R R x #.Q.t.T.i.z Q.8.F ; a @.q...f I F 9 # + + @ . ,           kX                                                                                                                                                                                                                                                                      ",
"                                                                                                                                                                                                                                                                                                                                                                # 9 - ^ / R &.q.T.q.E.q.4.P.P.@.= @.i.B.*.^ Y ( 9 - + O X @ 0           W.$X                                                                                                                                                                                                                                                                    ",
"                                                                                                                                                                                                                                                                                                                                                                # t 9 5.R 6.8.W.P.B.T.L.q.T.R R = q.&.#.*.I I Y 9 6 @ . . # H           I.@.                                                                                                                                                                                                                                                                    ",
"                                                                                                                                                                                                                                                                                                                                                                # 9 q T R 6.6.n.Y z z &.0.B.@.d = R *.8.0.*.$.U F # # + $ # l.          6.7.                                                                                                                                                                                                                                                                    ",
"                                                                                                                                                                                                                                                                                                                                                                4 t y k I E x E $.8.N.9.n.8.8.E I E E z l k Y s s 0 # # + + (           a E R                                                                                                                                                                                                                                                                   ",
"                                                                                                                                                                                                                                                                                                                                                                # t t T 5.3.9.R.9.q.9.r.7.q.x i u l @.w.I.W.C.&.^ ( r @ . . (           I E d                                                                                                                                                                                                                                                                   ",
"                                                                                                                                                                                                                                                                                                                                                                # 9 o V.K.|.HXPXPXIXPXPXHXPXLXHXvXvXvX6XL.W.C.S.k.$.r # . . k.          R R ;                                                                                                                                                                                                                                                                   ",
"                                                                                                                                                                                                                                                                                                                                                                # q j Z.W.|.FXPXPXPXPXPXHXHXHXJX8XvXJX!.6.n.q.M.&.! C # + + k.          G @.j                                                                                                                                                                                                                                                                   ",
"                                                                                                                                                                                                                                                                                                                                                                $ 9 L v.~._.GXIXPXPXPXPXHXPXPXJX7XNXJX2X7.V.M.l.*.Q d @ . @ %.          U 6.a                                                                                                                                                                                                                                                                   ",
"                                                                                                                                                                                                                                                                                                                                                                # 9 q Z.W._.HXPXPXPXIXPXPXPXPXPXcXFXJX7XL.Y.M.l.! Y 8 X . O (           k $.X                                                                                                                                                                                                                                                                   ",
"                                                                                                                                                                                                                                                                                                                                                                - 9 F C.Z.Q.LXPXPXPXIXPXPXLXHXZXxXNXDXkX'.^.M.M.&.S e @ . . (           j R a                                                                                                                                                                                                                                                                   ",
"                                                                                                                                                                                                                                                                                                                                                                # j j c.V.W.xXxXNXMXmXgXaX5X(.x.b.m.S.S.M.z.z.k.! ! Q , @ o U           ; C.$.                                                                                                                                                                                                                                                                  ",
"                                                                                                                                                                                                                                                                                                                                                                0 F D F G G y 9 e M A A 8 A M 6 2 6 7 b b m 8 n A A m 8 @ . C           d Z.6.                                                                                                                                                                                                                                                                  ",
"                                                                                                                                                                                                                                                                                                                                                                9 t M y j y 9 9 m N A S C A A M M r e b m m Z S v 8 7 , @ o s           a k I                                                                                                                                                                                                                                                                   ",
"                                                                                                                                                                                                                                                                                                                                                                * e 9 t s 9 * # @ C 8 b , C r 9 t 9 8 6 @ 8 m N Z Z S , @ . 9           a a                                                                                                                                                                                                                                                                     ",
"                                                                                                                                                                                                                                                                                                                                                              iX@ M P $.5.n.n./.VXfX`.S.`.'.I.5.] / G H b n H m C m w 7 O X o             6.                                                                                                                                                                                                                                                                    ",
"                                                                                                                                                                                                                                                                                                                                                              fXA U.5X5X|.|._.dXIXIXIXIXIXIXIXIXZXvX|.H.(.W g.` e e 6 + . . X                                                                                                                                                                                                                                                                                   ",
"                                                                                                                                                                                                                                                                                                                                                              iX8 _.|.|.|.wX5X6XIXIXIXIXIXIXIXIXZXwX~.^.` L D * o + # $ o . o                                                                                                                                                                                                                                                                                   ",
"                                                                                                                                                                                                                                                                                                                                                            MX%X# (.5X2X|.|.|.8XIXIXIXIXIXIXIXIXZXr.|.K.k T j ] T y o $ $ . $                                                                                                                                                                                                                                                                                   ",
"                                                                                                                                                                                                                                                                                                                                                            SXlXo H.~.|.CX|.hX|.IXIXIXIXIXIXIXIXCXr.ZX[ 6.F.7.H.H.H.. X $ $ $ CX                                                                                                                                                                                                                                                                                ",
"                                                                                                                                                                                                                                                                                                                                                          VXSXfXl K.}.K.r.K.}.|.PXPXPXvXcX7XzXzX XK.HX|.CX|.|.|.K.[ % % $ $ $ |.                                                                                                                                                                                                                                                                                ",
"                                                                                                                                                                                                                                                                                                                                                      gXhXdX`.] c K.}.}.}.}.wX|.8X}.e.9.A.9.9.9.[ K.ZXwXhXK.[ [ { P % u % $ % hX                                                                                                                                                                                                                                                                                ",
"                                                                                                                                                                                                                                                                                                                                                    o - o - t l [ }.K.}.}.}.wX|.wX7X8X7X|.|.}.K.r.|.|.}.|.|.}.K.[ [ V % $ $ % hX                                                                                                                                                                                                                                                                                ",
"                                                                                                                                                                                                                                                                                                                                                  . . . % 9 9 4 P [ V u V u V u u $ $ t u t % % u { [ [ V [ P V V V u % % % u |.                                                                                                                                                                                                                                                                                ",
"                                                                                                                                                                                                                                                                                                                                                '.@ . . @ . . < + 4 # # o % - # % $ $ . $ $ + $ $ % u % u % % % % 4 4 + $ + u 9.E                                                                                                                                                                                                                                                                               ",
"                                                                                                                                                                                                                                                                                                                                                `.w @ . * @ + 4 + + % $ $ # # $ # o # + $ $ % + $ % $ % % % $ % % $ % % + + + # 9 (                                                                                                                                                                                                                                                                             ",
"                                                                                                                                                                                                                                                                                                                                                fX8 @ O O o O + 5 4 < 4 6 9 * + $ + - j P / 7.9.9.[ K.K.[ V u 4 % % 4 4 4 3 < @ @ J                                                                                                                                                                                                                                                                             ",
"                                                                                                                                                                                                                                                                                                                                                `.w , O < < + < + + + t g.`.b.V.G.G.(.E l $X4X~.r.[  XJ.{ u % y 4 + + 4 4 + # . # ~                                                                                                                                                                                                                                                                             ",
"                                                                                                                                                                                                                                                                                                                                              G.iXN < @ w M O < + + + M W c.Y.D.G.m.).R @.cX,Xy.r.{ c u % t % t 4 + + + + + $ b.q x.                                                                                                                                                                                                                                                                            ",
"                                                                                                                                                                                                                                                                                                                                              g.`.> , < e 9 + , > + < M D &.(.).`.).sX*.&.jXd.e.e.u % % $ - t y 5 + 4 + + @ . sX# c.                                                                                                                                                                                                                                                                            ",
"                                                                                                                                                                                                                                                                                                                                              A {.O O > , . @ O + # 2 D a 8.W.'.$X5XjXC.M.@XE.-.u $ $ % % t t y t + $ $ $ $ $ ).^                                                                                                                                                                                                                                                                               ",
"                                                                                                                                                                                                                                                                                                                                                fXuXiX        (.. * @ - & q._.sX6X6XsXT.@.2X~.e.: o $ $ % 4 t % 5 + + % $ . o mX                                                                                                                                                                                                                                                                                ",
"                                                                                                                                                                                                                                                                                                                                                              `.. @ 6 s z &XjXvXxXjXlX&XM.@X,Xd.r.l ; ; % x.^ y 4 + O + + . o mX                                                                                                                                                                                                                                                                                ",
"                                                                                                                                                                                                                                                                                                                                                              (.. 6 6 Y T.6XlXcXxXbXcXsXq.@X,X+Xd.-.9.E P U.] V V + + + $ $ - MX                                                                                                                                                                                                                                                                                ",
"                                                                                                                                                                                                                                                                                                                                                              ).. 8 * d Q.9XjX7X7X2X6XL.x E.0XqX,Xd.!./ G K.x.) y + . O O . % NX                                                                                                                                                                                                                                                                                ",
"                                                                                                                                                                                                                                                                                                                                                              ).. * 8 s *.B.L.W.L.C.( C ] w.3.+X,Xi.$.s _ G.P y 3 + O + $ $ % VX                                                                                                                                                                                                                                                                                ",
"                                                                                                                                                                                                                                                                                                                                                              `.X 6 0 s k &.q.$.5./ _ ` ) Z.2XzX,X3.d * t 4 $ 4 4 $ . $ + + 9 MX                                                                                                                                                                                                                                                                                ",
"                                                                                                                                                                                                                                                                                                                                                              `.* 6 0 F 6.3X2X$XW.~ r r G Q.4X4Xd.g s 6 w # % 4 4 $ . + O $ - VX                                                                                                                                                                                                                                                                                ",
"                                                                                                                                                                                                                                                                                                                                                              ).X * 0 Y 0.Q.2X!.!.D.4 t @.,X0XyX,Xh ^ K D 4 # + + + + + . + * MX                                                                                                                                                                                                                                                                                ",
"                                                                                                                                                                                                                                                                                                                                                              _.. 6 q ^ w.3X3X!._.K.+ t X.,XqXrX,X-.8.T 9 y 9 4 4 $ O $ + + t VX                                                                                                                                                                                                                                                                                ",
"                                                                                                                                                                                                                                                                                                                                                              `.. 4 q R P.2X3X2X2XA.% - 4.,X1X1X,Xe.e.y t t V 0 + + O $ + + y NX                                                                                                                                                                                                                                                                                ",
"                                                                                                                                                                                                                                                                                                                                                              `.X * 9 U A._.2X2X5XK.% u y.<XeXeX=Xe.x - 9 y ` g.+ + $ + $ $ M mX                                                                                                                                                                                                                                                                                ",
"                                                                                                                                                                                                                                                                                                                                                              `.. 6 - I 0.W.).$XdXV.t : +XrXeX1Xa.g : 9 M V K ) # + O O + . C mX                                                                                                                                                                                                                                                                                ",
"                                                                                                                                                                                                                                                                                                                                                              ).X 9 t D.R.W.Q.$XdXN.$ I 0X0X<X1Xs.: - r t y r P 5 + O O $ . P mX                                                                                                                                                                                                                                                                                ",
"                                                                                                                                                                                                                                                                                                                                                              (.. * 9 U F.).Q._.%Xm.@ f @.p.oXp...f 0 6 t q - j t + + O + . G cX                                                                                                                                                                                                                                                                                ",
"                                                                                                                                                                                                                                                                                                                                                              /.. * 9 s I s R ^ M.%.8 = = z ..f f = = 8 - - % P y + O + o . K mX                                                                                                                                                                                                                                                                                ",
"                                                                                                                                                                                                                                                                                                                                                              (.. # - q e 0 d a d A = 8 f M.M.*.f 8 f A t 9 : G L + . + $ . ` mX                                                                                                                                                                                                                                                                                ",
"                                                                                                                                                                                                                                                                                                                                                              ).* # - e D A ^ 6.n.M.S Y S S.T.l.*.#.q.z a - o 5.G + O + $ . T MX                                                                                                                                                                                                                                                                                ",
"                                                                                                                                                                                                                                                                                                                                                              '.. . . - G c.W.K.(.G.~ K e A z z z *.*.f 0 r ; W.K $ @ $ $ . T MX                                                                                                                                                                                                                                                                                ",
"                                                                                                                                                                                                                                                                                                                                                              iX@ * - m.U.Z.K.K.K.K.H.(.A 9 e J *.T.z a a 0 l W.G + $ @ . . P mX                                                                                                                                                                                                                                                                                ",
"                                                                                                                                                                                                                                                                                                                                                              aX$ 9 q xXdXcXcXCXCXhX'.V.q % y P l.@.D t q j j V.G o @ . . . T MX                                                                                                                                                                                                                                                                                ",
"                                                                                                                                                                                                                                                                                                                                                              iX. t a 7XzXZXZXZXZXZXvXCX' P P l d l % $ % - 9 x.~ 9 . + o o `                                                                                                                                                                                                                                                                                   ",
"                                                                                                                                                                                                                                                                                                                                                              aXO D a dXvXJXHXJXHXHXPXHXJXJXZXxX|.J.y 4 9 # t k._ * . $ $ $ G                                                                                                                                                                                                                                                                                   ",
"                                                                                                                                                                                                                                                                                                                                                              aX. r k dXZXJXFXGXHXLXHXLXHXFXHXFXLXUXhX{.H ~ Q _ K # . . + < y                                                                                                                                                                                                                                                                                   ",
"                                                                                                                                                                                                                                                                                                                                                                . q q V.(.].5XaXCXCXcXcXvXCXCX7X|.].b.Z M 9 9 M 0 < O . + # r                                                                                                                                                                                                                                                                                   ",
"                                                                                                                                                                                                                                                                                                                                                                . # # # - 4 % t u % y V y % $ $ 4 + . . 6 @ $ # 6 + + . + o 9                                                                                                                                                                                                                                                                                   ",
"                                                                                                                                                                                                                                                                                                                                                                . # < 6 w w 5 M 5 V g.H.`.~ 4 4 5 + . + < @ X # C 6 + . . $ u                                                                                                                                                                                                                                                                                   ",
"                                                                                                                                                                                                                                                                                                                                                                . < 6 5 w t 3 M 3 n N ` {.D 4 M t 5 @ $ o @ $ 6 C < * j 8.8.R.                                                                                                                                                                                                                                                                                  ",
"                                                                                                                                                                                                                                                                                                                                                                . o , 2 D T (.LXBXmXgXG.G.K H 5 + # + $ $ X o 9 @ # # 5.W._.7X                                                                                                                                                                                                                                                                                  ",
"                                                                                                                                                                                                                                                                                                                                                                + r c.|.].K.dXPXIXIXIXLXFXBXFXgX'.`.o $ 9 + * 9 # . * x.].dXhX                                                                                                                                                                                                                                                                                  ",
"                                                                                                                                                                                                                                                                                                                                                                D ].(.xXCX_.zXPXPXPXIXPXGXFXGXSXmXhXx.V 9 M ) K # $ # k U.].5.                                                                                                                                                                                                                                                                                  ",
"                                                                                                                                                                                                                                                                                                                                                                K F._.gX8X_.zXHXLXPXPXLXHXJXGXHXFXFXxX7.# ) v.T 9 # # o o $ .                                                                                                                                                                                                                                                                                   ",
"                                                                                                                                                                                                                                                                                                                                                                D ].5X'.5XxXFXHXPXPXPXPXPXPXPXLXLXFXhXC.. x.T G F 9 # o o . .                                                                                                                                                                                                                                                                                   ",
"                                                                                                                                                                                                                                                                                                                                                                9 < # y j 3.7.A.W.!.@X|.W.8.7.5.T j ; t o t - F F 9 # o o o X                                                                                                                                                                                                                                                                                   ",
"                                                                                                                                                                                                                                                                                                                                                                < 9 + * - q : : : u { e.l $ - q q 9 9 % # t - ` F # + $ $ # -                                                                                                                                                                                                                                                                                   ",
"                                                                                                                                                                                                                                                                                                                                                                @ # * 9 y T P c l ' ,X2X9.$ - D r y r q q G T ) G . o o o + t                                                                                                                                                                                                                                                                                   ",
"                                                                                                                                                                                                                                                                                                                                                                w < # 0 F j q y : ~.wX4XZ.q F K F j D j q G P x.K $ * * @ @ r                                                                                                                                                                                                                                                                                   ",
"                                                                                                                                                                                                                                                                                                                                                                # < o q a T / E z !.wX4XZ.j s H q q y l l L l x.K # # $ @ $ J                                                                                                                                                                                                                                                                                   ",
"                                                                                                                                                                                                                                                                                                                                                                < < $ G Z.Q.9.] ' }.8X8XB.d s A s F $.N.A.v.T 5.T % 4 $ @ @ J                                                                                                                                                                                                                                                                                   ",
"                                                                                                                                                                                                                                                                                                                                                                $ % $ W.2X2X8X8X|.8XwX,Xq.= * Q S.C.C.N.A.Z.T 5.K 4 4 # o X J                                                                                                                                                                                                                                                                                   ",
"                                                                                                                                                                                                                                                                                                                                                                < 6 4 W.8XqXwX8X}.}.wX8XP.k %.! A F A j I P U ] T 4 % % + $ J                                                                                                                                                                                                                                                                                   ",
"                                                                                                                                                                                                                                                                                                                                                                O + t K.}.,X X,X,Xr.wX,XR.a k C K F I I T R j ~ P 9 4 # + @ U                                                                                                                                                                                                                                                                                   ",
"                                                                                                                                                                                                                                                                                                                                                                @ w q V.}.}.}.wXwXr.wX}.J.c F H F L G T E T L T K 9 % + # # W                                                                                                                                                                                                                                                                                   ",
"                                                                                                                                                                                                                                                                                                                                                                + @ # A.}.}.wXwXwX XwXwX!.R T K F 0 D U I E l ^ P t 4 # # # U                                                                                                                                                                                                                                                                                   ",
"                                                                                                                                                                                                                                                                                                                                                                + # 9 W.zXZXZXZXZX}.ZXwX2X] U K J A F R I / L / K 9 # # # + U                                                                                                                                                                                                                                                                                   ",
"                                                                                                                                                                                                                                                                                                                                                                + + - W.ZX}.}.|.wX}.wXCX2X8.G j F U R U P T l / T 9 % 4 + @ H                                                                                                                                                                                                                                                                                   ",
"                                                                                                                                                                                                                                                                                                                                                                6 6 - N.~.R.}.}.wX}.wXCX|.[ y D P R / R E T k / P 9 # 2 + o J                                                                                                                                                                                                                                                                                   ",
"                                                                                                                                                                                                                                                                                                                                                                9 < t G 7.3.{ }.|.}.wX|.|.[ l L T ( / $.E / j T T 0 # 9 o + D                                                                                                                                                                                                                                                                                   ",
"                                                                                                                                                                                                                                                                                                                                                                2 # * B.W.!.}.qXwX|.wX|.}.r.P T U ^ $.R E / q E T 9 # 2 @ o H                                                                                                                                                                                                                                                                                   ",
"                                                                                                                                                                                                                                                                                                                                                                9 4 9 (.|.d. X}.}. X8XwX}.[ u L R $.6.&.T / I P T q + 9 @ @ D                                                                                                                                                                                                                                                                                   ",
"                                                                                                                                                                                                                                                                                                                                                                5 4 5 K.}.}. XwX X XwX X}.r.' K ^ I R 8.R / G T T t + 9 + $ C                                                                                                                                                                                                                                                                                   ",
"                                                                                                                                                                                                                                                                                                                                                                % 4 t K.}. Xf. Xf.f.wXwXwX~.' P ^ T E E 8.R k P T r # 9 O + s                                                                                                                                                                                                                                                                                   ",
"                                                                                                                                                                                                                                                                                                                                                                + t u K.}.}. XwXf. XwXwX,X XP / 5.T I E / 5.G G K r < # X # e                                                                                                                                                                                                                                                                                   ",
"                                                                                                                                                                                                                                                                                                                                                                6 4 u }.}.wX XwX X XyX1XwXr.' _ 5.T c E / ] G G G y # 6 $ # w                                                                                                                                                                                                                                                                                   ",
"                                                                                                                                                                                                                                                                                                                                                                # # q !.}.wX}.1X X}.wXwXwX X' / v.] E E ` 5.G I G j # * @ X w                                                                                                                                                                                                                                                                                   ",
"                                                                                                                                                                                                                                                                                                                                                                # 9 - |.wX}.wXwX}. XyXwXqX X' ' ] 8.9.E / ] G U G M # 6 o @ w                                                                                                                                                                                                                                                                                   ",
"                                                                                                                                                                                                                                                                                                                                                                9 9 q 5X|.}.}.}.}. XZXwXwX}.3.8.] / ' E ] R E G K r # 6 + X 0                                                                                                                                                                                                                                                                                   ",
"                                                                                                                                                                                                                                                                                                                                                                9 t t W.|.}.|.}.}.K.K.}.A.9.P _ R T / T / 5./ P G D + * X + e                                                                                                                                                                                                                                                                                   ",
"                                                                                                                                                                                                                                                                                                                                                                w 9 9 j G G F U U G U s r t t t q q - D T / / G K j $ * @ @ 9                                                                                                                                                                                                                                                                                   ",
"                                                                                                                                                                                                                                                                                                                                                                C 9 q r D Z D A Z N A C r - % t r % t y P / ^ G L D @ * X @ e                                                                                                                                                                                                                                                                                   ",
"                                                                                                                                                                                                                                                                                                                                                                M 9 w D J J Q Q b.! ~ _ M 9 % y w w M D G ^ ^ j K V $ # + # 9                                                                                                                                                                                                                                                                                   ",
"                                                                                                                                                                                                                                                                                                                                                                V 2 9 q D K D _ ] ~ F j s K D r 6 0 s F U Q ~ D T C $ # o @ t                                                                                                                                                                                                                                                                                   ",
"                                                                                                                                                                                                                                                                                                                                                                ! e % V.W.].8.|.|.].!.J.A.E j - 0 s A Y Q U K D K D $ # @ o e                                                                                                                                                                                                                                                                                   ",
"                                                                                                                                                                                                                                                                                                                                                                {.q 9 (.hXzX6XvXJXHXGXHXHXGXvXJ.Y K A k.S.k.Q Q T D @ # @ + w                                                                                                                                                                                                                                                                                   ",
"                                                                                                                                                                                                                                                                                                                                                                b.m L Z.7X5Xc c c w.}.4X4XbX7XJ.0.).J @ 8 s r H K H X @ @ # w                                                                                                                                                                                                                                                                                   ",
"                                                                                                                                                                                                                                                                                                                                                                b.n t W.hX7X}.~.e.7XvXZXZXqXzX{ c I.I.Y Y Q ( K T H $ + + # e                                                                                                                                                                                                                                                                                   ",
"                                                                                                                                                                                                                                                                                                                                                                H.M 6 _.6X8XvXZXqXHXKXbXKXKXZX}.9.L.B.&.C.l.~ ~ Q V + @ . # e                                                                                                                                                                                                                                                                                   ",
"                                                                                                                                                                                                                                                                                                                                                                S.e 9 v.!.8XbXKXzXHXZXwXbXZXwX{ a R @.&.%.S.%.H ~ H $ + O # e                                                                                                                                                                                                                                                                                   ",
"                                                                                                                                                                                                                                                                                                                                                                b.m o v.2X|.zXZXbXHXZXqXyXqX8Xg 3.L.L.q.b.c.%.F ` D + % . # e                                                                                                                                                                                                                                                                                   ",
"                                                                                                                                                                                                                                                                                                                                                                b.e + C.2Xi.zXHXHXHXKXKXKXZXwX-.w.Q.P.&.&.c.( U ) M + $ O + r                                                                                                                                                                                                                                                                                   ",
"                                                                                                                                                                                                                                                                                                                                                                b.m # F.6X!.vXHXbXbX4X9XqXqX4Xr.w.E.w.@.&.c.! K ) M + $ + @ C                                                                                                                                                                                                                                                                                   ",
"                                                                                                                                                                                                                                                                                                                                                                x.M < G.6X8XvX7X|.8X!.qXyXZXwX-.i.~.q.@.&.c.U Q ) M + + < + D                                                                                                                                                                                                                                                                                   ",
"                                                                                                                                                                                                                                                                                                                                                                k.r + U.dXZX7X7XzXzXzXJXKXKXwX-.e.E.q.E %.%.^ Q ) M + + + + D                                                                                                                                                                                                                                                                                   ",
"                                                                                                                                                                                                                                                                                                                                                                ) M 5 K.2XwX~.2XwX9XqXJXKXZX,X{ i.E.q.@.&.c.U ^ g.M + O + + A                                                                                                                                                                                                                                                                                   ",
"                                                                                                                                                                                                                                                                                                                                                                W M 4 Z.6Xd.8X,X8X,X2X8XqXbX4Xx R.R.0.@.c.b.R ! k.M + + + + J                                                                                                                                                                                                                                                                                   ",
"                                                                                                                                                                                                                                                                                                                                                                r J # V.!.~.qX,XwX7XqXqXqXwX}.{ J.R.0.$.c.b.Y Q k.M + + < O J                                                                                                                                                                                                                                                                                   ",
"                                                                                                                                                                                                                                                                                                                                                                r Z C v.~.3X@X8X6X8X7X|.~.9.c u E 5.N.v.k.c.F A g.M > + < $ W                                                                                                                                                                                                                                                                                   ",
"                                                                                                                                                                                                                                                                                                                                                                6 D D n.R.3.3.N.P ) ] u % $ . . + + M ~ k.&.Q ! g.M + + < O ^                                                                                                                                                                                                                                                                                   ",
"                                                                                                                                                                                                                                                                                                                                                                0 C D Z.L.A.|.W.].5 9 + : % $ % 5 5 J b.S.k.! ( k.M + + 5 O !                                                                                                                                                                                                                                                                                   ",
"                                                                                                                                                                                                                                                                                                                                                                # H q 6.L.%X7X).%X@ . % u u % % 4 x.m.k.S.l.( ! l.Z + + < O ~                                                                                                                                                                                                                                                                                   ",
"                                                                                                                                                                                                                                                                                                                                                                6 D q C.!.2X_.Q.m.0 # q |.}.}.K.H.H.m.C.Y.S.k.%.x.N < + < O Q                                                                                                                                                                                                                                                                                   ",
"                                                                                                                                                                                                                                                                                                                                                                w F e n.R._.bXCX5X9 - K.|.wX}.~.A.7.m.S.G.S.z.k.b.H > + + . (                                                                                                                                                                                                                                                                                   ",
"                                                                                                                                                                                                                                                                                                                                                                , D F 6.L.9X7XzXhXq - _.,X}.r.r.w.q.S.S.S.S.l.l.b.H + > @ . (                                                                                                                                                                                                                                                                                   ",
"                                                                                                                                                                                                                                                                                                                                                                < D 0 7.Q.2X6X6X5X` V Z._.R.~.r.M.z.M.M.S.z.l.&.k.D O + # O (                                                                                                                                                                                                                                                                                   ",
"                                                                                                                                                                                                                                                                                                                                                                6 D F R N.B.@.E / F j I x x { [ L.c.M.M.S.S.k.h.g.Z O # < . (                                                                                                                                                                                                                                                                                   ",
"                                                                                                                                                                                                                                                                                                                                                                # e C H F G F 8 s F q G 3.9.[ 9.n.M.z.M.z.z.k.&.g.H + + < O _                                                                                                                                                                                                                                                                                   ",
"                                                                                                                                                                                                                                                                                                                                                                8 e e [.S./.S.[.m.U Y.%X5XsXCXZXW.b.b.b.z.z.l.l.k.H + + # O ^                                                                                                                                                                                                                                                                                   ",
"                                                                                                                                                                                                                                                                                                                                                                * m 8 G./.uX/./.S.d aXdXxXxXzXCXW.k.b.z.l.&.&.( g.D O + # O (                                                                                                                                                                                                                                                                                   ",
"                                                                                                                                                                                                                                                                                                                                                                @ 8 b z./././.z.S.&.iXDXNXxXCXzXW.c.l.l.&.l.! &.g.H @ + # $ (                                                                                                                                                                                                                                                                                   ",
"                                                                                                                                                                                                                                                                                                                                                                8 m A z.z.z.z.[.z.z./.lXcXzXzX7XI.c.m.l.l.! Q ! ( D + @ # O (                                                                                                                                                                                                                                                                                   ",
"                                                                                                                                                                                                                                                                                                                                                                @ e C l.S.S.z.z.z.z.%XxXvXzXzX7XF.c.M.%.l.*.! ! ( H + @ + $ (                                                                                                                                                                                                                                                                                   ",
"                                                                                                                                                                                                                                                                                                                                                                o 8 m k.z.z.z.z.l.*.sXjXxXCXwX7XI.6.&.l.l.l.k.l._ H @ + @ . %.                                                                                                                                                                                                                                                                                  ",
"                                                                                                                                                                                                                                                                                                                                                                * 8 e ! l.l.l.h.z.l.dXzXxXzX7XCXZ.5.&.l.l.z.l.l.( A @ . # . %.                                                                                                                                                                                                                                                                                  ",
"                                                                                                                                                                                                                                                                                                                                                                6 e e ( k.l.z.z.z.l.hXxXvXzXzX7XW.x.c.b.z.k.%.&.( C + + @ . (                                                                                                                                                                                                                                                                                   ",
"                                                                                                                                                                                                                                                                                                                                                                o w w ( k.l.z.M.z.M.lXcXbXjXbXCXW.C.Y.Y.M.l.%.%.( M @ X O . k.                                                                                                                                                                                                                                                                                  ",
"                                                                                                                                                                                                                                                                                                                                                                X 8 e &.l.z.z.z.z.z.sXcXzXjXzXxX_.C.S.m.c.&.%.( ( M + $ . $ g.                                                                                                                                                                                                                                                                                  ",
"                                                                                                                                                                                                                                                                                                                                                                @ w e k.z.z.z.l.z.l.lXcXjX7XvXFX_.V.b.m.c.k.&.( ( M @ O @ . x.                                                                                                                                                                                                                                                                                  ",
"                                                                                                                                                                                                                                                                                                                                                                o r 9 ( l.z.z.z.z.z.kXcXjX2XzX9XW.N.S.M.M.l.( &.( Z + + @ . x.                                                                                                                                                                                                                                                                                  ",
"                                                                                                                                                                                                                                                                                                                                                                o e 9 ( z.z.b.z.z.M.cXMXlX$XzXjXI.M.m.M.l.6.$.&.h.H O O + . b.                                                                                                                                                                                                                                                                                  ",
"                                                                                                                                                                                                                                                                                                                                                                o e 9 k.z.z.l.z.z.z.kXAXvX@X2X5XI.n.M.l.c.5.( k.g.H + O > . H.                                                                                                                                                                                                                                                                                  ",
"                                                                                                                                                                                                                                                                                                                                                                @ 0 7 g.b.l.z.b.z.z.lXcXDX7X&X5XW.c.C.l.c.6.%.&.g.Z , O @ O S.                                                                                                                                                                                                                                                                                  ",
"                                                                                                                                                                                                                                                                                                                                                                . 0 r J ! ( c.S.S./.lXDXDX6X$X6X(.] H.T U F ! k.%.H , + @ . V.                                                                                                                                                                                                                                                                                  ",
"                                                                                                                                                                                                                                                                                                                                                                X 0 6 _ hXhXMXMXDXSXDXnXcXzX5XdX].] 4 % # 9 Q c.k.Z + + + . V.                                                                                                                                                                                                                                                                                  ",
"                                                                                                                                                                                                                                                                                                                                                                X 9 @ x.kXcXNXFXSXDXMXDXDXDX7XjX)./ % # o ; U k.%.J O O + . G.                                                                                                                                                                                                                                                                                  ",
"                                                                                                                                                                                                                                                                                                                                                                O 6 # v.kXxXMXFXSXSXDXDXDXDX6XsX_.x.` % o 0 ^ k.g.J + + + . S.                                                                                                                                                                                                                                                                                  ",
"                                                                                                                                                                                                                                                                                                                                                                X 6 6 I lXMX6XDXSXDXDXlX9XcX6X6X).N./ t r G %.k.( A @ @ + . G.                                                                                                                                                                                                                                                                                  ",
"                                                                                                                                                                                                                                                                                                                                                                @ 9 6 U nXMX*.iXSXDXDXlXjXzX7XdX).A._ y j K ( %.( H # + + . V.                                                                                                                                                                                                                                                                                  ",
"                                                                                                                                                                                                                                                                                                                                                                $ 8 # J %X%Xl.%XSXMXDXlX9XvXjXzX!.F.] P L F ^ k.( D @ + O . V.                                                                                                                                                                                                                                                                                  ",
"                                                                                                                                                                                                                                                                                                                                                                . * @ C %X/.S.`.SXMXSXbXjXAXzXzX!.K./ T G F ! ) ( H # + O . S.                                                                                                                                                                                                                                                                                  ",
"                                                                                                                                                                                                                                                                                                                                                                . 9 < e S.S.S.%XLXcXMX&XjXcXcXxXW.W.$.T G K ^ ) ( J < @ @ . H.                                                                                                                                                                                                                                                                                  ",
"                                                                                                                                                                                                                                                                                                                                                                @ # # J W.).S.%XlXiXkX&XjXcXNXjXR.R.E I q F ^ ( _ J < # @ . c.                                                                                                                                                                                                                                                                                  ",
"                                                                                                                                                                                                                                                                                                                                                                . # < ) ).(.T.sXMXlXcX6X6XdXzXdX|.W.6.U s Q %.) ( J < # $ . c.                                                                                                                                                                                                                                                                                  ",
"                                                                                                                                                                                                                                                                                                                                                                @ 6 + ~ ).).).$XiX%X&XY.&.@.@.0.L.L.6.F F T %.) ( J < @ + . x.                                                                                                                                                                                                                                                                                  ",
"                                                                                                                                                                                                                                                                                                                                                                . < # x.%X&XE.T.#.*.S Y Y R 8.3.7.5.&.R K G K ! ( J < + @ . c.                                                                                                                                                                                                                                                                                  ",
"                                                                                                                                                                                                                                                                                                                                                                . < # k.'.&XT.@X@.@.A k a a c P k R q j j F U Q ( K 6 # + . x.                                                                                                                                                                                                                                                                                  ",
"                                                                                                                                                                                                                                                                                                                                                                O # # k.).).Q.Q.Q.lX%X).&.U 3.' R k k T U D D K ( W 9 < @ . c.                                                                                                                                                                                                                                                                                  ",
"                                                                                                                                                                                                                                                                                                                                                                . # , k.`.Q.T.Q.@XdXsX%X%X6X|.W._.).W.V.v.c.&._ g.Q 9 < @ . x.                                                                                                                                                                                                                                                                                  ",
"                                                                                                                                                                                                                                                                                                                                                                # # @ c.).Q.i.@XT.5X6XjXzXjXvXcX%X%XZ.V.W.U.].^.k.K 9 < $ . %.                                                                                                                                                                                                                                                                                  ",
"                                                                                                                                                                                                                                                                                                                                                                O + # m.).Q.q.&XT._.cXDXvXdX7XzX2X_.F.F.(.].F.[.k.W 9 # $ . x.                                                                                                                                                                                                                                                                                  ",
"                                                                                                                                                                                                                                                                                                                                                                # + @ l.'.T.i.$XP.R.xXZXvXbX7XjX5X_.(.K.U.U.(.x.k.Q 9 < @ . x.                                                                                                                                                                                                                                                                                  ",
"                                                                                                                                                                                                                                                                                                                                                                O $ @ M.).).L.!.A.Q.NXFXvXzXzXzX%X_.'.Z.H.b._ x.k.W 6 # @ . %.                                                                                                                                                                                                                                                                                  ",
"                                                                                                                                                                                                                                                                                                                                                                @ < , S.).W.L.!.0.C.CXZXZXzX7XdXiX`.'.H.T c.%.( ( Q w < o . x.                                                                                                                                                                                                                                                                                  ",
"                                                                                                                                                                                                                                                                                                                                                                + % , M.U.Y.T.$XL.I._.CXbXqX}.5XiX`.Y.m.V.V.G.S.( U 9 < @ X %.                                                                                                                                                                                                                                                                                  ",
"                                                                                                                                                                                                                                                                                                                                                                # < @ S.).).U.%XW.L.8.$X~.}._.H.Y.S.( ( ) _ k.b.( W 7 < o . x.                                                                                                                                                                                                                                                                                  ",
"                                                                                                                                                                                                                                                                                                                                                                + # < m.).Q.Y.$X9.9.r. X}.,X|.H.( ( J D ] Q H Q ( W 6 < # . x.                                                                                                                                                                                                                                                                                  ",
"                                                                                                                                                                                                                                                                                                                                                                $ 6 6 M.Y.T.P.$X-.f.d. X=X,X!.A.F.D.T T ^.[.! ! ( J 6 < + . x.                                                                                                                                                                                                                                                                                  ",
"                                                                                                                                                                                                                                                                                                                                                                @ * 6 m.Q.Q.i.@Xd.}.=X;X.X X~.9.I.F.5.) ].G.! ! A Z < # + X x.                                                                                                                                                                                                                                                                                  ",
"                                                                                                                                                                                                                                                                                                                                                                . o # S.@X&XE.p.:.f. X;X=Xd.d.J.C.(.b.H.^.S.~ Q D J 5 # o . x.                                                                                                                                                                                                                                                                                  ",
"                                                                                                                                                                                                                                                                                                                                                                . @ @ D.&XQ.T.i.| f. X.Xf.f.{ { v.(.F.D.K.{.` K Q K w # + . x.                                                                                                                                                                                                                                                                                  ",
"                                                                                                                                                                                                                                                                                                                                                                . 6 * z.D.Q.P.y.f.2. Xf.f.f.[ H.v.D.D.U.^.[ T ^ F y t % $ X k.                                                                                                                                                                                                                                                                                  ",
"                                                                                                                                                                                                                                                                                                                                                                @ 6 o c.S.&.q.#.4.<. Xf.f.f.}.}.W.H.V.V.J.A.] Z.F.V.- % @ O 5.                                                                                                                                                                                                                                                                                  ",
"                                                                                                                                                                                                                                                                                                                                                                . o @ b.L.i.q.w.R.e.f.f.{ { r.}.K.) K.W.W.3.W.W.K.V.% % $ O ]                                                                                                                                                                                                                                                                                   ",
"                                                                                                                                                                                                                                                                                                                                                                @ 6 w U.(.).Q.L.w.-.{ f.d.}.}.W.J.K.!._.|.!.!._.V.b.t # @ X %.                                                                                                                                                                                                                                                                                  ",
"                                                                                                                                                                                                                                                                                                                                                                $ q 2 G.).$XY.Q.w.~.d.d. X}.r.}.W.Q.|.|.7X7X_.Q.W.7.- < + . )                                                                                                                                                                                                                                                                                   ",
"                                                                                                                                                                                                                                                                                                                                                                . 6 < ^.)./.T.W.9.w.e.~.d.wX}.}.|.!.|.|.|._.9.A.Z.7.4 4 O . (                                                                                                                                                                                                                                                                                   ",
"                                                                                                                                                                                                                                                                                                                                                                @ r 4 H.).).Y.).0.9.e.w.r.wXwX}.|.R.W.!.!.7.R 7.` ` < 9 + + ~                                                                                                                                                                                                                                                                                   ",
"                                                                                                                                                                                                                                                                                                                                                                . < + ^.(.$XY.$XL.w.w.e.}.bXwX,X2XK.K.J.N.H.E 5.] ) 5 < # . Q                                                                                                                                                                                                                                                                                   ",
"                                                                                                                                                                                                                                                                                                                                                                O 6 w U./.%X/.$XR.w.r.e. XwXwXwX7XW.A.v.V.W.] 5.c.` 9 t @ + ~                                                                                                                                                                                                                                                                                   ",
"                                                                                                                                                                                                                                                                                                                                                                . @ # G.'.%XQ.&XE.-.e.e. XwXwX}.~.] V.U.].].{.] x.` 5 r + + ~                                                                                                                                                                                                                                                                                   ",
"                                                                                                                                                                                                                                                                                                                                                                O 9 w (.].$XY.@X~.x e.f. X,XwXr.' L _ b.V.V.] 5.7.T - 9 @ @ _                                                                                                                                                                                                                                                                                   ",
"                                                                                                                                                                                                                                                                                                                                                                + 9 + S.`.$XY.Q.@Xh 4.r.=XwX}.~.R.H.H.b.5.c.8.5.7.K 9 t @ o !                                                                                                                                                                                                                                                                                   ",
"                                                                                                                                                                                                                                                                                                                                                                # # 5 G.).%X/.Q.,X{ r. X X,X2X8X_.N.v.] ~ 5.] / v.K r 9 # $ K                                                                                                                                                                                                                                                                                   ",
"                                                                                                                                                                                                                                                                                                                                                                @ 6 # H.$X%XT./.Q.e.P.i.@X+X!.}._.F.U.G.F.F.H.x.b.L r 9 + @ K                                                                                                                                                                                                                                                                                   ",
"                                                                                                                                                                                                                                                                                                                                                                # 8 < (./.&X/.T.$X!.$XP.@XjX7X6XW.G.W.U.W.W.N.5.b.D r 5 # + ~                                                                                                                                                                                                                                                                                   ",
"                                                                                                                                                                                                                                                                                                                                                                @ w , S.).&X&XT.lXDXzXzXxXDXDXMX).(.W.Y.I.F.5.~ x.y r 6 # # ~                                                                                                                                                                                                                                                                                   ",
"                                                                                                                                                                                                                                                                                                                                                                o 6 , S./.&X&XT.jXcXNXDXDXDXSXxX].(.(.Y.U.I.7./ ) D D # # @ K                                                                                                                                                                                                                                                                                   ",
"                                                                                                                                                                                                                                                                                                                                                                2 9 9 b.).&XQ.T.jXxXDXDXDXDXSXxX(.).%X^.U.Z.5.T ) D D # < + U                                                                                                                                                                                                                                                                                   ",
"                                                                                                                                                                                                                                                                                                                                                                + 6 < ) /.).Q.P.$XzXDXDXDXvXNXxXY.].).C.C.V.v.$.] C C < # + K                                                                                                                                                                                                                                                                                   ",
"                                                                                                                                                                                                                                                                                                                                                                @ 9 # b.%X&XT.@X&X9XDXDXDXAXNXxXL.(.S.(.^.F.V.5.) D D # < + K                                                                                                                                                                                                                                                                                   ",
"                                                                                                                                                                                                                                                                                                                                                                < 9 < G././.B.3X$X7XcXvXcXcXNXdX).(.U.Y.W.I.F.%._ H M + % # L                                                                                                                                                                                                                                                                                   ",
"                                                                                                                                                                                                                                                                                                                                                                + 9 9 x.iX%X&XT.#.6XDXMXNXvXvXdX`.).Y.G.W.U.v.5.K K D < 6 @ G                                                                                                                                                                                                                                                                                   ",
"                                                                                                                                                                                                                                                                                                                                                                < w D K &.z.6.*.Y &XcXDXvXcXxX5XU.^.m.Y.U.F.v.~ K K A < 4 + L                                                                                                                                                                                                                                                                                   ",
"                                                                                                                                                                                                                                                                                                                                                                2 9 9 b.W./.$XC.Y %XDXAXcXxXcXQ.$.m.c.C.F.F.b.F H K C < < + L                                                                                                                                                                                                                                                                                   ",
"                                                                                                                                                                                                                                                                                                                                                                < 6 6 C.iXiX$XY./.iXcXcXcXzXxXI.R M.S.U.Y.Y.V.) _ _ C w % # K                                                                                                                                                                                                                                                                                   ",
"                                                                                                                                                                                                                                                                                                                                                                < < 9 G.D./.&XY.sXkXcXAXzXcXxX).m.U.U.^.U.U.V.) ) ( M 9 4 + T                                                                                                                                                                                                                                                                                   ",
"                                                                                                                                                                                                                                                                                                                                                                @ w 9 c.&X%X&XQ.DXSXlXcXbXcXzX$XC.U.U.Y.W.W.V.%.) g.e t # + T                                                                                                                                                                                                                                                                                   ",
"                                                                                                                                                                                                                                                                                                                                                                , 9 w V.iXsXY.Q.Q.$XjXcXbXxXcX).S.U.(.U.U.Y.m.&.) %.e 9 # + K                                                                                                                                                                                                                                                                                   ",
"                                                                                                                                                                                                                                                                                                                                                                # 6 w H.%XY.M.L.0.q.9XcXxXxXNXW.U.^.(.^.F.U.b.c.^.S.e e # + `                                                                                                                                                                                                                                                                                   ",
"                                                                                                                                                                                                                                                                                                                                                                < 2 t K m.M.M.P.w.l 9XcXxXxXvX/.^./.^.U.Y.D.c.M.[.M.w 8 # . K                                                                                                                                                                                                                                                                                   ",
"                                                                                                                                                                                                                                                                                                                                                                # 9 9 J m.Y.i.P.e.4.jXcXcXzXMX(.(.^.^.Y.G.M.k.b.l.( 9 9 # + ~                                                                                                                                                                                                                                                                                   ",
"                                                                                                                                                                                                                                                                                                                                                                # < # %.D.T.q.R.w.w.9XcXcXlXMX).(./.^.F.G.G.%.k.l.( w 9 # $ Q                                                                                                                                                                                                                                                                                   ",
"                                                                                                                                                                                                                                                                                                                                                                < # < x.G.z.q.$Xw.X.9XDXcXcXcX%X^.^.^.G.G.V.b._ J C 7 w # + Q                                                                                                                                                                                                                                                                                   ",
"                                                                                                                                                                                                                                                                                                                                                                + 6 6 %.D.m.T.zXw.= 6XAXcXjXzX/.^.^.^.S.U.G.g._ 5 5 2 w < + ~                                                                                                                                                                                                                                                                                   ",
"                                                                                                                                                                                                                                                                                                                                                                O + < H.S.L.Q.L.n.d 6XbXjXcXkX`.^.^.U.U.G.G.x.{.t n w 9 < + ~                                                                                                                                                                                                                                                                                   ",
"                                                                                                                                                                                                                                                                                                                                                                < 6 6 ) D.C.B.&.7.z $XbXbXlXkX).^.^.Y.G.G.G.g.g.V M M < # o ^                                                                                                                                                                                                                                                                                   ",
"                                                                                                                                                                                                                                                                                                                                                                < 7 6 U M.M.Y k ] Q.jXAXcXzXcX).(.^.U.S.G.G.x.~ ` C w 5 < + ~                                                                                                                                                                                                                                                                                   ",
"                                                                                                                                                                                                                                                                                                                                                                < < $ x.&.L.).W.I.).4XvXlXzXAX`./.^.U.[.U.Y.l.g.) M 4 4 # + _                                                                                                                                                                                                                                                                                   ",
"                                                                                                                                                                                                                                                                                                                                                                # 2 < c./.$XQ.R.W.!.7XAXAXzXDX$X(./.U.Y.G.S.b.x.g.M > 5 # o ^                                                                                                                                                                                                                                                                                   ",
"                                                                                                                                                                                                                                                                                                                                                                2 # < %.$X$X!.Q.8.Q.bXAXAXAXvXQ.(./.U.Y.G.S.x.S.g.M 4 4 < # _                                                                                                                                                                                                                                                                                   ",
"                                                                                                                                                                                                                                                                                                                                                                M + # G.6X3XE.R.3._.0XAXbXbXvX$XY.U.U.S.G.G.x.g._ J + 4 # $ ^                                                                                                                                                                                                                                                                                   ",
"                                                                                                                                                                                                                                                                                                                                                                M < < W.sX3XE.Q.E 2X9XbXAX9XjXQ.).^.U.D.D.S.%.( Q Z + 5 # $ ^                                                                                                                                                                                                                                                                                   ",
"                                                                                                                                                                                                                                                                                                                                                                H 2 # G.2X&Xi.W.8.zXvX9XAXJXDX%XS.Y.S.Y.S.S.l.S.l.! 4 4 # + )                                                                                                                                                                                                                                                                                   ",
"                                                                                                                                                                                                                                                                                                                                                                D < + V.3X$XR.!.9.LXDX$XQ._._.U.[.[.U.Y.G.S.k.c.l.W 5 4 # + /                                                                                                                                                                                                                                                                                   ",
"                                                                                                                                                                                                                                                                                                                                                                D + # (.6X3XW.F.E CXDX3.n.^ (.`.[.^.^.S.S.M.k.z._ Z + + # + %.                                                                                                                                                                                                                                                                                  ",
"                                                                                                                                                                                                                                                                                                                                                                e # w _.$XQ.8.$.t K.FXjX$.`.iX`././.^.G.S.z.k.z.! Z < # < + g.                                                                                                                                                                                                                                                                                  ",
"                                                                                                                                                                                                                                                                                                                                                                D < t U.@XT./ ' { 6XNXL.^ %XaX'./.[.G.Y.S.M.( l.( W < < < $ x.                                                                                                                                                                                                                                                                                  ",
"                                                                                                                                                                                                                                                                                                                                                                r @ w m.Q.I.c ] P |.6X@.6._.%XY.S.Y.S.S.S.l.&.k.g.W < 2 # + k.                                                                                                                                                                                                                                                                                  ",
"                                                                                                                                                                                                                                                                                                                                                                e 9 w J G.G $ 9.[ r.6XcXvXDXZXzX%XY.n.C.S.z.l.k.l.C @ + # @ 5.                                                                                                                                                                                                                                                                                  ",
"                                                                                                                                                                                                                                                                                                                                                                D e w H x.L u }.[ [ zXbXqXAXJXHXLX(.5X'.`.].S.G.l.` + 4 # + x.                                                                                                                                                                                                                                                                                  ",
"                                                                                                                                                                                                                                                                                                                                                                D e 9 r H ) V r.[ V bXzX4XwXZXPX7X_ D.G.b.l.~ _ g.H . + # + x.                                                                                                                                                                                                                                                                                  ",
"                                                                                                                                                                                                                                                                                                                                                                D w + 5 w y P c 9.[ zXZXAX~.ZXHXhXE g.g.A H ) _ x.H < # < + x.                                                                                                                                                                                                                                                                                  ",
"                                                                                                                                                                                                                                                                                                                                                                r 6 + 5 P K.J.[ r.K.zXHXAXe.bXFX5X5.b.b.l.b.x.g.l.V < # < $ x.                                                                                                                                                                                                                                                                                  ",
"                                                                                                                                                                                                                                                                                                                                                                D < . F.hX|.r.[ J.|.xXDX0Xe.vXJX5Xc.S.b.b.b.l.{.{.H < 4 < $ x.                                                                                                                                                                                                                                                                                  ",
"                                                                                                                                                                                                                                                                                                                                                                e 5 O H.|.r.{ { J.}.zXDXcXR.HXJX|.b.S.b.l.l.l.g.g.H # < < $ x.                                                                                                                                                                                                                                                                                  ",
"                                                                                                                                                                                                                                                                                                                                                                t w + [.|.[ r. Xr.2X7XjX7Xi.HXJX%XH.[.l.l.b.x.%.{.H 4 < 9 . b.                                                                                                                                                                                                                                                                                  ",
"                                                                                                                                                                                                                                                                                                                                                                t 5 + [ }.r.r.~.}.|.2X6X3X!.ZXZX_.b.S.b.z.b.x.g.) H + + 4 . g.                                                                                                                                                                                                                                                                                  ",
"                                                                                                                                                                                                                                                                                                                                                                t w O ) W.9.e.r.2X@X$X5X8X}.zXqX$X0.S.z.l.b.b.g.g.L + < < . ]                                                                                                                                                                                                                                                                                   ",
"                                                                                                                                                                                                                                                                                                                                                                w 9 . T J.' r.~.,X@X2X7XdXZXZXzX2XM.S.z.k.x.k.g.( D + + - $ k.                                                                                                                                                                                                                                                                                  ",
"                                                                                                                                                                                                                                                                                                                                                                w 9 O V K.{ e.d.|.2X6XxXxXZXHXCXW.&.M.z.l.l.k.) ( H + # # $ %.                                                                                                                                                                                                                                                                                  ",
"                                                                                                                                                                                                                                                                                                                                                                9 r . T K.' 9.~.}.2X5XdX8XCXqX8X!.0.M.l.k.k.k.( ) D @ # # $ ~                                                                                                                                                                                                                                                                                   ",
"                                                                                                                                                                                                                                                                                                                                                                6 9 + K K.3.[ }.|.|.7X5Xw.J.R.e.W.M.z.l.k.l.k.( k.L + % # . ^                                                                                                                                                                                                                                                                                   ",
"                                                                                                                                                                                                                                                                                                                                                                9 9 + K J.[ { d.,X~._.5XJ.[ g % E %.S.l.k.k.%.( g.D o # o $ ~                                                                                                                                                                                                                                                                                   ",
"                                                                                                                                                                                                                                                                                                                                                                9 # + L K.[ [ }.2X}.~.!.|.zX7XK.$Xc.z.l.k.( ( ! _ C $ o # $ ^                                                                                                                                                                                                                                                                                   ",
"                                                                                                                                                                                                                                                                                                                                                                4 < + K F.9.e.d.}.~.!.~.}.7XZX~.F.%.z.l.g.k.( ^ ( D + # # o ~                                                                                                                                                                                                                                                                                   ",
"                                                                                                                                                                                                                                                                                                                                                                6 < + ~ G.9.r.~.,X~.2X}.!.R.~.H.n.c.S.z.h.%.! ( ! D + % # $ ^                                                                                                                                                                                                                                                                                   ",
"                                                                                                                                                                                                                                                                                                                                                                # 9 + ( H.' r.d.,X,X4X,Xe.,X|.}.).x.l.l.k.k.%.( _ J + % # $ _                                                                                                                                                                                                                                                                                   ",
"                                                                                                                                                                                                                                                                                                                                                                # 9 + ( G.] r.d.d.wX4X~.,XbXbX~.).M.! z.%.( ( ^ ! F + # # . ~                                                                                                                                                                                                                                                                                   ",
"                                                                                                                                                                                                                                                                                                                                                                * 6 $ ) V.] }. Xd.4X,X+X8XqXbX|.L.z.*.! ! U J K Q D + < < $ ^                                                                                                                                                                                                                                                                                   ",
"                                                                                                                                                                                                                                                                                                                                                                # # + x.K.] r.r.e.d.R.~.2X4X4X!.Q.*.! A s Y T &.Q D # < # @ %.                                                                                                                                                                                                                                                                                  ",
"                                                                                                                                                                                                                                                                                                                                                                o 4 # c.A.8.9.e.3.w.E.3X4XwX7X,Xp.&.k G ) / T I F j # 6 @ $ k.                                                                                                                                                                                                                                                                                  ",
"                                                                                                                                                                                                                                                                                                                                                                $ e 9 5.7.x c ' ' 9.R.i.e.e.e.3.i.4./ 8.5.9.' $.E I < # @ X c.                                                                                                                                                                                                                                                                                  ",
"                                                                                                                                                                                                                                                                                                                                                                $ e # %.W.A.z { c c -.-.;.4.e.3.3.z l P ' 9.w.w.W.Z.% % @ $ b.                                                                                                                                                                                                                                                                                  ",
"                                                                                                                                                                                                                                                                                                                                                                # # % m./.T.3X3Xe.-.c -.i.R.R.E x u u c c ' { ~.!.9.% % $ + H.                                                                                                                                                                                                                                                                                  ",
"                                                                                                                                                                                                                                                                                                                                                                * 8 w x./.&X3X0Xd.t.h x x x l c u % L E G - { ~.r.' % % $ + H.                                                                                                                                                                                                                                                                                  ",
"                                                                                                                                                                                                                                                                                                                                                                + 6 9 %.iX/.&XqXy.d.-.c c c G k V $ u G y P u [ { [ y $ @ O b.                                                                                                                                                                                                                                                                                  ",
"                                                                                                                                                                                                                                                                                                                                                                o # - x.&X@X&XzXy.y.-.g l g : q l % % u P u % y y t y + < . H.                                                                                                                                                                                                                                                                                  ",
"                                                                                                                                                                                                                                                                                                                                                                # * - 5.).%X6XQ.4.X.h z z #.4.4.3.{ c 5.P c % 4 % $ 5 % # . b.                                                                                                                                                                                                                                                                                  ",
"                                                                                                                                                                                                                                                                                                                                                                # 6 # 5.`.sXkX!.@.X...#.p.E.s.p.y.3.x 3.{ y % % 4 % t # + . c.                                                                                                                                                                                                                                                                                  ",
"                                                                                                                                                                                                                                                                                                                                                                @ * 9 6.iX$XY.@.X.4.4.X.t.oXoXu.u.y.x z c u - u % % t + + @ b.                                                                                                                                                                                                                                                                                  ",
"                                                                                                                                                                                                                                                                                                                                                                # # + n.W.E.t.t.-.e.X.X.} ;.<.oXy.h l E c % u P - % 4 # @ @ k.                                                                                                                                                                                                                                                                                  ",
"                                                                                                                                                                                                                                                                                                                                                                # * # 5.$X3X+X;.-.X.;.4.4.,.<.oXy.h l T E u c ' y % % + + @ k.                                                                                                                                                                                                                                                                                  ",
"                                                                                                                                                                                                                                                                                                                                                                # + o n.@X3X,Xd.| -.@.@.@...:.3Xi.a l P ' l [ ' l % % # @ . x.                                                                                                                                                                                                                                                                                  ",
"                                                                                                                                                                                                                                                                                                                                                                @ # - n.6X&X+Xd.g -...h p z o.y.4.z k P c y c ' y % % 4 @ + k.                                                                                                                                                                                                                                                                                  ",
"                                                                                                                                                                                                                                                                                                                                                                # # # U Y.i.+XE.} c #.#.#.4.4.p.#.E R E [ u u u % % % % @ X k.                                                                                                                                                                                                                                                                                  ",
"                                                                                                                                                                                                                                                                                                                                                                # # % I W.&X@Xs.X.y.4.4.#.=.p.p.#.@.E E ' u u c % ; % + @ O k.                                                                                                                                                                                                                                                                                  ",
"                                                                                                                                                                                                                                                                                                                                                                # # % j _.%X#X+X| w.p.4.X.#.t.y.#.@.E E x u u u u L t + < O k.                                                                                                                                                                                                                                                                                  ",
"                                                                                                                                                                                                                                                                                                                                                                # # - r ).R.~.4.h 4.p.y.} 4.<.y.4.@.E @.' g { ' 3.V._ . @ @ k.                                                                                                                                                                                                                                                                                  ",
"                                                                                                                                                                                                                                                                                                                                                                < % # j G.R.i.-.4.o.o.p.o.4.<.y.X.X.@.9.w.3.9.~.P.N.D + < . g.                                                                                                                                                                                                                                                                                  ",
"                                                                                                                                                                                                                                                                                                                                                                # 9 % q U c.@.q.X.t.t.| h ,.a.f...E @.w.w.e.R.8Xw.W.) # < . %.                                                                                                                                                                                                                                                                                  ",
"                                                                                                                                                                                                                                                                                                                                                                # - o * K K $.9.@.3.E.,X<.a.a.a.z K z 6.w.x }.,XR.Q.k.. @ . (                                                                                                                                                                                                                                                                                   ",
"                                                                                                                                                                                                                                                                                                                                                                < 9 % D Q %.) $.z i.d.oX=Xa.,Xd.l Y ^ 6.w.c !.@XP.B._ O , . (                                                                                                                                                                                                                                                                                   ",
"                                                                                                                                                                                                                                                                                                                                                                # % # %.l.M.c.7.q.E.+XoX,X+X,Xs.l U F Y I I ^ c.( ! Z < @ . ^                                                                                                                                                                                                                                                                                   ",
"                                                                                                                                                                                                                                                                                                                                                                6 * # $.M.l.T.M.@.E.oX,X,XoX4XE.f d A m M C M S A b 1 7 @ . ^                                                                                                                                                                                                                                                                                   ",
"                                                                                                                                                                                                                                                                                                                                                                < # $ ^ &.&.*.&.4.+X+X=XoXoX@Xi.F A A m H h.N h.S B n 7 # X ^                                                                                                                                                                                                                                                                                   ",
"                                                                                                                                                                                                                                                                                                                                                                0 9 * / C.T.Y.q.4.+X+X=XoXs.@XL.K g.l.h.h.h.S h.h.B b w $ . ^                                                                                                                                                                                                                                                                                   ",
"                                                                                                                                                                                                                                                                                                                                                                w # 6 %.Y.Y./.q.3.oX,X,X=Xs.@XB.U z.b.z.l.g.W h.h.N 6 6 & . ^                                                                                                                                                                                                                                                                                   ",
"                                                                                                                                                                                                                                                                                                                                                                9 + * / D.M.Y.B.i.+X+X<XoX~.,XL.! b.g.g.z.g.h.h.h.n 7 - o . T                                                                                                                                                                                                                                                                                   ",
"                                                                                                                                                                                                                                                                                                                                                                < # # ^ D.Y./.T.T.s.y.a.a.s.@XZ.! b.S.b.z.{.h.h.h.b 6 6 $ X U                                                                                                                                                                                                                                                                                   ",
"                                                                                                                                                                                                                                                                                                                                                                9 9 9 ^ S.z.M.M.R.@XoX=Xs.oX,XL.! z.z.z.{.z.h.h.h.n 6 - X . U                                                                                                                                                                                                                                                                                   ",
"                                                                                                                                                                                                                                                                                                                                                                q 9 9 q Y A Y &.P.+Xs.+XoX+X@XP._ S.z.g.z.{.j.h.h.N 7 9 @ . F                                                                                                                                                                                                                                                                                   ",
"                                                                                                                                                                                                                                                                                                                                                                8 * . F Q M.l.M.T.,X+X=XoX,X4X7Xl.S.z.l.g.g.h.h.h.N 9 9 $ . G                                                                                                                                                                                                                                                                                   ",
"                                                                                                                                                                                                                                                                                                                                                                $ 9 o j M./.C.n.P.,X,Xs.,Xy.d.q.! z.l.l.g.g.h.h.h.m 8 9 @ $ F                                                                                                                                                                                                                                                                                   ",
"                                                                                                                                                                                                                                                                                                                                                                # 9 * I c.C.^.) L.3X+X=Xa.d.,XR.( D.z.%.k.k.W _ h.M 6 0 $ $ F                                                                                                                                                                                                                                                                                   ",
"                                                                                                                                                                                                                                                                                                                                                                + 9 9 D ! z.S.S.Q.@XoX,XoXoX3XQ.&.G.z.k.l.%.! h.( m - 9 @ X D                                                                                                                                                                                                                                                                                   ",
"                                                                                                                                                                                                                                                                                                                                                                * 9 $ K ^./.`.G.W.@XoX,XoX+X4XE.%.[.z.( l.! S ! h.m 8 8 o $ D                                                                                                                                                                                                                                                                                   ",
"                                                                                                                                                                                                                                                                                                                                                                + 9 . Q z.M.M.C.Q.@X+X#X*X,X0XW.! S.z.h.h.l.S *.h.B 6 9 # . k                                                                                                                                                                                                                                                                                   ",
"                                                                                                                                                                                                                                                                                                                                                                o 6 + U l.Y.S.Y.!.2X+X#X,X,X9XQ.! [.z.z.z.z.h.h.h.N 6 9 # X F                                                                                                                                                                                                                                                                                   ",
"                                                                                                                                                                                                                                                                                                                                                                @ e + H U.U.q.%X2X7X3X3X0X6X3X!.J S.z.l.z.h.! ! _ N w w # . j                                                                                                                                                                                                                                                                                   ",
"                                                                                                                                                                                                                                                                                                                                                                @ 9 @ K S.D.@.jX5XjXqX9X3X3X7XdX/.z.z.z.h.z.h.S g.n t 5 3 $ A                                                                                                                                                                                                                                                                                   ",
"                                                                                                                                                                                                                                                                                                                                                                O w # K G.D.(.sX%X$X5X7XR.7.E k Y S.z.h.z.h.h.! h.M 5 t + . s                                                                                                                                                                                                                                                                                   ",
"                                                                                                                                                                                                                                                                                                                                                                O r < C l.M.m.U 3.8.a g l - o . A z.l.h.z.z.h.S g.n 5 t # . A                                                                                                                                                                                                                                                                                   ",
"                                                                                                                                                                                                                                                                                                                                                                . w + C k.( Y n.6X6X!.: o A.; k D.l.z.z.z.h.S S g.t n 5 + $ F                                                                                                                                                                                                                                                                                   ",
"                                                                                                                                                                                                                                                                                                                                                                < n # H k.z.%.0.$XE.R.8.. $.j 5.S.l.z.z.l.! h.M g.5 5 9 @ X H                                                                                                                                                                                                                                                                                   ",
"                                                                                                                                                                                                                                                                                                                                                                < e # H g.c.k.W.7XE.Z.$.X $.A.v.z.z.z.z.z.z.h.! h.M M 5 + X F                                                                                                                                                                                                                                                                                   ",
"                                                                                                                                                                                                                                                                                                                                                                . w < C z.M.m.Q.6X2X3.R i @.&.@.D.S.z.k.h.h.h.W g.n M w # . F                                                                                                                                                                                                                                                                                   ",
"                                                                                                                                                                                                                                                                                                                                                                < 9 + M b.S.b.D.$X!.P.Q.6X6X9XkX%Xz.l.M.b.l.k.Z h.N < 9 + X F                                                                                                                                                                                                                                                                                   ",
"                                                                                                                                                                                                                                                                                                                                                                # w < M b.l.%.C.dX7XcXxXcXzX9XMXsXY.k.c.m.b.( W ! m 7 m # . F                                                                                                                                                                                                                                                                                   ",
"                                                                                                                                                                                                                                                                                                                                                                < w # r b.z.! M.6X_.vXjX9XzXcXcX6XM.U.aXG.'.b.l.g.N 9 n < . F                                                                                                                                                                                                                                                                                   ",
"                                                                                                                                                                                                                                                                                                                                                                # w 2 r z.M.*.M.6X$XlXAX9XlXlXAXD.*.sXiX( # , S z.S 2 9 + X F                                                                                                                                                                                                                                                                                   ",
"                                                                                                                                                                                                                                                                                                                                                                < 9 9 q l.l.*.C.6X%X$XlXcXzXcXDX_.0 0 D s 6 9 h.g.N 9 5 6 $ F                                                                                                                                                                                                                                                                                   ",
"                                                                                                                                                                                                                                                                                                                                                                < 7 5 e l.l.*.M.&XsX6XlXcXcXzXkX(.8 * ! &.w e g.g.S v 4 # o F                                                                                                                                                                                                                                                                                   ",
"                                                                                                                                                                                                                                                                                                                                                                < 6 9 r l.l.*.z.&X6X3X6XjX9XzXcXC.*.U.F.'.x.( b.l.S 2 5 + + j                                                                                                                                                                                                                                                                                   ",
"                                                                                                                                                                                                                                                                                                                                                                < 7 6 r l.l.&.z.&X0X6XjXzX3XjXbXC.R &.b.G.S.k.( h.S < 5 + @ a                                                                                                                                                                                                                                                                                   ",
"                                                                                                                                                                                                                                                                                                                                                                @ 9 6 r l.z.&.M.Q.zX&XbXbX0XzXDX%XsXY.k.m.S.( b.! J 6 9 # $ s                                                                                                                                                                                                                                                                                   ",
"                                                                                                                                                                                                                                                                                                                                                                @ 7 * s k.z.k.b.&XjX&XbXbXbXAXvX@.F 0 * %.U Q k.! S 9 5 # + s                                                                                                                                                                                                                                                                                   ",
"                                                                                                                                                                                                                                                                                                                                                                # w 9 C ! l.l.m.Q.jX3XvXAXJXFXvXn.Y %.l.z.k.W s ! J 7 5 # $ a                                                                                                                                                                                                                                                                                   ",
"                                                                                                                                                                                                                                                                                                                                                                < w 0 C S.z.b.l.@XjX6XcX6X9XvXjXC.%.z.%.! @ A ! ! W 6 5 < $ s                                                                                                                                                                                                                                                                                   ",
"                                                                                                                                                                                                                                                                                                                                                                , w 0 e W ! S K Y.cX6X9X7X6X_.%Xc.M.&.l.Y ^ F ! ! J 9 2 < $ s                                                                                                                                                                                                                                                                                   ",
"                                                                                                                                                                                                                                                                                                                                                                . 6 e gXnXVXiXY._.MX7X5X$XsXxXlXM.%.h.z.l.^ F ! ( J 6 5 # . j                                                                                                                                                                                                                                                                                   ",
"                                                                                                                                                                                                                                                                                                                                                                O 7 K mXMXiX`./.5X_.|._.W.).M.^ A M.l.k.! ! e J ! H 9 2 + . j                                                                                                                                                                                                                                                                                   ",
"                                                                                                                                                                                                                                                                                                                                                                @ 7 w 8 8 A f *.N.B.&.@.k d f A d z.z.S.S.g.H ! ! W 2 % @ . j                                                                                                                                                                                                                                                                                   ",
"                                                                                                                                                                                                                                                                                                                                                                , n s A z.S.z./.vXcXQ.6XjXjXxXiX8 /.Y.^.l.k.J _ ! H # * + . G                                                                                                                                                                                                                                                                                   ",
"                                                                                                                                                                                                                                                                                                                                                                6 7 9 e /./.z.z.zXAXT.zX3X6XlX).d ^.S.z.z.g.H Q ! Z * o # . G                                                                                                                                                                                                                                                                                   ",
"                                                                                                                                                                                                                                                                                                                                                              nX, 7 r C /.z././.lXDXT.DXlX9X6X).S Y.S.z.g.( H W ! J # * # . G                                                                                                                                                                                                                                                                                   ",
"                                                                                                                                                                                                                                                                                                                                                              nX, 7 e e z./.T./.jXDX&XcXzXjXdX/.*.Y.l.&.&.Q M J h.Z * # # . I BX                                                                                                                                                                                                                                                                                ",
"                                                                                                                                                                                                                                                                                                                                                              mX, w e 8 /.z.z.Q.jXDXQ.xXlX9XjX$X&.z.&.&.( ! W Z W Z + # # $ G BX                                                                                                                                                                                                                                                                                ",
"                                                                                                                                                                                                                                                                                                                                                              mX+ < 9 0 S.z.z./.cXDX&XjXbXjX6X&X&.S.z.z.) ^ D ! W W < # @ $ U NX                                                                                                                                                                                                                                                                                ",
"                                                                                                                                                                                                                                                                                                                                                              mX, 7 e e [.[.z./.MXjXQ.jX9X9XsX$X&.C.q.&.$.) D W V B w < # . U BX                                                                                                                                                                                                                                                                                ",
"                                                                                                                                                                                                                                                                                                                                                              mX@ 6 w 0 S.S.z.S.kXzXp.lX6X9XlXT.*.T.M.S.D.) K ~ W h.v < + . T NX                                                                                                                                                                                                                                                                                ",
"                                                                                                                                                                                                                                                                                                                                                              mX< 7 e 6 S.z.z./.kXjXL.6X6X3X%XY.d /.&.Y.m.m.~ g.S.z.N n # . T BX                                                                                                                                                                                                                                                                                ",
"                                                                                                                                                                                                                                                                                                                                                              mX@ 7 e 8 z.T.*.z.cXjXT.dX6X6X%X%X`.l.*.l.M.c.) l.z.z.N < < . ~ NX                                                                                                                                                                                                                                                                                ",
"                                                                                                                                                                                                                                                                                                                                                              mX, 8 d 8 z.M.z.z.lXsXm.dX3X6X$XY d A 8 d _ H.K k.z.z.C > < . _ NX                                                                                                                                                                                                                                                                                ",
"                                                                                                                                                                                                                                                                                                                                                              mX, 6 m 8 z.z.z.*.nXsXM.lX0X%XlXl.8 m 8 e G._.Z h.z.z.m < < . / NX                                                                                                                                                                                                                                                                                ",
"                                                                                                                                                                                                                                                                                                                                                              nX@ 6 8 f =.z.z.z.lXlX&.lX&X9X%X&.8 A 8 m ].H.M j.z.z.m < < + ] MX                                                                                                                                                                                                                                                                                ",
"                                                                                                                                                                                                                                                                                                                                                              mX@ < w 8 *.z.*.z.nXiXT.lXiXlXiXM.A S m A (.) % W z.z.m , * . ) NX                                                                                                                                                                                                                                                                                ",
"                                                                                                                                                                                                                                                                                                                                                              mX@ 6 t e ! l.S S.SXlX#.lXlXiXiXz.Y S m Y D._ 9 ! z.h.b , @ X _ MX                                                                                                                                                                                                                                                                                ",
"                                                                                                                                                                                                                                                                                                                                                              mX@ 7 M C ! l.S./.lXiXT.nXlX*XiXS.W ! d Q ^ K 6 ! z.z.v , @ $ ^ NX                                                                                                                                                                                                                                                                                ",
"                                                                                                                                                                                                                                                                                                                                                              nX@ w 9 w ! l.^.S.iXT.z.lXbXlXiXT.J ( Y d - Q r h.h.h.b , $ . ` MX                                                                                                                                                                                                                                                                                ",
"                                                                                                                                                                                                                                                                                                                                                              mX, 9 0 w h.S S A z.*.*.lXdX&X&XY.6.).k.&.m.k.W ! h.l.b , @ . U MX                                                                                                                                                                                                                                                                                ",
"                                                                                                                                                                                                                                                                                                                                                              xX+ 7 w n l.l.! d S.*.T.%X6X6X6XL.B.l.$.C.Y.S.A S ! h.8 O o X G NX                                                                                                                                                                                                                                                                                ",
"                                                                                                                                                                                                                                                                                                                                                              mX@ 9 e C l.l.d l.Y.z.&.sX&X3X6XL.6.$.m.C.Y.D.A A h.S 7 > # . j NX                                                                                                                                                                                                                                                                                ",
"                                                                                                                                                                                                                                                                                                                                                              nX< 2 e s k.z.Y &.T.M.M.%XQ.@XT.$XT.z B.Y.L.S.A J h.h.7 < # . L NX                                                                                                                                                                                                                                                                                ",
"                                                                                                                                                                                                                                                                                                                                                              nX+ 9 r M k.l.Y l.P.S.T.C.*.x C.$XY.Y M.P.T.M.d A h.h.m 8 , X k MX                                                                                                                                                                                                                                                                                ",
"                                                                                                                                                                                                                                                                                                                                                              mXO 2 t e k.l.*.M.S.T.Y.M.%.C J A J 0 &.C.T.C.d J h.! n 8 @ $ k BX                                                                                                                                                                                                                                                                                ",
"                                                                                                                                                                                                                                                                                                                                                              nX$ 2 w r b.b.*.S.T.D.T.%X].S.N Z m e M.I.T.Y.d Q h.! 8 , # $ j NX                                                                                                                                                                                                                                                                                ",
"                                                                                                                                                                                                                                                                                                                                                              gX# 9 w M z.b.*.U.S.T./.%X'.S.l.B 2 8 C.L.W./.*.l.z.h.b b + $ k cX                                                                                                                                                                                                                                                                                ",
"                                                                                                                                                                                                                                                                                                                                                              gX# 8 t M H.S.( ^./.Y./.%X_.M.W n 1 < F.L.B.(.R _ g.h.Z 6 , $ R NX                                                                                                                                                                                                                                                                                ",
"                                                                                                                                                                                                                                                                                                                                                              gX+ w w M b.G.g.`.Y./.(.%X`.! m 7 n M (.U.m.m.G J V Z M # $ . m.NX                                                                                                                                                                                                                                                                                ",
"                                                                                                                                                                                                                                                                                                                                                              nX# 0 9 y b.H.J G.S.U./.$X).H w 2 7 Z /.(.m.q % 4 4 4 o # # $ b.FX                                                                                                                                                                                                                                                                                ",
"                                                                                                                                                                                                                                                                                                                                                              gX# 9 w C x.S._ G.Y.Y.U.`.'.` @ , 2 m ( m.(.M + + + 4 # * @ < 6 sX                                                                                                                                                                                                                                                                                ",
"                                                                                                                                                                                                                                                                                                                                                              gX+ 4 9 r k.S.( b.S.(.^.W.U.A 8 , 6 , M k.S.F < w * < - X + < $ X X                                                                                                                                                                                                                                                                               ",
"                                                                                                                                                                                                                                                                                                                                                              gXo 9 w D z.S.l.z.^.%XQ.W.C.! 8 , 7 w H k.G.! 9 e e 8 0 < # + + * -                                                                                                                                                                                                                                                                               ",
"                                                                                                                                                                                                                                                                                                                                                              gX@ 9 w D k.U.*.z./.`.Y.P.L.M.z.&X^.S ! (.P.l.S.S.S.J @ O # # @ r hX/                                                                                                                                                                                                                                                                             ",
"                                                                                                                                                                                                                                                                                                                                                              fX@ 9 9 r M.M.! S.^.%XQ.i.p.t.t.T.M.7 D iX0.P.q.M.q.Y @ O + $ . g.  %X                                                                                                                                                                                                                                                                            ",
"                                                                                                                                                                                                                                                                                                                                                              gX$ 9 9 y M.Q./.Y.(.).dX*XoXoX&X&XS.A C %Xq.q.q.q.&.Y X O < # . H.                                                                                                                                                                                                                                                                                ",
"                                                                                                                                                                                                                                                                                                                                                              hX. # 9 q *.#Xp.X.z x q.+Xt.OX+.#.&.( U D.*.&.#.l.&.H @ , > 2 . G.                                                                                                                                                                                                                                                                                ",
"                                                                                                                                                                                                                                                                                                                                                              aX. # # q #.&XAX0X#Xp } } p.OXp.p.*.z.Y U d A *.! z.W 6 3 < 5 # F N.I                                                                                                                                                                                                                                                                             ",
"                                                                                                                                                                                                                                                                                                                                                              aX# 9 o a AX0X*X<X0Xu.*XoXOXOX=.z A S F A S S ! S h.S w 5 + 4 + . . . _                                                                                                                                                                                                                                                                           ",
"                                                                                                                                                                                                                                                                                                                                                              iXo 9 % T &X9X+.*X*XOXp.t.O.O.z k A A C W h.j.W B h.B 2 < O # , . H W                                                                                                                                                                                                                                                                             ",
"                                                                                                                                                                                                                                                                                                                                                              '.+ % 9 %.DXlX&XAX#XE.T.T.*.f ) D A w e S h.h.j.S j.B > < . 9 7 . gX                                                                                                                                                                                                                                                                              ",
"                                                                                                                                                                                                                                                                                                                                                              ].+ # % / Y.T...*.P.T.i.w.R E %.! Z e 8 A h.j.S N S B 3 < # 2 < @ fX                                                                                                                                                                                                                                                                              ",
"                                                                                                                                                                                                                                                                                                                                                              G.@ + # a Y.T...xXbX!.q.w.w.8.c.%.( e w m h.W W m N n 3 < O 6 < @ hX                                                                                                                                                                                                                                                                              ",
"                                                                                                                                                                                                                                                                                                                                                              [.. @ + 2X9X0X&X&XwX,X2X4X@XE.P.m.%.l : a g l d i w < < + $ . # * '.                                                                                                                                                                                                                                                                              ",
"                                                                                                                                                                                                                                                                                                                                                              '.O $ G 5XbX1Xs.<X,Xd.,X=Xa.s.P.t.3.4.+XoX<.a.oXp.p i z 3.Y q.o # H.                                                                                                                                                                                                                                                                              ",
"                                                                                                                                                                                                                                                                                                                                                            BXfX+ 9 G zXAX,X<X1X=X<XrX1Xa.s.4.3.3.-.oXOX2..XXXoXo.t.4.4.t.!.. X e                                                                                                                                                                                                                                                                               ",
"                                                                                                                                                                                                                                                                                                                                                            V.'.< D dXd.4XqX1XwX,X<XrX<Xy.i.E.$X@X4.a.oX.X.X2.1.;.| ;.t.4.!.. X @                                                                                                                                                                                                                                                                               ",
"                                                                                                                                                                                                                                                                                                                                                            * * O 4 dXzX+X,XyX1X X,XrX<X| i.Q._.R.3.| .X.X.X2.>.:.g o.;.;.d.X @ e                                                                                                                                                                                                                                                                               ",
"                                                                                                                                                                                                                                                                                                                                                            X M t 9 jX9XoXwXKX1X=X1X=X=Xh @.P.Q.I.& h XX.X.X2.f.:.i | :.4.;.= * s                                                                                                                                                                                                                                                                               ",
"                                                                                                                                                                                                                                                                                                                                                          `.* $ 2 j jX0Xs.,XKXeX=X1X=X<Xe.@.q.P.m.: h ,X.X.X2.:.-.g X.h ;...X * # H (                                                                                                                                                                                                                                                                           ",
"                                                                                                                                                                                                                                                                                                                                                          '.6 O 5 ) 9X0Xp.*XKX>X1X<X<X0Xp.#.&.D.m.x f.a.=X=X<.:.-.c x X.| x s @ , w r                                                                                                                                                                                                                                                                           ",
"                                                                                                                                                                                                                                                                                                                                                          iX4 O < I 7X3XT.*XKXoXqX,X,X0Xq.P.R ] T l x y.2.2.<.<.X.x g h ..z 0 < 8 M ,                                                                                                                                                                                                                                                                           ",
"                                                                                                                                                                                                                                                                                                                                                          iX+ + 2 F $XE.p.E.6Xz 3.' 8.V.F U r y w t % c :.u.e.:.h x g g z k 0 , 8 , M                                                                                                                                                                                                                                                                           ",
"                                                                                                                                                                                                                                                                                                                                                          aX$ X 9 F T.4.z @.I c P y y y 9 t % $ $ % % u e.y.-.| X.z z i @.k 8 6 < 1 M                                                                                                                                                                                                                                                                           ",
"                                                                                                                                                                                                                                                                                                                                                          %XU e j sX6XqXAXHXGXAXqXwX4X!._.7X2X!.!.2XX.d.d.u.| | -.o...h X.@.* , 7 Z Q                                                                                                                                                                                                                                                                           ",
"                                                                                                                                                                                                                                                                                                                                                          aX^ s t ).@X3X0X3X9X0XqX4X,XR.2X|.2XzXdX|.w.w.X.4.|  .;.;.X.X.X.z * 7 7 S J                                                                                                                                                                                                                                                                           ",
"                                                                                                                                                                                                                                                                                                                                                          gX~ 9 2 k.W.6X2X&X%X&XzX2X!.w.9.!.2X7X8.& s f = = : X.;.;.} ..h l = * b 7 m                                                                                                                                                                                                                                                                           ",
"                                                                                                                                                                                                                                                                                                                                                          '._ e m x._.2X@X&X&X@XcX9X3Xw.!._.$X_.C.X U , @ 8 = 4.t.;.h z i a @ , < n e                                                                                                                                                                                                                                                                           ",
"                                                                                                                                                                                                                                                                                                                                                          S.K w M v.$X2XQ.&XQ.&XxX9X$XR.A._.).).C.e C < , 8 s q.4.X.p g = & - 2 2 7 w                                                                                                                                                                                                                                                                           ",
"                                                                                                                                                                                                                                                                                                                                                          g.m 6 r T !.$XQ.&XQ.&XcX6X$XM.7.).W.(.V.D M 3 , , ; &.3...z ..$.F o < 2 7 w                                                                                                                                                                                                                                                                           ",
"                                                                                                                                                                                                                                                                                                                                                        W W W 9 L R R.!.I.$X/.%XcXlXQ.M.%.).W.W.m.C n 2 1 1 8 &.$.z @.R a 0 @ 3 7 n w                                                                                                                                                                                                                                                                           ",
"                                                                                                                                                                                                                                                                                                                                                        k.W b.m D 5.R.!.W._.U.%XcXlXY.*./ _.(.U.H._ g.n h.W 8 6 d k = ; @.0 < < 7 w n                                                                                                                                                                                                                                                                           ",
"                                                                                                                                                                                                                                                                                                                                                        G.[.S.6 V T J.Q.J.Q.P.$X9X6XM.Y $.W.W.c.G t O > N 1 7 s U s F Y 9 7 C n 7 n M                                                                                                                                                                                                                                                                           ",
"                                                                                                                                                                                                                                                                                                                                                        aXk.6 6 6 K B.R.9.R.J.bXPXHX#X&.T.%XW.Z.T G 6 _ b n m 8 X X . X 6 6 H w 7 n m                                                                                                                                                                                                                                                                           ",
"                                                                                                                                                                                                                                                                                                                                                        sXJ @ 6 9 F n.N.e.7XbXqXAXqX&X@X&XjX|.Q.C.v.s b.b n m 8 6 o * 6 @ , w b < 7 9                                                                                                                                                                                                                                                                           ",
"                                                                                                                                                                                                                                                                                                                                                          '.@ , w K v.3.i.DXcX3X~.3X2X&X5XsX6X6X$X(.s ! 7 7 < J K ! J W n O < 7 < 7 <                                                                                                                                                                                                                                                                           ",
"                                                                                                                                                                                                                                                                                                                                                          fX< e r K / N._.6X6XsX5X%X/.D.^.I.N.n.N.c.C _ , , 7 J A J C M w 2 2 2 2 2 6                                                                                                                                                                                                                                                                           ",
"                                                                                                                                                                                                                                                                                                                                                          gX, 6 q r r q d 6.M.z.m.U.b.~ W &.R @.5.R C A O , < < 2 5 2 2 7 2 9 2 , r 6                                                                                                                                                                                                                                                                           ",
"                                                                                                                                                                                                                                                                                                                                                            6 6 M D / z z &.q.*.8.N.Z.R k Z.L.$.@.R 0 , + + > < < # O O 3 > < + + X -                                                                                                                                                                                                                                                                           ",
"                                                                                                                                                                                                                                                                                                                                                            7 w e / $.8.).&XT.q.0.W.8XN.E 6.8.&.%.- < O @ < # + # # @ + O + < + . o s                                                                                                                                                                                                                                                                           ",
"                                                                                                                                                                                                                                                                                                                                                            6 9 M ) 6.T.&X*XcXcX5X|.7Xx $.n.6.%./ . O O O + + $ + 4 + . + 9 t # . D IX                                                                                                                                                                                                                                                                          ",
"                                                                                                                                                                                                                                                                                                                                                            8 m D x.0.W.@X@X3X&Xt.R.!.3.I.m.5.%.U 6 @ < + # # < + @ @ @ @ * 9 * . H.Q ].                                                                                                                                                                                                                                                                        ",
"                                                                                                                                                                                                                                                                                                                                                            s e H V.3.!.E.~.&X!.x 8X8Xw.W.n.$./ G s T * U ~ # . # . * $ + $ # @ . 6 . r                                                                                                                                                                                                                                                                         ",
"                                                                                                                                                                                                                                                                                                                                                          mXJ < r V.$.E.~.~.2X@Xw.qXDXR._.6.@./ R ^ 8.I.^ s G n.R = + X X 6 q 6 . hXM 9                                                                                                                                                                                                                                                                         ",
"                                                                                                                                                                                                                                                                                                                                                        S.`.C O F 7.8.Q.P.!.2X!.E.ZXHX2X8X8.E 6.R I & E k D.7.$.F a * $ F F 9 X @ ~ c.G.                                                                                                                                                                                                                                                                        ",
"                                                                                                                                                                                                                                                                                                                                                      sX@ ! C . G 7.B.W.Q.2XQ.~.Q.zXvX3X7XJ.q.B.C.; l z R W.6.8.k k 0 6 s ( a $ 8 D * IX                                                                                                                                                                                                                                                                        ",
"                                                                                                                                                                                                                                                                                                                                                      iX@ X 8 * G ) Z.I.).W.W.W.Q.W.!.2X6X!.W.Y.B.$.8.8.Z.Z.0.6.R I k o F U J X e O 0 NX                                                                                                                                                                                                                                                                        ",
"                                                                                                                                                                                                                                                                                                                                                      sXX X X X $ X o X & X . : : l l 8.*.&.&.*.R F G G I k a a q j q 6 r F U @ 9 O 9 mX                                                                                                                                                                                                                                                                        ",
"                                                                                                                                                                                                                                                                                                                                                      aXX . . $ O @ O O < 9 % # $ o o o X * * * @ # + # # o + @ @ < + # # 6 # $ # 4 - I.                                                                                                                                                                                                                                                                        ",
"                                                                                                                                                                                                                                                                                                                                                    fX`.. . . . . . O . O O . # . . o $ . $ . + . . O O @ @ < , < 2 , @ + o + $ + M % - l                                                                                                                                                                                                                                                                       ",
"                                                                                                                                                                                                                                                                                                                                                  sXsXiX$ $ ; / n.%.&.$.x.5.] ] 7.).2X5XMXUXSXFXgXW.@ O * o O O > O + + + @ @ < > 4 < # & 8.                                                                                                                                                                                                                                                                    ",
"                                                                                                                                                                                                                                                                                                                                                ^ %X).iXK ; W.W.2XN.sXMX5X%X2XQ.vXIXIXIXIXIXIXIXPXgXD s T _ k.b.x.W C w 9 4 - 9 r 4 + $ j N.                                                                                                                                                                                                                                                                    ",
"                                                                                                                                                                                                                                                                                                                                                q 5XmXmXs * 7.W.L.0.2X7X!.R.~.i.}.2X!.J.5XLXdX_.Z.6.I F ^ / x.c._ ~ j U T ` ^ ).x.F < . R 5.                                                                                                                                                                                                                                                                    ",
"                                                                                                                                                                                                                                                                                                                                                s & BXmXF 0 N.W.R.w.8X6X!.!.!.~.!.+Xw.w.W.W.N.K.A.7.E E 6.6.7.v.%.E k G ) T G 5./ T 5 . @.8.                                                                                                                                                                                                                                                                    ",
"                                                                                                                                                                                                                                                                                                                                                &.9 LXSXQ D ) F.n.Z.6X2X!.!.!.+X~.~.w.W.W.V.7.W.F.N.8./ $.$.$.] ] 5.- k ] U a 5.R G r $ 5.5.                                                                                                                                                                                                                                                                    ",
"                                                                                                                                                                                                                                                                                                                                                Y.X VXfX7 < Q c.C.M.L.L.L.L.w.P.w.L.W.W.W.V.V.V.F.V.N.7.Z.C.Z.F.5.5.j R 5.P k E G T C $ c.$.N.                                                                                                                                                                                                                                                                  ",
"                                                                                                                                                                                                                                                                                                                                                (.* G.M.C W ( H.(.(.W.(.(._.%X5X6X).U.I.V.N.v.7.5.5./ ) x.x.x.l.m.c.) ~ T T G G P L ~ 9 / $.$.                                                                                                                                                                                                                                                                  ",
"                                                                                                                                                                                                                                                                                                                                                (.@ X # @ < 9 r 9 * o X X @ @ = & X X & . X o # # # # # @ @ X . @ @ O @ X o o X X 6 $ # 6 I U                                                                                                                                                                                                                                                                   ",
"                                                                                                                                                                                                                                                                                                                                              SXk.6 o $ @ . + + # # 9 0 9 9 6 * + $ $ @ $ $ o + # # - # o @ . . @ X X $ . $ X $ o $ . $ . o I                                                                                                                                                                                                                                                                   ",
"                                                                                                                                                                                                                                                                                                                                              sXU @ . + $ . $ . . . $ $ o $ . . . . . . . . . . . . . $ . . X . . . $ o $ $ . . . $ . . @ o s                                                                                                                                                                                                                                                                   ",
"                                                                                                                                                                                                                                                                                                                                            %.! J ) uXl.< O % # - - 4 % # $ o q t y j V D C t q 9 - 9 # * d t - 9 - o o $ o . $ $ . . . $ X s                                                                                                                                                                                                                                                                   ",
"                                                                                                                                                                                                                                                                                                                                          8 * * + * 0 X . $ $ $ $ o 4 V y j k G G j l y t - ; @ * & 6 - 0 0 * . $ . % - q t % $ $ . . - % 9 L cX                                                                                                                                                                                                                                                                ",
"                                                                                                                                                                                                                                                                                                                                          , < @ % G 5XQ.0.x 8.R.R.R.dXNXFXHXHXLXNXNXcXNXcXxXdX%X_.).$.Y._.5XsXdXsXW.l ].).W.T D.%./ / - r o E FXFX                                                                                                                                                                                                                                                              ",
"                                                                                                                                                                                                                                                                                                                                          8 + . t k Q.6XzX6XdXdX8X~.cXGXHXHXPXHXJXJXJXZXJXFXsX$X%X$X$XY.xXvXFXFXvX(.G W._.(.8.F.c.) ^ - 5 % l R.: $                                                                                                                                                                                                                                                             ",
"                                                                                                                                                                                                                                                                                                                                          b.$ % 4 - r 5.9.!.zXNXvXzXZXLXPXLXHXPXHXGXFXGXHXGXjX%XiXdXsX).NXHXHXHXNX_.E Q._.W.v.U.m./ ) r 9 t ' 6X& o .                                                                                                                                                                                                                                                           ",
"                                                                                                                                                                                                                                                                                                                                          k.X G v.) * c.6XJXJXGXGXZXFXPXLXHXLXHXHXHXHXKXJXHX7XdXlXkXsX_.DXHXHXHXNX!.$.Q.).(.%.U.m.( ( H t 9 / V.9 # +                                                                                                                                                                                                                                                           ",
"                                                                                                                                                                                                                                                                                                                                          *.; c.F.c.R %XNXHXHXJXKXHXHXHXPXPXPXLXPXHXHXHXHXHXJXdXlXfX5X_.vXJXJXGXNX_.R U.W.I.&.Y.k.~ Q M M e _ _ 6 < # (.                                                                                                                                                                                                                                                        ",
"                                                                                                                                                                                                                                                                                                                                        kXS.Y S.U.%.6.Q.$X@X!.7XvXDXJXJXDXFXDXDXvXvXAXAXbXAXDX%X5X%XQ.R.2X|.2X6X'.W.F c.^ J d C 9 w 7 7 < 6 6 w O < # H.                                                                                                                                                                                                                                                        ",
"                                                                                                                                                                                                                                                                                                                                        %X/.&.C.c.$.M.I.W.C.@.3.Z.T.Q.P.L.L.P.L.L.0.w.w.B.P.B.&.&.$.^ ^ Y R $.R I Y k C d C 8 @ . O , 2 6 < 3 2 < 7 , Q                                                                                                                                                                                                                                                         ",
"                                                                                                                                                                                                                                                                                                                                      = A Q %.M.&.$.c.D.Y.D.C.W.)._.$X_._._.$X%X).M.Y.).I.T.S.C.F.%.5.&.^ %.5.n.&.c.s D A , 8 , O # 3 9 9 5 2 9 2 9 , 8                                                                                                                                                                                                                                                         ",
"                                                                                                                                                                                                                                                                                                                                    C = ; ^ ( Q Q H U 5.%.c.D.I.W.W.).Y.Y.I.I.Y.T.8.L.U.W.F.C.C.D.n.c.F ^ %.M.V.Y.L.F &.Y C A @ + # 2 5 2 2 w 2 7 w < $                                                                                                                                                                                                                                                         ",
"                                                                                                                                                                                                                                                                                                                                    A @ 8 b.U ( J e C H ~ ^ n.m.M.C.L.M.P.n.6.6.6.^ M.Y.C.M.M.C.n.n.6.Y T n.n.N.M.6.F U K A ( O O O + > + 2 2 2 6 < # +                                                                                                                                                                                                                                                         ",
"                                                                                                                                                                                                                                                                                                                                    * 0 s b.) _ Q C e e < %.D.6.5.C.I.M.C.c.M.c.M.n.C.L.C.C.P.C.D.c.c.H ^ m.M.M.&.$.F A U J e 6 @ , + 2 > < w + # # @ O                                                                                                                                                                                                                                                         ",
"                                                                                                                                                                                                                                                                                                                                    6 q r ) Q _ K J r D 9 b.(.m.v.V.L.M.n.c.c.&.l.c.M.6.c.c.M.c.M.x.&.U ( l.6.6.&.^ s s A J M , O + O 3 > 5 C + # # o .                                                                                                                                                                                                                                                         ",
"                                                                                                                                                                                                                                                                                                                                    # - t H J Q ) Q U Q A ) G.x.%.( %.^ R ^ ^ Y k I R ^ $.&.&.$.&.U ~ A s C s F Y s 0 8 A C w 6 O > > 2 5 M ( t o # @ X                                                                                                                                                                                                                                                         ",
"                                                                                                                                                                                                                                                                                                                                      # 8 9 r D H F e s 0 s c.%.%.R $.$.$.) &.U Y ^ / ( R $.$.R Q s D * e e d a 0 s J ( Q Q Z 7 O 5 5 w H Z J y X # @ .                                                                                                                                                                                                                                                         ",
"                                                                                                                                                                                                                                                                                                                                      C iXW 8 r t w C J ~ R V.C.m.6.6.^ &.c.x./ %.%.) %.&.5./ 5.T / ^ T K F ^ ( %.%.d w 8 6 , O < 3 3 < 2 < 3 > @ $ X .                                                                                                                                                                                                                                                         ",
"                                                                                                                                                                                                                                                                                                                                        VXS e ~ Q J Q _ %.%.C.Y.C.m.n.6.c.m.H.5.v.v.v.c.c.m.$.5.%.^ 6./ ~ ^ %.c.%.U.0 o @ @ O O + > , > , O > w + 6 aXxX                                                                                                                                                                                                                                                        ",
"                                                                                                                                                                                                                                                                                                                                          A 8 ! K M W ( 5.6.n.V.n.n.6.c.v.v.c.c.x.6.x.x.H.x.5./ ) ) ) / F ^ $.x.c.I 0 * O O + > > O > + 2 > > 2 + * F.MX                                                                                                                                                                                                                                                        ",
"                                                                                                                                                                                                                                                                                                                                          A 2 e n 9 C _ ( %.%.c.%.c.%.%.5.%.) ) / / / ) ) ) ^ ~ ~ ( ) T D ~ / 5.v.G.D r . . . . O > > > 3 2 3 > O + hXMX                                                                                                                                                                                                                                                        ",
"                                                                                                                                                                                                                                                                                                                                          A @ e O + + 8 9 9 s C C F H J D K J D H D C D H N M M 9 n N w 6 9 9 * K T ` J k.S.S.{.O O O > 2 3 3 < @ 6 aXxX                                                                                                                                                                                                                                                        ",
"                                                                                                                                                                                                                                                                                                                                          A 8 8 @ @ @ , 6 O @ 8 6 6 @ 6 , @ < w 6 9 w 9 2 5 < < 3 5 < > # + + o o # O ~ ` S.H.C + < , < + > > > 2 9 F mX                                                                                                                                                                                                                                                        ",
"                                                                                                                                                                                                                                                                                                                                          e * , @ , @ @ , O , @ , < O , @ @ o # # # @ @ , @ + < > 2 + < + @ $ $ # . > t D T g.r + + @ @ > # > O w O . hX                                                                                                                                                                                                                                                        ",
"                                                                                                                                                                                                                                                                                                                                          A e m . , @ < O 7 A A m W S.7 O @ 8 J e 6 o . + # # < + . + . O . . . # $ + . (.].G.5 O O O O + + + > O w # )                                                                                                                                                                                                                                                         ",
"                                                                                                                                                                                                                                                                                                                                          W A S A _ ( A , uXnXnXiX`.^.b O Z C ^.U.].).].(.b.~ r G._ 9 s K D L t + + $ 9 (.) V.< > O + @ @ + > + , 5 4 )                                                                                                                                                                                                                                                         ",
"                                                                                                                                                                                                                                                                                                                                          h.S S k.b.k.w 9 G.nXVX^.S.h.m , W A z.Y.U.W.U.U.V.5.m.V.G.b.b.V.V.F.V.. # . 9 V.G (.+ , O O O O . O > < 4 < T                                                                                                                                                                                                                                                         ",
"                                                                                                                                                                                                                                                                                                                                          k.A ( ) S.S.0 @ < mXVXA iXS.8 7 W m &.Y.W.W.W.F.D.D.V.G.W.V.F.V.V.D.b.$ 2 . + G.D.G.< @ O O + . . + + t w + J                                                                                                                                                                                                                                                         ",
"                                                                                                                                                                                                                                                                                                                                          z.A ( ( G.S.9 # 6 S.^ @ gXS.e , m , ! W.(.W.U.W.D.V.D.F.W.V.C.N.Z.V.5.. < > + V.U.V.9 @ O O @ O O 4 5 V y < D                                                                                                                                                                                                                                                         ",
"                                                                                                                                                                                                                                                                                                                                          l.A h.k.Y.G.A . . . X `.%XG.7 , n 8 d (.(.W.K.F.V.F.F.U.I.C.F.v.V.Z.5.. < < < b.5.b.4 @ + , 3 O V {.{.) t 5 e                                                                                                                                                                                                                                                         ",
"                                                                                                                                                                                                                                                                                                                                          l.A *.%.S.^.K $ # @ . nXaX^.m O n < D ).).).(.W.D.V.V.V.m.H.D.V.V.v.] $ , O H H V.S.t < O b > N _ ] ` ` 5 4 n                                                                                                                                                                                                                                                         ",
"                                                                                                                                                                                                                                                                                                                                          M.8 k.Q c.U.x.O @ $ . J A 6 O O 7 , G )._.W.(.6.. # - o + 0 ^ 6.v.5.~ . O $ 6 H N M w > O N 1 2 ) {.[ [ 5 4 t                                                                                                                                                                                                                                                         ",
"                                                                                                                                                                                                                                                                                                                                          M.e ( Q C.Y.(.6 < @ . 8 8 8 2 O , . U ]._.].!.V.# 6 # @ . F (.N.` / 5.+ , O e L . @ < , 3 N 1 5 ` ` ` ` 5 4 9                                                                                                                                                                                                                                                         ",
"                                                                                                                                                                                                                                                                                                                                          l.8 &.Q m.m.Y.D.~ K Q [.[.^.G.C C < ^ ).].(.W.x.# 9 < 6 . U W.K.W.K.F.. + . x.G.(.^.O > , n 2 5 ` ` ` [ 4 < <                                                                                                                                                                                                                                                         ",
"                                                                                                                                                                                                                                                                                                                                          M.8 %.Q M.c.D.U.U.S.^.^./.^.b.A J 6 ) W.W.K.(.) + # # @ 6 r (.W.J.K.H.. O . ( G.D.S.@ > 2 n 3 3 ` ` ` ` 5 4 4                                                                                                                                                                                                                                                         ",
"                                                                                                                                                                                                                                                                                                                                          z.8 c.Q S.c.D.D.S.S./.^.^.^.S.A S 8 _ (.W.U.K.{.# 4 6 6 # s W.F.A.K.7.. @ . _ F.F.^.O @ 3 n 3 3 ` ` ` P 5 4 4                                                                                                                                                                                                                                                         ",
"                                                                                                                                                                                                                                                                                                                                          k.8 ( U S.c.C.M.m.S.M.D.U.G.z.F Y A ( W.W.F.U.x.# < < @ 6 0 W.F.J.K.] . 6 O _ m.F.G.@ > 3 n < 5 V V V V t 5 -                                                                                                                                                                                                                                                         ",
"                                                                                                                                                                                                                                                                                                                                          m.8 W J c.M.M.M.c.C.Y.S.G.S.S.Q J e %.(.W.F.W.) # 5 # 6 o 0 U.K.J.K.x.. @ O Q D.C.Y.@ @ < 2 5 + V V V V y 4 9                                                                                                                                                                                                                                                         ",
"                                                                                                                                                                                                                                                                                                                                          S.w J J c.M.Y.M.M.S.S.D.[.D.M.! U e k.W.W.Z.(.5.6 w 9 * @ 0 W.J.V.K.5.. + . Q H.n.m.. @ , 7 , @ J V ` V u 5 4                                                                                                                                                                                                                                                         ",
"                                                                                                                                                                                                                                                                                                                                          S.e J Y z.S.Y.Y.C.T.D.Y.D.D.M.! U e c.U.W.F.W.{.5 9 9 @ 6 8 U.V.J.K.] $ < O ) n.M.m.X @ 6 2 , , K ` P ` V 5 %                                                                                                                                                                                                                                                         ",
"                                                                                                                                                                                                                                                                                                                                          S.r J W S.U.).Y.D.D.P.Y.S.S.z.Q A 8 6.U.W.F.].) # 6 2 @ 6 ; W.Z.K.K.] . @ . g.n.n.k.@ , , , , , W ` ` V V 4 %                                                                                                                                                                                                                                                         ",
"                                                                                                                                                                                                                                                                                                                                          ^.m H J b.M.W.Y.C.Y.S.Y.Y.D.&.! J e c.W.W.I.].] < r 7 , * * (.K.N.K.] . < . k.v.6.l.X @ , 2 2 @ H V ` V t 4 4               Y.Y                                                                                                                                                                                                                                       ",
"                                                                                                                                                                                                                                                                                                                                          (.w H A k.I.(.Y.Y.C.L.T.Y.T.&.! J s c.U.W.G.(.{.9 r w * 6 * W.Z.J.K.H.. < . K m.n.b.@ , 3 < < 5 V V [ V V 4 4               m.F                                                                                                                                                                                                                                       ",
"                                                                                                                                                                                                                                                                                                                                          (.6 C J M.D.U.U.L.Y.C.S.D.Y.l.&.W e l.U.I.G.W.) 9 9 w @ 0 0 I.F.J.K.{.O O . U m.c.M.@ < 3 1 , 4 ` V V V t 4 4               &.s U.                                                                                                                                                                                                                                    ",
"                                                                                                                                                                                                                                                                                                                                          `., H A k.S.S.Y.C.C.C.Y.Y.Y.M.! U q b.I.K.A.W._ % 2 9 6 6 * I.Z.J.K.] . + O K c.c.z.O 1 1 3 3 > ` [ V V V 4 +             sX%.0 ^.                                                                                                                                                                                                                                    ",
"                                                                                                                                                                                                                                                                                                                                          '.@ J Z %.n.m.m.n.c.M.&.l.M.&.! J s c.D.F.F.G.) 9 9 w # 6 @ I.A.K.K.] # 3 O K m.M.S.. , < 3 3 > ` V V ` u 4 %             aX( e (.                                                                                                                                                                                                                                    ",
"                                                                                                                                                                                                                                                                                                                                          '.@ J C ^ %.x.%.) Y c.c.M.C.&.! J d c.F.F.Z.K.( w 2 w # 9 - F.V.J.K.v.$ + . J b.V.c.@ 1 3 , , , ` V V V t % #             iX%.s `.                                                                                                                                                                                                                                    ",
"                                                                                                                                                                                                                                                                                                                                          '.@ W C A b.&.$.%.&.%.D.M.l.! %.S q c.F.F.F.F.) 9 9 9 6 # * U.J.J.J.] $ 2 O ~ m.c.l.@ , < 1 2 , W ` V V t 9 *             iX%.A '.                                                                                                                                                                                                                                    ",
"                                                                                                                                                                                                                                                                                                                                          '., ! s J M.c.%.$.$.c.S.C.M.! ( J q c.F.F.V.U.) 5 9 w # * % F.H.K.K.] . < . K c.&.( . 3 3 , , O W P ` V V 9 *             iX%.H                                                                                                                                                                                                                                       ",
"                                                                                                                                                                                                                                                                                                                                          uX, ! s W m.c.c.k.$.M.D.S.S.( ( A e c.G.K.Z.F.] 5 6 9 < # # K.K.J.K.] . + O J ) K A O > , 3 , @ H V V V 5 4 9               Q F                                                                                                                                                                                                                                       ",
"                                                                                                                                                                                                                                                                                                                                          `., Q m J M.l.c.k.( m.D.D.S.( ( J 9 v.F.F.J.U.) 9 5 w 6 + * W.K.K.K.] . # O ` Q C J O > 3 3 > 5 V ` V V V 5 4               $.                                                                                                                                                                                                                                        ",
"                                                                                                                                                                                                                                                                                                                                          `.8 W d A k.M.%.( F m.S.F.m.Q ! A 6 x.G.F.Z.W.] 4 9 5 # * - V.J.N.H.] . , . _ x.U J O 3 3 3 1 4 ` V V V B 5 t                                                                                                                                                                                                                                                         ",
"                                                                                                                                                                                                                                                                                                                                          `.8 J s F l.c.%.%.&.m.C.Y.S.U Q J * c.V.Z.V.U.k.9 9 9 < # % K.J.K.J.] + < O g.G.S.Z O 3 v 3 3 3 V V ` V n 5 t                                                                                                                                                                                                                                                         ",
"                                                                                                                                                                                                                                                                                                                                          ).@ W 8 A c.&.k.x.c.c.S.D.m.( _ J 9 c.G.Z.Z.W.x.w 9 9 # # 6 W.F.Z.K.] $ < O W ( W 2 O 3 2 3 3 + ` V ` V 5 < y                                                                                                                                                                                                                                                         ",
"                                                                                                                                                                                                                                                                                                                                          (., J 8 F %.l.c.c.n.n.C.D.m.~ ! J 0 c.F.F.Z.K.x.t 5 4 # % % W.K.K.J.] + 5 . W 2 . > > 1 1 1 > 3 ` V [ V V < H                                                                                                                                                                                                                                                         ",
"                                                                                                                                                                                                                                                                                                                                          (.2 ! 8 A %.l.c.c.c.b.V.S.S.~ _ J 9 c.G.F.Z.G.x.9 < < 9 # % ).W.W.K.] O 9 O W 6 O O 1 W v > v 5 ` [ V V B < V                                                                                                                                                                                                                                                         ",
"                                                                                                                                                                                                                                                                                                                                          `.7 ! 8 s c.6.k.5.c.c.M.G.m.~ ! J 0 c.F.K.V.Z.5.4 < # # # ; ].].W.W.] . 9 + J _ @ 7 N W v B 3 5 [ V [ V 5 5 V                                                                                                                                                                                                                                                         ",
"                                                                                                                                                                                                                                                                                                                                          `.8 ( 6 s k.l.c.c.n.c.m.C.H.Q ! J 0 x.G.G.Z.F.b.o # + - - l _.K.K.K.v.. 9 + H C.L.s @ 1 1 v > u [ [ V 5 B 5 `                                                                                                                                                                                                                                                         ",
"                                                                                                                                                                                                                                                                                                                                          ).8 ! , s k.M.c.m.b.n.C.S.m.^ ! F 0 x.V.V.Z.V.V.) c.V.v.F.K.W.K.J.K.9.$ 9 O J C.n.^ @ O , 1 , 9 [ P ` t n 2 H                                                                                                                                                                                                                                                         ",
"                                                                                                                                                                                                                                                                                                                                          /., J e C &.6.m.n.D.m.m.V.b.~ Q H 6 k.V.A.V.N.V.V.F.U.F.W.J.~.K.J.K.] + 9 + H q.T.&.X @ 2 v , r {.` ` 5 w > D                                                                                                                                                                                                                                                         ",
"                                                                                                                                                                                                                                                                                                                                          /.1 J 8 s l.M.S.V.D.C.m.C.b.~ U A 6 %.V.m.V.V.n.C.I.F.W.I.A.W.K.A.J.5.$ w @ F c.L.M.8 , m b , M ) L V n n # M                                                                                                                                                                                                                                                         ",
"                                                                                                                                                                                                                                                                                                                                          (.6 W @ 0 k.c./ ~ T $.V.n.v.J 0 @ . 8 F k R R / v.n.Z.N.V.N.v.N.J.N.] $ w + H 8.M.^ * 8 n v 7 3 2 5 3 3 5 < w                                                                                                                                                                                                                                                         ",
"                                                                                                                                                                                                                                                                                                                                          (.6 J < 0 %.l.%.x.m.Z.I.F.V.Q e # @ 6 c.v.V.V.n.6.R 5.5.N.5.7.8.9.N.] $ 5 O H q.&.R @ @ , > 1 v v v B 3 5 , 6                                                                                                                                                                                                                                                         ",
"                                                                                                                                                                                                                                                                                                                                          ^., J # e &.l.C.D.'.'.(.U.G.m.U.z.@ w 5.Z.K.A.F.V.N.5.c.%.5.7.[ v.v.] % w $ L 8.&.*.8 8 B v v B v v B v 5 , @                                                                                                                                                                                                                                                         ",
"                                                                                                                                                                                                                                                                                                                                          ^.* Z # 0 c.S.m.5.$.W.(.)./.Y.%.A . ~ W.Z.H.H.V.C.U.b.S.V.5.7.5.N.H.5.. 4 . C &.&.^ = 7 b v v v B B B v 3 3 @                                                                                                                                                                                                                                                         ",
"                                                                                                                                                                                                                                                                                                                                          ^.@ H 6 w b.F.V.G & 0 W.).^.M.! U 8 ) W.7.7.v.v.v.%.Q D K ) ] 8.H.9.] $ 4 + y &.&.*.8 8 v v v B B B B 3 3 < # mX                                                                                                                                                                                                                                                      ",
"                                                                                                                                                                                                                                                                                                                                          /.o C 5 e V.(.W.x.c.%.m.(.Y.S.U 0 0 e v.N./ ] / ) U D J Q ) 5.7.v.9.] + 4 $ M 6.R &., 7 b 2 v B B B B 1 , < X W.7.T                                                                                                                                                                                                                                                   ",
"                                                                                                                                                                                                                                                                                                                                          (.* e 9 w V.].].k.~ U l.^.S.G.8 . O X 5.C.T 8.v.n.b.c.%.%.5.7.5.9.x.] $ 4 O y %.Y $., b b v v B B B B 1 6 # . %Xl . # O                                                                                                                                                                                                                                               ",
"                                                                                                                                                                                                                                                                                                                                          (.o e w e V.].k.# < @ , (.[.G.K . . $ E 7.I v.n.v.c.c.%.%.5.6.8.7.5.] $ 9 . r $.*.k.8 b b 1 v B B B v 1 , , . 5XQ.. @ > ].                                                                                                                                                                                                                                            ",
"                                                                                                                                                                                                                                                                                                                                          (.6 e 4 6 G.].9 + 6 @ O `.^.G.C . # $ U 5.T 8.6.5.5.&.^ ^ / 5.5.7.5.] # 4 $ D *.! R 8 , 1 , 1 v B B b > 1 > + sX%X. , > fXgXaXdX                                                                                                                                                                                                                                      ",
"                                                                                                                                                                                                                                                                                                                                          `.e q 9 < x._ # O @ , @ `.^.G.r . + % k / / 6.6.5.%.%.( / / / ] 5./ / + # . r *.! d * , , > > v B W j.5 N 2 #     s 6 6 VXaXsX5X                                                                                                                                                                                                                                      ",
"                                                                                                                                                                                                                                                                                                                                          %X0 w < # ) t # . @ < @ '.^.^.K + $ + j $.6.5.%.$.k.) ( _ ^ / R $./ T @ # . s Y *.Y 8 , 1 1 > 3 3 3 3 O n 9 ;         U.MXaXaX_.                                                                                                                                                                                                                                      ",
"                                                                                                                                                                                                                                                                                                                                          aXm w 9 # _ y # o * 0 , './.G.K $ + # / / $.T G ~ _ g.! ~ U U U @.] T o # . C c.%.Q 8 > 1 1 1 3 3 > > > M w t             aX5X                                                                                                                                                                                                                                        ",
"                                                                                                                                                                                                                                                                                                                                          fXA Z + + ] H * # , @ , `.(.Y.5.D r t H k._ U ^ x.S.b.%.^ T U K T T K 6 # + e ( A Z 6 > > 3 > 3 3 3 > 3 5 9 q             U.(                                                                                                                                                                                                                                         ",
"                                                                                                                                                                                                                                                                                                                                          sXW Z 4 $ x.~ @ $ o . * ^.].V.5.] G.W.V ` W K T ) H.{._ _ K G j j F D 2 + O 9 M t w 7 > > > 3 v 3 v 3 O 6 < 0             m.                                                                                                                                                                                                                                          ",
"                                                                                                                                                                                                                                                                                                                                          fX%.S < $ 5.^ - e A w @ `.W._.2XCXxXH.5 3 5 w j T 5.P # r L G G j L 4 % 4 + t n t 5 < # < 1 3 3 3 3 > > , 6 6                                                                                                                                                                                                                                                         ",
"                                                                                                                                                                                                                                                                                                                %.                        sXz.S $ % I.C.M.L.).(.M.%X).Q._.zXzXW.y M q ] ] B.2XxXy L E W.9.u % $ . $ . $ % + # $ + , , > v 3 3 > > 3 7 9                                                                                                                                                                                                                                                         ",
"                                                                                                                                                                                                                                                                                                              s I.&.k                     sXz.J o j 0.q.P.I.L.n.C._.5XR.W.5X2XN.I ].|._.|.!.' A._.7X8X}.R.9.' l G P ' 8.7.v.n.6.< < 1 1 v v v v , 1 , w                                                                                                                                                                                                                                                         ",
"                                                                                                                                                                                                                                                                                                              F aX).; &.                  %Xz.Y = Y.E.@X@XR.P.w.z W.Q.E I 9.8.c l J.Q.R.i.9.l l ~.|.~.~.R.r.w.E ' 7.9.w.A.B.I.5.< > 3 3 v v v 1 , 1 , w                                                                                                                                                                                                                                                         ",
"                                                                                                                                                                                                                                                                                                              ).MXU.6.R                 D.S.S.z.@ Y i.+Xd.;.4.X.z @.z a x 8.I l q B.9.w.9.3.c : v.A.0.9.q.3.0.l R 8.$.&.0.0.n.R @ > 3 > v v v v 1 , , 6 ).                                                                                                                                                                                                                                                      ",
"                                                                                                                                                                                                                                                                                                                F & Y ^ M.              &.z./.S.X L.s.#Xu.a.u.h .._.Q.B.8.0.7./ G N.Z.7.3.5.7.E ] 7.7.7.7.$.6.k I ^ T R E R ( U . > > v 3 v v 3 > > , 6 W.                                                                                                                                                                                                                                                      ",
"                                                                                                                                                                                                                                                                                                                    a 0                 d z.S.k.0 q.+XoX<.oXoXy.s.+XQ.B.5.5./ T R %.$.^ T I D U D r t r q 0 9 % 9 0 9 9 0 * q w < > > > v 3 3 v 1 > , 7 U.                                                                                                                                                                                                                                                      ",
"                                                                                                                                                                                                                                                                                                                                        0 C z.*.; P.+Xy.y.oX#Xs.E.p.8.I a j s a 0 * @ @ & @ O , + < < 8 < < + O < , # # @ # @ , , > > > 3 v 3 3 1 , , 6 Y.                                                                                                                                                                                                                                                      ",
"                                                                                                                                                                                                                                                                                                                                        X X D.$.j Q.Q.4.q.4.3.@...Y a * o o o o 6 0 0 8 ; 8 6 w b M e M r r < 2 # < < , < , 7 , , > > 3 v 3 3 v > , , # n.                                                                                                                                                                                                                                                      ",
"                                                                                                                                                                                                                                                                                                                                      %X0 9 c.$.& z I g : : g l I T F t & o & + 0 0 A ( 8 w w A ! H Z e 6 e O < , 3 < 3 , 3 > 1 1 > > > 1 1 v 3 > 1 > . /                                                                                                                                                                                                                                                       ",
"                                                                                                                                                                                                                                                                                                                                      D.r . U s . % a l o g T E K j y 9 o # - * 6 w D W 0 d e M N n w < 9 # 6 < + < 2 2 2 2 , > 3 , , , > 3 3 1 > 1 2 @ I                                                                                                                                                                                                                                                       ",
"                                                                                                                                                                                                                                                                                                                                      k.7 O T E a l x @.l l l g : ; R @ # # # - # 0 a d a ; 0 < w < 0 * - # 6 2 # 3 2 2 3 3 3 1 , , 1 > , 1 1 1 > 1 1 O U zX                                                                                                                                                                                                                                                    ",
"                                                                                                                                                                                                                                                                                                                          k X &.      K e * @.4.t.o.X.q...h g i h w.; $ # # - - & * f a = ; a : F K F s j G K 0 # 3 2 2 B v v 3 1 , , , , , , 1 1 1 1 , q 6X                                                                                                                                                                                                                                                    ",
"                                                                                                                                                                                                                                                                                                                      - - a X lX      Q 8 = h ,.<.:.:.a.| h } h d.,X= X + # - & = z X.h | E.i : s U k k F F F 9 + < 2 2 n n n v v 1 , , , , 1 1 1 1 > @ 9 %X                                                                                                                                                                                                                                                    ",
"                                                                                                                                                                                                                                                                                                                      s ; d X sX      %.C = -.oX=X.X.XOX.X-X-X;X-Xa.-.z - 9 . . : oXXX-X-X<Xi.: o Y F z E / / 9 < 3 < 3 b B B N W W C b 2 b b 2 1 > > > # ).                                                                                                                                                                                                                                                    ",
"                                                                                                                                                                                                                                                                                                                      & = d X $X      l.U i s.=X;X.X.X.XXX;X;X;X=XoXy.h = R T o h oX;X>X>XXX>.o - d %X#.&.$.T 9 , < 2 , 1 v n S W W N m b m S Z N b 2 , 9 c.5X                                                                                                                                                                                                                                                  ",
"                                                                                                                                                                                                                                                                                                                      X X ; X ).    MXY.j p <.=X;X;X;X.X.X;X.X.X.X:.y.X.= Q.3.g ,.=X;XXX;XXXO.= = R &X*.z *.R 9 @ < < , 1 7 7 b 7 7 7 2 2 b v 7 2 2 1 7 6 * ^                                                                                                                                                                                                                                                   ",
"                                                                                                                                                                                                                                                                                                                      X = - X (.    VX(.Y &XrX<X=X=X.X.X.X;XXX.XOX>.u.y.p Y.w.X.s.<X.X-XOXoX4.*.@ *.&.*.*./ F 0 @ < , @ @ @ , O O > , > > , 1 , 1 > , 2 2 @ 6 %.                                                                                                                                                                                                                                                ",
"                                                                                                                                                                                                                                                                                                                      X = * = (.SXSXSXsXR I.7Xa.XX:.2.=X.X.X-X2.OX,.oXt.h P.B.4.E.#Xo.o.o.@.z U s F F F q D 9 < + @ + O @ + , , , > , , , > , , < 2 2 < , , # 6                                                                                                                                                                                                                                                 ",
"                                                                                                                                                                                                                                                                                                                      & X e & ).MXMX^.Y.S d ....s.p | oXXXXX1.,.oX,.o.X.h 8.X.g } i X $ o = 9 q 0 j 0 9 9 9 6 , < + * . o @ @ @ , @ , @ @ @ @ , , @ @ @ < , < 6 5.                        5X5X                                                                                                                                                                                                                  ",
"                                                                                                                                                                                                                                                                                                                      - & 8 * ; f = = X @ X X & i = i s.oXoXoXi p a a g ..i.@...p = . $ q r # * ; ; * * * * 9 8 , @ @ & * = = * = X * C 8 8 8 8 6 9 6 @ , @ @ 6 0                       ).5.sXv.                                                                                                                                                                                                                ",
"                                                                                                                                                                                                                                                                                                                      * @ 6 X z ).Y.q.A $ X X g @Xd.| <.2.>.d.X.& * - l w.&Xt.X.p.T.I K Z.W.c.W.C.@.0.P.B.I.S.S.6 , s /.Y.Y.Y.Y.Y.Y.Y.).&.k.l.k.k.c.Q 6 , @ < 6 9                       sX0.                                                                                                                                                                                                                    ",
"                                                                                                                                                                                                                                                                                                                      X @ s & 8.@XE.$XM.a @.E.qX=X2.1..X-XXXoXs.: * o z p.4Xo.} +XoX3.3.3.w.P.q.3.P.T.T.p.Q.@XP.C 8 8 /.T.P.T.Y.P.C.M.Y.k.k.M.M.c.z.! 6 , 2 < 2 < s                     Z.5.          n.                                                                                                                                                                                                        ",
"                                                                                                                                                                                                                                                                                                                      X * 6 X M.P.X.k * @ $.*X4X=X.X2..X-X-XoXs.a 0 0 P.,X3Xy.s.oXoX4.i.i.P.P.w.q.q.E.#Xp.T.T.C.m 8 d /.P.B.B.B.M.6.z &.S.S.l.l.l.%.S , > 2 3 2 # 0                     j 5.          $.                                                                                                                                                                                                        ",
"                                                                                                                                                                                                                                                                                                                      = * d = F Y = * 9 @ $X6XX.y..X=X=X-X=X,X4.= * X Y B.w.X.i.s.s.q.i.i.0.P.M.&.6.q./.q.q.M.l.m n A M.^ ^ ! &.F 6 * 6 s e e 7 # , , , > 2 < 2 3 * _.                                $.q.                                                                                                                                                                                                      ",
"                                                                                                                                                                                                                                                                                                                      ; @ d @ e 0 . @ 6 @ * - = h 1..X=X.Xa.:.: X . X = : g : | s.y.g l q ; * X X # X * 6 * @ < 1 b , 8 6 6 6 6 8 < O @ @ @ @ < O > @ , > 7 2 , 9 o 7.DX                                                                                                                                                                                                                                        ",
"                                                                                                                                                                                                                                                                                                                      ; & e 6 e J 7 3 6 @ 6 o & | .X.X;X=XXXa.u.z = = ; l x X.h a.E.o o + w 9 w < 6 w 8 7 2 6 2 b 7 < @ , 7 < 8 , 6 O , @ @ @ 3 2 , , , 3 v 5 2 7 @ T FX                                                                                                                                                                                                                                        ",
"                                                                                                                                                                                                                                                                                                                      f ; F 8 U b.M 6 9 + < + ; i.<XeXeX-X=Xa.y.i ; k k &.q.Q.t.s.oX# 2 @ < 7 # 9 9 5 5 2 3 2 w m 7 2 2 8 J ^ C C Q @ O , , 1 2 3 > > 2 1 b 5 2 2 < a MX5X&.Y k                                                                                                                                                                                                                                 ",
"                                                                                                                                                                                                                                                                                                                      a = F 0 R m.F 9 w 9 < 9 $...E.#X<X<XoX4.@.= * s T &.&.q.*Xs.d.X . o * * o o % # + < < 6 7 8 8 , 6 8 Y.S.l.U.S.. , , , b 7 3 1 1 v b b n 2 2 7 - %X8.%XiXm !                                                                                                                                                                                                                               ",
"                                                                                                                                                                                                                                                                                                                      - & - : k R a ; - = X z q.a Q.#.o.| 4.X.k & . 9 e F k #.0Xu.s.x k 0.C.8.0.w.0.A.A.V.n.M.n.D.M.* X * m.Y.P.D.! @ , , O 7 1 1 1 v n n n b n , m 9 K h.VXVXz.j.8                                                                                                                                                                                                                             ",
"                                                                                                                                                                                                                                                                                                                      = X = & l 8.I l l T.#X0XzXi F = = i ; = 6 6 @ # 9 k k @.4.3.p.w.E 6.8.E.E.s.d.E.+Xs.i.i.E.+XT.8 X @ D.S.c.S.&.o 6 , , , 1 , 1 b B N 5 2 n 2 m A C 7 UXnXz.h.S %X                                                                                                                                                                                                                          ",
"                                                                                                                                                                                                                                                                                                                      M.= E.3.@.: o x zXs.*X*X4.; 9 # t F J C w < < 0 s t q ; & & h x x 3.@.+X+Xs.s.+X#Xs.y.E.E.@Xi.F 6 . b.l.&.&.F # + , , , , 1 1 b b b 8 8 m 1 Z S 7 A UXnXz.j.h.j.                                                                                                                                                                                                                          ",
"                                                                                                                                                                                                                                                                                                                      E.t.T.o.X.g & & E.*X#Xy.o.@.- t g.Y.( M < # # K U H M 9 : x g @.X.E z !.~.E.s.!.@XE.q.d.P.E.Q.F s w %.U ! &.J 6 # @ 7 , , > , 1 7 m 1 1 b , B A 8 8 VXnXh.j.[.j.                                                                                                                                                                                                                          ",
"                                                                                                                                                                                                                                                                                                                    lX&X*XoX| ;.q.: X P.,Xt.o.@.8.r ` `.b._ M < + 2 J ~ J J w r 3.x x z z l R.R.i.i.w.i.@.i Y z z I 9 8 8 C 0 &.%.&.8 < 7 b e b 7 7 n m m , , v 7 n m 8 8 MXfXA S z.l.                                                                                                                                                                                                                          ",
"                                                                                                                                                                                                                                                                                                                  lXlX6X&XoXX.p.P.= ; k i a i a q D _ l.k.s w + 2 < 0 Q J M t t 8.x z x l ; @.$.I P j s . . X . . X + O O # 0 Y 8 C X 6 6 8 ! W S S S A m , , 1 b n m 8 8 gX`.a A A                                                                                                                                                                                                                             ",
"                                                                                                                                                                                                                                                                                                                sX&X%X&X#Xt.| P.L.a * 9 - ; - % * 0 m Z s * 6 5 2 # * C J C M j $.E l x j - * # + < 2 w + O + O @ < > > # @ 8 l.*.J e # @ , 8 A e m C 8 m , 8 1 1 m S 8 X                                                                                                                                                                                                                                       ",
"                                                                                                                                                                                                                                                                                                                l 0.M.*.*.@.l E a q % 4 r j - - 0 D q q 0 6 9 9 6 < 0 s F H M e D - = * 9 9 < 7 9 n M Z , O , > > # + # @ $ J &.! z.J 6 O , 2 m 7 e e w m 1 1 8 8 v b 8 X                                                                                                                                                                                                                                       ",
"                                                                                                                                                                                                                                                                                                                & : a j d k - - j G 4 / F.N.E D * Y j I c.g.Q V < 6 d k I $.~ 7 r 9 o # 0 e J _ r e w t # + 6 o $ . . X o @ A *.m.b.s < > 1 W J e A A C 8 2 8 b m b m 8 @                                                                                                                                                                                                                                       ",
"                                                                                                                                                                                                                                                                                                                o : l T L.5.l z R.9.g w.w.@.G G # H G c.U F 4 2 8 A q.w.P.P.].t # 0 m q G j R ).W.Q.W.I.R 5.6.8.0.P.W.W.$.k Y l.q.&.J + O A W Z A A A A m 7 A b A m b 8 @                                                                                                                                                                                                                                       ",
"                                                                                                                                                                                                                                                                                                                : q k N.W.0.g i X.o.i E.s.z z ~ 6 $ ; a : : % % * &.i.s.p.R.R U ) / T / $.i 7.W.L.R.P.Z.0.7.8.0.w.P.P.B.&.R Y &.Y &.M > O 3 2 2 b A m b e m 7 n v 8 e 7 @                                                                                                                                                                                                                                       ",
"                                                                                                                                                                                                                                                                                                      sX        j q q @.E.E.= h ;.:.: @X&Xp a D 6 + : g 4.t.E o * k q.p.y.e.i $.C.M.6.$.E $.N.W.T.I.L.A.C.Z.N.q.q.q.6.*.Y H Q Y &.k.Q O O O O O O O O O O O O > > O 2 < O                                                                                                                                                                                                                                       ",
"                                                                                                                                                                                                                                                                                                      lX        U s = g 4.t.p p u.,.p #X#Xf a t 9 L 3.d.a.a.3.o $ Y 4.o.h h . z @.k i i l z k R R R I z k k k l d d d a 0 0 6 J l.c.k.O + + + O O , + > , 2 + < O , < 7 .                                                                                                                                                                                                                                       ",
"                                                                                                                                                                                                                                                                                                                Y.W.@.q.y.y.} } <.:.p +X#X= * C r l f.a.oXa.w.; 0 n.i.:.h x X.i.4.o.@...f I k 0 a F a ; j y l k F a & * # 6 X A &.&.k.@ + 3 3 w n n A m 8 2 7 M b w 7 < O                                                                                                                                                                                                                                       ",
"                                                                                                                                                                                                                                                                                                                %Xz.*.#.s.s.;.y.s.y.g X.X.f 8 H H l e.oX.X:.g $ e Y.i.o.x h x 4.t.4.#.#.q.L.k / M.C.B.L.A.V.n.C.C.c.&.K H 8 , Q &.%.c.Q 9 2 m w m m A B A , 8 b m 8 8 2 @                                                                                                                                                                                                                                       ",
"                                                                                                                                                                                                                                                                                                                &.* = z 4.t.d.9XR.q.g z & s e J H F y.u.2.a.x $ < M.q.X.x X.p X.o.o.o.#.X.3.s I n.q.0.0.C.C.6.P.B.6.k.s U 6 X &.&.n.F.c.< < w m 8 m A A Z 8 b , m 8 2 , ,                                                                                                                                                                                                                                       ",
"                                                                                                                                                                                                                                                                                                                S.Y z l c h -.| i a l k s 6 C C V j ;.a.1.:.g . e &.q.4.X.z i x #.#.=.#.X.@.; * @.&.R Y 8.0.8.B.6.R %.C K e . R B.B.C.c.< 7 g.7 b S m m A 2 m 8 M n , @ @                                                                                                                                                                                                                                       ",
"                                                                                                                                                                                                                                                                                                                $Xz X f X.;.+X,Xi.@.a s a = y y m a h oX=Xs.R.3.(.$X@...h @.z @.z k f f i k # 0 6.6.Y x Y R @.&.@.k Y C C 0 . a M.B.B.5.6 < A , 8 A m S m 8 b 8 Z e 2 , ,                                                                                                                                                                                                                                       ",
"                                                                                                                                                                                                                                                                              dX                              DX$Xz F Y @X+Xu.t.X.g g z ..i.T G F a X.+X;.h i g Y @...X.=...g Y f f f 8 = 8 * r m.Y.C.M.B.M.q.6.$.; C q A 8 . F 0.0.M.6.. , , @ 8 A m m m 8 8 8 A 8 1 @ @                                                                                                                                                                                                                                       ",
"                                                                                                                                                                                                                                                                                                              DX5X*.&.q.2XE.4.X.y.s.+Xa.+X<Xq.j F R X.h h : g E *...........= Y z Y ..A Y = = 8 q.Y.C.P.q.0.B.M.q.Y A W Q W * K 6.6.0.6.O + 6 , , m 8 m A m b b n 7 > , @                                                                                                                                                                                                                                       ",
"                                                                                                                                                                                                                                                                                                              SXkXq.k a | h X : oX,XoXXX-XXXo.g R ^ @.@.3.l l I z z ......p & Y *.*.z z f j ; i q.T.M.B.0.P.B.6.n.$.~ W S Y m ! v.q.n.v.+ O @ , @ @ @ 8 m 8 8 7 , , , , O                                                                                                                                                                                                                                       ",
"                                                                                                                                                                                                                                                                                                            MXSXxX*.Y 8.E.X.X.x oX=X=X=X-X=Xy.: 8.&.x #.@.x ; ; k f ..O.....i z ....z ..z ..d k q.i.q.q.q.q.i.4.q.$.Y A d d 8 *.6.n.n.V.6 # , O O , 8 m b 8 > , , + @ , ,                                                                                                                                                                                                                                       ",
"                                                                                                                                                                                                                                                                                                            LXSX).Y @.B.q.t.w.i a.XXXX-X=X.X-.g q.q.X.X.q.E E $.I d } ..| ..i a z z ..4.#.#.Y @.i.q.w.w.i.0.i.q.q.&.Y Y s 8 8 Y c.n.N.V.t < + O @ < w m m 7 , , O > < < O                                                                                                                                                                                                                                       ",
"                                                                                                                                                                                                                                                                                                          DXMX&X&.d k @.4.s.i.i =XoX.X=XXXOXe.x @X#X;.| X.X.$.R * f ....} z : u X.d.a.<.4.4.Y d 4.i.y.w.w.i.P.q.q.8.Y Y *.*.8 A 6.n.n.V.9 # + < # 5 w w 2 , , O O + > < .                                                                                                                                                                                                                                       ",
"                                                                                                                                                                                                                                                                                                        W.f g a d = = 4.4.E.y.i ,X<.=X=X.Xu.R.z q.2Xh g X.X.@.l & z #.h X.X.$ E t.y.<.e.;.p.@.* P.d.4.-.q.M.i.*.&.I d &.S.Y.d A l.n.B.N.C + + < , 7 7 1 , 8 2 , > > > 3 O                                                                                                                                                                                                                                       ",
"                                                                                                                                                                                                                                                                                                          4.E.E.).z &.p.4.d.y.:.,X<.a.<X<.y.x : - k : g X.@.9.k = R ..p ..x h -.e.a.<.<.;.i.n.k 2XE.-.i.i.P.P.&.*.A d &.z.S.S d &.n.V.V.V # < + < < < 7 1 b b 1 1 1 , , O '.                                                    mXK j                                                                                                                                                                           ",
"                                                                                                                                                                                                                                                                                                                6X#.B.q.o.s.oXa.s.} i :.<.y.Q.k L x.g c h x q.; f @...h o.x | d.<.<.r.y.-.4./ q !.i.4.q.q.B.&.M.&.K d z.&.z.A A M.N.N.n./ # % < < 7 1 1 v B b v v 2 , , @ iX                                                . M _ C 9 t K                                                                                                                                                                       ",
"                                                                                                                                                                                                                                                                        *.*.                          7X2X      &X/.R g X.s.oXh o & i E.y.d.3.k y 5.x x h i @.c z @.@.X.-.| h u.a.f.;.3.-.x E a 0.w.3.@.#.q.4.@.$.q A M.*.&.A A M.n.n.0.T # O + < b 7 1 v b n v 1 1 , 2 @ aX                                              (.F W M M N t q                                                                                                                                                                       ",
"                                                                                                                                                                                                                                                                        iX&X                        jX5XW.Q.    %.a X i x p.+XX.F &.@.~.;.4.8.r H A.-.x g o : & x X.;.X.;.-.x i.r.4.x c u c E $ l 7.B.@...x E @.@.* = *.! J s 8 5.6.7.6.R o + @ 7 7 1 , 7 b b , , 8 , , O iX                                              v.t hX].W M M D sX                                                                                                                                                                    ",
"                                                                                                                                                                                                                                                                                                    I.M.W x.  8.~ s ; z y.s.d.z F $.d !.4.4.8.# 5 ) 3.-.X.g u c l X.-.;.-.X.l x 3.{ { -.e.3.] % t W.P.x $.@.q.3.$.s * A S d 8 s %.6.6.N.5.+ + < , n 7 , 7 b v 1 1 1 7 , O gX                                      gXG.v._ ~ 5 W H.W n w G '.aX                                                                                                                                                                  ",
"                                                                                                                                                                                                                                                                        lX                          %.K n g.hX` 5 w K &Xi.+Xs.z a K & l q.w.q.0 4 P R.e.e.i.{ : g h -.;.4.x y y y 9.9.9.3.-.9.g l 5X3.E @.@.3.@.3.G X q 0 * 6 C ^ 6.0.N.x.o < < 3 N 7 O 2 2 1 , , , 8 , @ fX                                @ ( - ( m w w M M V N W B V J x.dX5X)                                                                                                                                                               ",
"                                                                                                                                                                                                                                                                        f T.                        @.C 4 ` ].M + > Q (.!.+X$Xa 0 C # - -.i.B.& % G |.-.3.X.x c g x X.| 3.: % $ L ~.r.e.-.4.@.#.w.Q.q.3.q.3.w.X.9.l ; s F 9 e F j 5.6.0.v.- + > , n 7 > , 1 , , , , 6 , @ gX                                K F 0 0 7 9 n B n n B ` V 3 M D M 6 <                                                                                                                                                               ",
"                                                                                                                                                                                                                                                                        T.&XiX                      I s < M ( 4 v 5 J dXP.E.!.; . 6 , X 4.i.i.l % l 3.g c i.~.f.x X.3.X.3.o t % c w.e.-.4.X.@.#.q.P.q.3.q.q.w.@.8.I a ~ / q 0 e F 6.5.v.5.o < < , b 1 2 , , , @ @ 2 2 , O fX                              FXg.D n N N W Z W b N Z g.H m M M m Z uX                                                                                                                                                              ",
"                                                                                                                                                                                                                                                                        iXlX                        a f X r D 9 2 n ) W.i.p.B.0 o Z m = R.w.i.g $ E l % h d.a.;.x -.e.-.-.u : y w.e.4.4.3.@.@.@.@.@.#.4.#.8.#.4.q.R d ^ _ 9 8 # o %.6./ 0 # + 2 2 2 , @ , , @ , A e 8 , X iX                              kXK w w N Z Z W H M H H M M N h.n n ].uX                                                                                                                                                              ",
"                                                                                                                                                                                                                                                                        %X                          k z i N.F.9 w M 5.Q.y.E.9.; 8 w C ^ q.d.i.w.P.7.l % e.y.f.:.h x -.-.3.{ 7.3.4.4.;.4.@.@.*.*.@.@.@.@.@.#.#.@.8.Y s U ( 6 @ @ @ U / %.9 + > 2 , 1 7 7 Z m A n 7 Z , , @ `.                U x.+ F.'.5X).b.s 7 7 N B N N Z e M N W g.N h.N w w F                                                                                                                                                               ",
"                                                                                                                                                                                                                                                                        sXDX                      $XP.P.w.dXhXt 9 ~ A.E.s.d.8.; # 6 H C.0.E.t.+XE.e.x X.t.<.| h h ;.e.{ { -.4.-.4.o.@.@.@.*.*.*...#.*.#.@.*.@.&.0.$.C K 9 @ @ @ @ W ) %.4 + + 2 , 2 1 C C Z Z 7 7 b 7 7 8 (             _.* # F * e aX%.D 0 7 n b N S N M C D D l.(.S._ B W N n D                                                                                                                                                               ",
"                                                                                                                                                                                                                                                                        6XlX6X                    jX&X$Xi.jX|.G / w.R.~.,Xe.3.q + * 9 F P.@Xs.+X4Xy.4.e.;.:.| :.f.3.e.-.x -.-.-.o.@.X.@.@.*.*...z z *...@.*.X.&.6.*.s C e X < 8 e Q {.x.r . + 5 3 7 , N A J Z W 7 7 1 b b 2 @ .         I.# * < 9 K H s 6 w C M n S S Z M U m.D.].(.G.H.w W W n H G.                                                                                                                                                            ",
"                                                                                                                                                                                                                                                                        T.T.M.                    $X3Xz R.4XR.9.w.R.d.oXs.s.3.- o . = F i.s.p.p.0Xe.x g ;.:.| :.| -.-.e.-.-.-.| #.X.@.@...@...*.......*.@.@.#.q.8.I q q $.H @ O < x.x.b.K + + < > 3 7 Z W W N b b 1 7 b 7 8 X Y           G.M 9 9 g.sXC 0 w Z Z m m N n D m.D.(.].(.Y.U.D H h.N w r ^                                                                                                                                                           ",
"                                                                                                                                                                                                                                                                        *.k p $X                W.`.l l t.!.9.7.R.~.~.+X@Xd.0.q X ; I w.E.s.,.p.0X4.g h ;.:.| -.-.-.e.e.-.-.-.X.@.X.@.@.@.@.Y Y z ....@.@.@.#.3.&.k 9 D U 6.Q D e k.x.c.K + > > 1 , 2 Z Z A 7 b b b B b 7 7 0 sX        dX].m w 9 l.(.r M Q W m 7 n m w ^ C.D.Q.W.U.L.c.w n M W ! D 0 q 0                                                                                                                                                       ",
"                                                                                                                                                                                                                                                                      *.z f d Q.                s %.j & 3.!.0.C.B.Z.R.E.R.E - a I Q.@Xt.;.,.o.y.3Xp.3.e.-.:.:.-.-.-.-.-.-.X.X.-.@.#...#.*...*.......@.*.@.#.&.@.@.a q j R R R s K %.c.x.K + < 3 3 7 1 7 7 , > 1 7 b b 8 7 , 0       _.n.K C m Z b _ N M _ W 8 n m 7 A g.M.W.W.).).Y.D.%.8 Q Z G.`.%.e e e .                                                                                                                                                     ",
"                                                                                                                                                                                                                                                                      @X&.*.z                 ).0 e 4 X d 3X6.* j q ; ; = o @ 9 a L.i.y.;.;.y.,XKX3Xo.X.;.-.| -.{ :.-.| X.c x E Y ....@.@.*.*...@.....@.@.@.@.q.6.6.a R @.R R k R 6.%.6.P @ , , 1 2 , b 1 , 7 , N b B m 7 7 6 U.$.0 o & # < e M H N N g.b.h.n n 8 ! b.S.Y.).I.W.L.M.@.R S.g.D G.(.D H J 8 . aX                                                                                                                                                  ",
"                                                                                                                                                                                                                                                                      lX                      Q.: k 9 * q.2X&.o $ & 4 9 + + < r j x E.<.| :.<.y.oX;.-.;.:.:.:.| -.-.| c | x g z R Y z ..=.@.*.@.*.*.X.@.#.@.3.@.8.Y a v.$.I @.k R $.$.6.~ # + 3 1 1 1 1 > 1 , 7 N A n b 7 m 6 X $ * # * 8 < w M W 7 W x.b.b.w C W (.G.(.(.N.$.$.Q.).(.W.U.W k.~ M n C m w K LX                                                                                                                                                  ",
"                                                                                                                                                                                                                                                                                                B.5.J ; 3X&XY # + # % > 2 w w # k 0.!.y.:.;.y.:.y.;.y.;.:.-.;.-.-.;.-.| x g : x M.6.R ..@.@...@.#.z ..@.X.4.@.@.8.a ; 5.E z R T Y $.$.8.( @ < 2 1 2 1 1 1 6 , n A m B b 7 7 6 , + 6 7 2 < , m S.M w W S.S.k.Z C h.`.'.'.(.Y.L.n.(.(.M.c.F 9 H m w 2 n 2 9 L dX                                                                                                                                                  ",
"                                                                                                                                                                                                                                                                                                Z.C.t d 9X!.a * 4 5 5 > > > > + Y T.E.t.;.e.t.-.t.3.h -.c X.-.X.@.X.X.X.X.g : k %.$.Y @.@.@.z z @.*.*.@.@.@.@./ R a # U E k U I R ^ $.6.%.+ O > 3 1 2 1 1 1 1 8 m N m m 1 N , 7 7 m 2 n n 7 2 S.J e A l.^.( m Z W iX)._.).z.S.z.D.( ; 8 2 n W W n n m n w s 5X                                                                                                                                                  ",
"                                                                                                                                                                                                                                                                    jX                        z q T 9 c.!.i.k 9 4 5 n n n < + . x #.@.h i i i i x 4.h z x X.x z : g x @.-.g . ; F F Y @...z z z @.R &.@.z E @.E T s 9 0 0 0 6 # @ & U ^ U @ , > 1 > 1 1 , 1 , 7 m A m b n N 7 M b.N Z Z m 7 # Q k.8 e C ^ U 8 8 2 Y.Q.).&.d S.z.( s # s w n Z g.N N N m D D q U                                                                                                                                                 ",
"                                                                                                                                                                                                                                                                  M.6X                        ; . # $ F 0.; s M 5 n N N H g.< o Y X.@.4.x 3.-.4.e.8.E I g z $.k a l l E E l k t 0 F z R @.@.Y l F Y Y F ; z z R U 6 # - 6 6 < @ $ . F U ^ # > > 1 1 3 1 1 1 , 1 m 8 b b b n 2 M g.N n N N 7 6 F U.^ U ~ Y G.k.X 8 ^ (.Q.F S.U.k.s 9 - w n n B Z S N Z Z Q w # . .                                                                                                                                               ",
"                                                                                                                                                                                                                                                                  $X6X3X                    n.0 X o . q I.7.V.~ C M N N H H 9 q f @.q.@.x x e.i.i.!.E F F ; a %.s j j z E l j q s a a Y $.@.& k Y U k k Y = R Y G q 9 D Z M w < > . s ( _ # , > , 1 1 1 3 , , , m b m m b b 6 m W , b m 7 , 8 8 D D.Y.m.$.).'.S.v.M.(.D.b.S.e e C 8 M 6 > > 1 b N A b J r e 9 3 . C                                                                                                                                             ",
"                                                                                                                                                                                                                                                                  &Xs.+X                    W.$./ n.I Z.2X9XxX] 3 6 w M N n 9 I 4.4.z f . : h ;.i.i.I j q 0 J U 9 r l E g l k F s s z @.E = l R ^ R E $.x x E @./ r 9 K W N 9 2 < O &./ ^ 6 , , 1 1 1 3 1 3 , , b 8 , 7 b 8 7 6 r w w W w 6 w 6 r `.$XY.B.).%XQ.U.G.M.g.W 7 6 7 2 , S W S N n , w Z 7 8 9 0 G.Q G.hX                                                                                                                                            ",
"                                                                                                                                                                                                                                                                i.@Xt.s.                    ).6.H.dXsXjXR.R.k . < < < 6 5 w # &.q.#.@.Y i z d.y.:.c g G s F s 0 9 j l z i z z j & a R z z f z 6.6.@.6.@.@.@.@.@.G s s K H n 5 5 6 # / %.( 6 3 2 3 1 1 1 1 2 , , m b 8 b 7 w 7 , 6 @ w e C A m e k.).Q.W.P.Q.).I.D.S.g.2 b 7 7 v b n A Z h.h.S e 7 8 w 8 m.F x.9 r s                                                                                                                                             ",
"                                                                                                                                                                                                                                                                P.E.s.9X                    / # . ].'.6X: a r < 7 3 # * < 2 $ 0 i.q.#.X.p w.+Xa.y.;.x E k ^ z = ; k k k x w.3.E q j q.z : I z 3.@.x R R $.$.E 6.R q r j w 9 7 < % # R %.^ 9 + > 3 1 3 1 1 1 1 , m b v b b 6 7 @ , s Q ^ M.Y.C.C.P.(.T.R.Y.C.D.(.J N H v N v 2 Z Z Z W m H j.S W 8 C s Q ( %.( 9 M G.                                                                                                                                            ",
"                                                                                                                                                                                                                                                                p...3X                      c.8 w g.c._.k W.c.< 2 < # * 8 8 8 f q.t.q.=...o.y.,.:.o.e.0.8.0.q.w.8.E E z 3.r.i.8.c l I z a i l E x I @.^ E @.x R U 0 - 9 * , < 4 6 * d R ^ 9 O 1 1 3 1 1 1 1 3 , m b b 2 7 7 7 , @ M.^.W.C.M.Y.Y.I.Q.Q.L.c.F ! A 5 W N N B g.g.W 5 M H N N h.h.n m e ! %.U M.M.Y 2 9                                                                                                                                             ",
"                                                                                                                                                                                                                                                              #X} p ,XrX                    5.r M ~ ) C.l E &.< 6 , < 2 = 8 8 A #.T.=.=...o.y.<.4.4.@.7.&.q.p.p.y.3.z { c 3.B.q.R k k l z k ; I I F Q K a a k Y K q 9 q 9 < < 4 + * R 8.5.r > O > 1 3 3 1 2 2 , m n b 7 b 2 , , @ c.L.).Q.Y.Q.Q.6.l.M.(.W e J k.g.> v N 5 g.S.N > B n N N N n 5 %.l.b.&.%.M.P.M.D < j                                                                                                                                           ",
"                                                                                                                                                                                                                                                              oX=.s.*X0XrX  p.O.,X&Xp.        6 M r ; ; g _.(.q < , @ 8 8 8 A =.*.t.#.=.o.p.+Xs.p.#.x d d T.s.s.y.-.g e.c X.q.R / k I R R I a F ~ U W J F @.d $.) ) ~ ) ^ A e w # G R $.%.r > > 1 1 3 1 1 1 3 , n n 7 7 b 7 7 , @ Y.U.n.Q.Q.W.'.U.X 8 (.Q J W m N n n N m g.( Z 1 n 1 n 6 e ~ x.m.C.M.&.&.C.M.T.^ * 0                                                                                                                                           ",
"                                                                                                                                                                                                                                                            3X@Xu.oXXXOXoXoX=.#XqXoXT.t.      8 6 q : i.3XjX!.- 6 7 @ 8 f q.T.*.=.#.*.z f T.@XE.*.Y s a d M.i.q.e.{ : 3.3.x c.F t s *.Y I k 0 s C M < ~ ( @.5.6.T F / ) U C e M 9 U 6.&.x.D + 2 1 3 1 1 1 2 , 1 n 7 6 < 2 7 m , @ %.l.^ F F 8 a n.l.C G.S.N 7 Z M h.N b 2 M _ g.N v 2 7 0 A &.b.M.M.6.l.q.M.M.Q._.S.q U                                                                                                                                         ",
"                                                                                                                                                                                                                                                            9XAXoX,.XXXXu.} t.*XoXp.....      * k z 2X    3X8.o # 9 < 8 *.p.=.=.=.*...= = ..*.@.Y a e H d M.w.4.4.3.g x 3.3.M.~ g.[.Y.Y.U.M.Q < m D < K $.q.8.q.5./ 5.6.F C e C < U &.8.c.D < , 3 1 1 1 1 1 3 , n m w 9 C Z Z 8 8 l.S.U e J /.m.Q k.Y Q m m h.W B S n B 2 > 7 W n 3 < < K d ! $.&.&.&.&.M.T.M./.Q.%Xs 6 * A                                                                                                                                     ",
"                                                                                                                                                                                                                                                            E.*X=.O.O.u.+.#.&X#Xq...=...      T.&X        R.a . # 7 6 - *.t.=.=.} z ..= ..q.q.P.s @ r M C 6.W.X.l p g g x 3.x.z./.%X%X`.U.^.^ 6 C W s - 0.q.q.8.7.$.5./ s d w n @ F 4.8.n.D 3 3 > 1 1 1 1 3 1 1 C J F A K M m 7 6 [.b.* X M [.G.U W w @ , , n n b 7 1 5 1 2 2 n 2 3 n W $.Y $.&.&.$.$.! &.S.Y.M.D.%.Q w w C w                                                                                                                                   ",
"                                                                                                                                                                                                                                                          =.t.T.=.p O.p p T.&XT.q.f p }                 L.l X O < 9 , 8 #.p.=.O.p p ..f ..@.x $.F 8 M M s c.I.A.P.4.h x x k k.h.[.pXiXiX%X].x.7 8 ! %.* q.q.@.q.7.$.5.I 0 0 7 9 @ F @.*.m.r @ < 3 , , , , 1 , 3 n H K D K K A 6 , 6 7 @ J k.H ( W W 8 m Z > 2 v b b b 2 2 3 7 Z Z b.H.x.S.c.6.( Y ^ ! ! J S.l.Y 8 d m 7 9 7 _                                                                                                                                   ",
"                                                                                                                                                                                                                                                          =.#.t.#Xt.OX,...&XT.z.*.=.p ..6X          W.E I.R * + < 8 w z q.=.=.=.O.O.=.#.t.y.4.T.c.Q A N m c.J.R.w.3.3.@.6.&.l.h./.iXiXiXiX%X^.7 , W s $.0.q.@.8.6.$./ z k 0 2 M < U $.8.M.U @ . < 7 6 @ @ , @ 6 w Q F D H F J < , > e ) ^.D.C M 7 1 7 N B b b 2 2 7 , O b.l.6 @ 1 H.g.S.D.&.&.*.J ! Q 8 m W A s 8 2 < 2 5 ! '.                                                                                                                                  ",
"                                                                                                                                                                                                                                                        p.t.o.o.t.p.0X&X&XP...*.*...f =.          0.X Q.DXM.X + # 9 M I q.o.=.+.O.O.o.o.4.i.T.Q.Y.l.Q Q m H.A.R.R.e.-.q.L.].^.z.[.uX/.`.`.(.G.s 8 Y s 6.M.q.@.Y R k k U ( U ~ H # U $.q.M.z 0 s 6 e e s e m w w e U F F F K J 6 O , Z S.%.U 9 2 1 2 v v n b b b 1 8 C U M.M.U , O W &.D.c.U ! ! &.J 8 n 7 b m e m M e , n N W !                                                                                                                                 ",
"                                                                                                                                                                                                                                                        T.p.t.X.;.i.E.4.&XL.q.T.p.*.f #.      AXI.. X NXcXq.X $ # e J *.t.t.=.+.+.O.o.#.3.z Y Y Y U Q h.C G._.7XQ.q.X.e.R.).[.b.[.[.[.[./.Y.S.@.Y.L.7.n.0.R R Y R ( b.D.c.D M M 9 U &.8.6.U F t 0 e e C C A e d w U F F F K J 7 > > 1 M J 6 2 2 1 1 v S S v O 8 , * &.R L.S.l.e @ 6 Y.U.M.Q Q J Z 8 6 m 7 7 n Z W Z n 7 n ! w 9 $                                                                                                                               ",
"                                                                                                                                                                                                                                                        E.i.#.h x h 4.3.jX7X!.@X!.i.f #.    AXbXi . Q.cXcXq.X @ # w ^ *.q.o.+.+.=.=.h i X # q D K C r r H D._.dXW.3.h 4.Z._.[.x.S.b.b.M.S.S.C.&.i.W.L.T.M.@.I Y F s s q C e r M r Y 6.&.R a 0 6 8 8 8 s w m e s 0 ~ s H I U K 7 3 1 3 > O > 2 3 1 v v N v O @ w &.Q C.M.M.P.D.%.8 s m.D.( A J Z ! n n 7 1 2 7 ! M w b n 7 W ( 6 @ ^                                                                                                                             ",
"                                                                                                                                                                                                                                                      6X~.i.X...4.i.@.T.cXAX0X0XbXo.p &XjXbXAX3Xi E.AXAXAX..o + # < Q Y o.t.+.t.t.p i d 9 e e e e w s F A S.).L.8.z : @.R.Q.H.x.S.l.l.%.%.c.6.Y Y &.l.c.&.@.E k G 9 0 6 * e 9 w * F 3.$.Y # @ # < < O O @ 8 8 e e U F F U K W 2 > 2 1 > > 1 n B 3 v v 2 7 O @ z.M.&.&.M.n.I.m.6.c.%.c.c.e Z W W N b 7 2 7 , , 8 e 7 7 2 , 6 m s ! (.                                                                                                                            ",
"                                                                                                                                                                                                                                                      7X-.-.X.~.+XbXbXE.3XqXwX0X3Xp i 4XzXAXAX@Xy.KXAXAX9Xz o # @ @ 8 f =.=.p.+.p.f f Y 8 8 S ! R $.! ^ ! ).%X$XB.*.p q.w.q.G U ) ( ! Y R Y 6.( c.k.l.z.R z I z F 9 6 6 w C r q 6 F / 5.$.@ @ 6 3 3 @ @ , 6 m 8 M A e C D H m 1 > 1 > 3 > 1 v b 1 v 1 > , U J ( a 8 ^ M.m.Q.I.M.%.( ( C Z ! n 2 M v v 2 , 6 , l.z.6 7 7 7 7 6 8 K D.                                                                                                                            ",
"                                                                                                                                                                                                                                                      7X~.y.s.3X0XAX0Xd.@XbX<X<Xt.= h 0XAXAX0X..z 0X,X0X!.& . # @ @ = 8 f =.t.t.=.=...Y f Y l.&.( &.&.Q F S.D.D.S.6.@.#.4...z U k.c.l.*.@.&.M.) c.%.U Y Y d @.I F = 0 s C Q H w - 0 / @.$.X @ < < < , @ , 1 m , < 7 < 6 . 6 1 3 > > > > 3 > v v 1 1 , < A U 8 d @ * A k.m.(.C.^ %.J A n N b > 1 v n v v 7 6 e %.%.K 8 7 , 2 7 @ # F                                                                                                                             ",
"                                                                                                                                                                                                                                                    $XE.3XbX0XqX9XAX4Xu.0XAX<XoXp = ;.0XrX&X..= = f } 0X$X& + @ @ + 8 8 8 Y t.t.=.T.T.#XT.*.T./.%.$.Q Y Y M.m.$.&.^ @.P.q.4.&.z M.S.M.&.&.*.$.T T c.F.U.*.q.q.&.$.a s s D Q D 8 @ R c.$.$.@ 9 2 < < , 2 > b m > > , > 1 O > > > 3 > > > 3 > > v 1 2 Z Q k.&.$.&.k.Q g.l.m.(.c.s C , n n N n 1 1 3 n 1 2 2 J $.$.^ ^ 6 7 O 8 W 8 0 q fXfXs o 0                                                                                                                   ",
"                                                                                                                                                                                                                                                    j W.jX9X3X9X0XAXE.q.9XAXu.1.p ..p.rX0X,.h = f : i 3XQ.X @ # # X 8 8 A *.#...=.Y ..O.=.t.#.*.z s J ! ! l.%.b.&.! z *.@.q.#.R M.Y.Y.z.&.k U I l = Y P.#.X...Y &.H s F D F 6 @ # X F s J e @ < > , , 1 , 8 1 , > > > > 1 1 1 1 3 3 3 3 3 v 3 3 v N ! J $.6.6.M.Y.M.Y.M.k.k.r 8 8 8 H N 2 2 2 , 3 v 1 m A &.%.6.^ U 8 * 8 b.m.8 C A H.( $ 9 s                                                                                                                   ",
"                                                                                                                                                                                                                                                  s k %XjXjXjXzXjXbXt.#.0XDXoXoXo.@. .#XOX| h i ; & i 3XL.X . + # @ 8 C A Y d f f A =.t.=.OXt.Y d ; Y l.z.( ! ! ! F &.T.#.q.0.%.T.Y.C.&.q.k R B.X.i 4.i.p.q.@.Y d 6 6 0 8 ; * @ 6 6 I $.J s # 2 , 1 , 7 , 7 n b 1 > 1 1 v b B b v 3 1 v v 1 3 1 n [.Q W 6.M.0.c.Y.0.S.&.O O 8 A ~ J Z b b b 7 7 5 m 1 S.b.S.C.m.&.( M 7 U %.%.C D 7 @ 7 , J 6 I                                                                                                                 ",
"                                                                                                                                                                                                                                                  c.R q.jX9X9X9XbXdXz ..lXAXt.o.} &XE.u.,.>.o.#.a . i 0XP.. . + + o 8 A S *.d 8 A f ..#.t.T.#Xf d * ! [.&.! ! Q U s ^ Y.B.B.%XG ( c.B.B.*.= h E.i.h -.q.@.@.J s w # @ - * a C 8 w C ! R J C 2 2 1 1 7 b 7 m Z N > 1 > 1 B n B B 3 v 1 v 2 1 1 v W Z 8 0 $.M.0.0.B.6.U 6 X X U J m , 2 2 , > 3 w w n 3 l.Y.S.M.&.c.k.Q Q x.&.^ ^ S.e e 6 @ w 6 s                                                                                                                 ",
"                                                                                                                                                                                                                                                  F d B.9XzX7X7XjX$X= #.0X*Xp f i ..} } ,.2.*XE.; & } 3XL.. $ 2 @ @ 8 J S l.A f 8 S f ..p.OXz.f z w A ! ! *.A Y D 9 d 0.@.@.U.K 5.8.q.q.i.z 4.4X,X4.X...d d 0 r 4 # # o 0 U ^ w 6 e ! ! ! C 6 9 2 2 7 m A n S n > , 3 3 v v b B > > 1 1 , 1 n S m 7 . X Y &.n.C.F 6 , @ @ ! l.l.C 3 , > , < K S.J , > W %.F k s F ! l.l.^ ^ Q ^ m.D @ w @ w 0 C                                                                                                                 ",
"                                                                                                                                                                                                                                                  0 X C.AXbX9X4X7Xt.#.O.#X+.= f i = p i O.+.,. .: g s.3Xi.X . @ $ @ C ! A ! *.A 8 A d 8 #.#Xt...q.Y A *.*.t.&.l.0 ; 0 $.z E 6.W.W.Q.i.;.i.z x E.+Xp.X.x = a a s t 9 % q $.$._ C 6 * Y R Y A 2 2 2 < b n Z n N 1 1 , , 3 1 2 v v v v > 1 ! Z A W W Z J Y 6.c.U ! e . @ @ C z.b.A @ > > < > C V.C.M.C O n C * Y Y $.c.~ ( U M.m.k.( < @ 6 , e * q                                                                                                                 ",
"                                                                                                                                                                                                                                                9 F $ I qXAX0XqXqXt.s.o.<.O.} o.#.@.T.#.#.OX*X#Xi z t.#Xq.X o # # # 8 Y A d Y A 8 8 * a *.#.T.t.*.z : #.q.T.#X*.: l E @.q.@.&.W.R.P.i.h X.z i X.X.x @.Y @.l.&.C ! U q F Y s J 6 7 * J F U A t n n 5 b Z N b b 7 1 1 2 2 , , 1 1 1 , , C J U 8 m C J U c.L.&.* , N 7 m W M.Z , b > . @ e k.c.0.L.L.! O N ! U 6.c.&.%.6 8 ^.U.! ! M w , > M Z 0 0                                                                                                                 ",
"                                                                                                                                                                                                                                                # b.0 $.DXKX0X1X3Xt.#X<.:.1.,.,.X.p #.t.T.oXt.p p q.t.+X&.X . + # @ 8 A d d A *.M.R s A C *.=.#.#.: z T.p.t.#X0Xe.x @.8.R.q.z I.n.q.q.z d z ; k l a = Y @.z d d e = X * d * 0 8 @ * A R Q C H M g.w e n n v , 1 , , , , @ 8 1 > , , 8 U %.U K C e Q ! c.b.2 O @ H < , k.7 , > , , O Q m.B.n.6.c.m.z.e l.%.%.M.m.&.k.m 7 e w Z . > , , , b.W 9 * %.                                                                                                              ",
"                                                                                                                                                                                                                                                6 s ; Q.DXKXAXrXrX+X,. . .u.u.,.t.i ....O.#.t.#.@.i.i.E.w.. . O O @ X 8 = = ..T.P.z 8 C A Y *.T.= = &XT...E.0X<Xh : h o.#.@.R L.&.&.@.z d = X = z Y * R *.z M.Y d * 8 C.I d X 6 @ 6 s Y U C J A 2 < , n v 1 > , , 7 C H A A m 7 > , k.l.R F ( ( C W Q A > O , Z N N , w , > , > 8 8 &.&.&.q.*.$.U C * @ 8 %.C.6.k.~ O , 7 O S b > n , 7 l.J e * U                                                                                                               ",
"                                                                                                                                                                                                                                                j 0 f @XAXcX9X9X3X#X#.i p 4.y.p.+X= X f f oXQ.0.$.q.4.i.E.a . 4 , = d Y Y f #.p.#.@.d A d S *.&XT.d @.@.= ..t.*Xy.t.oXs.4.z k U A U F D F J X C.$X@.a d Y z Q.q.A @ d U.I k 8 r t 6 0 @.Y @.M.J # 2 7 3 1 1 , > @ C F F s H H , , , k.&.Y R Y U C , 7 , 1 B W Z 1 > > O @ > O > m @ 8 d Y J U $.*.J 2 6 ^ m.k.U 9 6 O , b O > N 1 7 O 7 x.A * * 0                                                                                                               ",
"                                                                                                                                                                                                                                                %.; i Y.iX#XM.p.X.q.z = ; ..#.E.3X4.a = } t.q.z a ; l i R a o < 2 G W.W...@.4.i.#.q.Y e 8 *.T.M.&.*.k s a l i @XoX#X0X,Xi.z a e J Z J m.m 8 = *.T...Y Y *.z L.Y J 8 0 $.a *.k ! r + k E *.@.M.z = 0 7 7 7 1 1 , O w s I F s A 7 1 , ! &.F &.$.e 7 > 1 3 1 B W n 3 3 > > O @ . ! M.A 8 8 s A *.( &.J , A b.m.s O @ < , 7 > 1 O , , 7 6 e ! 0 * 8 &                                                                                                               ",
"                                                                                                                                                                                                                                                a a a ; f f = = & & a a 8 f Y #.z = = p ;.t.3.: . o . X . X 6 H F / )._.q.i z @.6.&.d X = l.&XY.*.F d F s U i @Xp.E.,X#XP.k X w n Q x.( C d = Q.&X@.A F s d %.d 6 < 0 R a a k s C V G $.@.*.&.@.9 9 8 1 1 1 2 v > 8 A s s e 7 2 1 , m A R %.U s 7 > > > 1 B v 1 > > > > @ %.W k.W * , 1 8 A ^ %.( ! w C l.8 O O , 2 , 1 > , > , 7 6 8 M 6 # 0 * - sX                                                                                                            ",
"                                                                                                                                                                                                                                                g 8.I 0 k 0 = s q l : a = Y &.d = @.X...;.t.@.X $ + . X o @ 0 F U F ^ l.6.i = a F &.Y f R sX&X*.*.= = A A F R Y 4.X.t.4.E k s 7 e r %.Y 8 d = Q.Q.@.F A 8 0 D # q - * F a f a k G L r T I k d F 6 9 < O , 1 1 1 , 8 e d 0 8 8 2 1 , , 6 U %.Q A 7 > 1 1 2 v b O > O @ , 8 Q W ! ! Q h.m C Q &.&.%.A b 1 > , > > > 1 > > O 1 Z > e 7 8 0 . A %.0 0 &.                                                                                                            ",
"                                                                                                                                                                                                                                              s #.B.R C R $.F Y i 0.g = X d @.i X.p.p.X.} s.P.X o o X X @ o * U T e @ @ k R A d A A a d &.'.&Xd 8 * X A d A $.@.k i l @.I Y e 6 7 9 Y R = k = %X3Xz X * ; q ; & q k ; 0 X . a I - # + o $ o # # 6 2 v 1 1 1 v 2 , 2 e 0 e e b 1 , , @ @ ( ( W 8 , > > 3 > v 1 O O , < W Y F 8 Z ( z.l.Z ! l.( ( C , 7 > 1 > b > 1 > > O O , [.l.C 6 * 8 X ^ c.s a 0 a                                                                                                           ",
"                                                                                                                                                                                                                                            F Y p.q.F * a I k z g x g i . d 4.4.y.s.4.} } +X@X& o $ $ @ * O 8 k * @ > O H R A A J C 8 U M.f ; = * J A *.Y Y ( I a & a 6.U A e w 6 6 d z z z i q.@.i X F a k g : z k = ; d a q.6.* # + . + + < < 2 < n v 1 v 2 1 > < e 8 e m 8 v 1 , > , m 7 2 , , , O > 3 > > 3 > 7 H W k.A @ O H k.k.J A Q k.C @ O b v 1 3 3 v > O 2 2 O O m S.! @ @ . 8 c.c.s F ^ F                                                                                                           ",
"                                                                                                                                                                                                                                    k o * H d Y Q.#Xk 0 ; a ; : h i.w.x q q.+XoXu.u.X.i O.*X+X. o + o @ , M ( K a @ @ 7 m J A m A C 8 U J X . f d *.*.&.*.*.&.U 9 - s $.d C M w 8 0 $.@.i.#.: 4.#.i z ....X.q...i.8.= I C.d R d o # . . + 4 + > + 2 n 2 v v v 1 1 2 C r e m b , 1 1 , , O O , @ > S > 1 3 > > 3 ( _ 8 , Z J 8 8 U m.k.Z , A @ @ O 7 b > > > > b , 3 n g.7 @ 8 b.H e H U Y ! &.s d &.6.R                                                                                                         ",
"                                                                                                                                                                                                          >X-X+.f * % r D Y E d f D ^ * . < w X ..*Xz k ; : = i i.a.| : z #XoXoX<.:.h =  .u.4.& $ o @ @ m g.b.J 8 , , < 8 m m 8 m A 7 s 8 8 a a J *.Y q.&.&.l.U 0 r F F 6 s b.w 0 G q.q.#.4.h Q.E.4.@.z X.E.+Xp.@.= : B.&.a z ; - # . + 4 4 + + > 3 n 7 v 2 2 1 > < M s m m 8 1 , 1 1 1 , > , b > 7 , O > 3 O W ~ ! s O @ C J 6 U c.b.m O > 8 , O O 7 W 1 1 1 > Q g.@ 6 @ w ( M.Y F &.M.&.m d d J Y ^ R                                                                                                         ",
"                                                                                                                                                                                                    } .XXXXXeX>Xp 0 # * ; = f p = s z f & q 9 X o.3Xz R k a = t.1XrX1X<Xt.0XoXoX,.} | } p u.t.: $ + < < D Q M < , @ @ , C m C 8 m 8 7 C 0 ! C.d Y Y @.q.M.#.M.@.q j I d C s e @ 0 *.P.T.#.q.#.i.4.T.#.i.z T.T.M.d X a Y d $.q.R I % . . M W 3 3 3 7 W n 2 2 2 3 > 5 A e e A n 2 1 1 v 1 1 1 1 7 , O O , O < O W k.M.R 9 @ ( l.%.Q l.b., O > O , O @ @ b.> > 3 O W [.# C X 0 l.&.A &.S.Y Y A &.A J s 8 e                                                                                                         ",
"                                                                                                                                                                                                  1.OX.X>X:X:XeXo.f = p p.q.....= f Q.z f k f = p #Xz s 0 d f &XqXtXtX1XoX#X<.OX<.h s.2.| u.#X;.X * o . D C 6 , , @ O , U A m 8 2 , 6 w Q [.k.s k d @.M.L.q.@.z : l 8.Y.&.k 8 . Y ).#XT.Y ; X i h X.@.P.p Y ..T.A 8 w * ; R *.R v.y t K R Y 7 > O > n < < < 2 3 1 2 C t e m b 1 1 7 b v v 1 > 2 O O O 8 e < < 6 J k.$.F e ^ %.&.Z C , 1 > 1 > > @ @ @ k.J . O O # ! D x.! 8 s F &.z.f 8 *.A J S 6 6 , 7                                                                                                         ",
"                                                                                                                                                                                                .X.X+.OX>XeX:XtXrXOX-X*XOXOXt.p = f &...z ..=.O.o.;.X $ = d X 4.*XKXKX<XoX=.:.1.<.| u.<X1.<.<Xu.f f ; a D 9 , @ , > , , Q ^ J @ , 8 e w ( ).*.d s q I P.q.#.x w.R.,X0XbX6X; @ 6 M.Y.T.M.d f z X.z R ..*.q 8 e d 8 8 M * ; R $.$.H.G 9 F *.F * + 3 < M > 3 < 3 2 3 2 C 0 w e 7 1 1 v v v 1 1 > , O @ . F 5.~ K 2 + M %.c.U J $.s , O O > 3 W > 1 , O < k.J w . O m ^.&.T J C a 8 d k d 8 A 8 m 8 1 7 , O                                                                                                         ",
"                                                                                                                                                                                              -XXX>X:X>XtXtX;X>XtX>X-X>XXXXXp.p = f = = f p O.+.1. .= a s *.X q.#XrXoXOXt...,.oXy.p } *Xa.>.OXoXu.t.q.6.d @ < C , @ , @ F Y A O 8 e C Z W x.m.F I 0 k Y Y Q.E.AXbX,X,XqX3Xk 0 # R P.z.*.; d #.q.@.R Y F = 0 X = f * C 8 e F &.U K w < 0 Y Y X # > 2 w O > < 2 2 3 2 r 9 8 w 7 1 1 1 1 1 v > > > . O q U ^ $.g.M O # H.S.! ! A . @ O > > 3 v j.v O O @ 0 e c., w ( l.$.Q e 8 8 2 = 8 d 8 8 8 8 7 7 1 > >                                                                                                         ",
"                                                                                                                                                                                              .X>XtXeX;X:XtX>X:XeX.X>X>X>XOXp = p t.oX} p O.OX>XeX,X;.l F U o @.o.#X#...f *.E.p.X.p = t.,.+.+.OXt.t...d 6 6 e M , 2 > , s F s @ 8 C 8 8 e A ^ %.U A R F A *.4.0XqXKXyX4X$Xa s e Y *.*.k s 0.T.T.R ~ d w 6 # p #X&Xh ; 9 @ d d *.q 9 + 9 *.d @ O 3 7 2 , 2 5 7 2 O 7 e w e C b , > 1 1 1 > > > O O s ( ) &.%.) G 6 M W ( C , 8 O O > O 1 > 3 g.g.O O 0 F s %.^ 8 ! Q J e e 8 8 e W s m 8 m 8 7 2 6 2 2 2                                                                                                         ",
"                                                                                                                                                                                            1.;X:X:XXX .;X:XtX:X:X>X;X;XXXOXOX+.*X>X*X+.O.+.>XeX-X-X:.= : $.4.t.x ..z p = Y 4.#.z = X #.u.+.p t.t.o.z ; X * 8 w 2 1 > , e A 0 a d d w s 8 6 d ! x.( ) F K $.Y q.1.HXKX,XQ.f a a F Y Y Y *.I B.R s r 6 6 , & ,XqXXXy.& & - a /.*.* # # - & = . < # > 2 3 7 m N 7 @ 7 M C M Z 7 1 1 > 3 3 3 > > > . 0 U ^ U ( G 0 U < O 2 O . , , 1 > O 7 > > 2 J , . q b.U ! a ! A 8 8 8 Z m A w e 9 # + e m 7 O , 3 2 3                                                                                                         ",
"                                                                                                                                                                                          ;X>X:XtXtX.X+..X>X:XtX:XXX;XXXXXOXO.*XrXrXrXeX>XeX>X>X.X .p = p s.<X#Xh x h ..f z o.4.X.p ; #.u.OXp t.t...z 8 @ @ 6 7 , , , , 6 @ 8 ; R a - 0 6 X X s J M r q D Q F = o.KX,Xx X.= X I x @.*.*.^ 0 q * w r 9 # X = <X-XXXXXh = X d Y.f X r . j q.T.T # 2 M 7 < n 8 Z n 7 n Z Z C A 7 1 3 1 3 > 3 > > O . X 0 K . . R D.U X O O . . O > W > > b 2 O @ A %.q s c.$.! @ 8 , A A Z W m e e q 9 # - W 7 O > > > > 3                                                                                                         ",
"                                                                                                                                                                                      -X:XtXtXtX:X:X.X.X;X>X;X:X>X>.1.XXXXOXp +.>X>X+.OX>X>X>X:X>X-Xy.o.t.#XoX1. .;.p.q.h #.t.+X@.p = z +XE.} @.X.z a 0 @ * , , * , > 3 2 2 C c.M.d d z i ; ; a C s w * C 0 ; = ;.AXoX#XQ.x x P.T.q.@...Y < < M 6 ~ q # = 3.-X;XXX.XoXh i 4...f = a & E T.4.z r b.N Q N n 7 2 e m 8 6 , 6 7 , 1 1 > > > , > > O # F ( D 9 ( m.%.&.U O 1 O O > > S j.O O 3 < @ l.&.Y j R A ! 8 . , e J l.W m 8 6 # # . - 6 6 O O O 3 > +                                                                                                         ",
"                                                                                                                                                                              . :.=XeX-X:X:X;X:X:X>X>.+..X.X.X:X.X.X.X-X+.#XO.+.rXOXf } OX>X>X>X-XOX ...o.=.o.o. ...X...#.p.o.o.p X = @...f p q.R.: : o X * X * , 8 6 7 < w M x.6.@.R @.q.q.&.&.R R ! s * & l @.s.,Xs.E.q.M.P.i.4.3XT.Y Q @ O U m.; - . ; E.,XOXOX.XOXrX1X1X1X<X<XoXi 4.i.q.k F e 7 N A b 1 , 7 7 e 7 m 6 6 , 3 > v v 1 1 > > O W J J 8 U M.c.s X O > n v > > > 3 n @ @ @ %.*.T.6.Y * * e J W 8 ! c.8 C s 8 @ 6 0 - 9 D q 2 > > 3 + > 3                                                                                                         ",
"                                                                                                                                                                        <.0X<X=X-X;X;XtXtXtX:X;X.XOXO.+..X;X;XeX:XeXeX+.p O.=.+.t.+.f p >.;X>X-XOX} i p p f +.t.t.;.} } o.o.p } } = p h z = ..4.p = & X X * * 8 @ X X * , @ 7 ! %.I &.3.@.4.4.q.@.&.Y Y Y 0 3.#.,.+X4.z @.a i E X.9X).I s @ 6 C 6Xz k a l @X,X;.u.2.2.=X<X-X=X.XoXu.p.i.@.@.R = < < 7 b m 2 , 6 6 6 6 9 * 6 O , , , 1 > > > Z > Z m , @ U m.&.0 . . O 3 B B 3 > > , @ . 6 d &.M...A * O e w e * * a A A d , 8 8 C * s 0 r w 1 3 3 > + + 3                                                                                                       ",
"                                                                                                                                                                    OX1.=XeX:X:X=X-X:XtXtXtX:X:X>X.XO.>.:XtXeXtXtXtX-XXX<XOXp f +.rX<X1.>.1XtX-X,X} | o.=.f O.OXy.4.h i >.,.+.u.oXp O.,.,.| <.;.f f h z = * = = z *.p Y * O 6 8 M 9 0 0 s i = R &.@.@.I.Y R $.k ; = & X . # . & D / y t < < C * a Q.!.E.#.$Xq.z y.s.oX:.2.OXXXXXoXp.h *.q.= s . , 7 8 b 7 b 7 8 Y ..i : X X , @ 3 2 1 3 > 1 m , 6 , . @ U m.k._ w O > > v S > > O < Y c.k.@ A ! 8 d s A z.m.0 8 0 @ d U s * a a q a a * < < 3 > 3 + > > >                                                                                                       ",
"                                                                                                                                                                -X1X>X-X;X>X:X:X.X1XtXtXtX:X:X;X>XeX>XrXtX:X.X;X:X:X:X:XeX*X} p XXtXeX=XXX;X1X-X,.h 4.&X*XoX,.*X4.} X.y.XXXX.XOX+.1.OXoXXXoXoX<.oX+XoXt.f X f &.*.@.@.4.6.a @ @ , @ 6 . @ & X = a @.i.@.: I 7.^ s # . < 6 + . 4 . 4 5 4 < w b.q = P.2XE.4.E a i q.s.4.;.a..XXXXXoX#.f d ^.D 0 @ m w m A Z 7 , ; @.o.4.p.P.- , > , 1 1 3 1 v W N < , O X e Q H _ ( 3 > > 1 1 , , @ s 6.M.M.m @ 6 , A s 8 A a 0 A U e 6 d F * s 0 & ; 0 X O > 1 > 3 + 3 > >                                                                                                       ",
"                                                                                                                                                            : 2.=X-X-X;X;X:X:X:X=X2.:X:X:X:XtX:X-XOXOX>X:X=Xf.=X:X:XeX:X>X>X-XXX>XtXeX>X1.=X1X=X| h p t.t.O.= o.= = h OXXXXX.XOXOXXXOXOX1.OX1.OXXXOXu.u.p.X...d k d X.q.M.6 * @ , < 2 9 @ e H d k &.Y = = @.I 9 6 @ $ @ % + $ . . % y 4 O 5 D q X &.3Xp.i.@.= i x 4.i X u.<X*X+Xt.Y = 0 A ( @ @ X @ 8 S n n , ; t.u.t.y.q.0 O , , < 2 > > n H N , , O @ @ O n S.< > > > > > @ X . m.Y.6.&.C 7 , b Z A C d s j s F s 0 k d s F F q s q 0 3 > > > 3 3 > > O                                                                                                       ",
"                                                                                                                                                          i.oXXX;X;X;X;X:X:X:X:X:.:.=X-XeXeXeX>XXXXX.XXX;X;X.X>XeXtXeX-X1..X.X.XXX>X>X.X1..X.Xh h p p h  .y.} q.= p ;.a.OXOX.XOXOX2.OX1.1.,.1.OXOX.X1.2.y.p.q.q ; = x q.&.= $ @ , 2 , < w H 9 0 M.*.= f @.#.d . 9 , $ @ * + . . * m.`.w # F W.8.. g i.i.3.z a z 3X9Xx  .=X1X+Xh @.k ; 0 m b.. I $.&.&.M., 7 2 ; p.s.t.p.p.d O > , 7 1 1 1 n N w , > @ , @ @ 7 , > O O < O . 6 X 6 U $.a a , 8 b n b s A d Y j s s 0 d e k F Y F 9 a e 9 < O > > 3 3 > > > >                                                                                                     ",
"                                                                                                                                                      s.;.<XtX1X:X:X>X:X:XtXtX;X2.1.2..X1XeX-X;X-X+.1.XX>X:X=X:XtXtX:X.X1.<.O.>.1..X.X.X>.XX;X1.oXp  .|  .OX} p ..} h O.OX2.>.u.,. .t.O.O.} ,.oX,.>.>.u.u.q.I q * ; z 4.@.; X @ # @ @ 9 9 e 0 Y q.*.f q.p.q.d a 0 # , @ 6 w o X R v.C @ ; $X4Xp.= i ..h i = & z s.=Xu.oX=X<Xs.: q.i X & * a dX@.@.X.@.@.s 6 8 d T.+XoXs.@XY O , 1 2 7 7 1 b 1 + > < , @ @ @ > 7 > 2 3 @ X 8 &.X * F U 8 * 8 s C e * 8 A F I k a k a q * F F G C 6 0 w < > > > > 3 < 3 > O < ,                                                                                                   ",
"                                                                                                                                                    +XoXy.XX;X;X;XtX:X:X;X;X;X;XXX<.>.a..X2.>.>..X>.>..X>X:X;X:XtXtX;X .>.h :.oX:X>XXX-XeX:X-X;XeXu.>.+.OXoXp p } #.4.t.u.,.O.>.} p } p h ..} X. .:. .<.h x z & * X Y @.@.; X o @ + * s o * ( R k *.#.q.=.z = A a 6 @ @ ~ J 8 J 0.M.0 o @.E.+X#Xp.i.+XE.z z t.<.oXXX=X-X=X2.<.p X.i = = = i E.i.t.4.t.w.$.e w e *.*.h z d 0 , , 1 7 7 b 1 7 2 > O , , @ @ 2 1 , O O X X a U W.s D G.x.a s ( Q s C , 0 J z d I a 0 F s s C 9 q 0 8 6 < * < > > > 3 + > > > > @                                                                                                   ",
"                                                                                                                                                X i p.3X} h 1.XX;X:X:X;X;X;X>X1X=Xh i :.:XtX:X;XeX;X.X;X>XeX:XyXtX>X.X.X-X-X;XeX;X.X .;X:XeX>X;XXXXX>.XX*X .= =.t.u.+.t.t.+.h } } h @.p X.h @.h h } :.>.| h p : i = i z @.; $ @ + 6 ^ 6.R R Y = = #.p.4...Y d Y J = X 8 *.f i P.6.0 * &.T.p.s.oXoXE.oXo.= y.oXXX-X;X=X=X.X2.| h i h i = i | y.p.t.p.s.E.*.* @ , O O @ @ X @ , 2 1 2 v 2 1 2 2 > @ O , @ @ , < , O O a &.q.M.Y.5.6 < < w C J e A e r A F ^ 6.U F 0 e 0 w w 6 # 9 # @ # # < O > > 3 3 > O O + U @.                                                                                                ",
"                                                                                                                                              i i i h ;.h h =X-X;X;X.X1.;X:X>XXXf.h & <.:X:X:X;X;X;X.X-X:XtXtX>XtXtX:X:X>X;XOX-XeX>X1.>XeXtX>X>X=XXX1.oX,.| O.p.u.,.} o.t.} | p.#X..h X h p i f h X.oXoXu.p.@.z i = z ..#.M.o . O 6 k &.$.$.s ; Y Q.E.p.@.$.@.*.*.a = z.*.f #.4.C.X 8 $X#X,.p.oX*XoX0Xy.,.oX-X-X=XXX.X.X.X.X.X<X1.oXE.u.a.oX+X| h h p h Y a . @ , , v v 2 2 2 1 1 2 2 7 1 1 < , X X X X X X @ O 3 &.0.@.i @.k s 4 > 3 4 w 8 0 F < C Q a A U V.0 o < 9 r 6 w o & & X X X + > > > 3 3 > > , e &.0.                                                                                                ",
"                                                                                                                                            p h 3.o.X.X.h s.1X:X;X;X;X.X2.-XyX1XrXoX| oX:XeX:X.X;X;X=X:XeXtXtX:XtXtX:X:X:XXX+.>XtX;X+.eXtX>X.XOXXX>.>.+.,.+.o.s.u.O.f @.#...X.t.4.f = X z z @.x @.X.4.,.o.4.Y ..z *.*.P.#.Y a 0 a Y.Y.M.G Y = d *.q.#...a f ; f x Y Y z g #.4.p.&.X X q.+Xy.;.p.u.t.oXoX<.>..X.XXX.X.X.X.X.X=X-XOXs.u.a.u.u.y.h . = = i.L.T.X @ , v v b 7 2 7 1 2 2 2 2 6 6 < , X = #.p.q.X * O < c.w.h X.4.a 0 + O 3 b @ 6 x.^ M C H 0 $ r Z 8 @ 8 q C < @ o & X.} X # < 5 > 3 3 < < 5 1 A c.C.P.                                                                                              ",
"                                                                                                                                          ;.: i ,.y.h h h | .X;X:X:X:X:X-X.XXX-X1X1.| <X>X:X=Xf.>..X;X.X;X;X;X;X;X:XeX:XtX.XOX>XeX+.>.>X;X1.O.p >.p  .o.+.,.,.OX,...i @...#.q.t.z z f d i.q.@.@.h @.s.4.h @.@.Y Y Y i Y *.F Y s *.*.k d = & X X @.q.z f i & ; ; *.z d z f ..@XP.Y ; k #.s.E.X.t.} f } oXoX1..XXX2. .1.1..XXXXX1.} } :. .1.,. .} 4.3.X.T.*.l 8 8 b b b b b 7 7 1 2 2 2 < , 2 , , a q.p.+XE.= o @ . ^ q.z P.w.6.n.r 2 3 < O < k.F @ 6 6 < . , < , @ 6 8 e 6 * : 2XAXAX& * w N 2 < 2 3 5 7 , n c.0.&.                                                                                              ",
"                                                                                                                                      +Xa.>.:.>.oX2.2.=X-X.X;X;X:X:X:XyXyX>X1X:X-X=Xf.-X;X;X1.2.-X:XtX;X-XyXyXtX:XtX:X:XtX>XXXtX-X1..X.X>.XX.X+.OXO.u. .,.OXu.oXs.X.a f d k z g z I z z 4.i.@.k a z p.x = 0 a s s 9 . . - 9 j C Q ! Y d d z z @.p.4.z #.&...#.J s X X d = E.T.T.8 s Y.q.p.p.p } #...t.oXu.1.XX.X1.1..X.X.XXX1.+.1. .u.>.,. .O.o.s.,.o.!.*.e 8 Z S b B S m m 7 7 5 b w , @ 8 @ @ d q.p.u.p.q.* , 5 U @.4.i.@.k 0 9 5 3 1 > M G.e O O O O . > + O @ + @ < 6 6 ; s.rXrX& + 3 2 3 2 5 2 2 2 < r s k U                                                                                               ",
"                                                                                                                                    :.OX=X.X.X1.=X1XyXeX;X:X;X;X;X;XyXtXyXXX;X;X;X.X2.=X1X2.yXeXeXtXtX;XtXtXtXyXeX:X:XtXeX-X>X:X;X>X1X.X1.1XeXOX>.u.>.+.y.>.,.u.4.h q ; ; a k a d k a d q.q.l ; X l i.x X # 9 e w w < 4 y n V G U Y f a z *.4.@.4.X.q.q.i.P.q.f @ X Y g #.p E.0.9 6 I.i.z p #.T.p.f =.t.,.OXOXOX .OXOXXX.X.X2.*XoXOX+.O.} O.O.t.,Xt.i @.k @ 7 8 m 8 8 v 8 , 8 8 , 2 8 8 f ! A = f i p } t.X.& < 9 0 8.q.&.= X # < < + 3 3 H ) 7 O , , 9 < 6 < e 6 @ @ # , - d ..1.<XX @ < 3 > 3 2 2 2 2 # e 9 G ~ C                                                                                             ",
"                                                                                                                                  a.oX-X-X-X2.2..X-X:X;X;X;X:X;X:X:XtXtXyX;X;X>X;X:X1X2.XXf.:XtXtXeXtX;X1XtXtXtXeXtX:XtXXX-XeX.X.XXXOX} | .X1.>.O. .| o.+.;.t.X.h ; ; - 0 q s 0 a a ; a E $.9 - . : _.g # < < 6 2 9 < 9 r 9 5.$.*.z @.4.t.i.q.#.z @.&.z z c./.* X Y q.@.*.X.$X; 6 . m...f #.=.t.#.p =.4.u.XX1.OX>.OXXXOXOXOXXXOX1.o.p } =.} } p...g = * 8 o 2 2 , b m 8 8 8 , , , , w A &X0Xq.= X i | f t.@.o + + @ Y *.M.* # < > > 3 < 7 3 > 9 2 1 7 < * k X 9 * o # 6 @ * f ..,.#XX , 3 3 3 < 3 3 2 7 # e r U k.d                                                                                             ",
"                                                                                                                                3.u.=X-X-X>X=X2.a.a.1XyX;X;X:X:XtXtXtXyX1X1.;X;X;X:X=X2.1.=X;XeXtXtXtXtXtXtXtXtXeX:X;X;XO.XXtX=X=XXX>.>.:.oXu.O.,.o.} | O.,.X.z ; q t - j a 0 ; ; q - q R R r 2 + r N.q M w 6 < @ 3 + # t P L.&.Y #.P.i.p.q...#.@.k a s F W.U - z #.z } p.*.I 0 9 5 ).*.z q...*.p.} @.4.oX#X+.,. .OX#XOXXX1.OX+.=.} o.} h p f p d 0 9 w < 9 @ 8 8 X X = = = 8 = X : z p #X0X*Xt.oX3X0X+XX.#.. . @ # * Y l.* @ @ > > > + , O > > > 1 , * Y.Y f &.z k s + @ = f &.t.#X. @ , 2 1 1 < 3 6 7 < e U U m.e                                                                                             ",
"                                                                                                                              a i p.-X1X;X.X>.h h :.=XyXtXyX:X2.;X;X1X=X=X;X;X:X:XtX1X:.h =X;X:XtXtX:X:X:XyXtXyX:XyX:X1X1.XXKX<.>.,. .>.| ;. .} o. .o.,.u.4.p f = 0 o % * : & a q s # q / $.G 9 4 y v.- w w 9 < < + O r F E 5.R Y q.q.4.Y d s f ; s * * J $.I x i.4.h i.P.@.R # 2 9 S.F A *.#.#.&X..z @.M.=.=.=.p ..t.OXt.u.#.p ....t.#.= i d d * < % % 9 6 o q.+XoX<.,.*X0Xf p #X*X*X*X<X<XOXXX<X1X<X#X= i : & + . . @ * @ 8 w 4 > + + < O > > , 7 @ 0 q.4.#.X.q.Q.n.; 2 8 ..=.p.&Xa < 3 Z W A C e A A o 6 ( F %.- 6 9 # - + = o = >.oX2.1.<.<.a.oX=Xa.1.<.u.XX                                                ",
"                                                                                                                            X.X.g ,X=XtXeX1X=Xh g g g :.1XtX:X;X>X1X1XtX;X:XtX:XtXtX-X:.| =X:X:XtX:X2.:X2.=X=X.X=X1X.Xa. .,.OXO.} O.:.,XO.} =.} O.O.u.} +. .p = ; a f : i g E P.l j o j v.k K 8 5 t r # < + 5 2 + 9 # j R 6.&.K a = X ; a I F 0 X 9 6 A k l X.w.q.X.h w.w.k * < , 1 A d Y *.#.=.p.f f d z f f f f ..*.T.X.p f f z f #.h : a i ; X * o $ o 6 ; T.oXXXXXXX>XOXO.oX-X*X-X.X1.XXXX;XeXXX+.p X ..4.E ; o < < @ @ $ @ < < @ . 6 w O < < , 2 * @.p.t.p.s.T.q.o < * ....i i : * < Z 7 w 8 d &.F J C Y ; F ^ U & & a z i = i OXXXa. .>.>.-X1.=XXX>.1.>..X=X=X;XXX2.                                      ",
"                                                                                                                          <X<XrX,Xd.a.yXtX:X=Xh h g i f.;X:X:X:X:X:X:XeX;X:X:X;X;X-X=X>.=X1XtX:X;Xf.h 1.:.;X-X.X1.>. .>.} ,.t.} } ,.*X+.p f =.p  .y.p.p p ....} o.,.o.;.,.y.t.X.x ; $ j 0 a s * % t q $ 9 9 5 4 # s 0.3.w.0.q q - # X 6 6 e e J e 0 & d a 3.i.e.#.E z $XQ.; * # < , A 8 f z *.Y Y = 6 . @ X * ; f = a f f X ; d Y T.z p & q & $X6XE & & @ 8 8 X *XeX>X;XOX1.XX<X>X.X.X.X .-XXXeX>XOXXX+.} ,.u.u.+Xi 9 5 . o G q $ 9 9 ; n.n.* o @ > 3 . @.p.s.oXs.t.I $ @ , /.`.M.@.I f d a * 0 8 A Y U A H I = k I g = = p p p h ,.oX2.1. .<X.X<XO.1.=X2.|  .=X.X.X.X2.2.:.| eX.X                              ",
"                                                                                                                        >X;X>X;X:.| f.1X-XyX1XoX<XqXx <.2.;X:XtXtXtXtXyX:X:X;X:X>X1X<X2.2.tX:X=X2.f.2.eX:X;X-X:.h | | u.p o.#XO.o.u.,.p p = p } o.<.o.} } ..y.u.t. .,.,.<.OX<.| g : & ; X & 0 ; $ : z ; k L + < * I @X!.4.@.: * $ @ @ @ @ 8 S.s = 8 = g p q.y.4.3.k = j U.F M w 2 9 [.! f A M.z.&.w 7 @ @ * + * * 0 9 6 0 6 X f = = = = = o W.AX9XbXjXq.X 8 @ X OX>X>X>X>X<X1X<X<XXX-XXX2.=X<XOX+.+.OXO.<X,.} u.*Xh . O . q ^ q . # s ^ R (.6.F + + > . g E.s.+X+XE.I # > @ 8 e - . Y Y.Q.d k s A Y %.A * - g p ;.:.+.O.u.<X*XoX<.<X-X.Xa.oXXXXX1..X.X.X1. .| OX=X.X.X.X>.XX:.=X;X<Xa.                          ",
"                                                                                                                      .X.X;X:X:X:.=XyX=X2.-XeXqXrXs.c <.;X:X:X:X:XtXtX-X2.f.2.=X=X=X2.f.2.2.2.>.2.;X;X;X;X1X-X-.g | oX<.,.u.o.O.,.u.O.} X. .p u.u.;.} p ..p =.| h O.>.1.,.,.+.;.X.& o & : ; a ; o x }.,XqX6X$ > + R W.#.@.3.. . o X @ + 0 F.! e X : 0.q.h t.a.t.I o @ r g.Z M 9 5 H Y z.Y *./.f A w 7 , @ @ < # 6 t e # , @ X X X X = = q & 8.vXzX0X0XzX9XY.# . *XeXeX>X>XrX<XOXOX<XeXXX= y.<.-XrX*XrXf o.u. .u.i.4.x z X a W.q $ 0 c.k F D.(.].+ , + # & E.p.s.E.w.q # @ , , @ $ . 0 &.*.R *.R Q Y H Z 8 i p.-X-X-X-XXXOX>.1..XOX2.OX2.i } | 1..X-X>.XX=X:.:.a.=X.X>X;X| a.:X;X1X=X<.X o t                     ",
"                                                                                                                  -X=X;X-X;X>XeXa.,XyX<X:.>.2. Xa.h | d.rX-XXX=X.X.XXX2.>.:.:.:.| :.OX<.<X>.>..X;X;X;X;X>X-X,Xh h +Xy.y.p.| #.p o.,.} X.o.} p p.o.} ..@.#.i ..h } O.,.,.,.+.;.o.X.= ; Y R z g : x 4XwX1XqX~.% + o J %Xq.@.0.C.Z.B.6.s o s C.F . * k P.#Xt.t.p.E.l % 9 w h.m 2 + 9 s d k ! D.&.8 < < , + @ # # < 4 9 5 @ < o & X @.@XY d = a g e.+X*X,X,X9XSX5.X rXrX>X=X=Xa.t.i p rXrX<X& g ;.rX<XoXt.p X.;.y.o.} o.4.f & s j 9 * e K s @ 8 H r # # < + - z g z i ; $ 4 @ # + < 2 + , m.F ..Y @.d A H H q = 1.-X;X>X;X>X>X-X>XXXXXoXOXoX} t.<XrX-XtX.X1.-X>.p 2.1..X;X:Xi .X;X>X=X2.1.u : u $                   ",
"                                                                                                                2.>.<X-XOXXX<X=X<.+X,Xi.:.y.a.a.<.h e.d.y.:.<.<.<.>. . .>.2.:.| } | :. .<.2.XX=X.X.X.XXX-X.X| h p @.T.h f p z h X.O.X.o.X.o.o.#.z f z &.R X i h z X.| o.o...X...f k z ..x E x h ;.1XeX1X1Xd.o + 8 K z.^ T T 5.8.z 0.j ^ %.^ 8 * @ @.R.E.E.oX,.0X; % 4 9 C w # - T E a ; = m , , + + , @ # # # % < 4 < > , * = : @.p p p h @.: zXqXqX0X<X<X9X@Xi KX<X-XOX<Xt.x g O.GX<X,.i R.i.r.g h ..z #.z X.t.O.t.u.#.a . * . # # @ # $ O + # < , , , @ X = X . $ $ 4 + + # + < @ @ ^ A d z l.* 8 M H W = oXOX>X>X;X>X-X=X,Xa.a.oXy.y.h ,.-X-X-X1..XO.oXoX>.XX=X.X;XXX>.XX;X;X.X=X=X:.g c x g h               ",
"                                                                                                              >.>.h :.>.1. .:.:.: i g h c -.<.y.| h h i.X.i h h | -.| a.,X<X2.,.u.u.:.p :.>.OX.X.X.X.X;Xa.f.i h i d i i i ; z } p ..h h ..z ..X.= = d f ; & = q p z ....f z i k a d k @...z g : } qX-X1X1X~.o . < 7 6 , @ 0 & & E 7.- U U.F * A 9 a : @.E.s.o.x ; o % + @ , s (.k k R X A , , X . o + @ # # # < < + O O # $ Q.E.p.#X3X0XqXqX3XJXqXqX0X0X0X*XjX| KX>XoXOX= = & g ..s.t.t.h ..& g o : @.X.R I d 4.s.t.O.#.; O O . + O @ + + + < > , , 3 < 2 4 # @ . + % 4 + o + + . O o # f = = * . @ 6 7 n = *XoX.XXX>.:.h g i i i X.h | :.a.a.1.OXu.u.}  .>.oXOX=XOX1.OX.X.X.X=X.X-X=X.Xs.a. Xd. Xs.d.          ",
"                                                                                                          >.>.1. .| } :. .>.| g i & : g h -.y.:.-.h u g z g a : i x X.t.,.>.a.1.,.XX=X:.| :.2.XX.X.XXX=X=XoXh : = = & & = z z @.i h z g f @.d a ; ; - & = ; : ; a i : a ; ; & & * a f a : : ; & i qX<X1XqXR.& + O 6 # 6 6 + # 9 F T $ + * 6 $ + o . . . i.p.i.4.x * $ # < 8 0 mXc.$.^ Y d o * X o o # # 9 9 T r 6 < # < w # : z i p +.oX0X0X0X9X3X0X0X3X0X&Xq.i p.=.o...z q.I a f #.i.y.h h i ;.;.y.#Xh x l = #.t.1.o...; + . # . @ $ + O + + . < # # % 4 9 < # # o + + o + % $ + + . * d *.@.- * . O , * = z O.} h i i : & & o X g l h h g h h h z h h X.| ;.;.;.;.;.:.<.u.2..X;X=X.X2.2.2..X=Xa.d.r.&         ",
"                                                                                                          >.+. .:.} h oX>.,.| ..t.3.l g g 4.-.| ..g ; q q ; q 0 a f h w.,.:.y.u.u.OXoX,.p o.a.2.OXXXXXXXoX:.g X.h g d.y.o.| p i = g i = a q ; ; = - = & & * = - * * & = - % o o X o o & = o & ; = X.s.d.@X& . 9 < 9 < + + # % % # % . $ $ + . $ + . + . i.4.X.3.q.: & 8 * 8 F %XS.F.~ r X %._.F.c.a ; % # K s w q w s M r % k w.@X+X*X<X<X0X#X#Xs.p.p.t.4.i...& = X f f : g i g @.w.4.X.h d.oX#X,X+X&X4.l E & 4.p.t.o.@.; 4 + 6 9 * . . . . . . + . . o o % # # + . $ $ $ $ $ $ $ % o G %Xz f a @ * w 0 @ - ; ; l : & ; q j y q : g u l g x g l g g g g h h h g g p i h | ;.<.<.oX2.a..X2.>.1.1.:.g c . .       ",
"                                                                                                             .+.,.p | 2.1.>.:.;.i.q.' z g l o.X.x a j - - ; 9 - a a h #.X...o. .:.d.X.h h t.s.,.,.,.| t.;.i i X.u.oX,XXX*XoX4.X.Y = = = ; = * & = * & X ; * - - * * * # # % # - = * . . X o & o & ; l & ; . . < , 6 # $ # # # 9 q 4 $ # + + + % + O + . q.4.t.t.4.#.@.Y G # 0 g.gX(.uX< @ NX        %XU X 8 @ @ . @ . + $ o z !.E.+X+X+X*X*X#XoX#X#X#X#X+Xq.z z f z o.<.;.4.-.d.4.h h ,Xa.a.y.oXu.4.@.g ; z i 4.t.p.i a - * 6 0 ).W.; k 6.M.n.$.$.G s q s s 0 ; ; o % $ o o o o . $ % W.5XjX%X                          y y y & u : l x l g l g l l l l c l g a g ; : : g -.e.4.h x h :.:.f.>.:.:.| c % $ +     ",
"                                                                                                                <X| a.oXOXu.y.t.w.4.3.E           l a ; ; q ; y a g z h @.X.z h h h g g z p.t.X.} x h x X.i p h oXu.XXXXXXOXu...= X = a I F s 0 * ; * * j j D F s ; 0 0 ; - : q ; 5.B.m.U.W.(._.F.).^ 4 < . @ # # 9 * # - q r 9 t - % + + 9 t L ( ] `.U.i.t.t.p.y.p.i.q.I o o % g.V G.3 6               ! Q Q ~ ) k.            zXq.t.y.t.;.O.o...X.X.@.#.q.z @.= @.,X,X,X,X4X4X4Xw.x -.y.s.t.4...g & X - R k E.e.c % % o * 6 0 Y R ; & FXIXFX                                                                                                                          c 3.~.,Xd.i.f.y.;.;.-.f.f.              ",
"                                                                                                                  <X                              G - 9 q 5.Q._.W.W.W.$.z E I z l : a l z L.x z z z h X.4.= = d #.#.OXXXXXOXO.q.= * 6XSX                          %XE 0.~.$X2X$X!.vX                                                              LXLXFX@.4.t.u.y.t.t.#.z j / G t + < 9                                           X & = = a h f g g z z k s z Y = L.0X            i.x x 3.X.x h i i . ; d 0.@.@Xd.e.i & # * , 8 F I q . . sX                                                                                                                            l w.y.s.e.e.e.;.f.;.;.<.e.              ",
"                                                                                                                                                                      6.F 6.z _.k F j R 5.8.z a l z x g f f f I z X.u.a.OXs.} z f f                               _.g c x 4.e.w.w.                                                                    dX@.#.;.o.,.o.4.4.@.6XNX    9 q c.                                          . # o o * - ^ &._.%X5XhXgX                      Q.; & : : ; l k G G j E n.k 3.q.e.i.8.q # + 0 0 ; - k # ).                                                    6X3X6XsX                                                                k 3.-.r.x -.-.3.e.e.e.y.4.              ",
"                                                                                                                                                                        a 5.* %.dX          ) U &.8.x : a a k R i l g i g p i z F a                               Q.l x E w.P.E.0.                                                                      4.;.4.4.#.o.t.t.*.7X                                                                                                      U - A l A.9.] ] j y j q a q o 2X!.N.I o . o s I a % a                                             5XW.6XsXsXsXsX%X%X$X_.L.                                                          C.k ' 3.x c c x -.-.-.-.E.-.              ",
"                                                                                                                                                                        0 U j %.                  dX_.I k k k a - q l q ; ; ; E ^ f                                 q I E $.3.Z.                                                                        q.4.4.4.4.4.4.e.q.                                                                                                          . $ & o % $ $ $ $ . X X . o E                                   &.f                         d &XY.cX_.6XsX6X6X6X6X%X&X2X                                                          T a k l a i g l E 3.e.q.e.8.              ",
"                                                                                                                                                                        ( c.F (.                    5X&.^ 0 s ; ; 0 - q a q D F A d                                                                                                                     w.4.t.4.4.4.t.4.0.                                                                                                                W.N./ / N.F.].5XaX                                      nXA A d                     k.. U.5X$X).dX6XsXsXsXsXsXsX        sX                                                  (.^ $.R j k k U T I I I T                 ",
"                                                                                                                                                                        D.U q                       aX^ U 0 s F s ~ U F k s 0 9 s                                                                                                                       P.t.4.4.4.3.4.4.M.                                                                                                                                                                        S.A z.l.                  Q ! X M.  $X$X6X6X6X6XsXlXdX        . q o -                                                                                         ",
"                                                                                                                                                                          G 9                       `.s s F                                                                                                                                             R.i.4.e.X.-.;.@.U.                                                                                                                                                                      VXh.8 l.[.A                 n.6.& I.    Q.2X%X7XdX              $ 9 o s .                                                                                       ",
"                                                                                                                                                                                                      U J 0                                                                                                                                               R.3.4.4.3.4.3.                                                                                                                                                                  fXfX^.z.S @ A S 8 C                 E &.        Q.$X5X                X o . - .                                                                                       ",
"                                                                                                                                                                                                      ! $.                                                                                                                                                3.@.3.3.E 3.E                                                                                                                                                                 iXVXnXnX! *., 8 8 A d                                                     r o . (.                                                                                      ",
"                                                                                                                                                                                                      s F                                                                                                                                                     W.!.N.N.                                                                                                                                                                    Y Y 8 = @ 7 @ @ . 8                                                                                                                                                   ",
"                                                                                                                                                                                                                                                                                                                                                                                                                                                                                                                                              `.`./.].aX'.                                                                                                                                                      ",
"                                                                                                                                                                                                                                                                                                                                                                                                                                                                                                                $.                                                                                                                                                                                              ",
"                                                                                                                                                                                                                                                                                                                                                                                                                                                                                                                %X                                                                                                                                                                                              ",
"                                                                                                                                                                                                                                                                                                                                                                                                                                                                                                                6X'.                                                  . k                               `.c.                                                                                                    ",
"                                                                                                                                                                                                                                                                                                                                                                                                                                                                                                                  W.                                                  ; G k                           * T % U                                                                                                   ",
"                                                                                                                                                                                                                                                                                                                                                                                                                                                                                                                  I.                                                  & ; E                           s x.t $                                                                                                   ",
"                                                                                                                                                                                                                                                                                                                                                                                                                                                                                                                                                                        E                             ^ / P %                                                                                                   ",
"                                                                                                                                                                                                                                                                                                                                                                                                                                                                                                                                                                                                      j r ~                                                                                                     ",
"                                                                                                                                                                                                                                                                                                                                                                                                                                                                                                                                                                                                        D.                                                                                                      ",
"                                                                                                                                                                                                                                                                                                                                                                                                                                                                                                                                                                                                                                                                                                                ",
"                                                                                                                                                      aX                    %X_.`._.M.                                                                                                                                                                                                                                                                                                                                                                                                                                                                                                                          ",
"                                                                                                                                                    fX6X5X                sX).).G.).n.                                                                                                                                                                                                                                                                                                                                                                                                                                                                                                                          ",
"                                                                                                                                                      sX                  fX'.).Y.Y.U.                                                                                                                                                                                                                                                                                                                                                                                                                                                                                                                          ",
"                                                                                                                                                                            W.D.C.C.                                                                                                                                                                                                                                                                                                                                                                                                                                                                                                                            "
};
