/* XPM */
static char *out[] = {
/* columns rows colors chars-per-pixel */
"88 274 256 2 ",
"   c None",
".  c #020304",
"X  c #0A0405",
"o  c #050A04",
"O  c #0B0B03",
"+  c #03030B",
"@  c #0A040B",
"#  c #050A0C",
"$  c #0A0B0C",
"%  c #120C0D",
"&  c #160509",
"*  c #0C120D",
"=  c #081507",
"-  c #13130C",
";  c #17180A",
":  c #030312",
">  c #0A0511",
",  c #050B13",
"<  c #0B0C13",
"1  c #03041A",
"2  c #050B1B",
"3  c #0B0D1A",
"4  c #0A061B",
"5  c #120C13",
"6  c #1C0B13",
"7  c #150713",
"8  c #0C1213",
"9  c #0D131A",
"0  c #091717",
"q  c #131414",
"w  c #141A14",
"e  c #1B1C14",
"r  c #13151B",
"t  c #141A1C",
"y  c #1B1C1C",
"u  c #1A1517",
"i  c #25080A",
"p  c #250C14",
"a  c #251718",
"s  c #381618",
"d  c #320F0E",
"f  c #0B251A",
"g  c #1C221D",
"h  c #172419",
"j  c #14300F",
"k  c #23241C",
"l  c #282819",
"z  c #2B341B",
"x  c #36381C",
"c  c #2C2B0F",
"v  c #050723",
"b  c #0B1622",
"n  c #151C22",
"m  c #1B1D23",
"M  c #161926",
"N  c #131530",
"B  c #391C22",
"V  c #251C22",
"C  c #1C2324",
"Z  c #1C242B",
"A  c #172827",
"S  c #193628",
"D  c #182D2D",
"F  c #222424",
"G  c #242A24",
"H  c #2A2B24",
"J  c #252B2B",
"K  c #2A2C2C",
"L  c #252529",
"P  c #352926",
"I  c #2C332C",
"U  c #273529",
"Y  c #363829",
"T  c #272D32",
"R  c #2C3333",
"E  c #293737",
"W  c #323533",
"Q  c #343A34",
"!  c #3A3C34",
"~  c #343B3B",
"^  c #3A3D3B",
"/  c #343539",
"(  c #332E33",
")  c #45191B",
"_  c #4C1213",
"`  c #4B281C",
"'  c #471D23",
"]  c #541D23",
"[  c #492525",
"{  c #552728",
"}  c #4B3632",
"|  c #6B312F",
" . c #61201D",
".. c #374815",
"X. c #1A4627",
"o. c #1D5427",
"O. c #39442B",
"+. c #294636",
"@. c #3C4233",
"#. c #3C433C",
"$. c #374739",
"%. c #2C5531",
"&. c #366838",
"*. c #2E6E34",
"=. c #144D1C",
"-. c #4A4C16",
";. c #46482A",
":. c #565929",
">. c #42443C",
",. c #444B3C",
"<. c #474936",
"1. c #4C533C",
"2. c #495637",
"3. c #555839",
"4. c #4F512E",
"5. c #6A5336",
"6. c #5A6539",
"7. c #4C7137",
"8. c #67642B",
"9. c #676837",
"0. c #787638",
"q. c #6E7136",
"w. c #5A6717",
"e. c #363C44",
"r. c #2B3742",
"t. c #533D42",
"y. c #3C4344",
"u. c #394747",
"i. c #374C47",
"p. c #3D7242",
"a. c #444B44",
"s. c #474A47",
"d. c #4C534C",
"f. c #495646",
"g. c #565947",
"h. c #4B5656",
"j. c #545B53",
"k. c #565956",
"l. c #4B4C4F",
"z. c #6D5048",
"x. c #486746",
"c. c #5B6448",
"v. c #5A6658",
"b. c #50754C",
"n. c #666849",
"m. c #697546",
"M. c #767748",
"N. c #666957",
"B. c #6A7558",
"V. c #767A59",
"C. c #746D4C",
"Z. c #535A64",
"A. c #5C6863",
"S. c #5B6D6E",
"D. c #656B66",
"F. c #697567",
"G. c #767A67",
"H. c #6B7575",
"J. c #767A76",
"K. c #6F6D6C",
"L. c #823D38",
"P. c #84653B",
"I. c #894A45",
"U. c #92544F",
"Y. c #857A4C",
"T. c #8D7367",
"R. c #813F41",
"E. c #768537",
"W. c #5D8932",
"Q. c #3A8345",
"!. c #588548",
"~. c #568B4D",
"^. c #798548",
"/. c #7A8459",
"(. c #6C8D4F",
"). c #798669",
"_. c #7A8776",
"`. c #748E6E",
"'. c #6B9E5B",
"]. c #868D38",
"[. c #888848",
"{. c #868959",
"}. c #8A9359",
"|. c #959959",
" X c #90944D",
".X c #96A654",
"XX c #858A69",
"oX c #889569",
"OX c #949867",
"+X c #858976",
"@X c #899777",
"#X c #959978",
"$X c #938C6E",
"%X c #98A478",
"&X c #92A66D",
"*X c #A6AA79",
"=X c #ACB070",
"-X c #A49F65",
";X c #B7C870",
":X c #C6D275",
">X c #747B83",
",X c #7C8587",
"<X c #7A8B8F",
"1X c #7D9AAA",
"2X c #848A86",
"3X c #899688",
"4X c #959987",
"5X c #8B9594",
"6X c #959A97",
"7X c #888B90",
"8X c #98A586",
"9X c #99A697",
"0X c #8EA68D",
"qX c #A6A989",
"wX c #A7A997",
"eX c #AAB499",
"rX c #B5B898",
"tX c #B1B58A",
"yX c #99AAA6",
"uX c #A5AAA6",
"iX c #AAB4A7",
"pX c #B6BAA7",
"aX c #B7BBB7",
"sX c #AAB4B3",
"dX c #9A9B9B",
"fX c #C3BCAC",
"gX c #C1BC9D",
"hX c #B9C594",
"jX c #B9C4A8",
"kX c #BAC5B9",
"lX c #B6CDAD",
"zX c #C7CB94",
"xX c #C6C7A8",
"cX c #C6C8B9",
"vX c #D4D7B9",
"bX c #CDD4B1",
"nX c #DEEBAD",
"mX c #ADB8C7",
"MX c #BBC7C7",
"NX c #C5CAC7",
"BX c #D7D9C6",
"VX c #D8DBD6",
"CX c #CAD4CC",
"ZX c #DBE6D6",
"AX c #D8E5CA",
"SX c #E6E7C8",
"DX c #E7E9D8",
"FX c #F2F3D7",
"GX c #DAE4E5",
"HX c #E7EBE6",
"JX c #EBF4E6",
"KX c #F7F9E9",
"LX c #F8FCF5",
"PX c #EDF0F3",
"IX c #DCDDD9",
"UX c #C3BDCA",
/* pixels */
"                                                                                                                                                                                ",
"                                                                  2X2X_.2X_.2X_.J.J.F.N.k.k.k.                                                                                  ",
"                                                                e I G F y r < X + @ > 7 $ 5 5 r y F                                                                             ",
"                                                                I W $.Q K V u V q 6 7 7 5 u y a u <                                                                             ",
"                                                              `.@.I 3Xg.cXCXHXIXNXfXaXK.} ( >.L g C                                                                             ",
"                                                              v.O.c.wXg.DXKXKXPXJXVXVXfX7Xs.l.! F t ~ ,Xd.#.                                                                    ",
"                                                            3Xi.$._.iXN.KXKXLXKXHXKXKXIXG.s.d.! g y m m w J J                                                                   ",
"                                                          5X0Xf.v.3XxX4XBXcXpXdX+XF.N.N.g.g.a.#.I g s.C J J Q                                                                   ",
"                                                      ).MXkXsXv._.9XwX).G.v.v.v.N.c.v.j.d.f.a.#.W F R L F W ,.6X                                                                ",
"                                                      w A.yX9XF.F.G.B.n.c.c.f.f.x.g.g.f.2.a.#.! Q C L T y k ! G.                                                                ",
"                                                      Q `._.).B.n.B.v.c.g.f.f.f.f.f.f.,.,.a.#.^ ^ F m J y F I 4XpX                                                              ",
"                                                    H U $.c.c.g.c.g.g.1.1.2.$.#.$.<.,.$.@.#.! Q Q J C L r F ! 3.4XXX                                                            ",
"                                                  3Xg I >.g.3.g.1.1.,.<.2.@.@.O.O.O.@.@.@.! @.Q Q F m L r C H P P x 1.                                                          ",
"                                                    k #.f.f.,.1.1.<.2.<.$.@.O.Y Y Y Y ! Y Q ! ! W C m L u m / >.c ; c x                                                         ",
"                                                    U 1.c.a.f.f.a.,.,.@.<.@.,.,.@.! @.@.@.@.#.W ! L m L m m ^ d.l a a }                                                         ",
"                                                  4Xh Y f.#.} e.#.,.y.a.a.a.a.,.$.,.>.>.#.@.^ W / L m m V V / >.P B a P g.                                                      ",
"                        5X,X,X2X_.2X_.J.K.B.N.j.k.k.H >.a.#.a.s.l.s.l.l.k.s.d.s.} ! ^ ! } / / K K L V r m m ( } W k a c ;.$XOXOXXXXXoXXXXXN.g.Q k d.                            ",
"            9 ,XE C 8 t g C C k g H k u ; ; ; h e F e a k k a - < $ < r & O & O = - - u u u V P ( V y u m 6 ( ( Q a a l ` #XoXXX{./.M.;.l H H H < ^ 2XH.e.e ;                   ",
"          E + 2 + @ @ V H P P H z Y g.n.9.C.c.3.k.T.} $X+XXXV.G.T._.T.2XXX$X$XV.G.c.n.c.c.f.g.<.P X $ . X O a k k y a a l n.V./.M.m.3.O $ 5 V ^ k.l.( u $ O -                   ",
"          S., 8 - e x +X#X+XT.$XC.;.Y.$XXXT.C.$X$X$Xn.$X{.T.Y.C.XXY.Y.C.C.C.Y.Y.{.M.{.#X8X%X*X#XG.N.3.N.g.g.4.N.+X#X#X4X4X$XXX/.[.}.{.a.K L s.a a y % 7 6 O &                   ",
"          1XD E #XOX{.OX=X=X*X}.Y.c C.C.Y.C.9.Y.{.-X:.|. X XY.Y.|.-XOX-X-X-X-X8.{.5.0.M.C.9.9.9.9.C.n.9.C.C.M.M.$X$XOX$XOX-XOX[.[. X|.G.Y a r + X X & X X X (                   ",
"        1XMXmXkXbX=X|..X=X=X-X[.0.-.9.9.6.9.:.T.$X-X5.-X-X X-X X XY.Y.0.].P.Y.P.Y.|.$X|.|.-X|.T.Y.Y.M.M.M.q.Y.{.|.|.[. X X[.[.[. X[.OX{.;.e a.T.NXVXsXz.6 X ! G.N.              ",
"      f X.mXmXsXhX;X|.[.:X:X-X[.9.4.B./.:.:.-.9.[.Y.-.Y.P.0.8.8.w.5.8.9.5.P.8.0.8.0.9.9.5.P.q.0.M.C.M.M.M.q.M.{.|.{. X[.[.[.[.[.[.0.Y.3.P H _.4XHXBXBXfXqX& y X o               ",
"      0 b MXsX`.}. X[.].tX=X X0.8.-.C.{.:.:.} 8.Y.Y.-.8.8.0.0.0.P.0.8.9.0.q.8.5.8.5.8.8.8.:.-.w.-.-.-.` ` -.-.-.q.P.0.0.Y.Y.[.Y.Y.M.V.4.Y H.2X} gXBXfXtX$X( L . @ .             ",
"    # 9 = 1XyX`.oX0.:...w.q.7.:.4.c 2.9.-.8.-.8.^.M.8.9.8.q.q.q.0.0.Y.M.0.0.q.0.P.].].0.P.E.P.E.P.8.8.8.5.-.-.-.0.[. XY.P.Y.0.].M.M.C.} H a.K.- c xXxX*XT.<.H 5 # .             ",
"    C r f 1XyX`.'.M.7...%.q.^.q.9.3.C.^.0.w.:.8.[.q.-.4.-.5.:.8.8.8.8.8.9.0.0.0.].].].0.].w.P.P.P.8.q.0.P.8.w.P.0.Y. X].P.0.0.q.0.M.:.<.O k H % ; xXzXOXq.k.y q + X             ",
"    * r f MXyX'.}.^...j (. X X].8.q.q.0.0.8.w.q.Y.Y.M.{.gXxXbXSXSXSXSXSXFXSXSXSXFXnXSXnXnX:X:X=X].-X[.P.8.0.Y.P.[.0.P.8.w.w.0.M.M.0.:.1.; k.K.6 } vXxXOXC.N.u < X X             ",
"    * y S yXyX&XoXE...j E.]. XP.8.8.q.Y.].].P.0.8.%X3.$XFXFXFXDXDXDXFXFXFXFXFXFXFXSXFXFXnXnXnX:X=X;XzXbXnXqXxX[.|.P.].].8.Y. X[.Y.M.8.3.; N.g.P } cXeX{.9.N.% 5 # .             ",
"    # w * MXiX0XoX'.w.].]..X.XY.8.q.8.P.]. X[.}.zXvX<.z.KXJXHXDXFXHXHXDXDXDXDXDXDXSXSXSXvXxXbXT.} #XXXcXvXgX4.=X X0.w.[.|. X X].Y.^.9.<.z V.$XXXT.pXqX/.n.N.; & $ .             ",
"    $ y 0 MXiX<X'.=XE.]. X.X.XY.8.8.0.P.0.0.8.*XnXDX} P KXPXPXHXPXHXHXPXKXPXPXKXLXPXKXKXKXKXLXIX;.rXBXDXDXVXC.Y.:X0.` [. X X X[.].].q.-.4.V.M.V.G.3X8XXXg.N.; @ . .             ",
"    q y = MX5Xb.B.(.q. X.X.X-X X8.Y.-XgXtXm.AXSXKXJXFXqXfXVXHXPXHXGXGXGXNXaXsXdX5X7X7X,X>X>XZ.k.sXJXLXDXVXuXC.vX=XT.; 0.].]. X-X.X[.^.:.9.:.n.M.3.; g.n.n.N.- X X .             ",
"    u F 8 MX9X`.`.tX}.]. X.X-X].5.$X*X$X%X3.cXKXDXJXJXDXfX} : M v 7 1 1 1 : : > : 1 v v 4 4 v m IXLXKXcXfXfX; gXzXgX; 9.8.].P.].0..X}.n.n.m.[.OXM.B.G.+X+XK.e @ X .             ",
"    t a S MXyX`.=XzX.X]. X XOXm.3.T.5.3.3.k.T.DXDXDXDXFXJXHX< , > 4 : : : : : : : : + : : 1 3 2 H.,XsXpXBXCX7 G.gXxXc x M.q.q.0.q.|.[.Y c 9.^.XXOXoXeXwX+XK.a . @ .             ",
"    w u f MX0X`./..XP.].].].-X6.K.#XK.T.C.2XuXBXVXLXLXDXJXHX9 + : : + + : : : : : > + + + + + + + J sXZXIXHXq k.4XBXz.4.M.:.q./.OXY.6.c Y c m.OX{.{.qXfXwXN.a . @ O             ",
"    q u 8 sXyX`.oX.X X.X:X.XzXXXeXuXdX$XqXBXDXK.F.NXuXJ.f.r + + + : : : : > : > + + + + + @ + + + . u wXpXUXz.N.$XvXgXV.tX; O ; N.C.x ;.C.m.^.OXm.:.6.N.G.N.e @ @ o             ",
"    * n 0 sXyX%XoX}.].-XzXnXSXAXZXP z.4XfXFXDXe 0 u $ . X . . + @ + : : : : : + @ + + + . X . + + + . . . X HXwXfXvXvX-Xc . % . - c C.3.V.{.M.*X^.n.m.V.G.G.e @ $ .             ",
"    w ^ A sX0X@X/.}.E.E.0.^.zXV.K.HXNXcXDXLXNX< . . . . . . + + + + + : : : + + + + + + + . . . . . + . . . HXLXT.vXvXtXc . * O - N.c & ;.;.6.OX&X{.^.B.V.G.; % @ .             ",
"    y F A yXyX@X}.}.^.].8.M.xXH 7XLXGXHXJXPXaX% # . @ @ + @ + @ + + + + + + + + + + + + + . . . . . . + . . K.g.l.#XxXtX*Xe k q - $Xc ; x ;.4.OXhX&XoXoXV.K.% @ $ o             ",
"    % q = <X0X0X/.}.[.0.[.[.bXIXl.PXHXHXPXHXk.+ . + @ + @ + @ . + + @ : @ : : + + + . + + . . . . . + . + + + X X a wX#X*XOXc o O oXc.c c P O :.}.&XxX#XG.G.u $ O .             ",
"    X u h yX<X@X/.{.E.0.[.Y.vXDXl.m MXHXVXdXu . . + @ + + + + @ @ + : + + + + + + + + + + + + + + . + + + + + X . & ; tX*XtXV.x eXAXeX4.i ; O ..^./.(.C.B.D.% O @ o             ",
"    X ( u yX<X@X{.{.0.8.q.8.fXfXV > H.ZX6Xr # + @ + @ + @ + @ + + @ + + + + + + + + @ > @ + + + + . + + + X + X X . O x qXOXM.hXSXBXY Y . X . c m.6.6.m.n.N.q $ $ .             ",
"    % H * 9X0XoX{.}.M.Y.8.9.xXuXJ.r r sXJ # + . . + + + + @ + + + + > + + + @ + > @ @ @ @ @ @ @ @ @ . @ @ + X X X X X X #XvXtXrX#Xz.. O . . . O.c.z 2.c.g.k.% O O . a.          ",
"    $ C Z 0X`.@X{.}.M.0.;.*XvXfXaX@ @ u # . . + + + + @ + + + @ + + + + + > > + @ @ > > 7 @ > & @ @ @ @ 7 @ & % @ @ 5 . ; hXqXOXqXN.. O . + O Y n.;.f.2.1.j.q % $ . a.          ",
"    X a J 0X0X&XXX{.M.M.9.%XvXDXDXD.5 @ @ + . @ X + + + + @ @ + @ @ > + > + > > @ 7 7 > @ 7 @ @ @ > > 5 5 @ @ @ @ @ @ @ * qXjX*X#Xg.. $ . . - a <.@.1.f.2.,.$ X q . d.          ",
"    @ q g 0X<XoX/.}.9.0.9.$XSXLXDXJ.. # . + . + + + + + + + + @ + > @ > @ : > @ @ 7 7 7 7 > > > @ & @ > > @ > > > @ + 5 o ; oXtXtXJ.. $ @ @ k e k @.1.,.<.<.w X $ . a.          ",
"    $ u J 0X<X&X{.OX6.-.9.*XFXKXcXQ . + # + @ + @ + @ + + @ + + + > > @ > > > > > 7 7 7 7 & & > > @ 7 7 > @ @ > @ @ @ < . o $XrX4XqXl - . . d.h O ; h ; = H u $ $ . a.          ",
"    $ y H 0X&XoX}.|.0.[.-XtXxXvXv.% . + > + : @ @ : > + + > > + @ @ @ @ 7 > @ > > @ 6 & & & 7 > @ + > @ + % 7 > . + . @ . . aXeX$XjXiXo . $ j.a O % z 1.,.! u O o . #.          ",
"    $ y I 0X@X&X[.OX5.*X{.tXSXDXpXW . + @ : > : : @ + @ + + + > . . @ @ & 7 6 7 > > 6 @ & p p > @ + + + @ @ @ @ @ % @ % l.! ! XXcXpXcX+Xu $ >.a O e <.,.j.d.F X X . a.          ",
"    $ q I 9X&X&X}./.4.; ; N.vXeX! u o + + + : @ : > + + . + + 7 @ > 4 s z.6 6 > : 4 7 p p t.] p @ > > > 5 ( V & > @ . 5 $ o O - 8XcXpXA.. . a e - - ,.g.f.k.P . @ o d.          ",
"    $ 5 G @XoXOX[.;.; = = c.ZXpXu . + + + : @ : @ + + @ . + + s.( > p z.T.B 6 7 7 7 ' t.| I.] ] & & @ > r 6 & 7 6 X @ . X X O O & eXcXK.@ $ k u e >.N.d.v.k.I @ @ o k.          ",
"    5 q G 0X&X}.&X/.; $ * H.ZX+X$ . + + @ + + + @ + X + + # + @ u 7 p { ] B ) d { t.z.z.U.U.I.L.p & > p @ & 6 B a @ X X o . . . . 9XaXT.. . . . X $ K a.a.d.( X # . D.          ",
"    < q z 8X`.&X}.OXc * 8 `.AXJ.# . + . . @ > @ @ @ + X X @ + @ . & p |  .] _ d t.| R.z.U.U.I.L.s p a 6 p p p a 6 & o . . . o o . 9XaX6X. . + + @ . r J ~ >.H X o . D.          ",
"    < q k %XoX.X}.+Xh = 0 ).AXS.# + # + @ @ + @ @ + @ X @ @ @ @ @ i } T. .L.| _ | z.R.R.U.U.I.I._ i [ B p B B B s & X o o o o o . 4XpXwX. . + + # . L R ~ a.( . # . F.          ",
"    < q k @XOX{.{.$Xl * = ).AXv.+ + . # X . @ @ @ X @ @ @ & @ > & p { R.U.L.U.L.I.| L.L.L.I.I.I.] i } ' p s B ( P X X X o . @ o . +XiXiX. . . + . . W I ~ f.W X X . F.          ",
"    q w k #XOX*X*XeXH * 0 `.AXF.o . . + . @ . @ @ a 7 & & 7 s B p '  .I.U.I.I.| |  .| | L.I.I.U.] d } ' ' ) ' ' d p X X . + # $ . J.aXpX. . o . o o W E ~ s.W . . . H.          ",
"    < q h #X%X%XOXqXH 8 = v.AXS.+ . . X X + + @ 7 p 7 & X & B B ' s { R.U.I.I.L._ |  .L.L.I.U.U. .) { ) ) s ' ' B V % @ X # @ $ X G.pXaX. . @ o X # / / ^ s.I X @ o H.          ",
"    8 w k %X#XoXXX#Xl * * x.AXF.# . . @ . + . @ 7 p p 7 @ & B { ' _ | R.U.U.I.| _  . .L.L.I.U.U.] _ ] ' ' { ] ' ' B 6 # # $ $ < + N.pXaXX X o . # o Q Q ^ s.W X X . H.          ",
"    8 w h #XOXOX$XqXP - 0 f.AXA.o + + X @ . . @ 7 p p 7 6 7 p d s _ | I.U.R.I. . .| L.L.U.U.U.U.| i ' ' ' ' ' ) ' V & @ . @ $ % o N.aXpXO . @ . o # / E ^ a.W . o . H.          ",
"    * $ ; oXoXOX$XqXP q 0 $.lXv.. . . X . . + @ 7 6 7 6 p 7 7 i d ) | | U.R.R.R. .|  .| L.U.U.L.| d ' ' s s B ' B p 7 X . X $ u O N.aXfX. X X o $ $ Q ~ ^ s.W o o . K.          ",
"    * - = #XOXOX#XqXP ; = p.CXv.. X + + + X X @ 7 6 p 7 p p p p d ] | z.|  .R.U.R.|  .] L. .L.R.] d ' B s s ' ' B p 7 X . $ $ u O N.pXpXO . X # $ < R ~ y.l.Q @ @ . F.          ",
"    y q ; qX&X#X$X8XY y w i.bXx.. . . . . + X @ 7 a 6 7 6 7 p d d s ` [ _ _ _ ] ] | ] ]  ._ ] | ] B s B p d s s p a 6 @ . X $ q O N.pXpXO . @ . # # G ~ y.s.W o # o K.          ",
"    g w w tX%XOX#XqXY w = $.MXh.. . X + @ @ . @ 7 6 6 p p B B p i i i s d _ | ] ] ] _ _ _ d | | { d ' s B ' ] ' s B 6 @ . . % e . V.eXwXO . X + # # C Q #.a.Q $ # . F.          ",
"    u w ; #X#XoXXX4X; 8 # h lXv.. . . . . @ X @ p 7 7 p ' B d ) ` & ) | z. .R.| | ] _ | ] | U.t.s d s ' ' ' [ { ' ' & . . # 5 w ; G.iXqXO . . . + . K ~ ^ a.I # . . N.          ",
"    u 8 ; 8XOXoX#XqXU u o +.cXwXO . + + + X X @ 6 p 6 p [ ' s | z.` { z.U.| |  . .| _ I.5.5.I.z.d p B ] { ' [ { ' [ i X + V u ; P J.rXqX. . H < $ . J ~ ! d.W $ # . D.          ",
"    w w - 8X&X#X#XeX<.H O 4.vXnXtX& X . + . X @ 6 7 & i ' { ) | | | 5.I.U.U.I. .L.| | I.I.I.z.{ i p B { } { ] { ' ' p X 6 u X k G.+XwXwXa O H V < @ C ~ $.s.Q O # . v.          ",
"    t y = #X&X@X#XqXz ; X x bXzX=X& . . o . X & p & 6 p p s s [ ) } | 5.L.I.5.`  . .{ | 5.{ i & & p s ' ) d s ' ) s p 6 a X & g.N.G.wXwXH . 5 # # + u W ~ a.Q # # . D.          ",
"    g 8 = 0X@X`.).@X- O . g.bX$XtXa . O . o . 6 p 6 i 6 p p & i i s s [ ) ` s ` d s a d i p & & & p s ) i ) ' ] ) ' s i a O Y 1.+X+XJ.N.e O @ $ < $ C #.#.y.Q $ # . A.          ",
"    G u = @X@X@X@X4XB.k % _.NX4XXXP . . . . X 6 p & 6 p 6 6 - - a i i s i s ` P p a a p p p & & 6 i B ' ] ' ' ] [ { [ p a l g.n.wX_.k . . @ O @ + > t R #.#.Q # # . D.          ",
"    I u = 8X@X`.@X@XF.g $ r ( K K a . . o . X 7 p i p 7 6 7 6 p } 6 p a & ' t.t.p p a a p s B 7 p a [ [ _ ` { ] ] | [ p & } g.).4XF.$ o . X @ + + + 9 T Q #.W # $ . N.          ",
"    W u o @X@XoXoX3X@XJ.d.3 r.s.F V % . . + . 6 7 p p p 6 & p V V p 7 d & { } } p 6 s a p d t.B d s ) { ] ` ' { ) ) d a c N.G.c.;.O . @ @ X + . + . w E R #.W $ $ . A.          ",
"    Q q o 8X&X`.@X4X3X).H.A k.e.@ N.dX6 . X . X 7 7 6 p p & p a p 7 & ' s ) c d i & B P i { } { d [ { ) ) ) ) s d d s P } V.O.O.@XpXg.. . @ @ @ + . 8 T E y.W # + . v.          ",
"    Q * o 8X0X@X@X@X3X_.H.~ h.F a pXrX} N.u . @ 7 & p p p & 6 6 6 p p [ } [ d d d s ` [ i { | } B [ [ ' _ i ) ) s s [ a 1.O.z ).3XB.s.X . + s.~ 8 , u.y.~ y.~ + # . D.          ",
"    Q q O @X@X`.@X@X+XJ.D.e.N m t.wXrXqXHXfX6 @ & & 6 p 6 & & 7 p B p [ z.{ d ) ` ) { { d [ | { ) ) ) d { { { ) P d & <.N.c.@XeXqX4X>.o $ < q < # 8 J y.y.e.~ o * . K.          ",
"    Q q O ).@X@XXX+XF.K.k.y.9 q } wXUXfXNXdX} @ 7 & 6 p 6 & & 6 a P d ) 5.{ _ { [ [ | { ) } | [ d i ) ' [ { | s i & Y V.V.+X9X4X@.o . . + . # . + # , n J K F + # . H.          ",
"    Q $ O `.@X@XXX+XB.K.g.B.g.* L dXNX2X2XK.E . . X & 6 6 & & d B s B ` | [ s { ' { [ { d _ s d & d { [ s { d d i n.M./.XXqX4Xe k q $ . < R J A 8 * w J ~ e./ $ $ . ,X          ",
"    / % o `.%X@X+X+XD.G.g.).+XG b k.6Xh.K l.D.D.r . @ 7 & 6 s B [ ) [ [ { [ s [ ' [ ) P [ d s s s [ [ s d d ; c :./.|.qXtXY O X . 5 # $ D.A.A.l.C . . # # # < q 8 o 6X          ",
"    I 5 O ).@X`.+X_.A.`.f.OXqXH.L M L T < g y.sXCX>.X & p i } { ' ' [ ` B B P s s a d a s 6 & i s B } p p & c {.OX&X&XrXg.; ; & K u $ . u A U k.H.= o # $ C m 5 8 # 6X          ",
"    ( q O ).%X%X@X_.v.`.x.#XeX0Xh.Z K e.. < . # u ( @ y p a [ [ ' s a p ; & p X % 6 X & X & & & P p a & - } /.*X*X%X; o H gXfXJ.K.5 8 @ . . t u.Q F u u e J t q $ + 9X          ",
"    H % - ).8X@X8X@XF.F.c./.8X6XA.A ~ L s.e.P k.sXl.a ( P & ; p 6 a a ; & & 6 p ; & 6 a a a a a a @ X - V.wXeXxX3.o e o e +XF.! Q $ @ o . # E l.A.l.T u k.( r $ < # 9X          ",
"    K % = F.(.O.).oX@X/.4.(.rX5Xh.e.~ F u.e.T.uX6X( $ . . X X @ & X & & X & & X X 6 6 a a & ; X . $ % qXqX8X#XY 1._.O.A o h e $ @ # $ O $ 8 h.<X7XA.l.W K ~ < $ $ # 6X          ",
"    K $ 8 v.B.(.W.q.^./.m.oXxX3XZ.h.y.A k.uXpXuX6XK.k.F O . . X o X X X O & O O % O X & O O O X O 1.4XrX8X1.F.B.g.f.h . o < $ # # < 0 * 0 T h.h.y.F k q W ^ 8 @ < o 6X          ",
"    H % = f.p.&.j 7.hX&X!.6./.b.A._.Q I d.N.( } k.K.+XuX6XG.@.P G H l l l l l H Y Y } g.g.XXqXpXrXeXqXG.l a.D.H I G g * * u @ # # 8 O o o ~ i.l.^ ~ >.f.d.k.< @ $ # 6X          ",
"    H u 8 H.x.O.j !.'.&X(.6./.).O.O.).$.h q u u q u k.3X8XeXeXeXeXjXjXjXjXpXpXpXpXrXeXeXwX9XjXpXwXqXG.1.Y K a r q @ q % u r q $ q G ! #.h i.h.f.f.d.,.s.k.D.q # $ # 5X          ",
"    F k O +.%.z = /.lX&X!.w.7.m.z O.n.v.@.u M < $ . q H U @.N.@X8XeXeXwXeXeXrXeXpXeXeXpXjXpXlXrX4X1.1.<.. @ < 5 % @ 5 7 q - w k a.Q Q H w $.f.f.f.f.j.N.v.K.< X $ # 6X          ",
"    k V o w = = = ../.!.:...q./.6.3.x.2.g.1.h e - . . . . . o o . - k >.N.4X9X8XeXeXwX8X0X@X_.$.c O q q $ . u V u u 7 4 + F Y @.c.>.<.^ = ! a.f.f.j.g.N.D.J.% @ * # 5X          ",
"    y u O S %.:.6.}.|./.7...(.}.4.2.1.2.O.U G @.@.k k g k a - % e - u a ; h e ; w = = w * w g k = q F $ @ X < 5 > $ u / ! Y 1.<.B.g.c.s.- Q 2.f.f.c.B.G.G.,X5 . 8 $ 6X          ",
"    y u o Y 2.q.E..X}.q.w.(.&X(.7.6.x.6.x.2.Y ;.O.3.n.m.n.3.;.Y x a a ; - ; = O = ; - a w o q l - $ @ @ < 5 q K a a ! k k @.c.2.n.3.4.} . O.f.f.x.c.).@X+XH.y @ $ + 3X          ",
"    u u o U B.(.E. X^.W.W.^..X^.-.7.c.b.c.2.O.3.1.B.c.:.4.3.6.n.c.1.g.d.>.B.G.O.@.O.a l a = I P y 5 < % H e a u ! 1.1.1.c <.n.3.n.m.N.f.h 1.B.g.g.c.N.F.B.D.r . $ + 5X          ",
"    u u o g ).(.E. XE.E. X.X.X(.-.:.B.).B.;.;.g.n.V.6.3.:.:.4.z ;.;.1.Y g.B.f.;.f.O.l l e = ; g ; q u l j.H l l f.g.n.3.x 1.g.n.n.).4Xg.Y N.G.v.g.g.c.B.F.F.( . q + 5X          ",
"    e a 5 T F.m.(.|..X(.'..X.X^.6.n./.V.g.P ;.g.N.n.3.3.c.;.z -.3.6.4.3.N.x.2.1.2.O.O.O.@.! = k z H z g.1.<.l ; @.n.m.g.x <.g.n.n.B.@XN.! g.N.g.g.,.! Y Y C - + 8 # 5X          ",
"    - V $ m Z e O.&X=X.X.X.X&X(.m.f.c.g.1.<.f.g.n.c.z.g.g.g.n.c.1.<.<.<.Y I l g g k G U h z Y . z ;.%.x.O.2.O.= 2.x.B.N.h <.f.d.k.K.K.l.^ F q $ X . $ o o $ $ @ < < 6X          ",
"    u u % < 8 * * @X&XoX=X'.7.4.2.g.,.} Y H I } a.! ! Y ! l e z k k e ; a y r u e G G w l Y O.<.@.g.3.3.O.U Y U $.c.c.,.l - y k % $ e q r q $ @ . . $ $ @ @ # + $ < 9X          ",
"    u a @ $ < X O a H k.4X+X; - w e q - * % - - u u u a a u a u u u u u u 5 5 5 e a g g Y 1.} ,.} g.! H - k e u X O O O o % X O @ . $ @ 7 + + < > @ r > > $ $ $ m r uX          ",
"    q X & $ @ % X @ @ 7 6 a ; 7 5 @ 5 - X % $ & & % 5 u e u K u u ; ; u - u - ; u e a - - - O $ @ X X & O O O % % - - X X O O X X X X . . @ + % X . X . . # . < F < uX          ",
"    5 5 & @ & O % % 6 ! >.! g.V u 7 a H ! } <.} z ;.<.P g.P l - e O O p l e a a a i ; O O O - & X @ 7 & 6 6 a k % Y g.! ; e a l P l l g.<.- % & & x l e P y @ 5 ( 8 uX          ",
"    $ X $ a <.<.Y G } <.1.1.P ( u % ( } 3.<.H Y 3.3.C.3.c.4.O.} <.} ;.3.4.3.3.g.g.n.N.g.g.g.g.s.s.s.k.k.N.} g.g.z.n.N.g.3.3.n.N.V.N.v.T.N.k J.} T.wXgXgXpX>.. 5 C + uX          ",
"    . u H pXxXzXrXxXbXBXBXbXgX+Xa ; D.N.V.C.oXoX+X/.n.} n.Y x Y c c c l c x H l l l l k k k P k k a ! } <.Y } 1.<.<.<.} } ;.;.4.<.g.3.N.Y O H . & 5.Y.Y.z.W # 5 q . 6X          ",
"    X F = N.@XoX0./.$XwXwX#X$X#X).g.$XdX4XG.n.n.m.g.m.4.3.C.4.} ;.<.<.<.Y Y Y Y Y Y H P P I P H l Y <.3.4.} 3.g.3.;.;.c x ;.;.;.4.4.<.z.H 6 2X} & :.Y.8.n.} $ u < . 5X          ",
"    % V $ _.eX(.}.{.c _.jXbXhXtX#Xc.1.Y P O ; ;.} 5.4.a s a s P P c c s c c c c z c H P x x Y x x 1.4.3.;.x 3.n.3.3.5.3.3.n.n.9.5.g.g.g.1.<.4XT.x C.Y.5.n.>.# V q + 5X          ",
"    X q w 0X0X/.hXhX6.(.bXxXzX*XB.c.V.XX+XB.;.$X-XtXgXcXfXvXcXcXcXvXvXBXBXvXvXAXBXSXSXSXSXSXBXxX$X/.n.g.<.} g.3.n.g.9.9.9.9.C.n.n.c.5.g.<.Y G.g.` C.C.5.5.} $ m 6 X 5X          ",
"    X 5 $ v.B...&XhX2.b.lXhXqX(.6.n.hXhX&XW...q.=X:.#XgXfXfXgXpXgXrXrXwXwXrXtXqXgXfXcXxXfXgXxXrXOX-.XXc.U ..O.3.n.8.3.5.9.9.C.n.n.n.z.g.;.g.#XXXC.G.z.3.g.a.@ r < . 7X          ",
"    # $ + _.0XtXhXbXhX&.(.(.6.6.= -.q..X.XE.-.E.=X-.gXKXKXKXKXKXKXKXKXLXKXKXKXKXFXFXDXDXDXSXvXvXSXqXrXvXx ;.:.:.9.3.9.n.n.M.C.M.C.C.c.c.4.9.M.n.4.g.d.P s.} > r $ . 3X          ",
"    @ q - +X8X|..XnXhXhXAXlXm.7.7.-.w.W.]..Xw. X XOX$XfXBXgXfXfXpXpXeXpXcXcXlXbXBXZXZXZXDXHXFXKXFXSX/.vXB.c /...m.:.6.9.n.m.M.C.C.C.n.n.n.9.9.M.c.n.B.G.N.l.$ u 8 . 3X          ",
"    + u w _.8Xm.[.*XtX&.%XzXnXj j ]...w..XE..Xq.:.` s vX$XY qXDXFXNXpX5X2XH.H.A.D.F.F.D.F.+XdXaXCXHXbXrXbXc /.4.^.9.3.9.9.C.M.C.C.C.Y.C.n.9.n.M.m.V.).V.g.s.< t 8 . 2X          ",
"    # 5 C @X@X:.|.*X8Xj 2...E.w.-.w.w...E.}.:.:.;.4.e LXpXIXQ 8 o + . . . . . . . . . . + . + . . aXCXVXBX3.#X&XxXzX#Xc B.V.XXM.M.C.V.n.6.9.9.9.g.x.B.B.c.s.@ 5 8 . 2X          ",
"    + $ G 4X8X&X=XgXzX/./.(..XW.].;X].W.:.c ; 1.DXLX>.LXDXLXH.n , + + . . . + + + + + + + + : @ . sXHXLXJXV.%XeXxXtXxXc P Y 3.V.9.9.C.;.:.:.8.6.O.O.6.g.N.a.< < < . 2X          ",
"    # o l 8X8X%XrXzXhX/.E..X].E.].].|.9.m.4XqXIXDXLXK.KXHXGX: + . . . + + + + + . + + + + + + X . MXPXVXZXg.jXAXSXbXxXP H e e z N.XX/.c n.:.q.2...O.O.x <.a.5 q 8 o 2X          ",
"    # $ G 8XhXjXjXqXqX^.W..X].W.E.].w.-.cXwXfXLX6XPX>XLXUX( + + . + . + + + + + + + + + + + + @ + . E . . o 9XDXSXbXbX<.u $ % k G.G.B.U 6.q.8.2.$.2.c.6.3.} 5 < 9 . 3X          ",
"    # u U lXjXtX8XtX;X].].w.E.W.:X;XP.SXKXBXUXLX6X,XUXPX2 , + + + + + + + + + + + : + + + + + + + + + + + . A.JXKXBXxXg.H u F >.x e T.2.m.q.m...1.B.B.z.g.} 3 < r o 5X          ",
"    # y Y DXlXAXjX;X;XE.w.= w.].nX8.{.KXKXVXVXPXdXUXmXv : + + : + : + : + + : + + + : + + + : + + : + . : + n HXKXrXqXn.! a y y.k . +X2.c.q.m.j 1.).@XV.z.e.< r 8 . 5X          ",
"    . q I BXhXlX=X;X.X].w.= w.;XFXY.2XKXKXIXGXPXr.T v 1 + : : : : : : : : : + : : : + : : + + + + : : + + : F LXFXeXxX$XgX4XN.k.@.. ).@.;.;.;.z H ,.a.s.g.s.< y q + 5X          ",
"    . < R vXjXhX*X=X].].E.-.-.-XnXwXl.VXPXHXGXmXv v 1 : : : : + + : : : : + : : + : : + : : + : : + + + : : 2 J.kXwX$XOXqXBX2Xk.d.w a Y Y a l Y k J } s.l.l.< t < . 3X          ",
"    $ q s.iXjXhX=XhXW.^.4.;.C.OX$XwXr.CXMXMXu.N 1 1 4 @ : : : : : : : : : : + : : : + + : + + : + + + : : : 1 : < + J.pXKXvXg.A.h.T $ s.a l 1.C.B.N.D.N.k.k.< r 5 + 3X          ",
"    < $ a.eXlXhXhXhXW.j j z bXgX3.9X5XGXe.N v v 1 1 4 + > : : : : : : : : + + : + : : : + : + : + : + : + : 4 : : : M k.KXDXk.N.D.E u / I ; g.B.V.V.G.G.N.l.5 r < . 5X          ",
"    < q n `.3X&X%Xj O O k k FXpXT.PXCXmX: 1 v v 1 : : : : : : : : + : : : + : + : + + : : : + + : : + + : 1 1 : : 1 3 M uXNXK.D.J./ M / I k n.V.{.V.N.N.k.k.7 3 8 . 3X          ",
"    q # A `.0X8X*X2.; O l P KXwX9XLXHXyX1 1 v v 1 1 : : : : : : : : : + : + : + + : + + + + + : + + + : + : 4 : : : 4 2 M uXwX4X6Xr.3 ( ^ k n.M.{./.C.N.k.k.7 u 8 . 5X          ",
"    $ $ Q iXeX@X#Xm.j ; l U ZXiXH.PXPXu.1 , : : : 1 1 : : : : : : : : + : : + + + + : + : + + + : + + : : : : + + : : : 2 A k.BXVXa M e.C l n.B.^.C.n.c.k.k.r r < . 2X          ",
"    # r I iXeX`.qX-X;.; c $.vXkXd.PXVXv 1 : : : 1 1 1 : : : : : : + : : + + + : : + + : + + : : + + : + + : + : + > 4 : + + uXv.4XV m y 8 k C./.M.C.B.v.k.l.r u 8 . 2X          ",
"    # y S eXeX%XtXY.-.} 4.XXvXkXD MX5X1 : : : : : : 1 : : : : : : + + : + + + + + : : + : + + + + + + + + : 1 4 : : : , , E PXLXLXCXaXk.y k @XXXV.V.N.N.k.k.n t $ . 2X          ",
"    , y G yXeX@X*XtXM.vXgXtXvXCX>XMX>X: : : : : : : : : : + + : : + : + + + + + + + + + + : : + + + + : : : : : : > : : + NXLXLXLXDX4Xa.- g G./.3.n.N.k.k.k.y r > . _.          ",
"    > y G iX8X'.zXB.n.z k `.AXZXMXCXS.# : : : : : : : : : + : : : : + + + + + + : : + : + + : : : : : < < < : : + + > # + . ~ H.7XKXNX( # . $ * . ,.k.g.s.k.V r > . J.          ",
"    > y h iX%X/.hXc = = o H.HXDXCXGXh.+ : : : : : : : : : : : + + + : + + + + + : > , > < @ < : : > > 3 3 3 > > > + , # # + + . @ BXNXD.. . 5 < o W g.d.s.k.V r , . H.          ",
"    + m h eX8X}.hXO.$ 8 # 3XJXCXsXVXA + + + : : : : : : + : : : : + + + + + > + < < + < < 3 r 3 > < 9 + < < : + # + # + . # + # $ UXfXK.@ + 8 > o H g.,.a.g.L < < . H.          ",
"    + y h eX0X&XhX<.q 9 # iXDXkXn >X. . . + : : : : : : : : : : : : + + + 2 # > 3 n 3 < 3 L 3 < 3 < m 9 3 9 # + + + # . + + , , $ fXNXK.$ + 3 < o k f.,.>.l.K < < # F.          ",
"    + y w eX0XhXtXf.w 0 = jXDXkX+ # + + + + : : : + : : : : : : : : + : > , # < t m 8 < m m r r 8 < F r r 3 > > + + + # + + , # $ cXkXJ.> : 5 < + F a.>.^ l.T $ < . H.          ",
"  s.+ y h yXeXhXhXg.w 8 = uXJXsX# . + + + : : : : : : : : : : : : + + : < + r < r L r $ y q y $ $ < M t r 3 > : , > + , + , # # + NXUXT.@ + 3 < # a a.^ ^ l.K > < . K.          ",
"  u.2 u e _.iX$X#Xk.e 8 0 iXJXuX+ + + + + + : : : : + + : 1 b : + + + r n m C m K W q 8 J e F y q $ r + > : 4 : > : > > : + > , $ NXcX,X< @ 5 > < w >.a.>.d.W $ , . D.          ",
"  l.2 r h wXjX8XpXN.w * * 3XHXiX. + : + + : : + + : : : : + 4 : + + r m F J J L ~ a.F g #.d.a.W w $ q J t V r : : > > , , + # > $ kXaX>X< + 8 $ 8 w #.#.^ l.( < # . A.          ",
"  e.M q q G.).qXpXN.w * 0 _.JXsX+ + : : + + + : : : + : : : + + M + 5 F I I H H a.,.Q I f.f.1.@.I $ y m < 5 r 3 : > > , , > + # > pXaXJ.# + 5 $ 5 q ! ! ^ l.K $ + . k.          ",
"  y.M + - 2.9XrXrXB.w 8 w _.JXuX+ + + + + : : : + + : : : + : + y . m K Q G h U $.a.,.O.1.f.g.,.>.H W y < # > < < < : > : + > $ $ aXaXJ.@ + r @ * q Q Q ! s.R + + + k.          ",
"  u.9 # G BXbXzXpXG.- * 0 J.LXsX+ + : + : + + + : : : + + + + + T % I ! Q Y k Y <.<.<.<.1.1.g.1.>.! >.^ r q u u r > < : > + @ # o aXcXK.# @ < < < q W I ^ s.K $ + . h.          ",
"  l.b # U vXbXbXxXG.w 8 y x.LXaX. + : + + : : + + + + + > + + r J u W Q @.@.I O.$.,.<.4.1.g.g.1.,.,.#.^ ( y L F K 5 < : > + + + . iXNXK.# @ < $ - q W / Q d.K $ + + d.          ",
"  u.N : k lXbXbXxXT.8 t g v.JXMX. + : + : + : : : : : + n + . Q a.k ! ! $.<.! @.1.,.,.<.1.g.c.g.1.,.<.>.@.Q W ^ m M > 4 > + + # @ uXNXD.X # $ $ < - Q W Q s.H + + o s.          ",
"  l.b > U bXAXbXrXN.w C A G.JXMX+ + + + + + + + + : b 3 m < . q a.G Q Q @.#.@.@.1.1.,.1.g.g.g.g.<.,.@.,.>.Y H C W L < @ @ + < # # wXNXk.$ + < @ * $ Q W ( s.K # . + a.          ",
"  l.b + G AXbXbXrXD.- I A v.VXCX. . + + + + + : : : m + . $ . * F H Y Q Q @.@.<.1.,.1.1.<.g.g.g.g.<.<.f.#.I H y L F r + @ + @ + + uXNXl.# # $ $ $ q I I W d.F # + + u.          ",
"  h.9 > g 0X%XoXXXv.q g 8 o 6XVX. . + + + + + : : > 3 5 . C K I I Y #.! @.@.@.@.;.<.,.,.f.f.g.g.1.g.a.d.>.W W I K L u X X + # # + aXUXl.# # < $ < q W Q Q l.F # + + s.          ",
"  Z.3 < g +X%X%X%XG.g t * . - 7X@ . . + + : + : : : < $ # y J Q G G #.@.Q Q O.@.O.<.>.,.f.d.g.f.,.f.a.d.^ I Q K R F m @ # . # o . aXaX^ # # $ $ $ w W W W l.K @ . + s.          ",
"  Z.2 < g @X8X@X+XG.F g w 0 J sXF . + + + : : , > : > + . # # o . w H Q ! Y ! @.<.Y k w k ; H @.} ! = F F H Q g K J y $ @ . @ o . sXsXI + X $ $ < q I W I d.F + + . y.          ",
"  Z.2 9 h @X%X`.oXG.l I g _.MXCXF.. + + + > + 2 3 + r m 8 # u h w h G G k H ! Y @.>.O o $ $ W ^ #.H . o # w G w J F y + # . @ # O aXuXC # # 8 $ $ e R ( K s.F $ # + #.          ",
"  Z.1 r h <X@XoXXXG.H S h f f _.F.o . + + + + M : 2 r L < q J W G G Q ! Y U @.@.>.f.g X o o >.>.f.I . # # w k y u F m . + . . O e pX6Xu # $ 8 $ $ r W W W s.V # # + #.          ",
"  A.1 r 0 _.@X).XXV.H Q A D h.3Xd.. . + : + < 2 2 > Z m r C R Q W Q #.^ Q U ;.,.s.,.H . $ # >.a.d.~ . # # J @.J J R y < < * O a f.uX2X# $ # * $ $ y R I W >.y # + + #.          ",
"  Z.2 t * _.@X)./.G.g.v.+.E `.9X8X- + , + : M 3 : : m m m u C R Q Q ^ ! I Y @.,.<.f.W . < @ e.s.>.^ . 8 # J I K K ~ K q y q . J.4XeXG.# > # $ # # F W W / s.F # o + ^           ",
"  S., r # 3X`.).@X).v.v.E $.F.jXZXNXH . + > m 3 + + > r t m t m C ^ / ! Y H @.,.,.,.@.. @ . s.a.y.e.. * * U J R F J L L K y g.aXwX4Xa.$ $ # # $ $ w K / K s.y + + o ~           ",
"  H.2 y 8 3X`.@X%XXXN.d.J J #.lXBXcX6X+ + > m 3 > # > # < < 8 # + u a.a.* - Q ! ,.,.,.e w w s.s.s.d.t u #.I J R Z y J y k c.).eX4XN.C . < . < $ ( L / K / s.r # . + Q           ",
"  H.1 3 < _.).@X@XXXg.g.K g J 0XlXMXkXK < > r 2 < < < , > + # . # + a.J . o I ! @.,.f.Q W Q j.d.f.d.@.Q d.#.$.~ J r y t c.#XqXpX5X>.$ # $ # . q W s.W ( J ^ y . # # Q           ",
"  >X2 u q _._.0XXXXXz.g.L u y v.lXNXkXk.@ . < + < > 3 < 8 > + + . s.~ I . y R #.,.d.f.,.<.#.j.d.j.d.#.#.f.f.#.~ L n q U B.tXeX4X( q $ $ # . . 8 y K J ( W ^ q + + # R           ",
"  >X: n q `.`.).+XXXg.d.I C t A MXMXuXy m + > + > + < < < 9 , . m y ~ G . t C J U U @.$.I U Q O.$.#.$.Q y.$.u.E K J w @XtXjXXXz . @ + + # + + $ < K e./ K s.5 # . # W           ",
"  >X> r * _.`.).oXJ.g.g.a.h t = $.h.R # @ + > 9 + : < < < 3 r < r C G 8 . 8 w 8 w h I Q E Q I A h g C h I J g h w . w 2XjXV.; o . n n < 5 $ o # 8 K ^ / / l.5 . . # I           ",
"  ,X2 u 8 _.`.G.XX_.c.j.d.g $.J w , . + 3 : 7 uXt + > < < < t r # C K F C J U U U C A Z A y G I U E $.J C A w 0 w h c.g.pX@Xo J.u y.5 r n r q t m T / / / l.< + + # J           ",
"  >X3 m w ).`./.+XXXv.c.v.! $.NX5Xk.A.+ . + h.6X/ > + @ < 2 3 8 + L E J J Q Q Q #.#.~ E E E J E u.s.u.C w w = G v.jXjXk . kXkX,X: L 3 3 9 y m e.T R R L K s.* + . 8 G           ",
"  7X1 8 * _.`./.#X+XB.N.F.@.,.uX3Xj.J.,XuXj.eXNXN./ X . . + # # , L / ~ ~ #.^ u.y.y.e./ E ~ ~ t 5 u L q # o X G.hXrXc.. . F.NXQ < M 4 2 3 n J y.T K L L C y.< . + * C           ",
"  7X: 8 * _.).).#X#X).G.).j.Q wXv.k h _.c.).iXqXg.k.k.. * + > , 8 # < > # # # o # # > < 2 , # . # @ M @ V 4XqXhXhXtXV.C T A.A.m 3 r 3 3 b L T ~ T ~ ~ e.L l.q . o 8 g           ",
"  7X< r h _.@XoX%X#XXX).@XD.I - y = . w F.).).+XF.g.+X4Xe . # + < + < < # * < < 2 < 2 > , + # o . @ > X fXqXzXtXbXeX$., 2 M b + + 3 > M n T J R T e.y.s.T s.3 . + * g           ",
"  7X2 r h _.+XoX%X%X#X+X3XD.w Q s.^ J t A F.G.3X_.).vXeXpX. + + + + # + + + + + > # > > $ + # . u l.e dXpXBXvX8X%XB.G , b M b , < + # t n L m E W ~ y.^ T a.< . . 8 t           ",
"  7X2 q h ).`.).oX+X).).)._.c.R #.G w 8 r * O w g +XpX0X9Xr # < r q 8 $ < 9 @ < < < $ $ . X X . g.vXwXwXsXiXkXU w 8 m m m M M n t A g t , J J ~ R R ~ ~ Q s.< # $ 8 w           ",
"  5Xr < t )._.oX@X0X8X).N.F.v.F.h.I # + q q # 0 0 I @.l Q 2Xs.g * - $ o . . . O o O e l } +X4XqXrXrXxXg.% # a.A + $ 4 M 7 3 9 r A J R o * 8 ~ y.R ~ #.~ / e.$ # + 8 * 6X        ",
"  5XM 3 8 v.B.%.v.c.g.b.v.B.v.c.j.D.d.J L V $ o . w w O e c v.+X3X4X#X4X8X8X4X8X8XtXqXqXtX*XhXhXhXbXwXe . . y T . + 5 + @ 4 < T h.Z.l.1 L C ^ d.W ~ #.Q W ^ < + . 8 * 7X        ",
"  5XM 5 * v.B._.`.f.v.F.).).).v.f.c.j.f.k.! F w O k.J.+XF.G.XXXXXX).V.G.B.oXXX#X#X%X%XqX%XtX=XhXtXvXcX$ + < r < # < < 7 + < < M E Z , + / k.j.d.u.I Q ! Q ^ $ # . q q +X        ",
"  dXt r o v.`.`.`.j ,.).).XX).N.1.v.v.v.N.F.B.* q w D.7XU G.).@X@X`.`.XX`.oXoX#X@XoX#X&X%X%X%X@Xc.d./ , : < q q < $ 5 r + + + T E e.e.r s.k.v.v.f.,.s.^ ^ a.$ # # 8 ; J.        ",
"  6Xu u o d.).@X%X; X././.).+XB.v.N.N.N.F.).2XK u q y uXU o ; O.v.G.`._.`.@X@XXX`.).B.x.2.z w o o . + : : , , < # # < C C W ~ K ~ s.l.y ( k.A.k.a.d.a.k.^ s.$ + . 8 q H.        ",
"  dXt u o j.).#X#Xg.O.G.G.G.+XB.N.B.B.B.).3XN.^ q # 8 , C = . o # * # * = O o * o = O o o o @ + $ < , 3 3 3 < < 8 9 G j.d.s.a.a.s.l.h.g F k.D.d.s.h.k.v.s.l.5 # . q w D.        ",
"  dXu r # j.@X3XwXl.S G.G.n.G.B.F.G.G.).`.+XN.. . $ w * . $ < < # > , # # , q < < $ < < < > r < > < > 5 < < : + > J Q y.a.a.j.d.l.f.f.k K k.A.v.l.s.k.h.y.l.8 # + q w k.        ",
"  yXm r + h.6XdXdXT . v.V.c.#X+X+X`._.XXXX+XF.j.w 0 U H = o # + 3 r 8 8 < < 5 < 5 5 > < 7 4 4 4 4 4 @ > > n e.+ < ~ >.d.! ~ k.j.k.f.s.K ^ h.h.y.y.s.y.y.y.^ < $ . C q g.        ",
"  6Xm m # N l.r.r.b . #._.3X@X_.+XJ.).F.F.N.).H._.F.B.f.g.,.I 9 9 < < $ $ < < 5 3 > > > 4 7 4 4 > < > m V T s.e.m / s.l.Q G a.d.k.d.s.R W K L u C y w q q r < # . C u f.        ",
"  dXG C < < : : 1 3 : < y k G ^ l.h.k.A.D.F._.`.F.`.B.F./.b.).a.# < 2 , : < < < < < > 4 > 4 4 4 : . V L m V T L t T e.h.e.w J R C 8 8 < < 8 # + < < 8 < $ < r $ . F F @.        ",
"  uXy q . r < 4 4 : > + + $ q < 8 r 9 8 = # w A +.$.h.g.v.`.B.c.8 q 0 9 9 5 q 5 5 5 u 3 3 7 r 4 5 < V l./ K T M n n ( ~ t # , 9 r 8 # # < < $ $ 5 m m L t y < . + L K Q         ",
"  uXq < # < : > 3 + + + $ O O # 9 0 9 t C y u w * o $ o U g.c.@.( >.y.E L L y m F m n 3 r M r 3 < $ L 2X^ n R u.h.Z.h.e.Z + n L l.u.Z V r 8 H Q ^ H V m y u 5 # < F R H         ",
"  7Xy $ F l.y.^ q , , V I I j w = . # 8 q O $ O o X X + K J._.d.D.D.v.h.h.k.D.F.K.H.K.S.Z.l.l.y.d.F ! e.L + : 2 2 9 9 n n 0 Z / a.e.F y q $ k a k e u y q q @ @ < u W G         ",
"  2XJ y +X+X4X).I - ( F.%X8XqXqX8XG.D.c.f.;.Y H k O & > y.2Xk.} J A g g C g w w w t y G / u.d.h.l.a.a.s./ m J J L C C n C g U W W y H u k - O % H } W k C m H u 5 q Q k         ",
"  2XC m v.@X{./.O.l ,.c.B.B./.oXoXoX).+XoX@X#X@X#X+XF 7 V V F E d.f.d.d.s.$.$.$.~ J J h t C h w e g H a a % F Q #.a.h.k.d.v.v.F.D.G.G.! k } O Y G.+X+X+XT.G.k./ e - ! ; +X      ",
"  2Xq w J.XX).V.x l s.n.n.c.m.}.OXoX{.{./.{.^.OXXXXX;.I K.2XQ I U E Q Q Q U U O.O.U O.+.Y O.O.Y O.j.N.N.3.g.c.d.>.,.Q $.f.j.g.,.s.s.N.H l g.; >.G.V.G.XXN.z.a F q - } h D.      ",
"  H.8 # f.@X).N.x >.N.G.).c.m.{.OXOX|.OX|.|.|.}.$X/.n.Y N.N.F.2XkXcXMXkXkXBXBXvXvXvXvXAXvXAXvXrXz B.x.Y ; ; } ;.Y z z = z z l H } <.N.P a N.z >.B.C.V.V.c.g.a a a ; Y a c.      ",
"  D.# * u.5XF.^ a ! v.G.XX6.^.^..X|.|..X.X}.OX-X*X*XB.vXDXFXvXT.DXDXDXVXAXBXAXAXAXAXSXSXSXnXSXvXc g.lXO.U z B.N.n.g.g.n.N.C.V.G.V.V.V.P } G.Y 3.B.n.m.C.3.1.l P a a z e 1.      ",
"  ,X9 # F A T # W a g.G.).M.|.=X=X-X-X|.OX.X}.OXoX^.; eXDXKXFX4XFXHXHXDXDXAXSXZXSXSXSXSXSXSXFXAXY z B.@.z 2.n.x.9.n.C.C.3.N.V.T.V.V.B.C.3.#X;.g.G.3.9.n.4.<.P ! H - c ; Y       ",
"  ,XC w j.G.v.Y o Y N.V.m.q.m. X|.|. X}.[.{.}./.9.b.j uXVXDXcXY ZXDXJXDXZXBXZXAXZXZXSXDXAXDXAXDXcXDXDXAXlX1.f.2.B./.M.n.1.N.V.B.C.C.n.g.3.G.;.<.V.3.C.n.} g.P y.u - e ; k       ",
"  2XC < v.+XoXoXXXV.G.B.B.M.%XhX|.}.OX*X*X*X=XM.|.@Xf.kXHXJXBXv.JXLXLXHXJXJXJXZXAXAXkXlXiXiXlXCXiXJXKXJXDXa.,.O.3./.{.4.<.C.V.V.B.V.n.n.x n.} f.B.n.n.g.l u q u r $ q e e       ",
"  7Xt t @.V.oX(.n./.B./.).6.oX*X8.j ..:.:.:.8.0.=X}.6.bXLXJXGX+.b b b 2 , # # + . # # # . . + # F PXPXPXHX$.+.b.2.8.:.Y <.<.1.3.B.n.z.1.l <.} g.g.c.x } P q q q 5 $ q k w       ",
"  D.A # w XX&X}.}.XXB././.n.V.tX%XeXhXhX.XY.w.Y.zXOXc.lXLXLXPX<Xb v b 2 2 2 v 2 2 2 2 , , 2 2 2 L GXPXLXLXH.y._.bX$XSXY } f.! 3.N.3.g.x l Y <.>.n.g.n.N.F 5 5 5 q $ y g w       ",
"  E w 8 w ).).{.).V.n.B.V.n.;.g O.lXbX.X]..X=Xq.tXtXn.PXGXGXD v v 2 1 v 2 1 2 2 2 2 , , 2 4 1 1 , ~ GXZXGX6XA C v.;.gX} Y N.<.g.c.3.4.4.n.d.<.l d.N.B.K.>.% 5 q q e g k w J.    ",
"  t # w U `.)././.V.1.B.B.v.k ( _.BXOX0.=X.X=X=X` qXNXCXi.b , : 1 1 1 1 1 2 1 1 1 : 1 : : : : : : + # , E + w = KX+XDXG.; ! <.g.3.4.c.c.4.1.g.z g.N.N.K.N.$ $ % * e e g y N.    ",
"  n 9 C G `.)./.V.V.O.V.V.N.l l.+XxXoX|. X X=XzXB.r.yXN : 1 1 : 1 1 1 : 1 1 1 1 : : : : : : 1 : : : : , , + U DXKXFX{.wXW F H <.1.c.n.g.3.g.n.H ;.3.3.c.d.O & e h k h e g ,.    ",
"  C 8 9 g `./.(.M.V.;.V.G.n.g.$XC.$XtXrXq. X.XhX9X1XN v : 1 1 1 : : : 1 1 1 : : 1 : : : : : : : : : , : 9 + v.JXFXbX3.XXT.Y u W k c.N.n.g.1.G.z z c.B.G.g.F u h k x c k l U     ",
"  / 9 t h ).{.V././.4.{./.3.q.tX*XN.u G KXbXeX0Xs.b 1 : : 1 : 1 : 1 1 : : 1 1 1 1 1 : : : : : : : , : : : + J.JXFXXXn.n.n.s.q y $ ,.n.g.c.3.V.Y Y /.XXV.c.( u w l Y l l k k     ",
"  T 9 T w ).oX}.^./.4.^.M.5.C.tX$XV r.M LXJXJXMXN 1 1 : 1 : : 1 1 1 : 1 1 : : 1 : : : 1 1 : : : : : : 1 : > L HXcXn.SXSXrX4Xk.Z * O.<.<.<.3.V.;.O.V.XXG.v.J w w k Y l l e ;     ",
"  R r M F +XoXoX{./.:./.Y.9.m.#X2XS.S.i.UXGXGXS.1 1 1 v v 1 : 1 : : 1 1 : : 1 : : : : 1 1 : : : 1 : : 1 : b > J k BXpXgXrXn.g.w $ <.B.N.N.1.B.<.O.V./.B.,.L w u h Y z l k -     ",
"  / t M J _.XXV.V.B.;.^.M.6.B.F.h.PXPXGXZ.mXN v 1 : 2 1 1 : 1 : 1 : : : : 1 : 1 4 1 : : : : 1 : : 1 : > : 3 2 # o H <.pXBXBXN.k O g H >.g.g.c.4.Y m.V.V.g.( u e k Y l l k -     ",
"  r.3 3 G _.+X).M.B.c C.m.6.c.f.GXLXPXLXv v v v : , 2 2 2 : : : : , , : : : : : : : : : : : : : : : : : : > + , > < t < N.3X+Xg.w g k Q @.g.n.1.;.6.B.c.g.I y y P z l l k ; _.  ",
"  s.b u I _.).XX{./.x 9.9.n.v.GXCXLXPXPX5Xv v 1 , : : , : , : : : : : : : : : : : : : + : : , # > , : , , < , 2 2 : > , > 3XG.+X; Q U @.<.g.n.2.z c.B.n.1.Q m y H l Y k l - J.pX",
"  y.3 m Z `.).).V.m.4.8.m.c.j.GX>XsXGXUXv v v v : 1 1 2 2 > , , , , + # , < , > > > > + # # , # # 0 2 0 0 0 = 2 3 , < < # G.g.+Xe F.K.I O.g.n.4.;.4.c.x ,.#.u t H l z l G - D.aX",
"  y.3 L g +X)./.{.C.4.:.m.m.B.HXUXUXyXPXN v v v < < 2 2 2 : : , > 2 2 2 > , # 2 < 3 < 8 # 0 0 0 0 0 f f 0 , , 2 2 3 3 < . 3Xf.@.; #.U l h g.g.<.;.g.N.N.,.a.t u k l z H l - N.pX",
"  y.< Z G 3X).oXXX{.9.q.m.9.@XIXGXPXv N v v v 2 : 2 , , 2 : , : : b 9 9 8 # 8 9 , 9 t t 0 f = f f A b 0 0 9 , * 9 9 3 < . CXHXHXVXNXJ.- w ! f.1.2.x.v.f.$.a.g u u - O ; e = G.  ",
"  u.2 m y +X).OXOX#Xn.6.n.!.4XHXUXPXl.v 1 v v 1 : , : 2 , 2 : , , 9 9 , 0 = w C n b A h = 0 f f f f 0 0 0 0 8 2 8 < 2 < < CXJXHXJXJX6X$ o $ q G h f.A.x.f.h.C u q e             ",
"  u.v L J @XV.XX{.;.Y 1.2.q.hXKXdX5X1X: 1 1 1 1 > 2 2 4 2 1 2 : , 2 , , 0 # , 0 0 f A t 0 0 f f f b 0 2 = 0 2 9 9 2 , 8 8 . t h.J.UXD.r > + < C 8 y.D.h.i.h.C r $ -             ",
"  e.1 M y @XV.}.{.V.w h x.!.zXFXUXCXmX: > : : 4 1 2 2 v v 2 2 2 , , 0 f 0 = 0 = 0 A A f 0 f f f f f 0 , , 2 , 0 t 9 2 9 < # o o uXGXNXM , : M R # u.F.i.i.l.C q % e             ",
"  e., m V +XM.{.$XC.L A v.q.nXFXdX>X1 : > : > : 4 2 2 v v 2 2 2 0 0 A A f f f D f S D = 0 f f S f 9 8 # # < 2 2 , , 0 9 0 , # # / CXMXM 3 > r L 0 ~ A.i.u.a.L q $ -             ",
"  e.1 m F +XM.}.}.N.M Z i.w.nXKXH.r.1 : > @ : : : v 2 v 2 2 v 0 b 0 0 f f f S S = f f f f j f S S f 0 < # , 0 9 n n 0 9 < # 8 * M CXNXL 9 + 9 T , E h.i.i.s.A 5 % -             ",
"  e., Z C +XB.{.}.B.0 0 %.7.nXKXy.1 1 : > + : 1 1 v 2 2 v b b 2 0 f A j j j X.S = = X.X.j X.%.b.p.r 8 9 8 0 b A D n n b 0 # # # y VXMXE < + b Z 2 E h.u.u.u.J q $ *             ",
"  r.2 M m @XV.}.XXn.o 2 S q.nXKXC 2 1 : + > : 1 4 v v 2 2 2 2 2 , f S U S o.&.U O = = *.p.b.7.&.&.U f 0 0 b f A A A A n t < $ 0 8 VXMXe.r + 9 L , D h.+.y.u.J < % $             ",
"  r.2 m J +XG.V./.n.# 0 +.b.nXZX8 : : : + + + , 2 M v 2 2 2 b N = f +.U S %.x.i.j X.o.&.~.'.'.(.(.x.%.$.S o f A A D Z Z 0 # # * $ ZXCXh.9 . 8 C < A u.$.+.i.T < < O             ",
"  e.: b F _.V./.T.B.= A U !.nXZX, : : + + # + , b v 3 3 0 0 D T 0 S X.S f X.&.x.=.=.*.Q.!.Q.!.!.b.!.m.b.%.f A D D D A D n # # # , VXCXh.9 . 9 y 8 A d.E u.u.T 8 < #             ",
"  u.2 n C +XV.XX).B.o E D 7.vXZX# + : + + + + < f N b b , 0 D N f f =.j =.~.'.~.*.%.*.%.7.!.7.7.7.!.b.b.%.S S E E D Z Z N # # # o NXMXh.0 + r t t t h.U u.i.U < $ +             ",
"  r.3 n u +XV.{.Y.B.o T A 7.bXAX. + + + + + , < A b n A 0 , b X.f f %.p.Q.~.~.~.~.!.&.W.(.7.W.7.!.7.b.b.%.+.E E D T D Z M , # # . NXCXh.8 + q r 9 f f.S $.u.T $ < o             ",
"  r.2 b 8 +XV.{.XXD.* Z f x.bXZX. + + + + + + 0 A N A 0 b f r.S S X.%.b.~.~.W.'.Q.W.7.*.!.!.q.!.!.7.~.b.i.+.S D D D Z Z 9 * # # o kXVXh., # r 9 t f f.R ~ u.T , $ #             ",
"  e.b Z w +XG./.T.D.$ A f p.lXAX. . + + + : + 2 A f D b f b D S S j &.!.W.'.'.W.W.W.7...7.!.~.!.!.!.~.b.7.+.E S D T Z Z 9 8 # # + yXGXl.8 # 8 8 9 g i.S E u.T $ # .             ",
"  e.b N w +XV.V.V.N.# Z f b.lXCX. . . + + + + 0 A A A f D f X.X.X.=.p.~.Q.~.'.W.W.W.7.*.w.7.~.~.(.(.!.b.p.+.D D D D Z Z 9 8 # # o 6XGXh., # r 3 t h i.U ~ i.T , < .             ",
"  u.b Z g +XG./.G.N.8 E D v.lXbX. . # + + + + 0 f f S A D S D X.X.o.p.Q.*.~.'.'.W.Q.W.&.*.&.7.!.b.!.!.7.p.i.D A A D D Z b 8 $ # . 3XZX+.# + q > 9 t +.U E u.T # > .             ",
"  u.b M w _.G.V.G.N.8 J D b.kXNXX . + + + + , , D f S f f f S X.o.o.*.%.o.*.(.(.W.7.7.7.7.b.!.~.!.Q.b.!.p.i.i.E D D D A 8 5 o o . 3XZXJ # # < 3 9 t E U +.u.T < > .             ",
"  i.b Z 8 _.G.V.G.N.8 h 0 U jXbXO $ > : + + , , D f D S D D X.X.%.i.o.X.j j %.*.&.7.%.7.7.b.x.b.7.b.!.b.p.+.X.+.E E T A 2 < @ $ o <XCXg # # < < r A E E E #.R < , . H.          ",
"  h.b n 8 `.).B.G.N.% 0 o ..nXnX7.= @ + : + @ 8 D f S S S f A X.o.&.*.*.o.o.*.7.!.7.2.x.&.$.x.x.6.%.!.`.b.i.+.D S D D D 9 < # # . 3XMX< # , < < 3 C E U E y.T 2 > . S.          ",
"  h.b n t F.`.B.).N.y l.j 7.nX:Xq.o # + + @ + 9 A 0 D S S f S X.o.*.p.'.'.~.!.7.b.&.2.%.f X.h %.S j X.p.%.+.i.+.E D b Z n 9 # O . Z.MXC , 2 < < < C ~ D E u.T > > + D.          ",
"  Z.b A w G.).).XXB.I J.z '.nX:X;X= O . . + + 9 D A D S +.f E +.X.X.o.o.*.*.*.Q.!.&.7.S E +.f $.b.b.b.x.+.U E +.E E E E E 9 #.Q u k.,X< # > 9 @ # y T S +.e.T 5 < . D.          ",
"  Z.b N 0 B.).V.G.F.S +.j &X:X;XzXj O O > . + < A D E S S D S o.o.X.=.=.=.o.~.~.~.7.S j f.a.h X.b.~.x.f.$.A E $.r.i.i.b 9 D._.pXBXaXh.3 + > 9 < < K +.T E e.R 4 > . D.          ",
"  S.2 n w v.`./.).F.Q +.S oX&X}.hX).. . . + : < h A S S S f S X.X.X.o.=.=.*.Q.W.!.b.b.&.h.X.0 %.(.x.&...%.E S D i.u.~ 9 8 D.`.3XfXwXK.q # : 3 < $ d.+.A i.y.E < > . D.          ",
"  S., n 0 v.`.(./.G.$.i.j j =.= ..P O . . < 8 9 0 h D S S 0 X.X.X.%.i.o.=.o.Q.*.~.&.7.7.b.o.f &.b.&.7.%.%.+.T U t 0 0 , 8 f 3XqXG.6X2X# < > 7 < 8 D.h.E h.i./ 3 > . D.          ",
"  H.2 C - b.+XV.G.).$.u.x.$.! o % u # . . # # 8 0 , D S S f S X.X.*.*.o.o.*.*.7.&.*.&.*.*.p.o.o.b.&.7.%.&.$.+.i.h.A w = # g B.lX+X2XJ.$ $ + : @ # A.A.+.E u.E < > + A.          ",
"  >X2 m 8 v.@XB.).J.f.p.v.i.a.y @ 2X,Xo . + # > 2 # 2 D D f S S X.o.*.*.=.*.*.*.Q.Q.Q.p.*.o.Q.*.&.7.b.&.%.+.+.$.$.A h A i.x.v.wXF.D.e.@ @ @ @ < < D.F.h.i.$.R : + + A.          ",
"  >X, b * c.@XB._.G.j.h.v.$.,.e $ CXLXwX$ @ 8 < r , , A D f S =.X.o.*.*.o.*.=.*.Q.*.Q.Q.*.*.*.*.o.%.p.%.&.+.+.+.S 9 = A i._.+Xf.O o # # @ @ + @ > T D E u.e.T < < . A.          ",
"MX>X2 9 0 f.3X).G.J.v.h.i.+.@.k % pXJXkXo . < + 9 r 2 D r.S X.S X.o.*.Q.=.=.*.o.p.Q.*.Q.*.*.*.*.*.o.p.p.X.%.X.E A t +.3X`.0X0Xw o + # + @ # # $ , : 9 Z E r.Z q > . A.          ",
"mX,X2 t 8 $.3X).F._.h.h.U * G u h lXAXCXcXF y o @ < > M r.i.+.X.X.X.*.p.o.*.Q.Q.Q.Q.Q.Q.*.*.*.*.*.o.*.b.p.X.+.T S $.`.`.@X8Xv.o . + < # # # $ $ # 2 3 M e.e.M < # . A.          ",
"kX,X9 9 q u.0XG._._.A.h.u.i.g F F g x.eXZX9Xd.o s.r + 9 b i.S S S X.+.+.*.o.o.*.p.*.p.p.*.o.*.o.*.*.&.p.b.U +.D h._.%X&X&X8Xh . . # + + + . # # # t b T e.r.9 < > . A.          ",
"aX,X2 9 0 @.0X`._.H.S.S.v.x.i.i.C q + . * f.h O LXaX. < < R D f D S S S D S X.X.+.%.+.%.+.o.o.=.o.%.&.x.x.i.U k.5XqXoX/.%X@Xh o : < 8 + < 8 u m w # Z C e.E , < + . D.          ",
"mX,X, M * @.8X_._.).F.H.F.A.$.h.u.m M M <XHX$.O.LXuX. $ # D A b f A D f f b f b t f A A f D A f f X.&.%.x.U f v.+X@X+X@X_.eX_.# : M m r u u A ~ t # L R y.T + , < . S.          ",
"aX>X2 t w +.@X`.`.F.v.v.d.$.+.i.h.R L V _.yX= cXPXK.X . o C n A D A n f f n A A A f h A A f 0 0 = 0 b D J 8 k.9XpX6X3XF.F.yX5Xu.+ L ( t 8 9 ~ u.C t T R u.r.# > # . H.          ",
"MX,X2 9 w O.@X`.`.).S.v.v.b.v.b.h.R m V E _.<XJXBXA.u $ . 8 2 D N b A b 0 h n 9 n 8 9 0 0 2 8 = , , 8 m y ^ 5XpXG.y * . * t r < < T M 8 < C u.l.Z T e.e.l.T + # > + H.kX        ",
"aX<X2 r w ,.0X`.`.F.c.i.i.b.h.h.j.~ K F S iXkXCXF.3X).,X#.# # 8 0 0 q 8 0 8 8 8 8 * $ $ $ o o . O o ; O.J.n.wXfXe o . # # 8 r 8 9 r b < < m ~ y.Z E y.~ u.R + : , . H.aX        ",
"aX<X9 r 0 %.`.`.`.).v.h.S.S.b.p.h.W ^ G 0 E E U A U f 9XCXa.y.I ! I H a ; l l I Q Q f.v.F.+X9XiXjXjXrXpXtXhXrXqXO o $ < t q 8 > 3 + + q u m ~ y.L / y.y.d.T + > , . H.kX        ",
"mX7X> 8 - @.`.`.`.`.A.x.b.`.B.x.f.+.f.J.S . 8 # o * # y.sXk.K.kXvXxXcXbXvXvXvXvXbXxXxXjXpXrXhXrXrXrXeXtXqXqXtXwX; O w L n # # + > + > r y J e.y.C ~ l.s.l.Z > # , . D.aX        ",
"aX<X, r 0 O.0X`.`._.`.Z.b.H.S.p.$.@.i.f.v.H A 8 # # + r M < k iXiXrXjXxXxXhXrXeXrXrXrXhXxXxXxXxXxXrXeX%X#X3.).G.- * g E L w t m m m T / ~ J ^ #.g ~ l.h.h.C + $ , . H.kX        ",
"mX<X: M * O.0X@X`.0X'.b.b.F._.i.+.i.k.v.f.i.d.u $ @ @ @ O . O - k f.G.8X8XeXrXpXeXrXeX4X+X).c.Y ; . o o O . . . * * q E C m C L T T ( ~ ~ K Q #.w E d.k.A.n + 2 # + S.kX        ",
"aX7X+ m w O.8X'.`.<X_.x.X.A.`.+.U p.f.f.x.i.i.T L $ . O . . . # $ * w ; ; - O o o . . o O O * * * O $ $ $ # < 3 > 8 # 9 9 Z m m M L T E / I E y.8 Q d.k.D.r + , , + K.kX        ",
"aX>X. m 0 %.0X0X`.eX9XS.x.v.0Xv.x.F.A.A.A.v.A.D.A.d.w o o . f S.0 < # * 8 q * * 8 * 8 8 $ $ # $ 8 8 < < < < 2 < < , + n M 9 9 n n Z Z T E t n a.g f.wX6X,Xn > # + + D.MX        ",
"mXJ.. m = &.0X&X`.`.lX<XA.v.A.v.j.v.A.A.v.v.A.S.A.v.i.w 0 b i.S.i.9 # 8 # # 8 8 8 # 8 8 < q < # < < < < $ > # # + # + # m C Z C m Z J T R r C a.Q d.2XiX5X9 > # , . H.kX        ",
"kXH.+ y < $.9X@X).F.A.$.u.d.f.U h.v.v.v.A.A.F.A.v.h.v.i.i.E S.h.i.0 2 2 2 0 8 0 # 2 8 9 3 9 < , < 9 r 8 8 9 9 r t 8 t / / T U D g U R #.#.Q w @.,.N.F.2X6X2 , + # . H.kX        ",
"  H.+ u 8 h `.A.O.O.X.g i.j.i.U i.v.v.v.v.A.S.b.v.v.v.v.i.+.h.i.u.n , 0 2 2 , , 8 < 9 < < 3 > < 9 m n n w J J C g A A Q #.J R J A W #.u.d.@.l U g.j.f.#.A.+ < + + + S.kX        ",
"  S.. u - 0 t J C $.,.+.x.h.f.i.x.v.A.A.D.b.A.B.b.A.b.F.j.$.v.h.Z.D 0 0 b D N b 2 9 r M b M b , t D A C Z ~ ~ E ~ 0 U a.$.U E Q J $.u.k.j.Q Q S F.d.f.Q e.< , . < 9 k.          ",
"  H.. < @ $ * 8 K D.v.$.f.f.j.v.v.v.v.A.A.S.F.F.A.F.F.F.v.i.A.x.v.E 0 A +.D E r.D M Z J J D A D Z J D T R u.$.#.$.J #.#.#.U Q W I #.f.k.v.#.O.J J.c.F.h.C < 8 + e.yX7X          ",
"  J.. > $ 5 < . y a.g.a.f.v.v.v.v.B.D.D.A.F.F.F.F.F.A.F.A.f.v.v.A.i.f E r.+.r.i.r.T E E E r.E E E r.e.y.i.l.a.s.s.a.y.u.#.$.y.u.#.h.v.v.A.l.a.Q v.v.N.h.8 + < + uXaXaX          ",
"  6X# >.>.+ + . O D.v.j.j.h.A.v.A.A.A.A.B.A.A.F.F.F.F.F.v.h.h.v.A.h.r.i.i.i.i.i.i.D E r.r.E E T D Z Z A Z C A G A J G w C t J K G A R a.s.R R A u.a.#.q # + # . Z.NX            ",
"    kXMXaX< . + . m g u * w q q w 8 q q w - f h g y g k S G J K D J A T r.D Z b b 9 0 < < , # + + > + + + . + # < # + + + # # + + + > # + + + , < $ . o o . # . s.              ",
"        MXF . . @ # # + . # $ 8 $ $ $ o + # # O $ $ $ $ $ $ @ o # # . : 1 , : + + : + : + + + : + + + + + + + : > + + + + + , # # , 2 , + + + > @ . . . 5XJ.W                   ",
"          e.# X } k.$ $ < < $ < $ < $ $ # . X @ + @ @ X @ $ . . # # . + + : : : # : + : + : + : : + @ + : + : : + + : : + + + + + : + 2 + : + + + @ . o MXsX                    ",
"          uXJ.G.        . $ $ q r q y L T ^ e.s.s.y.s./ I $ . @ 5 + # + > + : + : : : : : : + + + : + < 7X7X7X>X>X>X,X7X5X            H.+ + + + + + . < kX                      ",
"            kXaX                                      sXaXaX5X2XaX2X+ # # , 3 b 2 : 3 3 2 2 3 > , , > T NX                            7X. + + . + + < # MX                      ",
"                                                            6X2XaXJ.+ # # 2 3 3 2 2 2 2 3 9 b 1 2 # > u.                                + + + + . < # . NX                      ",
"                                                            5Xi.6Xs.# + > 2 2 2 > 2 2 3 2 b b < 3 < , E                                 + + > + r 5Xu.$                         ",
"                                                              * A.n o + , , 3 3 2 : 3 3 3 9 3 4 < < + ~                                 : > < . e.6X>X}                         ",
"                                                              = A > + # # , 3 2 < 2 4 2 3 2 8 , + 8 + +.                                2 + : < h.                              ",
"                                                              * A 9 + # , < < , 4 < < 3 < , 2 2 > , # R                                 3 + , C A.                              ",
"                                                              +.k.T , , , , , < 3 < 2 < 2 , 2 < , $ < A MX                              M : , T A.                              ",
"                                                              Z.H.i.N D f Z n 9 r 3 < < 8 2 , , < $ $ A NX                              Z : # / h.                              ",
"                                                                ,Xi.r.i.e.e.~ ~ E E T b 0 0 n n 2 $ < J VX                              T : + e./                               ",
"                                                                p.r.r.i.u.u.u.r.E R D n t 2 n D T + < t A.A.                            r.: : E r                               ",
"                                                                E E E i.i.u.r.$.e.e.J h 9 9 T D e.< r # 8 R                             u., 9 L o                               ",
"                                                                CXD i.u.i.u.u.r.E J Z , 0 9 Z Z M < r + #                               l., > t .                               ",
"                                                                CXr.~ r.u.E E R T m < 3 < 9 9 2 2 , 9 + 9                               >X2 9 n +                               ",
"                                                                  T A 0 A C b M n n > < < 8 3 9 9 2 y.n dX                              2X2 9 t #                               ",
"                                                                  t 8 , C E u.Z.Z.u.2 < , 9 2 9 2 : E m NX                                > 3 t #                               ",
"                                                                  m # + # < 2 2 b b 9 b 9 9 < 9 9 + Z.9 NXMX                              : 2 u #                               ",
"                                                                    8 # < b D r.r.r.D 2 2 2 9 9 , , 5Xv l.5X,X                          uX: < 8 #                               ",
"                                                                      , l.>XS.S.Z.h.e.Z b D n Z 0 ,   Z b q . h.                        uX+ 3 8 o                               ",
"                                                                      dX1X<X>XS.Z.h.i.r.r.N b M ,       : y * 2X                        uX: < 8 #                               ",
"                                                                        yX<Xr.r.D N 0 0 2 b 9 9 .       9 r $ CXNX                      uX+ < 8 #                               ",
"                                                                        <X0 9 0 v 3 b 2 9 9 n n n         T < kXNX                      uX+ $ 8 $                               ",
"                                                                        _.. 8 2 0 : 2 8 9 n b w sX          R R CX9X                    dX+ $ * *                               ",
"                                                                          . r n 8 9 < 8 < 0 t , aX          sXk.uXQ                     9X. $ $ q                               ",
"                                                                              D.R A t y t 0 h ~               sX>..                     6X. $ O y                               ",
"                                                                                                                q . aX                  6X. # $ I                               ",
"                                                                                                                h.. CX                  J.. . o                                 ",
"                                                                                                                VXq H.7X              MXJ . o O                                 ",
"                                                                                                                  . . . . Q           ~ y * #.                                  ",
"                                                                                                                    # 8 J w 8 . * I 5X                                          ",
"                                                                                                                      # e.# . #                                                 ",
"                                                                                                                        t # u                                                   ",
"                                                                                                                        y.                                                      "
};
