/* XPM */
static char *out[] = {
/* columns rows colors chars-per-pixel */
"296 150 256 2 ",
"   c None",
".  c #010001",
"X  c #090808",
"o  c #140A08",
"O  c #171509",
"+  c #080C12",
"@  c #0A1516",
"#  c #141314",
"$  c #1C1B1B",
"%  c #181817",
"&  c #100F0F",
"*  c #231B19",
"=  c #24180A",
"-  c #1A2317",
";  c #28251B",
":  c #302E10",
">  c #1A1D22",
",  c #05152B",
"<  c #241D23",
"1  c #1A2526",
"2  c #122F33",
"3  c #242323",
"4  c #2C2C2B",
"5  c #282827",
"6  c #342C29",
"7  c #2B332B",
"8  c #37352A",
"9  c #292C34",
"0  c #2B3537",
"q  c #333433",
"w  c #3C3B34",
"e  c #3B3C3B",
"r  c #363738",
"t  c #342D34",
"y  c #433B2A",
"u  c #433C37",
"i  c #4B352E",
"p  c #463A19",
"a  c #3B433B",
"s  c #3A4428",
"d  c #35441C",
"f  c #4D5015",
"g  c #5A6310",
"h  c #6C7217",
"j  c #474728",
"k  c #565827",
"l  c #44433C",
"z  c #494739",
"x  c #544A3B",
"c  c #575738",
"v  c #4D512E",
"b  c #655436",
"n  c #5A652F",
"m  c #676928",
"M  c #757927",
"N  c #6E7234",
"B  c #635A1A",
"V  c #383D43",
"C  c #2C3B47",
"Z  c #073945",
"A  c #443E43",
"S  c #0C4950",
"D  c #3C4344",
"F  c #3B4749",
"G  c #334F51",
"H  c #385F63",
"J  c #434443",
"K  c #444B44",
"L  c #4C4B44",
"P  c #444B4C",
"I  c #4B4C4B",
"U  c #474548",
"Y  c #534C47",
"T  c #4C534C",
"R  c #475449",
"E  c #53534C",
"W  c #595749",
"Q  c #444C52",
"!  c #4A4D53",
"~  c #4C5354",
"^  c #4C5C5B",
"/  c #485657",
"(  c #535553",
")  c #545B54",
"_  c #5B5B54",
"`  c #535B5B",
"'  c #5B5D5B",
"]  c #565557",
"[  c #534E53",
"{  c #645949",
"}  c #625D55",
"|  c #6D5645",
" . c #4B625C",
".. c #5C635C",
"X. c #57645A",
"o. c #5A654B",
"O. c #66664A",
"+. c #646254",
"@. c #63645B",
"#. c #6B6B5C",
"$. c #686859",
"%. c #736C5A",
"&. c #6A735B",
"*. c #767659",
"=. c #727548",
"-. c #4B5C63",
";. c #565D63",
":. c #464A62",
">. c #4B6667",
",. c #536363",
"<. c #5B6463",
"1. c #5C6B64",
"2. c #546C6C",
"3. c #5B6C6B",
"4. c #566768",
"5. c #5A736B",
"6. c #576D72",
"7. c #5B7474",
"8. c #597677",
"9. c #4D7071",
"0. c #636563",
"q. c #646B64",
"w. c #6B6C64",
"e. c #636C6B",
"r. c #696A69",
"t. c #726D65",
"y. c #63736C",
"u. c #6C736C",
"i. c #697567",
"p. c #73746C",
"a. c #777868",
"s. c #637473",
"d. c #6B7473",
"f. c #637A75",
"g. c #6B7B74",
"h. c #637C7B",
"j. c #6B7D7B",
"k. c #67757A",
"l. c #747C73",
"z. c #7B7C74",
"x. c #737C7A",
"c. c #777877",
"v. c #686D72",
"b. c #635E62",
"n. c #847B69",
"m. c #847D74",
"M. c #857454",
"N. c #817B35",
"B. c #7B8528",
"V. c #7A8637",
"C. c #798517",
"Z. c #7A844E",
"A. c #7A836A",
"S. c #6C837C",
"D. c #68837A",
"F. c #7C8374",
"G. c #73847C",
"H. c #7C847B",
"J. c #7C8A7D",
"K. c #758779",
"L. c #789078",
"P. c #5D827C",
"I. c #84892A",
"U. c #858937",
"Y. c #8A9537",
"T. c #8F9731",
"R. c #99A535",
"E. c #9CA52F",
"W. c #8C914E",
"Q. c #9AA54C",
"!. c #A9B350",
"~. c #87856A",
"^. c #83857B",
"/. c #838B7C",
"(. c #8B8C7C",
"). c #868675",
"_. c #89937B",
"`. c #96967A",
"'. c #91906E",
"]. c #ABB26D",
"[. c #9CA572",
"{. c #B8C556",
"}. c #BAC66B",
"|. c #C8D370",
" X c #CAD664",
".X c #6B7D82",
"XX c #5D7D81",
"oX c #6C8483",
"OX c #698785",
"+X c #758B83",
"@X c #7B8C83",
"#X c #778886",
"$X c #7D9385",
"%X c #7C938B",
"&X c #789589",
"*X c #7B9693",
"=X c #728E8F",
"-X c #6E9490",
";X c #838C83",
":X c #888B86",
">X c #849384",
",X c #8C9384",
"<X c #84948B",
"1X c #8B948B",
"2X c #849B8C",
"3X c #8C9B8C",
"4X c #879A84",
"5X c #939484",
"6X c #949B8C",
"7X c #9B9D8B",
"8X c #959887",
"9X c #8C9C92",
"0X c #879994",
"qX c #939C93",
"wX c #979C96",
"eX c #8F8D89",
"rX c #A39D8C",
"tX c #9DA28D",
"yX c #96A28B",
"uX c #8CA394",
"iX c #8AA59A",
"pX c #94A394",
"aX c #9CA394",
"sX c #93A49B",
"dX c #9CA49A",
"fX c #9CAB9C",
"gX c #95AA9A",
"hX c #8FA790",
"jX c #A4A58C",
"kX c #A3A493",
"lX c #A4AB9C",
"zX c #AAAC9C",
"xX c #A5A797",
"cX c #A9B29C",
"vX c #B2B398",
"bX c #98AAA3",
"nX c #9AB3A6",
"mX c #8DA9A6",
"MX c #A6ACA3",
"NX c #ABB2A3",
"BX c #A8B4A8",
"VX c #B4B8A8",
"CX c #B7BBB4",
"ZX c #AAB6B2",
"AX c #949BA2",
"SX c #BAC4B7",
"DX c #B5C1B0",
"FX c #BDC688",
"GX c #C5C7B9",
"HX c #C6C9B0",
"JX c #CDD888",
"KX c #B8C9C4",
"LX c #CDD3CA",
"PX c #DEE4DF",
"IX c #BFBDB1",
"UX c #837F83",
/* pixels */
"                                                                                                                                                                                                                                                                                                                                                                        nXnXnXP.G S Z H H S                                                                                                                                                                                                                     ",
"                          G S F 2 0 C G Q Q Q F F F / Q ~ [ Q P D 2 ' r ....a.i.i.o.i.@.F./.&.F...a.p.a.).^.1.G         , G G G b.M.e i.A.A.A.4X..o.1.s.v..Xe.g.>.                                                          S S S S S S S S S S H H S S S G H H H H H :.H H H G G S S H H S S S S S S S XXXXH H , Z Z Z G G G :.:.C C :.C G C C :.H XXS V D A._.[.~.Z.].}.JX}.{.FX}.{.JX].!.Q.FX].].L.}.[.n V.o.                                                  S , 2 S S S S G Z Z , Z Z Z 2 Z , , , 2 , , , , Z , , , , , , , + , H H H S Z Z S Z Z S S Z Z Z 2 , 2 Z Z , , 2 Z G Z                         ",
"                2 0 % lX5X; j 6 (.wX0X0XsXBXVXBXMXxXdXzXzXMXMXeX7Xp.4 :XvXhX_.'.'._.`.'.vX].`.].jX[.[.vX`.vXxX,XX . q ).W.vXFXJXJXFX}.JXFXJX}.JXFXvXl u.xXaXjXrXkX,X^.<X>X9Xx.r > , A V X e.c.c.d.p.v.l.c.#Xz.H.^.H.H.G.z.z.j.x.z.^.^./.=X:X.XUX[ 5 9 .XeXlXkXxXbXzXxXrX5X,X#X@X/.^.H.4X<XH.l.p.UX:X0X.X9 9 > < .X=XAXmXmXZXmXAXMXAXAXwXmXZXAXAX:X9 + (.].|.|.JX}.|.JXJX{. X{.}.|.|.|.|. X|.|.|.|.JXJXJXJX|.}. X{.|.].Z.F.    G a 0 0 w 5 5 7 7 l E r.m.u 5 7 4 3 $.).A.eX(.:X(.n.m.(.8Xc.eX5X(.,X5X9XdX(.8X8X8XsX_.aXkXvXrXMXMXIXIXVX+.! l t.m.n.(.H./.a.a.).).;X5X).).m.:XeXwXm.r.u ] e.t.A 2                 ",
"          . 4 q.%Xg.w kX`.: b : eXwXwX@XK.H.l./.AXMXzXzXxXNX8X8X>XxXY t.yXo.Z.~.'.W.=.=.[.[.'.Z.W.W.W.'.W.O.Y ; % ~.'.JX].].].|.|.|.|.!.}.{.!.{.|.JXO.: z y a.$.$.7X,XyXF./.wX;.+ [ V * x.LXCXMXCXMXCXKXCXKXCXCXCXZXVXCXVXDXCXSXCXSXGXVXKXGXIXCX;Xu ] E NXkX(.rXMXxXVXvX(.5X/.(./.:X(./.1XwXqX8XeX8XkXAX] . . MXbXAXmXmXZXbXAX0X0X0XeXxXAXAXMXZXKX( p HX|. X!.{.}.}. X X{.{. X|.|.{.R.{.}. X X{. XJX|. X|.|. X X X X|.Q.v - w.7 K.F.1.X.&.+.v &.A.`.wXxXY O o . 8XcXcXjXjXvXFXIXvXFXvXjXa.`.a.'.jX8X7XvXHXHXVXrXzXzXvXHXrXvXGXLXHXGXLX6 X 7X8Xn.vXVXGXHXjXVXjX5X,X8XkXjXjXvXVXwXjXa.l NX^.:X^.^.} F             ",
"      . P <XqXdX@Xy.1XxXrXi x eX#.@.u e ] ] r ;.eXAXMXAXeXb.l L A t # + a > 8 o.} w.wX} E } } t.a.: $.W O.7 . a._.FX].!.h Q.!.{.E.].}.|.!.].].|.].JXFXjXv $.~.n.(.rXwXMX8X5Xm.* i m.i o MXCXxXNXNXzXHXVXNXVXVXZXCXZXMXVXZXCXVXCXVXCXSXVXHXVXVXLXGXc.t.O kX(.(.xXrX`.m.%.p.p.p.p.a.A.A.~._.8X).).(.(.).).rX5 Y xX/.`.5X`.AXwXeXeX:Xm.:X:X8X3X8XeXAXb.y W.Y.R.|.{.{. X X{.{. X|.|. X XQ.Q.{. X X{.R. X X{.{.{.{.R.{.{.!.!.}.[.o.1 a bX6X/.).).a.A.o.o.i.tXz ; & *.jXjX[.[.].].FXrX[.rXY ; L /.+.zXa.n.&.j O.O.m.`.eX8Xz = o x a.(.7XxXwXO 8XGXzX5XxXrXkXzXtXVXxXjX_.&.~.(.(.`.5Xz.a.m./.,Xa.`.t.m.(.c.u D         ",
"    . 3.wX0X~ ) D X xXkXm.i x } 8 . r I t } 9 A ZXLXPXMXVXMX] PXPXPXAX+ X 1 eXwXc.wXPXGXCXCXLXZXCXxX+ 5 r.7 8 ~.'.].}.}.T.T.!.!.].|.|.|. X|.|.|.|.}.].].*.v y $.%.b.n.M.m.M.= u m.M.i = W CXkX).7X8X8X8X`.5X`.(.(.,X^.(.F.^./.;X/.,X_._.).eXrXkXc.VXO 6 +.xXIXVXVXVXrX(.7XeXkXxXjXcXtXcXyXjXjXtXrXrXjXjXzX} a.IXkXvXjXjXwX(.`.).n.~.n.).~.'.).p.c.6 6 m M U.{.{.!.{.}. X!.!.{. X|.{.|.{.{.{.{.R.R.{.!. X XR.{.{.h h T.Q.Z.O._.- 3 ZX/.(._.)._.).a.L.F.:X%.* = $.'.~.~.=.*.| N b O.Y % + 5 ' } ' :X8Xw...( p.(.wXeXz.z.r.t.r.r.c.r.^.eX% lXVX(.kXeXr.J ! @.) T ' ( ' ' ' ' ;.! K ! r r p.n.a.$.#.} } t.] > G     ",
"    . nX<X<X:X9XbX@ p.kX(.w L 6 r.wXKXCXVXCXVXMXeXMXLX} UXMXc.IXLXPXPXC X qXPXLXCXVXCXLX8XMXCXMXaXDXjXi.8 yX*.N V.].JX}.Q.g Q.Q.!.|.|.JX{.Q.].|.}.Q.].].].[.'.'.%.{ i = i i i | n.n.i = ; p.eX`.`.rX`.rX5XrXrX7X8X8X7X7XeX8X5X5X5XyX).kXxX).rXxXrXVX< * X @.m.(.eXm.:Xp.w.F.p.p.A.A.A._.A.)./.).~._.`.5XxX#.u cX7X`.tX7XjXxXxXzXjXjXjXjXkXaXrX7Xc.6 X k W.T.h E.!.{.{.}. X X{.{.R.{.}. X{. X XE.R.{.{.{.R.{.Q.B.B.Q.m Z.j j L.; 0 0.; y : p y v v +.+.j } . . . v n v p 8 x u i Y X A KXZXbX' . CXCXVXZXMXNXxXMXNXNXVXHXGXCXVXIXVXCX(.O zXCX6XkX6X#.r.z.w.l.p.p.p.p.m..Xc.m.c..Xc.r < dX:Xn.n.a.a.a.} w.L #     ",
"  , Q 0X0X<XH.) f.F ' 8X(.w ; :XVXMX:XMXNXkXMXlXMXrXUXrXeXrXeXeXeXMXKXCXX MXCXMXIXIXNXVXMXMXCXCXxXxX[.].].}.FXFX}.].].W.M B.W.}.JXJX|.|.].!.}.|.Q.!.!.[.W.[.'.].vXvX'.n.'.} < i n.} x w * . < { t.p.w.} %.} } %.$.+.] E Y } @.+.@.+.#.).(.} * m.UXUX% * ; . . o 6 Y E qXyXyXi.1.1.X.&.1.1.i.p.v.p.q.' q.p.A % u w < q - 6 { t.t.w.#.w.w.p.r.} [ o ; | b m f h E. XR.{. X X!. X X{.{.{. X{.{.!.C.{.R.C.E.!.V.C.V.Q.Y.h : v s 8 - X r.} b.m.p.p..X0XdX:Xc.d.x.e.F . . c a.a.w.%.7XE # ;.LXZXZXMX1.BXBXMXMXxXlXaXaX7X7X7XxXzXkXxXMXaXcXi.O 8XzX7XzXwXwXzXkX6XkXlXyXkX7X_.tXkXzXkXxXwXV # 0.#.*.$.$.$.%.%.#.w &     ",
"  , 0 <X<X0X,Xm.E a MX5Xp.; ; aXMX3Xi.lX6XqX,X;XCXMXH.lXdXlXMXaXCX^.:XSXX nXl.6XNXNXMXlXMXlXZXwX4X4X_.].}.].W.V.].Q.Q.W.g Y.!.}.|.JXFX|.].}.FX}.E.{.N.].'.Q.].rX].[.'.~.`.rX'.%.X = ; i * * < * t o * 6 6 t 6 < * * * 6 6 i t 6 6 < 6 = = 6 i A A o * * < t i 6 A Y Y w.t.} ] _ E W [ ( ] } [ ! A t 9 4 + < 5 t > # > t A i < < 6 6 < < i i p y ; x M.: = N.E.{.{.{. X X{.E. X X{.{.{. XC.T.R.{.{.C.!.R.C.h B.U.Q.V.Z.f O ; w $ e.ZXwXwXMXVXNXGXGXLXGXGXLXLXLXGXcX~.).(.v 5XGXLXz - / SXfXdXNXMXMXBXqXgXlXaXlXaXyXtXyXqX3XaXfXxXkXMXH.X cX8X5X,X8X6XaX,X,X8X_./.,XcX_.tXyXcXjXyXcXR % l.a.a.#.%.%.%.} z - %     ",
"  + . #X<X#XqXdX^.H.8XwX5X6 l ZXlXaXdX3X:X3XqX1XfXH.>XqXpXpX1XgXMXMX1XZXX fX;XBXfXaXaXfXaX1XwXMX;XhXFX[.FX}.B.!.!.Q.}.{.Q.{.}.!.}.|.].Q.!.].JX|.JXJXJX}.!.N.].].W.].W.Q.N.W.[.`.n.Y # & * A 6 o 6 6 Y ] A | [ | Y Y Y { | %.} { b.| | | b.i A Y u < o o * i < * X . X 3 * * 5 5 w t w t t t t t 9 < * < < < > 5 < < A [ [ A x A u Y i u x } 6 6 * = X o N.E.E.E.!.{.{.{.{. XE.{.{.E.T.E.C.C.B.!.B.{.{.g V.g B.M Q.V.V.o.: T 7 % eXwX:X8X5X8X`.yX`.`.6X`.8XjXjXvXVXVXvXxXjXDXCXwX; 5 >.KXbXfXMXsXfXaXaXlXgXaXfX7XaXaXpXqXqXqX3XdXMXaXlX% CXpX6X3X6X,X,X8X>X,X/.>XA.F._.yX`.A._._.6XD 3 X.).).*.#.#.} } u $ 5     ",
"  @ 0 0 V x.%X0X#XqXl.(.(.6 7 5X:XaXqX,XqX;X,X^.p.J.MXBXdX6X1XlXMX3XdXMX5 K.qX3XlXfX6X6X1XqXqX6X/.,XcX[.hXQ.[.Q.{.Q.Q.].}.Q.].}.}.!.!.!.Q.].].!.].{.}.}.!.{.].Q.].].~.].'.].Q.'.'.`.} 6 | A t.} o * u U | { | x u u u u Y { t.t.b.t x = * o < X o 6 t t 6 i i 6 t i 6 = # < * i Y 6 i 5 u A < A A t o * * # = i Y i : y w i i A x u { u 6 X . v m B h M U.T.E.E.E.C.C.E.R.!.R.C.T.R.I.I.C.R.R.C.R.{.B.B.B.Y.B.B.W.g : n x @.# X AXeX^.6XtX6XjX8XtXtXxXxX`.jXzXjX`.tXjXvXvXcXaXkXO 1 / SXpXdXsXsXdX1XpXgXaXaXaXfXaXdXpXpX9XqXqXlXMX3XVX@ NX,X/.6XqX/./._././._.,X/.F.J._.J.a.a.z.G.1 & ; ~.a.*.| %.%.Y * % q     ",
"  @ @ / U V . D D #Xp.z.t.8 5 qXqXpX7X,X6XsX9X:X1XJ.;XpX>XpXaXfXgXJ.1XdXd...qXwXNXBXaXlXlXCXVXzXNXDXhX[.d n Q.{.V.V.!.!.|.].Q.Y.W.!.!.}.!.|.!.T.N.E.E.{.}.!.].Q.].Q.[.[.'.[.].[.W.n.n.Y * b.eX%.o X | m.(.UXn.n.n.n.m.n.n.n.n.t.M.M.M.M.| o = A { | | Y | | | | | x | | i * o Y t.n.n.*.M.M.n.(.| | < . X < n.a.%.%.%.n.M.n.M.M.O.%.M.M.Y = f N.T.E.E.E.T.!.E.E.I.E.C.I.Y.{.V.g B.{.E.E.E.B.C.R.R.B.C.Q.R.V.f V.N k s d ; $ 1 e wX9XpX6X7X7X6XtX7XtXjXxXcXkX7XtXxXjXtXcXBXtX(.,XX @ X.ZXsXpXpXpXgXgXpX3XpXdXpXgXpXaXpXaXdXfXdXfXaXyXBX- VX>X,X/./././.J./._./.4X_./.J.,Xz.@XA.l.H.5 # 7 n.a.%.%.*.Y : E $ F     ",
"  + ^ <XwXwX;Xr.. a ,X:Xt.8 5 aXwXjXaXqXaX3X<X<X>X9X3XqXpX6XpXfXaXpXfXBX1X) ZXNXNXcXBXcXNXNXNXxXNX8XlXzX(.c W.[.f V.W.].Q.!.{.{.{.!.!.{.Q.!.E.N.{.}. X{.Q.!.Q.].].M.W.[.'.[.].W.W.A.W.a.l t.m.i * b.`.(.n.m.m.m.m.m.m.'.'.n.M.'.'.rXrXvXvX= i M.| | x b b b b | x b | | A = # < ).8X%.=.=.O.=.W.} i m.Y l 5 W $.`.jX*.~.n.W.*.W.W.n.'.`.j = Q.T.E.E.!.E.E.E.{.E.E.E.E.E.E.!.R.R.!.E.R.R.R.R.C.{.C.B.C.V.B.B.!.V.O : : - 7 T 5 qXwXxXaX,X_.4X6XtX7XtXjXtXxXxXlXyXxXzXxXxXyXgXfXMX- @ ,.ZXfXfXfXgXfXBXfXgX3X3XcXaXyXgXpXpXgXBXlXNXaXqXNX- lX_.8X6X,X_./._._._./._.;X,X_.J.^._.)._.:X1 # q (.n.a.{ i ; x 8 % Q     ",
"  > .X#X,X,X6X:XO l.8XA.@.5 # 8XwX7XaXdXaXH.>X1X9XlXaXaXpXyX>XNXDXMXNXBXwXD SXNXNXfXlXlXlXgXdXlXkXxXlXzXxXjX=.= 8 k }.[.Q.!.Q.!.|.!.Q.U.!. X|.!.!.!.N.W.}.|.].Q.N.W.Q.M.W.Q.[.=.=.~.~.`.z +.5XeXm.m.rXm.m.M.`.n.rX'.n.'.n.~.rXrXm.].M.n.rX= | b | | x b b | i | x b | | i = # < `.$.o.*.%.=.$.%.rX{ (.xX`.*.j O.vXzX*.c *.*.*.*.*.M.~.'.p : ].T.R.T.I.E.E.E.E.{.E.E.T.E.E.E.R.V.T.g C.B.C.B.V.R.C.C.C.V.m g N n j : X.@.X.y.X wX6X8X8X/.5X`.8X8XtXxX7XyXaX6XcXtXxXzXtX8XtXtXpXDX- @ a BXgXgXyXnXMXBXMXlXNXpXuXgXfXaXuXpXdXfXgXfX,X6XMXO ,XaX,XyXcX,X/._.yX4X`.4X,X/./._.3X,XF.a.q.4 @ r.$.Y u . 6 Y z - + /     ",
"  > v.;X,X/./.l.w pXaX$.o.O X pX>X/.fX,X6X,X:X;XfXqX6XlXaXpX8XNXNXVXNXBX<X0 SXnXaXfXlXyXaXfXlXfXwXlXMX7XxXNXo.c n =.Q.h U.|.W.Y.Q.T.B T.]. XE.!.{.I.E.W.W.Y.M h Q.M.N.m M.M.b =.k b *.O.o m.n.M.m.n.M.m.rXn.m.M.`.n.n.n.n.'.n.'.n.n.m.m.vXi Y | | b b b b b i | b | i b i < o u +.o.a.O.+.#.%.).).j O.jX=.N W.'.=.c W c c { { t.} t.{ t.Y y p m I.I.E.E.I.T.Q.T.C.h C.E.R.R.B.C.T.C.B.V.C.R.C.!.g g V.n = d 6 y : ; w.y.<X>X+ qX,X/.,X4X,X8X`.4XlXxX8X6XtXyX,X8XyX7X8XyXjX[.hXMXa 1 qXMXsX$XhXhXfXfXnXfXsXgX<X4X4XsXuX3XpX3X3XyX,X,XfXF.J.kX6XyXaX/._.8X,X/.K./.J././.8X,X/.a.^.x.0 $ 3 & O z O.{ { ; * X ^     ",
"  @ Q l./.).A.o.q H.l.i.X.1 & >XyXpX6X,XyX,X6XaXVXaXaXlXlXpXMXlXpXMXMXBXmXG KXBXlXBXfXcXfXlXfXlXxXaX8X3X8Xp.(.`.~.'.[.U.Y.U.B.h N.U.B b N.N.N.I.N.N.N.W.B.U.W.].Q.N.].M.p p k i i x 6 o ; $.n.'.n.n.(.'.n.n.].n.`.n.m.n.n.n.n.n.`.m.m.m.rXM.* A | | | | b b M.| x i b i t < # < w.$.c o.*.*.=.*.n.x o '.=.=.N n W.~.=.c c { c $.} n.b.} 8 ; . = f p I.I.M U.M h C.I.h I.R.R.C.B.C.C.B.g V.V.C.V.B.f d X O O = * - . K x.$X1.5 aX(.5X_._.`.yXtXxXxX8XtXyX8XyX8X8X5X6X4XtXcXcXcXVXD 0 LXbXsX2X$X$X3X3XuXpX<X9XuX<X2X<XX.q.D.+X>XyX/.>XNX>Xa CX3X3X>X,X/.J.F.a.J.F./.,XJ.F./.6X6X^.d.7 - 3 { $.M.n.O.{ * # . -.    ",
"  @ / @XeXeXz.8 J l.$.^ ..5 & p.4X,X5X^.(.7X7X,X_.8X_._.a.K./.J.J.J._.2XD.S ZXaXaXcXcXlXyX3X6XdXwXqX8XqX/.,X^.).jX=.N Q.W.B.Q.Q.R.].f : Q.!.U.M B M m h Q.W.Q.Q.M W.W.=.: : . % . . . X . { 5XrXn.m.m.`.m.'.n.`.'.n.n.n.'.m.m.n.m.n.n.m.rXm.= = x Y | | | | | | | | A | 6 t 5 u (.`.~.M.~.~.~.N M.rX= 6 ~.N N N W.V.W.W.N W.O.M.x y i 6 O * 6 i : B M M M M M M N.!.g f g g h B.V.V.M B.g V.W.U.Z.: v v - O 8 . . R l.9X<X,.D ,X5X5X5X_.tXyX8X6XxX6XaX,X,XyXqXxXyX,XyXgXyXaXpXdX~ 9 pX>XuXuXhX&XuX2X>X$XmXbXG.0XgXiX3XL.fXgXuXpX[.D.Z.s 2 gXA.L.L.L.L.4X/.>XyX>X,X>Xl.H.^.i.J.$.x.$ # % $.{ { x u o . X % >.    ",
"  , / ;XeX5XF.8 E p.z s q 7 % u.a.t.*.m.).).z.#.*.O.#.+.o.W W X.@.&...X.a 0 <.+.t.z.:X/.^./.z.A.z.a.F.^.(._.7X^.O.. f N N f g B.].Q.B.Q.Y.].!.g f m m k M W.M m =.b X . 8 s *.n b N '.'.%.6 %.t.} n.5Xm.n.n.n.m.`.`.`.m.n.M.n.%.n.n.n.n.'.rXb.= . % u | A i i 6 * o X X . . . = c b `.`.~.*.=.*.O.(.6 y `.b n *.W.[.W.'.~.W.N A.n.{ Y w . o Y o = : B M.W.M W.U.I.R.B f C.Y.R.h B.h g Y.U.M m j d d c n = - 8 +.u._ q.G.j.1 o.kX_./._.4X8X,X5X:Xa.J.8X;X6XqX1X;X6X>X3X>X4X,X3X3XT a 9X>XD.uXgXiXuXbXnXZXSXBX9XgXnXnXhXKXDX*X$X4XL.L.D.G G $XD.A._.L.i.i.S.@XK.G.g.1.J.2Xq.3.i.1.9Xe % % . . . . + u U < 3 ;.    ",
"  > 9 @Xt.X.O c _.6X1Xz.T % % l L z.).(.(.(.(.`.8XtXjXxX6X7XxXxXlXkXcXBX0 2 J.3X5X,X8XfX3Xa.).6XtXcXVXvXVXcXxXlXxX7X(.n.c f V.B.V.B.V.M g f m f g : p k = . p i y O ; O.'.Q.Q.!.Y.!.!.Q.[.'.= i X M.UXm.n.M.n.M.n.a.&.a.M.n.n.m.m.n.n.n.M.M.M.b.A o & t X < A AXMXZXCXIXCXCXCXVXVXMXm.rX=.c O.v O.%.: O ; z { +.j $.{ t.t.m.).(.n.UXc.b.} t.b.t.{ A + o . : N m Y.M g U.C.{.h g N f f m m N n . f n n Z.x = ; Y _ e 0 Q ~ 0 9 u.p.p.i.p.x.:Xc.9XpX<Xo.P.c.x.@Xd.v.<.T P T F F R F F 2 G R i. .o.~ / y.@X*XS.+XL.u...q.@X5.D.s.D.P.R G H 2 0  .o.,.i.K K e.a e P J # R R 7 a ) ` 0.5 & . L w.p.t.p.eXm.* # G     ",
"  > 1 x.T z 7 &.:XxXwX^.a 5 a wX,X/.8X).5X5XjX8X8X7X`.jXtXjXxXVXVXVXvXDXG G HXDXVXcXaXNXMXaXCXDXvXHXHXDXvXVXtXcXlXNXzXxX7X`.Z.N W.h h g f m f c N : : n O ; x i o O Z.'.Q.C.C.I.E.!.I.T.M ~.X c [.`.M.t.m.m.`.rX6X,X`.aXrXvXkXVXvXvXvXjXxXVXrXrXxXAX+ X wXLXPXPXLXLXLXPXLXPXLXPXPXLXLXGXIX`.. 8 ~.W : 8 . . 4 u m.eX8XIXGXGXGXIXIXNXCXGXGXGXHXIXVXIXzX8Xc.* f m N g h M g V.h n n = d = O [.f m m f O 8 y 8 X . % #X1X0X> X . l.cXaXlXnXdXVXZXMXnXDXhXnXZXCXSXSXZXDX>XnXnX$XsXD.2 0XbXmXiXiXnXnXsXbXDXLXSXnX2XL.. X.uX4XhXgX2X2XhX&XR 2 *XL.D.P.D.5.X.3XBXSXCXpXMXg.q.1...&Xq.E 6 % & (.(._.).a.t.t.| t # 9     ",
"  0 @ 7 E E - ) p.^.^.#.q w _ eX7X8X).(.(.m.z.).(.`.(.(._.`.(._.`.`.8XtXF.G cXaX6XtXA./.fXlXkXaX_.`.)._.6X8X`.8X(.(.`.).).jXjXO.m n f f f f f O.7 = X * r . 6 6 ; o v N Q.Q.B.E.R.T.|.!.].U.W.W.|.M.f `.n.5XrXn.&._.,X_./.`.~.8X~.).Z.'.eXrX5X7XeXMXX .XPXLXZXAXeXeXeXAX5XrX(.).(.7X`.8XkXMXm.L O.l 7X,X8 MXaXdXMXxX8XkXMXrXrXrXkXxXkXkXzXVXtXzXrXrXxXxXIXMXb.X = f N M g h m '.O X O - : =.n W.k . X & & # 7 G X.y.@Xd.- # O u._.L.L.hX4XL.yXL.L.L.L.L.&XL.L.L.$X&XL._.hX4XhXP.G uX$XgXnXDXnXnXBXSXKX&XL.L.P.Z.P.hXL.P.D.D.D.L.L.&XL.s &XhXhX*X>X2X4X$XL.BXKXf.S.S.L.i.K.pXBXaXL X X A.).A.%.{ %.#.{ t O 2     ",
"  -.@ ; T ) l _ i.l.z.H.q 5 @.(.eX5X).).(.).(.(.(.,X(.,X(.(.(.).)._._.6X4XG hXgX6X,XA.aXxXfXpXyXfXhXaX7X6XtX7X6X6X5X7X`.7X5X8XrX8 s f d : : . . . % .X.XAX;.+ > X y X =.N h !.!.!. X|.].!.V.!.!.T.m : =.`.rX5XrX8X8X_.`.5X/.)._.aXyX6XyXeX5XjXrXkX.X> PXPXCXwXMXZXMXMXMXxXvXxXlXxXzXzXxX,X7XCXSX:Xz DX8X8 MXaXqXqX,XeXeXeXeX:X^.7XpX6X7X6X,X3X7XrXeXxX7XeXzXVXm.. . : d n j : . X O . . . . j v v O.X % 4 r f.K. .y.<Xc.% # @ @XiXhXhX4XhX4X_.hXhXL.[.hXnXhXL.[.4X4XL.hXo.L.gX5.S hXK._.nXhX[.L.L.L.L.&XL.L.&XL.L.L.L.P.L.&XL.L.L.&XP.G L.-XL.L.S.h.K.+XoX%XL.5.D.D.8.5.5.S.,.S.x.& . ;Xp.(.~.%.O.{ [ 4 #       ",
"  6.@ w ...._ _ ^.(.z.$.6 q w.eX^.).(.(.(.(.(.(.(.:X(.,X:X^./._./._._.,XH./ gXyXlXi.,X8XfXaXyXpXlXgXyXyX6XtX7X`.tXtXjX8X7X5XjXzXz = n j - : O % ..#XAXAXAXAXt < _ _ o j B U.W.I.I.I.g h h N B.Y.U.=.~.~.rXkX5X`.yX`.`.jXcXvXzXtXtX6XjXxXyX`._.yXAX:.:.PXLXAXbXZXMXMXMXMXxXxXVXNXVXzXVXVXxXxXNXVXGXi.cXVX; l.8XaXaXlXxXlXkXqXwXaXaXaXdXaXyXlXzX7XxX(.eXzXeXrXdXxXl . # . . . < } zXMX1Xr.p.E ; O.v o.X 0 5. .s.D.S.3.0Xd.% $ % x.L.&XhX2XgX4XhXhXL.hXnXnXL.L.hXhX&XL.hXnXL.D.hX .H DXnX$XL.&XL.L.&X&X&XL.hXiXL.L.L.L.&XhXL.L.L.&XL.L.R 2 P.L.-X-X+XOXoXoXD.D.s.+XoXS.f.D.5.5. .G.q.X X l.m.).n.O.} _ I % $       ",
"  .X@ J ^.F.$.w.(.,X8X(.4 q #.5X/.).(.(.5X8X5X5X`.,X:X5X,X_.8Xl.l.l.w...R F $XaXNX6X3XaXdXqXfXdXaXaX,X,XtXxX7XtXjX8X7X5XjXjX`.zXo.O 6 ; l ; q P 0XbXmXZX.X.Xt < ' ; . . : f N B : : X = O : : W.f W.jXjXkX8X8XrXtX8XtX7XtXzXjXzXvXjXyXvXcXxXjXtXZXC .XPXKXAXlXBXMXMXMXVXzXzXxXVXvXVXzXzXNXNXxXxXVXaXo.8XO ^.yXaXdXaXaXaXlXdX8X6XqXkX6XdXyXaX7XwXxXMXxX5XzXrXp.[ L [ . > t.NXMXMXNXxXeX:X5X^.8 X # 9 - 1.5.>. .2.h.k.:X! + V + wXuX&XiX2XhXhX2XL.hXhXL.hXFXnX&XhXL.L.[.nXhX4XiXH P.nXgXhXL.L.&X&X&XL.L.-XL.hX&X&X&X&XL.-XL.L.L.P.L.L.G 2 P.P.&X-X=X+XoX=X=XD.S.oXD.f.8.5.5.3.5.R >X. @ X *.~.O.{ W z u A $       ",
"  6.+ 0 u.F.a.).8X7XwX,X5 6 p.eX5X(.(.(.5X5X5X5X5XeX(.5X8XMX/.R R D 1 1 ` R J.yXlXlXpXaXpXyXpXcXfX8X3XyX_.tXtXkX8X8XyX`.`.tX`.cXz ; . E z . 4 + D 4.#X<X;.t * % E 9XeX:X;.] = . : o v v f b : b : O.jX7X6X7XkXxX7XtXjX8XzXzXtXjXxXjXvXjX7XjXtXtXaX5 KXPXVXMXxXcXMXMXzXcXvXVXvXzXzXxXkXzXMXrXxXkXVXNX. 6X% t.aXkXxXaXwXkXwX6X7X6XfX7XaXaX6XaXxX6XrXVXVXz.I Y O l 5 qX%.m.VX`.^.;Xz.x.c.l.,X1X@.; . + -  .D.>.9.H 5.+Xa . 3 5 % 9X*XhXnXhX4X$X2XL.2X4X&XgXnXnXgXnXhXL.L.hXhXL.nXG D.BXgX3X2X$X&X&X-X-X&X&X&XL.2X&XhX&X+X*X*XL.&XD.hXL.G 0 &XL.P.&X2X*X&X&XiXK.P.5.8.h.7. .5.1.G i.MXX + U ).$.x b | W z { %       ",
"  >.X w H.^.p.$.,X7X8X:X5 6 #.).(.).(.5X5X(.(.(.(.`.)./.aX,X7 - ^ 4XbXMXwX% A.8XlX>X6X6XyX,X6XyX6XyX7XtXtXyXtXtXtXtXyXyXyX7X7XzXR ; i.@.u.u.c.p.] J . . u _ $ . eXwX0XwXAXbX;X^.O = b k b f k '.= l $.`.kXkXtXzXjXjXtXxXcXtX`.tXtXtX`.tXtXyX4XyXaXq PXLXVXxXcXVXVXMXzXNXzXxXkXVXzXxXxXzXNXxXxXzXzXVXo.z.- p.xXwX7X6XrXwX5XqXqXqXqX6X6XdXkX8X8XlXrXrXzX7X. ; 8 Y c.L m.zXGXm.z.eXwX1X@Xz.p.1Xt.. ) y.oX+X>.P.&XD.1.R W %.rXrX% u.uX$XhXgX3XuXhX2X_.gXgXhX_.yXhXFX[.L.L.FXL.L.hXG 0XnX>XnXhX2X&X&X&X&X&X&XuX&X$X$XOX-X=X*X+X&X*XuXL.2 G 2 *X&XL.L.&X*X&X+XD.D.+XS.7.2. .2.2.D. .K.eXo & # u 8 L x O.{ 8 y *       ",
"  9.X a 1X/.$.E :X5X5Xm.; 5 @.).).5X(.5X`.5X^.5X:X`.).,X3XF.w _ VXDXzXcXlX# :X,X,X,XpXyX6X6X6XyXaXaX5X6XyXtXtXjXtXyXtXjXyX8X7XNX7 L LXSXVXNXlXMXdXwXwXp.. 6 3 ] #X0X.X#X0X0XqXCXm.; c p X ; | = X 0.q.a.VXzX8XxXkXjXxXxX`.7X7XtXjX`.tXtXjXtX8XzX:XJ PXGXzXzXzXVXVXzXNXNXNXzXzXxXlXlXkXzXzXzXkXkXvXVX`.#.% z MXwX9XeXwX6XqXlX6X6XlXdXaXNXwX7XkX7XwX8XwXxXl $ $ $ < # c.MX7X).`.8X8X6X6XqX8X8X[ u xXBXBXBX@X2XZXVXL x jXjX[.vX5 ( hXhXhX4X/.uX3XuXgXcXcXhXhXhXL.hXL.L.L.L.hX[.L.H L.sX>X$X3X2X*XL.L.L.&X*XiX&XD.D.=X*XOX*XOXD.*X&X-X9.a Z P.L.P.-X*X=XOXS.7.D.D.7.s.f.7. .X.3. ...} X X % . & # . . . t Y t       ",
"  >.X D H.F.&.+.5XkXwXeX5 6 p.5X5X7X8X(.(.8X8X`.8X)._.,X/.F.jX8XDXVXjXzXwX& _.(.,XyX6XtXpXaXaXtXyX7XyXaXxXcXtXtXtXjXtXyXjXtXxXzXO ^.NXaX/.l.z.^./.^.8XMXm._ UXMXMXeX.X:X#X0X1XqXt.y : i : o #.} w #XqXu.w.8XMXxXtXxXVXzXkXtXjXtXjXtXjXDXjXcXvXVX] w PXNXaXxXvXVXxXzXzXcXVXNXzXzXzXzXxXzXzXvXvXxX5X} wXaXs R MX6X6XwXqX6XxXaXaXlX8XpXaXaX7X6XyX,X1X8XaXkX,X5 . . # e IXzXzXvXa.(.tXxXqXwXaXxXW 8 8 l T ^ ^ F Q I O %.~.'.n.`.x ] iX&X2XgXnXhX3XaXgXhXhXhXhX4XhX4X&XL.hXhXhXL.- d g.gXyX4XL.L.2X&X-X-X*X&X&XhX*X*X*X-X=XoXOX-X2XD.-X&XH a L.P.-X-X=X+XOXD.D.OX5.5.f.5.5.5.5./ k...L [ = . X o 6 E W Y ).@.e       ",
"  >.X ~ @X^.i.*.5X8X,XeX6 q m.).m.$.(.tX(.~.z.a.t.`._.8X).`.VXNX5XNXNX7XwX# (._.aXaX6XfXgXaXlXaXaXyXaXtXtX_.7XtXtX6XtX7X6X8X8XaX; J.F.a.u.F.H.H./.^.7X7Xz.:XeXwX#X:X#X:X<X:XAX1X8 = y x = 8 c.x.e.@XAXz.. ; a.NXxXzXzXtXVX7XjXzXtXtXjXvXVXxXkXxXe.< LXIXwXxXxXMXzXzXxXzXzXMXzXzXxXxXzXtXcXxXw.).+.W HX/.s 7 uX6XpXaX6XqX6XaXdX7X6XqX6XqX8X3X,XpX6X5X,X,X3X/._ _ % 6 NX`.vXIX(.(.6X8X/._.^.c.0.5 9 c.<XeX0X9 . . ; %.| M.| M.t.[ L.+X+XiXgXuXuX2XhX4XL.4XL.4X3XL.4XL._.4XhXL.d - ; nX4X2XL.&XL.*XiX&X&X&X&X&X2X*XoXoX=X-XOXOX-X&X&XiXG S &XP.D.&X&X+X+X+XP.P.5.i.5.2.5.2.,./ F ) u Y * (.m.n.n.(.rXrXi i $       ",
"  4.. ( ;Xz.w._ H./.^.H.q 8 #.+.j { 8 F.$.z o.o.z $.W i.a./.8X_.o.l.6XH.^.q F.kXaXfXaXaXtXyXtXyXtXaX7X7XkX_.tXzXyXt.a.#.F.(._.xX- l w.K q.q.t.w.F.).,Xz.:XwX1X;X#X:X.X.XUXeX7X] ; x ; = 8 6 7 ,.4.#XeX;.$ ; . ) 7XkXzXxXzXjX7XjXtXjXjXjXtXjX7XxX;.< r.PXxXwXxXNXzXzXzXxXxXxXMXxXkXlXxXxXjXjX7XtXvXrXa.o.c X nX3X6XqX8XeXqXaXdXaXqX,X,X3X1X4X3X3X3X,X_.,X8X6XaXCXw t IXvXvXrXrX7X6X_.(.`.m.:X6X..0.bXZXMXZXc.# o i b M.rXrXm.u t / D.5.&X2X-Xj.*XD.L.K.L.L.hX>XL.hX_.4X4XhXL.&.s @ 0X>X@X$X2X&XuXL.&X&X&X+X&X*XuX0X=X=X-X&X&X+X&X-X*XG 0 L.L.&XL.+XOXOXD.5.P.D.P.9.5.2.G ^ / a >Xz o * 5Xn.a.n.t.t.t.t u 3       ",
"  -.+ D q.r.w._ W J.F.z.8 5 x W W x z +.j o.#.W R x R O.+.W o.$.E o.s l T a _ 8Xa._.aXxXgXaXaXpX8X6XaXaXaXaXlXaX8Xz.:X^.z a.7XtX. 5X1X^.F.l.H.:Xa.).t.7XMXMX9X<X1X:XqXeX:Xm.L 8 Y %.O.$.u Y I X./ .Xm.t - 3 ; . _ VXcXkXjX`.yXjXjXyXtXtXtXjX[.xX0.> . LXVXMXVXVXCXVXVXVXzXvXzXzXzXxXxXxXtXkXzXjXzXzX).$.E & :XwXdXxXwXMXMXxXMXMXBXdXdXlXlXaXfXaXfXdXfXfXyXdXxXMXp.u GXzXkXxXjX7XaX5X`.`._.xXVXL.i.nXqXwXMXMXX o | M.M.n.rXrX= i s.#XF 0 %XbXmX0X$X$XL.5.uXnX2XL.hXA.L.aXhXL.d o.o.o.4X2X3XuX$XK.&XS.&XP.OX*X&X&X*X=XL.-X&XD.-XD.L.&XG 2 OXP.P.D.D.8.8.8.P.9. .9.2.>.>.>.3. .0 5 X ; . } (.%.*.%.%.b.Y u ;       ",
"  -.% ;XeX5X).m.a.q.z.z.l 5 _ &.o.a.F.a.a.a.).).A.A.).).F.+.a.z.F.F.i.i.z ; a w : z ../.).K./.4Xi.i.F.K.F.F.q.0.... 0.z.l 8 } L o u l i.$.$.t.:Xn.$.5 ( 1X3X:XqX0X:XwXeX] . . u y X z %.. o 0.bXc.UX< X . . ; . l CX7XNXcXvXvXNXVXtX`.tX_.`.5X5XeX. . . 7X8XrX5XrXrXzXrXrX8X5X8X8X8X).(.^.^.).a.F.(.z.@.5 ; e wXdX:XeX:X:X:X:Xx.c.c.c.d.u.1.t.r.u.i.l.u.g.d.d.6.! 5 MXeXm.7XxXdXqX9X3X,XF.lXDXpXJ.uX9X9XwXZXb.6 n.M.M.M.M.M.i i f.v.^ 3.9XdXd.p._.4X3X3X3X2XL.tXfX3X_.tXyX&.o.a v '.Z.Z.i.l.A.D.5.5.D.D.&X*X&X-X&X+X-XL.D.P.P.5.P.L.H S  . . .G  .H / G a H  .>.G  .X.3.3.1 1 @ % . [ m.n.W } $.} } A A $       ",
"  F D VXCXGXVXxXNXxXeXeXL $ w.+.$.a.#.W W W o.c &.o.&.o.8 v z R z o.a.o.` % . L a.~.^.a.; ; 7 L t.a.a.t.i.F.).^.eXw.w.o.E p.E z.o.+.a.t.a.~.m.w.$.i X < 8 W } w.J & Y { } } w.m.VXDXVXvXVXCX# E IXVXVXVXMXzXlXkXkX8X_.VXGXCXGXGXGXkX/.MXVX^.:XMXc.0.MXGXIXHXCXVXVXrXm.eX`.kXwX,XkXkXNXVXxXVXxX^.jX7X' E w 6 $ . U eXwXwXbXdXdXMXbXsXqX3XfXBXyX,X1X3X;X1X:X1X^.z.o X Y } t.p.r.l.x.d.c.c.w.z.@XqX3X>X/./.:XwXwXw.} | | | c 6 o } a 7 W a o.O.8 s = 8 T $.) R q z O.8 8 x y y N m V.V.V.V.V.n S g d S H n S R R o.R G F  .X. .d G G G C a G R F F R / R D.G.f.#Xj. .G.X.i.$Xu.. @ & 0.5X).).).} W b.] [ r 3       ",
"  0 e >X5XNXVXjX7X8X6X(._ 5 j 8 w 8 8 W y W x z O - ; a a K o.@.@.8X,X,X^.l O $.).kX7X7Xp.. o VXGXDXVXVXvXDXDXvXVXVXcXcX6X3XdX^.L #.kXO.+.x 8 ; * 6 ; . ] . L E xX(.zXIXHXIXIXGXGXHXHXVXLXGXO W IXVXvXcXkXzXwXzXkX8X7X7XxX`._.8X5X8XaXxXzXxXxXVX. :XPXLXGXPXGXGXIXIXvXIXDXfXcXGXHXCXNXSXGXGXGXGXGXCXVXwX* e $ #XCXKXCXKXSXDXGXSXBXNXpXdXDXBXgXpXfXfXnXZXBXMXwXMX3 } UXp.5XkXpX,X1Xl.3X,XjXkXjXVXVXVXvXVXVXxXzXVXVXzXeXm.x X a.SX`.A.A.A.A.'.[.yX`.tX_.)._._.~.z.. o u p : N W.Z.C.n g C.C.Y.Y.Y.C.R.V.V.V.d P.D.o.P.@XgXnXfXhXgX9X@X@ 1 2X&XG.%X2X2X%X$X*X%Xg.+X;XG.7 ` 1XqXu.@ $ :X0.W ).~.n.} | t.b.Y 5       ",
"  9 - $.%.^.`.a.t.n.5X^.w.; ; w & $ 8 %.O.v = E o.....F.K.J.$XK.K.G.K.q.r.a - 6XxXaXaX8X7XI X o.VXaXjXtXtX).,X,X,X,X5X8X,X3X3X0.D _ z - . . ; ; X o o u } rXrXzXVXxXjXjX7XjXkXzXxXxXkXVXCX(.o tXvXxXtXjXzXrX7XtXtX8X8XxXrXzXkXkX8XkX7X7XkXkXyXCX7 e GXaXjXDXxX8X7XMXkXrX3X`.aXkXlXaXVX6XlX6XxX8XxXaXaXdXD 0 % wXSXDXSXCXVXNXnXL.%X0X0X0X+XS.9XuX2X2XuXgX9X0X7XdX4 MX5XL.a.~.tX5X$.p.xXzXcXvXvXvXzXvXxXxXrXrXkXzXzXzXxXMXeX# q.ZXD.L.hX&X).A.A.[.yXcXlX_._.A.Z.yXa.8 8 p : v N N V.V.{.V.C.V.R.R.Y.R.!.Q.V.S n  .D.L.L.gX9X9X1XG.>X>X1 ^ s. .s.h.S.j.D.S.S.S.G.S.@Xj.R G.H.@Xl.% @ E ( @.%.} +.+.b.m.b.E 6       ",
"  2 % z #.a.a.a.(.).8XA.a.& j x o O 5 z %.; p.^.;Xu.g.D.+XK.K.G.+X$X@X%X;X$ % KXdXqX8X8X7XlX/./.yXtX,X,X6X,X6X8X8X,X3X,X7XqX9XwXK ; - O % 6 o z x (.m.kXxXzXkXkXjXrXxXjXjXrXjXjXtXtXkXlXrXW X GXvXxXjXxXjXxXxX8XjX8XxXkX7X7XxXxX8X8XaXlXcXkXyXaXq ) VXzXNXxXMXBXZXMXdXdXlXlXxXfXlXMXNXcXlXlXlXcXlXdX7XwX( > 1 ZXZXBXnX2XJ.D.4. .fXnX0X<X%XsXsXuXiX<XgXgX<X0XwXwXX 3XxXcX(._ u.p.z.).5XjXrXkXzXzXkXkXjXrX7X7XkXxXrXrXrXkXrXt ` KX&X&XiX&X_.[.[.L.'._.A.L.A.o._._.tX'.: ; 6 d n Z.n C.Q.{.Q.R.Y.R.R.R.R.R.V.V.o.R A.D.f.0X9XeX<X3XJ.G.7 pX%X+XoXs.j.S..XoXj.j.oXoXh.D.7.%Xg.g.g.@ X ( w.#.t.{ #.@.b.} u Y 6       ",
"  0 7 E o.&.A.a.a.a.A.&.t.u ; O X O o * l w.w.r.G.u.S.l.G.G.G.G.@XK.@X#X0XI 3 CX1X6X8X,X8X/.6X,X6X6X,X8X3X8X,X5X,X,X,X5X8X,X3XlXz a O.= = o M.`.~.vXjX7X7X5X7XrXkXjXkXjX7X7X7XxXjXkXkXkXzX5X; HXVXvXjXvXjXkXzXjX7XNXvXkXzXlXkXtX8X8XkXzXtX8XtXaX5 1.NXNXlXlXlXlXxXNXlXkXfXlXlXMXBXNXNXMXxXaXlXlXlXaX7XxX' 3 F LXDX-X*X&XL.iXiXnXfXcX4XK.L.gXfXsXpXsXgXdXpXmX<X~ D 3X5X`.(.z.z.z.z.n.).~._.).(.8XrX7X7X8X7XwXkXkXwXwXrXrXrXY ( LXBX<XK.L.D.Z.L.W.Z.L._.L.D.Z.L.L.o.'.z X = N W.W.V.V.V.V.Q.!.R.Q.R.V.R.Q.n n d R g.@X@X0XAXAX#Xx.J.x.- %XS.+X%XoXoXj.d.j.h.j.oXj.8.h.oXh.5.F.K.X + ( w.$.@.W ) } ] ] [ L 8       ",
"  0 x.F.t.W a.~.*.#.~.A.t.%.6 ; . O o 8 @XK.g.G.G.G.g.g.G.G.G.G.+X@X#X@X@Xv.r VX1X,X1X;X,X,X_.,X8X,X5X3XqX6X;X,X,X;X,X6X;X,X1XpXz - 7 6 = m.rXrXxXrXrX7XkXrXaXrXkXrX7XtXtXaXaXjX7X7XkXkXNXz.z DXxXrXxXzX7XjXzXxX7XxXzXkXkXvX7X8X8X(.tXkXxX5X8XfXa ;XSXBXaXMXlXcXlXVXNXNXzXlXxXMXNXVXNXNXMXlXxXlXzXzXaXkXu.% D KXiX>.*XgXD.2 cXLXDXDXgXL._.BXZXMXH.) p.MXwXsXsXu.dX6X~._.5X5X).(.t.p.).(.)._._.a.8X(.(.8XeXeXeXeX8XrXkXrXxXc.< CXA.L.>XF._._._.A.L._./.~.).D.L._.A.=.d x = : k n V.V.V.V.V.Z.Q.Q.V.C.R.C.g S  .Z.3X#X<X1X<X%X#XG.S.D.F +XoXx.oXoXS.j.j.f.s.f.G.oXj.k.@X0Xl.g.g. .@ r u.p.p.p.{ { { } Y E 4       ",
"  0 E /.).a.{ { z y %.a.t.t.6 X * { l _ x.1.R g.K.g.i.S.j.g.g.G.G.@X@Xg.G.` e NX8X@X3X/.>X/.,X8X4X;X_.,X3X;X,X,X/.^.(.>X;X,X,XqX7 % i | i vX`.rXrXrXrX7XjXjXkXjXkXjXrX7X7XkXkXkXkXxXkXxXMXeXx VXjX7XjX7X7XtXcXtX7XzXxXjXxXkX7X7X6X7X7XtXjXaXaXaXr c.BX:XlXBXMXBXNXSXZXMXMXNXlXxXNXlXcXBXNXlXlXNXxXcXzXNX:X1 :XKX2XR / 2. .P.L.hXSXDXgXgXZXZXCXMX3 < . _ MXsXfX>X;XMX).~.`.(.eX,X$.#.F.).(.(.).p.).xXwX(.5XeX,X:XeX5X8X8XxXz.% MX5X8X5XyXaX4X/.L.A.A.A.A.Z.Z.Z.Z.n O.= c 8 T d v g n n B.V.V.g h H g g S d d L.P.c.x.G.l.j.#X:X#XD.D F 0X+Xj.oXG.g.f.g.f.7.e.h.#X+Xj.j.G.D.i.y.u.@ X 0.#.a.%.$.$.%.} Y Y 5       ",
"  F ( o.z u w 8 8 l u q 8 8 . e c..Xz.d.x.y.r.s.H.G.g.g.@XG.g.g.g.g.G.l.G.q.I MX5X:X;X:X>X>X;X>X/.J.;X1XH.(./.:X/./.:X/.;X,X;X;X5 % w o = rXrXrXrXrXjXaX7X8X8XkXaX7XkXkXwX8XaX7XkXzXkXxXxXkX8 VXrXjXtXtXtX7XjXxXxXxXzXtXzXkX7X7XtXxXaX~.,X,X/.qX' q.lXMXaXCXVX1Xc.eXSXVXlXMXNXNXNXNXcXMXBXlXfXfXaXaXtXxXc.$ LXSXsXBXhX$X_.DXiXG 5.iXbXpXpXH.wX< . 4 q . wXbXBXpX0X1Xa.p.:X7Xm.z.).z.z.7XwX5XeX$.p.xX:X8XeX5X8X5X5X,X8X8X8X&.5 BXMXwXwXMX,X~.F.L.F.K.A.A.A.A.[.V.O O z ^.p.hXv o.d n d d f d f : d d d n d P.P.P.d.<X#XH.G.j.@X+XD.7 D <Xg.j.G.G.j.j.f.j.g.s.s.g.s.y.g.g.g.f.u.u.% $ @.E x } } _ } } } A %       ",
"  G e e z { { { } +.$.W = . l l.x.3.s.j.g.g.d.g.x.G.#Xu.3.G.G.@XG.G.S.G.#X0.w MX6XqX;X;X;X>X>X;XJ.>X;XJ.>X,X(.;X;X,X>X>X^.;X>X;X- - & o 8 jXrX`.rX7XrX7XrX7X8X7XkXkX8XkXxX7X7XkX7X7XaX7XwXw.8 HXtX7XjXVXzXtX7XzXcXxXVXvXkXxX8X7XkX7XyXF._././.aXr.D BXVXCXZX) % . . e.CXMXlXcXMXNXMXlXNXnXnXfXfXfXaXaXcX1Xq KXCXMXBXZXMXVXCXMXbXmXZXbX9XqXsX1XG.0.K aXH.x.g.dXy.0 r 9XwX7XwXxXxXxXkXaXxXwXMXtX5XxX8XrXxX7X7X6X8X5X5X,XeX6Xe.; MXe..X0X:XCXZXAXwXUX1X@X@X).tX~.=.'.5X_.F.6XMXD q *.A.o.7 o.A.o.o.o.d s o.l.x.d.<.k.x.x.g.G.<X@Xg.y.1 a x.g.f.s.f.g.j.g.G.j.k.s.3.3.3.3.s.f.d.g.w.# ; # ; ; * * 4 5 t t $ 1       ",
"  6.@ % O o o . . . . o * * :X@Xj.s.d.#Xx.x.j.g.x.#Xg.d.x.#XG.K.x.G.H.H.#XX.E aX5X,X,X:X:X>X;X>X;XJ.^.J.,X^.;X>XJ.^.^.,X;XF.>XF.O . O o n.[.`.rXrXrX7X8X8XwXrX7X7X8XwX8XwXjX7XaX7X7X7XqXqXq.8 SXjX7XxXVXzX7X5XjXNXxXkXxXkXkXrX8X5X,X_.,X,X$._.fXe.a VXMXwX% . 5 5 5 . CXNXNXMXlXBXlXNXNXlXlXBXcXaXfXfXNX..q LXSXNXBXfXfXnXfXsXbXpXfXfXqXpX2XpXBXfX>XfXBXgX%X<XD + 0 LXbX:X8X6X1X1XeX6XqX8X1XaXrX5X5XkXkXwX6X6X8X5X8X7X6XqX0.* wX:X<.v..X.XAX.X.X*X0X0X#Xi.*.).yXDXyXK.i.wX.X> X K F.i.o.R A.L.K.o.R ) <.y.d.#Xx.j.g.G.d.g.@X0Xd.y.1 5 +XS.s.g.s.j.S.j.j.f.k.s.k.3.3.7.f.j.v.d.I % 3 q a w t r < < * 5 5 9.      ",
"  6.# + ! } 0.r.p.c.c.[ & # c.g..Xk.d.j..Xx.x.j.k.d.s.j.j.3.d.g.S.G.G.S.x.q.@.eX,X/./.^.>X/.J._.>X/./.,XJ.J./.J.^.J.H./.J.J.^.) . L = o rX`.`.].jXrXrXkXkXkXxXrX8X8XrX8X8X7X8X8X7X6XqXaX6X6Xa NXjXtXzXjXyX7X7XjXzXxXaXtXkXxXkXwX7X5X;X8XyX7XlXNXl.e DXMXwX;.. . . . a CXNXBXMXfXMXMXfXMXlXlXlXNXaXaXaXnXq.a PXKXnXfXgXfXfXsXsXsXpXbXnXBXbX5.uXiXgX4X%XgX%X@XAX9Xe 1 MXBX3XaX1X8X6X6X8X;X;Xc./.7X5X5X5X8X8X5X8X8X8XyXyX8X7X$.8 aX@X:XwX0XZXAX.X[ ;.C C 0 - R 3X3XdXd.g.^..Xp.U % . R q.R O F ) ~ ^ ` <.` e.f.s.#X#Xx..X#XF.g.q.y.d.a @ 1Xj.d.f.g.j.f.g.s.j.s.k..X>.>.3.s.v.3.~ % # $ J e J r 4 A A 5 3 3         ",
"  6.+ 5 wXzXVXVXNXCXCXe.X # z.H.#Xs.s.d.x.#X;Xc.c.x.;X<X;Xi.g.G.u.@X+XK.@XH.6 xX,X/././.;X/./.J.H./.;X/.H.;X;X>X;XH.J.H.F.F.l.7 I ^.* . [.`.rXjXjXrXrXkXxXkXkXkXrXrX8XrXjXkXwXaXaXaXaX8XlXcX- VXtXtXjX7XxXtXaXcX7XtXkXkX8XrX8XkXtX_.aXxX8XcXaX6XG.7 MX6XxXqXAXZXI e.CXNXdXdXMXMXlXMXlXBXlXcXgXfXdXdXaXBX1.1 BXDXcXnXsXiXgXbXsXsX0XZXnXnXZXsX%XnXiX#X0X0X#X<XbXZXdX$ . lX:X^.:X/.:Xz.z.;X<X1XF.w.a.m.^.).F.,XeX:X4X8XjXrXrXW ; CXwX#X.X#XUXUXr..Xe.q.e a O 5 /.4XH.H.#Xx.r.eX0.% % o q.y.y.u.1.D 1.1.X.p.#Xy.) x.:X#X#Xc. .1.5.y.y.R % v.g.d.g.g.g.g.s.s.f.7.3.6.6.^ F F G > @ + . * r l u Y ;.} q 5 * <         ",
"  8.+ 7 ).jXtX`.7X7X7X..& 1 K.1. .j.K.i.m.J.4XJ.a...A.a.w.p.^.:XJ.G.H...G.) * 6X8X^.^.1X/.>X,X/.F.,X,X;X/./.A.^.p.i./.@.K &.q.^.m.U 6 } n.`.`.`.jXjXrXxXzXxXrXaXkXrXrXlXMXxXdXxXlXaXaX6XfXsX- DXpXaXkXcXcXNXVXxX7XlXkXkXjXxXxXkXtXaXxXxXcXcXlXdX.X$ . a.o.aXlXSXlXMXlXlXlXMXMXlXNXNXBXBXBXlXNXMXdXMXfXMX` # . LXDXBXBXbXMXbXbXbXbXZXZXnXnXnXnX,.D.<X*X2X<X<XgX8XwXq.# ..,Xc.^.z.:XlXCXMXdXlXqXeX:XlXaXdXxX;X;X<X%XG.a.z.n.l w 1X.XOX6.6.XX:.b..X[ <.v.u.8 - T ,Xi.1.i.D.i.A.a.- & X 4 ^ <.1.' 7 ) 1.q.;X<Xx.x.x.#Xx.c.s.1.S.@XK.u.y.@ 2 G.x.y.S.x.j.j.d.6.2.7.s.4.<.^ <.` ~ U % # 4 e 8 4 q 5 . . . . q         ",
"  6.X 7 #.$.=.'.'._.(.0.& l A.a.c o.~.L.=.O.O.o.8 . . . . * t.:X_ #.F.z.% O . X e L &.a.~.a.a.w.+.q.w.W 8 7 ; w 8 4 ; * _ ).p.w.A = 3 u X { x a.a.~.a.a.F.).^.^.:Xz.^.(.^.(.8X(.;X(.:Xz.H.K 7 ZX3X/.J.:X7X7X8X).(.a.a.a.z.).z.F.).F.a.p.A.i.z.+.t < 3 _ 5XaXxXcX8Xp.cXgXyXqX8X3XqXqXaX3X3X3X3X3X1X8XqX1XT - . 1X>X;X;XgXfXbXMXbXsXsXsXsXfXBXsXG./ G.gX3XS.sXZXbXwXk.a R I p.u.0.E ( p.r.@.t.:X0X;.wX0XbX<X<.v.v.x.x.~ . r 3 7 ..-.>.:.-.:..X;.b.;.v..X' o.7 8 A.L.A.X.&.A.K a + % r @ 5 a E ( z T I R P ! ~ Q ` U V ~ ~ / ,.;.~ ! ;.9 1 ! ! F Q ~ ~ P D 0 D V 0 1 9 X.d.<.;.;.[ % & X . . t U U U U U 0.        ",
"  >.. a F.^.$.&.A.~.,Xg.X J A.~.`.Z.n Z.Z.V.m g b O.o.% o . X . . q z l * X 8 } l * #.A.a.A.(.).%.a.tXtXA.).%.z.#.w.^.8 w.u z Y 6 o X %.n.w.zXVXNXVXCXSXCXVXlXyX8XNXDXVXNXvX,XpXMXDXHXGXSX> . H.7XdXqX9X6XaXaX7Xa.5XdXlX8X7X(.(.6X7XxXxXzXzXeX^.;.# _ z.z X.@.E . . 8 H.CXNXpX8XaXMXcXaX1X;X;X;X3X1X;Xv.~ # x.MXwX:XfXbXlXwX3XqXpXfXsXlX6XwXCXVX,X,XCXxXaXwX#X.XI 5 . ] lXVXVXCXNXzXxXCXCXVXVXNX).m.zXkX7X8X5X:XeX8X(.:Xp.% $ l.G.x.l.q.b.0.;.:.:.;.4.,.R R o.X.X.K.pXlXA.R &.$.c { c ; 8 W 5 * w L L T T L I K r r e e r r + > 9 3 1 $ @ 5 e I q 9 5 < r % . + X @ ` d.p.p.@Xd.+ X . r.0.w.z.p.m.z.p.^.e       ",
"  -.X ) aX_._.[.`.'._.q.. # a.a.[.Z.Z.n d g d Z.n n y o % [ } { u . . . o W n.5Xz.:XeXF.o.o.O.F.,X/.,XcXjXVXtXaX_.8XGX^.p.wX7X8XUX6 Y LXGX(.7XcXcXvXVXVXSXHXcXyX6XlXDXGXCXVXaXaXlXpXMXwXbX$ 0.lXVXCXLXLXSXZXZXVX3XZXCXGXCXSXZXlXBXaXfXCXVXGXCXCXwXX MXCXwX^.l.l.l.l.l.GXSXDXCXZXCXSXZXCXCXZXSXSXKXSXZXSXH.@ 9XLXZXVXgXlXfXMXBXBXBXDXZXfXzXIXa.kXxX`.rXjXDXvXY 4 % O wXLXGXCXVXVXVXVXNXSXVXMXyXfX8X).8XrXrX).8XrXrXvXrXvXrXO.F.cX,XF._.(.(.6XeXwX:X<X;.K.X.W A.a.v a 1.L.a n Z.c c 8 y i i * . ; W #.#.a.w.@.( ' T @.r.@._ r.^.:Xl.@.K $ ; ( ( <.0.} ;.0.] 0 > > + 9 ;.r.@.X.W z.> & # ^.w.#.#.#.t.a.$.t.L       ",
"  :.@ ' aXkX~.*.a.*./.c.# UXkX*.'.g n Z.f v n c o.O . ; a.m.~.n.'.%.o o X Y n.n.z.( U u._./.w.l.z.z.u.u.J./.,X/.A.K.K.;X4XpXK.3XMXe ( LXIX(.tXtXxXyXcXyXtXcX_.aXcX_.yXyXhXhXnXnXgXuX9XuXhX0 LXSX4X2XgXiXiX-XL.-XhX&XhX-XhXhX-XhXhX*X&XgX_.gXJ.ZXKX1 ZXSXZXDXSXSXSXDXSXBXBXnXgXgXiXuX2XiXiXhXgXgXiXgXiXiX2X- @ $X9X2X<X;X>X2X2X9X2X3X2XuXsXdXa F.(.(.`.n.'.jXp.5 q * PXSXMXMXMXxXMXMXaXeX9XwXqXwX7XdX6XwXwXeXeX7XrXm.eXrXrXM.(.GXzXt.} { m.7X1X7X:Xp.u.i.&.&.A.l R W W x j c j y ; = O O : = s &.O.O.a.A.a.o.&.$.v x 8 v c *.t.$.%.O.{ L 8 $.$.$.X.T z K 5 e 4 5 > 5 0...z z (.5X5 # $ c.} $.#.%.$.#.+.+.L 1     ",
"  G > ( (._._.(.a.,XeX+.# 1XyXj Z.W.n O n N &.a.x $ & +.n.M.M.N.n.`.8 X X z n.%.a.W # ^.wXH.F./.z.@XH.H.H.;X>X>X^.;Xl.>XG.>X3X6XZXe l PXGX5XaXxXaXfXcXyXaX3XhXaXhXfX`.aXnXhXhX*XsXuX2XiXnXS mXnX2XnX2XgXhXiXiXnXnXnX-XiXhXhXhXhXhXiXgXnXL.nXBXfXZX@ SXiXpXnXfXfXpX9XsXgXbXgXmXsXmXsXiXgXiXsXmXiXiXiXmXiXnX1 SXhXbX2X3XpXpX9XpXpX9XuXsXsXMXH.# w.n.8XrXrX8Xm.$.u 7 % pXMXZXMXMXMXbXAXwXwXwXwXwXwXqXwXwXqXwXwXwXeXwXrXxXrXrXn.} kXxXwXeXm.UXeXz.m.8Xc.' +.a O.*.N b | N.N n b | x * % $ - - &.&.Z.o.#.&.$.*.+.=.$.W W W %.$.*.W v a.%.$.O.s L #.w.@._ E E ] A U Q 9 V <.0.i.p.).:Xw # # m.t.w.w.} +.+.} } E 5     ",
"  2 5 U ).5X).).`.`.m.q X _ yXO.N W.o j v v O.`.#.= u ).n.'.M.'.].rX6 o X `.a.a.).z.% } a.8XH.z.u.F.x.l..XH.H.z.J.H.J.J.J.;X:X5XVXr a PXLX/.F.,X8XaXfXuX3X9X3XsX3XaXnX4XhX&XhXnXgXbXmXiXnXH -XnXmX&XmXuXhXiXnXiX-XhXnXnXhXiXhXhXhXhXnXhXnXgXnXgXZX1 KXnXbXbXbXbXbXpXsXbXsXuXiXsXnXiXiXiXiXiXiXiXmXiXiXiXL.2 &XBXfXsX<X3XuX3X9X9XpX1XpX3XgXyX& 5 ^.(.).n.(.(.n.] % 1 R KXMXwXAXbXqXwXwX0XqXwXwXqXAXwXwXwXqX9XwX1XwXdXwXMXMX( [ wXb.UXAXAXA ] eXz.u.^.y.t.=.c c N p p M.N.c b l O = y n f f n d d o.a.a.F.).W W O.O.W O.O.*.W { $.z c $.a.% l $.} @.t.+...r.r.` ] t U I ( )._.).(.a & < (.t.#.$.%.} #.%.@.L 3     ",
"  9 @ K p.'.8X5X(.(.:X] + % $.o.: c j %.v z j L = = ; %.%.%.*.{ %.| . . = 5Xt.n.).m.% c.8X8XF.F.K.l.g.u.H.z.#XH.;X;X^./.F.H.6XqXVXw q PXIX).^.,XfXgX3XpXyXnX3XpXuXuXnXgXhXiXiXmXiXmXmX*X-XS -XnXiX&X&XuXnXhX-XiXhXnXhXiXiXhXnXhXiXhXhXnXBXgXL.2X#X2 SXnXgXfXbXbXbXiXmXsXsXiXiXbXbXmXsXbXnXiXmXgXiXnXiXnX*XC nXgXbXpXuXpXsXpXpXsXsXfXpXdXlXBX@ - a p.%.#.%.} r.r.q 5 3 LXMXqXqXwXAXwXwX9XwX0X9XAX9XwX9XsXwX0XqXwXkXwXxXdXNXr.E CX[ UXCXMXb.t [ c.z.;X,X3X[.L.[.!.Q.B i %.c = s n W.Y.T.V.B.h g g m n *.W.n O.o.W O.W &.~.$.&.x { W W a.{ X w i.' _ @.( 0.@.} ( 8 w J l u.m.5Xm.(.R X o c.} #.%.$.%.%.@.t.E 1     ",
"  >.. ` F.vXjX[.`.8XeXwX$ @ . 8 W *.'.n.*.%.{ %.e O . . X . . . X . 6 u ; $.t.a.n.a.@.m.eX,XF.H.H.p.X.r.H.H.H.:X>X^.>X2XG.g.6X;XMXJ ; LXVX1XJ.yXlXMXuXpX6XaX>XfXgXpXuXgXmXmXiXiXiXiXmXiXmXS P.KXnXnXhX*XhX*XiXiXiXhXhX-X-XhXnXhXhXiXhXhXnXnXy.wXAX> nXsXsXsXgXbXbXbXnXgXbXiXiXsXiXmXsXmXnXbXnXiXiXmXmXnX*XG nXnXgXgXsXgXgXfXgXfXfXsXfXdXnXMX. $ 5 7 R T _ E +.0.e _ t dX0XwXwXwXwXwXAXwXwX0XwXwXbXwXwXqX0XwXwXbXdXdXxXzXVXO.#.HXxXkXa.Y t.t.L @.m.r.^.~.=.Z.V.V.W.'.A.&.7 - W.Q.T.E.T.T.C.C.C.E.R.Q.T.B.f d v 7 E O.M.=.c Y W } Y W E ; $ Y } _ I u z ( L W _ ( I L L +.$.t.$.p.E X X F.@.@.$.} @.{ t.} Y 4     ",
"  -.X H.(.xX[.`.`.rXwXwX5 % u...} +.m.a.a.t.t.UX@.# X O . ; 6 y { n.~.t.= u (.n.p.a.p.z.).F.z.F.l.K.i.H.@XH.eX:X,X>X,X4XA.K.;X,XMXI 5 LXVX,Xp.F.>XZX3X;XyXaX4Xi.3XnXgXmXnXnXiX-X*X*X*X*X-XH P.nXnXnXnX*XiXnXnXmXhXhXiXhXhXiXhXiXuXuXuX*XhXbXpXMX0X9 LXgXnXsXbXbXsX9XmXbXbXsXiXsXsXbXsXsXsXnXiXnXnXnXnXnXiXC gXnXNXfXnXlXBXfXfXnXfXfXsXaXaXwXu.% 1 $ 3 a a a 4 r < * # X 9 r.dXAXwXAXsXwXwXwXbXMXAXbXbXwXwXAXwXAXwXMXxXkXvX| a.VX8Xm.eXm.wXeX[ r u _ o.A.Z.Z.].Z.=.*.c z - n Y.T.C.C.I.I.E.E.I.E.E.T.T.B.N f f : : j p : ; c | O.x i ; * 8 _ +._ #.' ] @.} ' _ ] [ E L ] w.p.a.p.( X % ^.} } E Y L E } Y r 5     ",
"  C # I >Xa.A.L.`.(.).p.7 - ..+.Y $.$.*.n.n.n.n.[ # X X L +.a.%.%.=.=.n.x * (.n.#.p.p.m.H.z.l.z.p.l.l.,X:Xz.z.H.:X,X/._.A.L.tXlXVX( > LXCX7X$.i.dXZX<Xl.3XlXNXfX2XiX&XuXmX*X*X*X*X*XmXiX-X-X9.KXmX*X*XiXnXiXiXiXiXiXhXiXiXiXiXnXhXiXhXiXuXuXiX0XAX9 ZXnXsXsXbXsX9XmX0XmXsXbXmXsXsXsXiXsXsXmXuXbXnXmXnXnXP.G LXnXcXfXfXfXnXfXfXfXsXdXlXnXdXdXSX5 & % # K E a ; + . 0 [ U V . 4 eXZXwXAXwXAXAXdXAXwXwXwXAXAXwXwXAXwXwXaXwXjX8 8 rXwXc.x.:XUXA I ~ ] z.^.*.A.[.[.V.k n o.A.N [.R.C.T.C.E.E.E.{.E.I.E.E.T.C.g B.B.B.C.U.I.m B N N =.%.b # ; } @.' w.0.t._ w._ E } ] _ +.E E a.p.a.z.q.. & W [ W Y Y E [ W Y ; 7     ",
"  C 1 # - ..A.A.&.*.z.,X0 % 7 o.c O.$.%.*.n.'.(.Y # o u x 6 : y : 8 x i { ; m.).a.p.c.z.H.F.F.F.l.l.i.H.:Xc.- r.^.,X).L.L._.tX5XlXK 3 LXVXwX8X,XpX9X;XJ.>XsXnXhX%X2X%XuXnX*XhX*XiXiXmX*XmX-XS KX*X*XmXiXiXiXmXiXmXnXnXhX-XhXhX-X2XiXiXiXuXgX0XqXMX@ ZXbX<XdXbXpX9XwX9XbXZXbXsXiXiXmXnXbXgXiXiXiXgXiX*XnX9.H PXhXhXfXfXfXfXgXfXfXdXfXfXfXlXbXCX7 # 1 $ # . . 5 ( wXVXVXkXwXI + 3 <XZXwXwXwXbXwXAXwXAXbXwXwXAXAXwXwXAXdXwXzX6 { xXrXwXeXeXc.m.c.#.@.r.:XW o.Z.n k n Z.Z.'.n Z.B.C.E.E.C.E.C.E.E.E.T.I.T.B.Y.B.h h h C.M Y.N f k y ; o O 8 ( Y l L +.r.@.' ..W ( E @.w._ 5 z.H.).m.d.& X +.] { { { { W W u # ~     ",
"  9 1 z.i.7 o.&.&.A._.7XD > ..a W %.a.a.n.'.`.rXw & X ; 5 u u 5 6 4 # . o = Y ).z.m.^.^.H.;XF.z.H.^.u.l.,X#.% a :Xq.X.l._.3XyX9XMX! 5 LXMXzX8XaX6XqXqXpXfXnXiX0X0XiXAXmXiX*X*XmXmXiXmXiX*X-XS KX-XiXiXiX*X*X*X*XiX-XhXhXiX-XhXiXiXiX2XnXiXhXgXpXBX1 LXgX9XmXbXsXbXbXbXnXnXsXsXbXbXsXmXnXiXgXmXiXnXmXnXKXG S pXgXgXnXgXMXfXfXfXfXfXfXpXgXfXBXH.5 3 5 $ % O p.qX7XxXrXeX:XeXwXt # . CX0XAXwXAXwXdXAXAXAXwXAXAXqXAXMX0X:X1X(.* { MX8XxXxXkXwXkXtX8X8XwXeX^.a.).~.~.Z.N O.O.v X g C.I.T.E.I.E.T.T.I.h M h h g g M h M h C.V.n j . o & < 5 o 6 6 8 4 q 6 w a w l a 8 e u l Y z.^.z.m.x.X . p.%.} } %.} } { %.5 e.    ",
"  @ T >X/.F.A.=.~.a.z.).U 5 R 3 * W m.a.O.%.*.%.O # o 4 } } %.$.} } u w * * 6 m.).#.(.(.:X/.:X)./.^.H.z.l.T O . E ..l.1XK.<X:Xz.<XD V SXNXMX,XaXpXpX3XdXgXpX<X<X9XsXsX*XiXiXiXiX*XmXiXmXmXOX9.KXiXiXnX*XnXnXnXnXnXhXhXnXnXiXhXnXiX2XgXgXnXnX<Xq.d.1 d.BX9XbX9XiXbXBXgXnXgXuXiXbXbXmXmXsXiXmXgXiXnXmXmXmXS 2 $XhXnXfXhXgXfXnXfXnXfXNXbXMXMX,X. . . . . - 8 dXdXdXeXwXkXm.eXeX:X* & e.MXMXbXMXdXAXdXwXqXwXdXAXwX;XwX:X..E ; * X +.W $.#.w.a.a.~.a.m.m.8X8XrXtX(.~.&.A.=.&.o.d V.Q.T.I.C.I.E.T.I.h T.I.g f g M h M g I.T.g k d - ; Y ( L l R _ E o.W _ E Y W _ Y l 6 l 6 c.p.c.^.p.:X. . UX} t.} %.%.} L m.Y g.    ",
"  @ ^ ,X_.7X'.~.'.*.O.).r $ * # X . $ 5 : 8 ; % # o % q y = O ; y x u W L * * z L ; a.,X^.^.^.^.F.^.F.).z.r.e K R 1XwX:X0XeX:Xe./ 1 q 1X:XH.c.c.c.x.#X#X1X0XsX<X#XmXZXZXmXiX*X*X*XmX*X-X-XS 9.KXmX-X-XP.-X-X-XL.-X-X&XP.Z.P.P.-XK.G./.L.L.i.8 8 . $ . MX@Xx.<X3X;X<X>XG.>X3X2X4X<X;X2XuXgXgXgXmXnXgXmXmXG G 7.5.i.g.1.X...X.1.X.1...i.u.X.w F.,X7X`.3 . . . d.H.:XeXrX8Xn.m.p.. 5 J eX:XeX:XUX;X#Xc.eXwX;Xm.eX9XeXeX6X:X).o $.%.{ } $.| W { W W { $.&.*.*.=.*.$.&.O.o.c &.n m Q.R.T.M R.E.!.!.I.I.M g B m m m h C.Y.U.m j j x z W { +.$.#.} W E _ _ W #.+._ z Y 6 t 4 AXr.z.c.z.r.X & :X} } W L u L e L q )     ",
"  , e /.F._._.`.'.)._.7Xr 3 w eXr.+.t.p.F.*.t.t.% # ; e u u x a.$.} W W u o u t.m.(.(.).(.(.,X(.^.).^.:X:XeX:XqXkXwXaXaXwXwXMXMXwX. . #X<X<X<X<X<X<X0XwX9XqXgXnX*XiXnXnXmXmXiX*X*X*XnXnXmXH 2 G P.&XnXDXnXnXL.&.P.[.FXhXhXhXL.hX8XJ.a.O O o 8 W 0.* % 5 $.(.)./.aXMXaX8X/.a.0.F.H.r.q.@...X.X...1.D.D.*X9.G <XuX3XpXaXfXaXyXgXfX8XtXBXVXHXPXPXPXLXPXLXLXkX).; . Y Y { { x = = 5XGXIX7X7XNXNXMXMXxXNXNXZXlXwXwXdXwXwX5X5XrX6 xXVXrXrX5X5X`.5X7XjXtX`.'.W.A.~.Z.A.Z.&.A.A.A.v . Q.M W.h B I.E.T.h h B M.f : : : p N k f = = 6 Y 8 3 q j w z l L W W $.#.a.$._ @.+.l * ; eXc.z.z.w.Y + # I 5 O * o * t w w 8 3     ",
"  1 % D J a R T E W t.m.q 4 l _.$.l.F.(.a.t.c.r.% # ; 8 ; z $.O.W { L L 4 # Y m.z.).a.i.a.a.u.a.p.a.F.l.^./.F.z.F.^._.:XH./.6X^.>X) 5 SXMXfXpXpXgXpXgX3XhXhX&X&X&XhX&X4X&X&XhXuXhXiX&X&X*XL.G mXnXhXHXDXHXBXL.4XF.F.K.6XhXhX&XhX,X,XxX8 X L y Y u * o 5XxXVXVXVXGXLXLXLXLXHXtXcXLXLXLXLXGXLXSXyXhXgXZXLXH H LXLXSXSXSXGXLXSXGXGXDXcXaXcXcXVXvXVXcXtXVXHXLXLXLX7X6 o %.#.6 kXIXIXxXvXzXNXcXaXaX8X5XdX6X3XqXeX0XeX<X1X1X8XeXw 8XkXrXrXrX`.rXrXrX7X~.*.A.[.~.W.=.Z.=.O.&.*.&.X O W.N k h I.R.T.M M h B k : O O X : 8 : o ; w J U q <.i.q...$.+.o O l w z W } #.w.0.u O } ^.t.r.p.p.A + & . A m.eX`.rXrXrXrXrXz     ",
"  9 - J I E ..@.0.b.t c.5 5 ..a @.w.$.u.#.t.t.} % * 5 L Y z #.} Y } { } t * w.m.^.z.l.a.p.l.F.a.t.p.A.F./.(.)._.F.^.H.H.c.g.H.l.K.i.a 3X4X/.4X4X>XJ.L.2X2X4X4XuXhX&XhX&XhX2X2X*XhX&X&XhX*XP.-XSXDXhXhXhXhX3X4XpXgX2X>XJ.L.L.L.L.J.>X>X;Xi.a 8 8 6 ; & :XaX6X_._.A.).~.4XhXcXcXBXDXDXBXcXnXDXDXgXcX3Xg.BXG F nXiXpX3X4X$X4XhX3X3X2X4X>X>X4XhX,X4X_.yXyXyX4X[.8XSXNXY . . VXNX7XeXwXwXwXqXqXqX0X1XeXwXeX0X0X<X0X:X@X$XJ.^.(.6 rXVXvXxXrXrXrXrXrX(.x - v o.v f v v d : O X . O n V.h B.g m B g m Q.p j = %.} r % # 7 7 $ 4 a F 0 D F 5.u.q.) W W 8 O y u w * 5 ; 6 X 5 MX6Xp.c.p.p.A X X X 5X`.'.`.`.`.rXn.A.8     ",
"  1 $ ( u.H.>X,X,Xz.p.b.X % ' w 0.w.@.+.+.} ] } < $ A t.w.W %.t.n.%.{ } 5 4 } m.z.n.^.F.J.K.H.l.l.l.F.J.^.F.F.^./.F.^.H.@XH.#Xu.i.S.1.ZXK._.>X$X%X2XuX$X&XhX&XhX2X2X&XhX&XhX&XhX&XhXhX&XnXP.&XDXnXhXhXhXMXDX3X3XpX3X<X;X<X<X&X4XJ.J.a.3XpX;Xq . 4 ; # CXxXyX>X,X4X3X6X,XyXaXfXDXLXVXyXyXhXgXgXnXnXgX%X$X .G *X*XuXiXuXuXuXuXuX9XuX3XyXuXuXpXpX3X4X4X_.4X4X4XyXyXkXMXu t.VXeXeXwXwXwX0X9XsX0X9XeX0X:X<X:X<X<X<X<X<X;X@XH.5X5 5XzXrX5XrXrXrXrXtXz.s s @ c v O.f xX&.$.@.T w . : V.M M B f f : k k : = Y v.0.I U V 5 1 0 Q ` / / / F D ;.q.` +.Y u 8 E p.#.l } { } * Y xXwXd.m.c.m.[ + & X rX~.n.*.%.%.M.b l ;     ",
"  9 0 3 K I l L I ..z.c.# X 0 ~ 9 e.0.@._ W } r.< * ] p.W x $.n.a.#.n.m.4 6 q m.F.).^.^.F.z.F.A.a.F.F.^./.^.^.F.H.H.H.z.;X;X>Xu.g.aXR BX_._.>X>X$X4X2X$X4XhX&X4X&X4XhX&XhX&X&X&XhX&X&X&X*X .*XnXhX4XhXhXqX>X$X1XpX3X1X,X<X4XL.4X;X4XJ./.K.pX#Xv.. 4 X xX,X>X8X,X6X6X3X4XhXhXyX4XhXfXaXyX_.hXgXgXhXiX<XiXH G P.L.iXiX2XuXuX9X2XuXuXuX9X9X3XpXpXpXyXyX4X4X3X3XtX,X6XMXu VXxXwXwXwX0X6XwX0X0X0XeX9X1X3X0X0X<X<X;X1X<X<X:X(.eX; (.xXrXeXm.5XeXm.F.i.z a X a ; 8 xXSXlXlXMXqXqXMXX.O j B M m f b ; ; 5 O ).t.@.r.' 0.( J e r I `  .>.4.F ;.....l o u { y w.w.e Y } 6 % t.7Xp.p.r.p.c.;.X # X m.M.%.O.| { W Y L 6 2   ",
"  9 q ' @...t.o.$.H.a.w.$ @ <.r.q.r.0.@.*.w.$.} 5 $ Y $.u z %.%.$.$.$.t.u t w (.5X:X^./.).F.p.a.l.A.F.H.;X^.z.z.H.@Xz.;X:X;X;XG.y.x.1 J.A._.4X>X<X3X2X$X>X$X$X&X2X&X2X2X2X&X&X&X2X&XhX2X2X2 P.nXfXhX4X3X3X3X>X>X1X1X3X1X0X1X;X;XJ.>XJ././.>X0XAX<.. . MX,X)._.,X,X4X3X4X,XyXhXaXgXcXcXcXnXDXgXiXuXuX$XmXH S OX*XnXsX9XuXsXuXuX9X3X9X9XpXpXpXpXuX3XyX4X,X,X3X6X<X:XeXj zX8XwX6XwXwX9X0X0X0XeX1X9X1X0X9X1X0X:XeXeX:XUX:XeXdXl 5XxXtX8X5X5XeXa.^.#.8 l z ; w _ 7X+.K.^._.).).zXNXaX* y c b p . . . 8X= z &.W a.u.i.#.w...T z ) X. .y.R ( u X = i A | A A Y u $ * 3 # 8 l.p.c.p.r.@.[ X # . = Y W W o.{ o.O.W 6 >   ",
"  2 5 0..._ +._ ` ..p.H.r # K c.H.p.w.$.&.w.@.( 6 O L a.+.6 a.%.{ { { _ V * E m.m.(.(.^.F.F.K.F.z.K.l.K.c.c.z.c.z.z.x.:X;Xx.i.x.<X;XX.l.,X4X>X4X3X$X<XuX2X2X4X2X$X4X4X&X$X2X2X4X&XhX&XhXiXR X.nXfX3XpXqXpX3X3X/.>X4X>X>X3X3X;X,XJ.;XJ.qX,X<Xg.J.AXMX- LXaXpXyXtXBXVXlXaXpXpXpX3XnXfXnXgXgX4XD.L.$X$X*XnXP.H mXnXbXgXuXiXgXuX9X2XuXuXpXpXuXhXpXyXhX3X4X4X4X1X3X,X:X:X).kX7XwX1X1X1X0X1XeX0X0X0X0X0X0X0XeX0XeX0X0X:X0X:XeX6X; a.zX6XlX7X5X(.p.t.#.z #.^.^.wXF.^.p.,XF.F.l._./.@.eXr % O X . ..l.^.5Xa.E E w.p.q.t.a.A.a.a.a.a.F.$.s x w O u t.t.| b.{ } } Y A q 5 # % ..d...' ' } b., $ & @.$.x Y { $.*.W } q @   ",
"  C $ O ; 4 5 4 4 q e e P % 0 <.l q.#.$.$.$.0.r.q % m.:X#.+.%.%.%.} } t.} 5 L p.} z +.m.H.H.H.G.x.F.g.l.l.c.x.x.z.l.l.K.c.x.l.H.f.:X) ..6X3X>X3X>X4X3X3X4X%X$X$X$X$X$X$X4X%X$X%X&X4X&X&XhXP. .nX4XyXfXfXlX,XpX3X3X>X3X3XpXuX>X4X3X;XF.6X>XJ./.q.MX0.; CXaXaXyXgXfXyX,X6XaXMXbX<XG 1.5. .5.L.hXiXgXiXuXmXXXS ZXnXbXiXgXiXsXiXpXuXpXgXgXhXpXyX3XhX4X3XL.L.3X>X3X,X3XkXa.lXwX9XwX9X0X1X0X<XeX0X1XeX1X<X1X<XeX0X<X0X0X:X<XeX/.7 c cX~.a./.H.p.) E w.w.t.F.3X4XfX3X^.F.F.D.K.K.l.v.c.] - X E ^.xXVXVXaXa.R i.z.x.q...w.a.i.a.a.~.yX8Xz.} O 8 } } { u | [ } { Y { ] [ % 5 z.:X.Xm.UXv.b.< < + z.+.l +.z.t.a.%.{ y %   ",
"  9 1 ' ..d.p.i.p.l.v.r.7 # r q._ T q.a.0.#.r.p.t - 5Xt.L a.%.} %.n.t.$.} ; u t.p.p.X W ^.z.H.p.u.p.l.p.z.x.z.H.F.H.z.F.H.l.K.K.x.,.R w lX,X>XJ.>X4X4X>XK.L.$X$XL.$X$X4X$X$X4X$X4X&X2X&X&XH G gXK.4XaXBXBXMXfXpXpX4X>X>X3X,X1X1X,X;X/.3X^.J.F.qXMXMXs SXaX,X/.J.F._.>X,XyXaXyXhX5.hXiX&XnXgXnXnXnXnXbX9XoX0 nXiXsX9X2XuX9XuXuXsXuXpXuXpXpXuXhX3X_.2X4Xi.J./.,X,X;X7Xx zX6X3X:X3X0X0X0X1X0X9X0X<X<X:X<X<X*X0X:X:X#XeX:X.XzXw o.HX_.,Xi.&.$.q.i.i.F.l.J.F.i.;XF.K.J.F.A.A.F.u.x.:XR % W 8X7Xi.).NXl.l.p.a.u.x.l.p.a.l.&.A.A.a.A.a.m.8Xq 6 Y u Y A A y 6 A } Y L ] $ 4 ;XwX8XeXm.[ v.< < o 3 w _ } } W x 6 y 8 $   ",
"  9 7 w.q.] ..;X:X:Xm.H.1 X 3 ` r l.H.$.w.p.0.' 5 ; } +.W t.a.#.t.%.t.} t.w { t.p._ % } ^.z.l.p.l.l.z.c.x..X^.z.l.l.F.J.K.g.l.K.;XsX..a lXK._.>X4X4X>XL.$XL.$X$X4X4X4XL.$X>X4X2X$X&X$X2X&X9.>.nX3X3XlXyX..W a aXaX,X>X,X6X4X,X1X,X6X>X1X<X;X>X6XwX] 5 VXJ.)._.4X4X8XgXcXMXxX3XK.2XnXnXhXuX&X&X&X&X4X$XuX*XC mX=XuXuX2X2XiXpXpXuXuX4X>X3X3X3X3XpX2XK.4XL.A.i._.,X,X^.W 7X3X3X1X0X1X1X0X<X9X0X1X0X0X:X:X<X<X1X:X0X<X:XeX9XVX8 6XtX_.3X$.p.H.J.H.H.$X/.K.H.F.K.4XF.J./.A.4X;X6X1X9X7 7 7X6X_.K.@.J.p.d.g.x.;XK.p.u.i.i.i.A.A.i.a.l.r.:XL $ W +.W } } { W } } x E Y % 5 eXeXc.t.c.] .X# # # :X+.W E Y x #.a.} y #   ",
"  2 5 ` ` e.p.<.] @.r.0.$ + ..<.) u.$._ T T ' E 5 $ L } } +.$.W W %.$.#.W z z W u o U b.) r.l.l.p.c.l.m.H.z.m..Xl.l.l.F.l.F.F.yX&.,Xz R qXJ.3X4X4X>XJ.J.K.G.L.$X2X$X$XL.L.>X$X4X4X2X2X2XhX5.G LXfXp.F.W o.R O 1XlX>X:X3XaXqX,X>XaX3XH.H.>X>X:XH.wX. . lX8XaXyXaXaXgXaX6X;XJ.q.D.hXhXhX&X&X&X&XL.$X&X&X+X*XZ KX0XgXuXiXgXfXsX0X9X3XuX3X2X4X6XuX4X4X2X2X_.K.A.hXpX).5XA.~./._.3X<XeX0X<X0X<X:X<X<X<X<X<X<X:X0X<X1X<X1X>X:X1XK _.a.F.$.X.K.K.H.<X1XK.@XJ.J.1X9Xg.J.J.J.K.4X/.4XH.^.5 q t.a.K.i. .1.f.3.i.g.v.i.i.y.i.q.y.p.5.y.q.u.r.;X` O :X%.u Y } W } { n.} z 6 o ; 8XeXp.c.eXA .X< > # eX_ z W { $.%.%.} 6 #   ",
"  0 % R ..( D r a ] ) ..5 % I e.) r.u.r.#._ _ ] > % < r u } } $.t.t.x +.{ Y 5 l ; [ 4 q . . l X.r.;Xz..Xz.^.^.z.F.l.l.l.l.l.p.>X9XbXR l pX3X>X6X3X>XK.f.D.L.L.$XL.L.&X&X$X2X$X%X2X&X&X&XnX .F cX3X(.H.R A.&.s pXaX3XqX6X,XpXlXMX3X:X;X;X;X3XaXwXMX5 ;XVX(.).(.F.l.d.g.j.L.uX2XiXhXiXiX*XiX*X*XiXiXmXiX&X=XC mX<X@X<X+XS.9XbXiX0X9X@X$X3X<XsX0XqX0XsX>X4XMXpXA.F.z.a.8 o.a _.1X<X@X:X:X#X@X<X>X3X<X:X<X<X:X:X#X#X<X:X;XwXy.5 w.l.i.u.G.l.#Xx.G.@XG.H.g.g.3X9Xi.g.G.l.K.i.u.K.G.d.w 8 i...g.5. .K.X.3.5.1.<.u.i.g.u.g.p.y.i.u.y.u.u.p.] # W z u x W } _ [ Y L u A O 5 7X:Xb.r.UXUXr.< $ # l u E #.} u x 6 ; 6 *   ",
"  0 1 r.1.v.X.( 1 w e.x.3 # e <.<...q.z.l.t.' <.3 # e u u { %.a.w.E +.w.L l 5 X . J u ' I l . . & ( z.;Xz.H.c.c.l.l.g.l.d.i.i.G.e.r.& X.;X_.K.J./.L.K.F.K.@XJ./._.L.L.L.L.4X>X+XL.L.+X+X$X5.X.o.&.&.L c s i.w &.MXqXqXdXlXMXDXyX1X1X:XH.l.fXu.@.v.3 5XA...y.y.g.@X0X9XmXiX*XhXgXiXhX*X*X&XOXOXoX*X%X+X .8.Z G 7.4.0X%XG.0XbXmXsX<XoX%X9XbX#XBXLXZXBXlXCXSXBXg.G.w.+.7 $ i.&.a.a.m.H._ ' i.l.l.S.:X<Xk.l.e.k.UXAX1X1X3X;XE X K $.T ..u.y.u.F.g.u.i.i.q.p.q.i.g.i.i.q...u...X.` E 5 % J i.q.u.1.g.^ R ..1.....q...q.q._ ` ` X...q...0.) % 3 * 6 4 u A u u 6 ; q u & 8 ^.[ b.c.UXc.Q > # 4 L E W x Y $.[ 5 Y 6 4   ",
"  C 1 ..d.d.' :X0.r d.H.# & e i./ ` d.c.@.[ b.r.< > } c.p.} $.} } { ] +.Y q 5 w.m.eXwX(.eXm.p.Y l . . E L $.p.w.t.t.u.g.u.y.u.l.c.#X& ) F.y.J./.J.K.K.A.F.K.J.H.H.G.K.>Xl.g.y.qXpXqX;Xq.~ r R i.&.8 7 &.i.o.R l.g.wXwXdXlX4XlX,XH.;Xc.l.u.H.H.@X0.% NXNXjXxXVXcXlXfXfXfXBXaXK.J.<X0XpXgXpXnX3X2X<X@X#X<X6.C iX*X9X0XsXsX0X0X2X4X<X3XhX4XhX4XL.4XJ.G./.D.i.K./.u.q.T 6 o.a.&.v jXyX_.)._.,X_._.tX_._.`.8X_.hXfX3XyXyXJ.3Xi.E _.^./.yXpX9XaX7X8X,X8X8XaXxX_.8X_.8X3XlXaXyXyX1XH.T X } z.F./.l.i.f.X. .R 1.D.&...i.X.q.i.i.i.@.q.a.q.u.i.w 3 l 6 5 i 6 5 6 5 * < % % 7 ^.l.v.t.r.v.A < # < Y l 8 z } W u 8 u 5 4   ",
"  G % ..1.0.) d.q.q 0.p.& X r r.^ e.s.d.+.r.b.c.< % t L 0.t.} #.} } } $.} 6 t.7X8X`.).).).^.7X).$.^.q.8 . X ) ^.l.K.S.J.K.J.J.F.:XMX. w F.i.4X3X2X>X$X&X3X<X@X#X@X.XG.@X@Xg.@XLXLXGXaXu.] w 7 R 7 X - X.r CXNX6XlX3XwX1XK.F.aXdX6X6XH.;XwXqXqXwX[ # m.xXxXwXJ.6X6XqX3X6XyXfXsX0XbX%X+X<X4XgX3X3XqXfXZXZX:.S mXnXnXiXiXiXfXnXgXgXhXfXcXfXDXcXfXfXfXpXaXcXpXhXfX3XA.X.% &.).~.s *.k `.~.~._.'.A.Z.A.'._._.yX[.yX'.yXyX`.cXi.) aXpX4X>X>X0X9X2X>X$XJ.K.D.K.L.>XJ.J.L./.J.>X$X2X<XX.# :X;Xg.S.D.y.i.D.K.L.A.i.1...i.i.p.u.u.i.q.p.i.F.p.t.E o l @.@.Y E Y U Y Y A * O * @.u.c.UXm.v.A > + V L z Y u 6 u l A 6 3 4   ",
"  Q + R ` q.<.z.I q 0.d.% X t d.w.e.e.u.c.u.U .X> # e _ o.#.#.+.O.#.} { W = w.8X(.7X$.} e [ p.MXp.$.F.^.#.4 . L H.p.5.i.K.J.H.l.c.H.& E ).).).H.J.%XuX2X0X0X1X<X:X<X@X=X+X*X<Xf.D.D.>.,.1.V & <.l.q.q . y.GXaX,X8X3X,X>X6XVXBXaXqXaXwX3X9XwXbXwX<.X c.wXwX0XqXsX<X@X9XqX;X3X1X<X9XpX<X9X3X<X>XnXbXbXnXKXG 0 #X0XuXuXuXuXuX2X9XgX3X$X2X3X$X>X4X3X9X4X3XaX4XJ.3X/.a.) 7 &.F./.A.w.,X_.F.8XcXjXjX_._.hX4X6XyXtX3XaXxXw.t.dX_ R <X$X+X$XJ.H.G.+XG.$XG.+X$XK.+XG.K.S.S.K.L.K.G.+XH.1.7 G.y.5.5.i.y.5.i.D.K. .) X.K f.J.X.E ..<.q.&.1.i.&...E X W $.0.} } %.t.a.Y u 4 & 0 z.;Xt.c.c.c.A > < A W z l z x W E W { r 5   ",
"  G @ ( e.1.' q.r 9 0.v.$ & q d.e.q.u.u.r.d.b.e.> # u I Y &.*.a.+.a.).a.O.; z.`.).5X% . [ I . w.kX^.^.L p.p.w . L l.$.i.p.i.u.l.^.0X5 w 7Xi.l.H.H.G.%XS.#X<X0X9X<X#X+X=X=X+X%X0X$XuX%X,.d.r 7 ;X/.J.3X5 3XPXlXJ.aX/./.).,XH.F.p.F.;XlX7X1X:X^.eX0.# :XMX1X6X;XqX;X<XwX9X@X0X9X0X9X9X2X2X4X<XsXsX%X@Xj.bXC 0 =X0X<X2X2X&X2X2X9X9X4X2X$X<X3XuX$X4X2X4X>X4X/.4XF.J.H.&.7 NX(./.F.,XlX3XaXlXtXyXhXhX3XpXaX3X3XyX6X6XyXaX&.sXr.a %X$XG.+X@X@X@XK.G.G.L.$X$X+XK.S.D.K.D.S.K.G.J.l.G.R 7 G.u.1.g.2.5.5.5.i.5.5.1.1.R  .^ ..e.1.` ` X...X.X.) q.X T +._ E Y #.} { { J r X t eXu.m.m.UXm.b.> % % l ; z Y z L W } a.u >   ",
"  >.@ J X.) <.I ` J c.v.% & $ ( a D c.l.0.0.;.` @ # K E _ } @.w._ ] w.r.p.y n.5X).7XY 5 [ A [ t.MX7Xr.eXp.a.t.* 8 i.T i.F.l./.^.H.1X[ w DXa.z.l.,.d.S.#XG.G.#Xj.=X%X#X=X%X#X%X*X=X0XAX.X/ 7 1 3X^.l.H.H.zXSXxX5X,X>X,X,XJ.^.,X5XwXkX6X7X:X1X:XwXv.X } wXz.6X,X3X3XqX9X@XwXMX<X<XqX3XJ.BX>XqXdXsX0X9X:X0XC G / *X<X$X+X$X2X2X<X2X<X%X$X>X$X$X>X@X$XJ.>X>X>XL.;X4XJ.$.5 MX1X1X>X1X>X3X3X9X3X>X,XqXyX3X3X3X3X3X4X3XpXaX<XqXx.7 2X$X+X+X@X@X@XL.K.+XL.K.G.K.$X+X+XK.J.K.D.+XL.G.g.R a G.F.f.y.i.y.5.7.P.X.5.i.i.i.1.i.i.K.p.q.q...X.` q.q.<.# 6 Y L u u u i x L a 7 # 3 ^.r._ m.t.c.:.> # 4 U u W z Y W @.z 8 O #   ",
"  4.+ E ` ` c.( c.;.A U % % % ' <.<.d.d.q.r.' ~ & # ; 4 4 q 3 t 4 u Y u L 5 a.).n.(.(.eXm.r.kXeX^.p.' +.@.t.W O J ).p.u.F.F.H.H.c.z.q q 6Xw.c.p.y.i.o.l.@X%X#X#Xj.#Xj..X%X0X0X0X#X=X#X6., a 0 MX;Xq.:XlX:X/.6XyX8X8X3X,X6X6X6XqXaXMXqXeX1XwXwXdXe.X kXwX,X1X;XnXdXpXfXfXgXfXgXgXsXuX<XpX4X<XsXfXmXmXAX0X0 S G iX<X<X&X$X<X9X<X<X$X<X3X9X3X4X4X>X>X>XJ.>X>X>X3XJ.J.0 s ,X>X3X$X;X>X<X<X3X9X4X>X@X<X<X<X,X3X3XyX3XuX3X>X3XK.a <X%X$X$X$X@X@X@X+XL.+XG.+X+X+X+X$X$X$X+XK.K.G.K.L.a z 3Xi.D.i.D.5.y.5.&.L.A.D.L.o.&.&.1.$.q.a.p.i.i.u.i.q.' $ < . O 6 8 8 y = o . q % r d.p.0.p.t.c.] % < A _ L W x W Y 6 u 6 5 3   ",
"  / . J ..e.q.I ) w ' ' 5 # 9 e.;.e.p.d.r.d.0.;.& + 8 T _ _ _ +.W W W ..] O $.a.#.a.a.t.$.W t.$.#.} ' @.} ] 6 * 6 w.J r z E E l b.0.* 4 p.w.d.#X@Xx.r.G.:Xp.H.<X1X%X#XG.+X+Xx.#X%X0XZXAXMXZXQ BXD v.c.b.) 0.E X.+.i.i.J.dXqX3X1XqX0.v.;X1XsX7XwX0.X MXdXH.;XdX,XNXVXDXfX@XJ.,XpX9X9X9Xj.0 sXbXnXdXwX0X.XC H H 0X<X%X%X2X<X0X0X%XL.%X2X%X2X2X$X<X$X<X<X>X<X$X>XJ.K.X.l.>X>X$X;X@X<X>X%X>X<X1X4XL.L.$X$X$X%X@X<X$X4X4X$X2XgXa 0X$X+X&X@X@XoX+X+XS.+X+X+XK.K.&XL.&XK.+X+X+XD.D.H.3 R 9Xp.^.D.i.J.x.&.i.L.Z.A._.i.A.&.&.$.&.w.i...q.d.w.q._ % 5 [ Y 6 * t w u J L e % I d.b.0.p.c.c.[ # 9 A x Y Y u w i 8 ; ; ; 5   ",
"  -.0 V e.<.3 q c.r d.<.> % 9 e.P e.e.d.d.~ e.~ # & ) +.+.$.#.t.$.+.W $.z o @.F.} w.@.w.#.%.+.+.@.@.+...d._ X . _ @.u w.:X0._ e J _ $ p.#X] [ .Xx.v.x.d.r.;.0.0.e.e.y.f.g.x.v.v.#X1XKXZXAXKXV 0X:XqX:X:X0XeXeX0XqXqX:Xz.eXz.c.6XLXZXZXZXsXdXwXMXr.# GXSXz.F./.aXqX<XH.^.;Xc.H.u.l.;X1XH.g.Q g.#X#Xj..X;.P C + S.j.@X%X%X%X=X@X$X<X3X3X9X;X@XJ.e.R g.G.J.J.H.J.J.J.J.3X>XJ.K.>X>X>X>X>X^.J.;X@X/.<X3X>X3X3X&X$X$X$X2X4X$XuX7 <X+X+XL.+XK.$X#X+X@X@X@X+X+XG.+X+X+X+XK.K.&X5.g.G.J $ L r @.z a F.F.3XtXa.1.i.A...i.i.q.i.q.q.@.) q.' ..' ..o w t.r._ A ] t.@.' 0.p.X J c.[ :X:Xt.p.[ < 9 A t * o . X o o % % X X   ",
"  F r 4 0 + D <..X> 0.` 3 # 0 e.T e.v.v.v.d.d.;.X % _ _ } } W O.o._ $.W ... R )./.t.$.w.#.#.p.t.w.p.p.H.8X` . +.0.( I X.1X3Xz...I w $ z c.c.c.c.eX0XdXsX,X4XJ.F.>X3X9XqXqXqXqXdXdXsX0X:XqXbX5 LXDXVXCXVXVXlXwXMXdXdXaXqXl.F.tXcXaXLXLXCXMXdXlXMXr.# aX:X(.lXkX).5XVXLXHXNX6Xt.6XVXSXMXMXCXpX/.J.X.BXDXZX>.1 v.1.e.j.G.G.G.@X@XG.0XwX<X>XsXqX9X0X6X1X;Xl.i.r.X.^.l.u.3XH.g.A.J.@X1X>XH.^.z.z.l.l.;XH.K.H.S.G.g.i.k.G.@X#XsXr uX+XS.K.+X&X&X+X+X&X$XK.+X+X+XS.+XD.+X+XG.G.$X@X5.q ...._ - . [ L . z a.W 4 i.p.E w.w...@.......' _ 0.) ..0.& 5 r.z.t.t.d.m._ ] u ( X } 6X' z.c.t.#X] > 9 $ o t Y ] b.n.t.t.m.L X   ",
"  @ 1 1.e.v.` ;.v.0 e.] 3 % q 1.3.d.d.q.v.r.v.;.+ # U E W W W W x x W w @.q r 8X$.p.a.F.%.%.$.#.w.$.@.p.L w K wXp.; R R a K 1.c.wXe X X 7X7X6X5X:X6XqX3X3X3XaX>X,X1X3X>X3X9X9XnXuXpXuX3XbXq.a lXtXkXaXxXzX7X5X/.:X:XJ./.J.,X8X3X4X..q.q...R ' w q % GXaXwX3XaX9X>X;X4X>X@XsX@XsX9X9X1X0X#X9XgXfXgXCXZXZXG 0 KXbX9X2XuXgXbXhX9X9X3X>X@XK.pXsX1XdXsXwX1X3X9X7XF.X.a.l.z.H.H.;Xl.w.^.qXdX3XsX3X<X;XqX1X<X<X9XpX9X0X#X%Xd.<.+Xa L.S.L.&XK.+XK.K.L.K.+X+XK.K.S.L.K.K.D.K.+X$XD.L.i.a a.W W $.8 w.p.u $.F.t.$.w.p._ q.w.....+._ .._ X.0.0.0.T X ; c.c.m.v.b.0.;.I ! U & ( z.J r.z.t.c.] % 3 3 % t.z.t.t.c.a.a.c.u &   ",
"  1 5 d.G.#Xc.x.c.V ~ ] < % r d.d.y.v.u.d.;.v.;.X # ' b.$.{ W W W W W W @.} 6 5Xy { %.t.t.p.p.w.r.t...l.T X i.0.X.T @.@. .1.#X' UX% & L ,X@X@X.X#X#Xx.@X%X%X0X%X@X@X@X+X%X%X@X%X$X*X0X<X<XF y.fX(.;X,X;X6XNXZXBXqX:X3X1X;X:X;Xl.^.;XF.H./.H.d.:X] * CX3X+X@X+X%XG.oXj.+X@X%X0X*X%X%X%X%X#X#XoX+X#X2.x.mX;.0 ZX*XK.&X@X&X*X&X$X*X$X&XL.+X$X$X+X2X@X$X$X$X2XpXJ./.dX..,X>X>XaX3X>X6X9X9X9X3X3XdX3XD.iX4X<X0X0X0X0X*XiX0X3.+XR  .L.D.P.OXL.K.+X+XK.G.K.K.G.K.+XL.D.K.K.$X+XS.K.o.K a.z l Y E ; % @.$.u.+.w._ w @.t.@...X...+.+.@.w.w.( ] J # 5 0.] w.' 0.` ' ( u t o w a.w 0.c.p.z.[ % 1 ; 6 w._ @.$.t.t.r.t.e X   ",
"  2 3 e.e.d.c.u.d.J ' ' > # q d.3.<.3.e.v.e.4.b.+ * Y Y _ $.#.%.t.*.+.z 8 } x +.w.t.} +.@.+.} $.@.w.$.@.w.+.. 5 z.z.F.:X;XK.:X;.5 a 1 p.;XH.H.@X.Xx.S.$XoX#XS.&X#X#X#X#X+XOX+X%X%X#X%X%X0XF 0XdXG.:X1X:X1XH.@X^.;X3X1X:X;X0X<Xx.l.K.1XfXMXlXpXBXx.5 aX@Xf.+X+XG.+X+X%XoXoXG.D.+X%X*X%X<X0X#Xx.oX#X.X7.7.6.C LX*X&XK.+XK.K.&X2X$X$X&X0X2X%X<X$X>X2X3X0X2X$X>XJ.pX^.U >X3X>X/.1X3X9X<X;X<X1X>X>X<XJ.%X<X%X0X%X=X*X*X-X*X=XS.K a 4X+XL.L.D.+XK.S.S.K.D.S.K.OXK.D.+X&X+XX.S.g.1.w E +.7 6 E L U c.m.@.` &.$.E _ w.} z l W _ _ } w.w.w.( E u X % _ I _ [ [ ( I u r Y * w :X@.E 0.r.H.I * $ $ 6 #.$.w.w.} w.} ' r X   ",
"  0 % F ~ I K ( c.` ~ ' $ % e y.` ,.s.q.<.v.d.0.X ; w.@.#.+.+.O.+.+.+.W L w.@.$.W p.w.0.w.r.@.w.w.@.w.t.0.a.p.E . E a.0.p.c.c.V . u & t.F.D.G.+XG.j.S.S.oX+X+X+X@X#X#X+X+XoX+XoXoX+X#X=X0XV CXAX@X<X;X<X;X;X<X<X1X1X1X1X;X3X1X;X1XqX<X9X@X0XdX1X#XX.X.2Xx.#X%X%X@X=X%X+X%X=X%X=X=X%X%X#X<X%X%XbXgXZXmX9Xv.2 ZX#X@X&X&X&X$X$X$X&X&X2X4X<X%X<X<X<X>X<X<X<XuX<X>X3XwXeX0XqX>X>X/.;XeX@X:X#X<X<X;X<X0X=XAX*X=X#X*X0X=X-X=X=X*Xa - 3XK.L.K.K.D.D.g.G.%X+XK.j.5.i.D.S.K.K.j.+Xv./ 4 L l ; % Y L u r.[ l I +._ W w.@.E +.L _ Y L } } E Y L I r o 5 E U L _ ( _ } 0.} E ; 6 ).w.r.p.p.z.a % # & ; } #.#.@.} _ } [ q #   ",
"  C @ X.,.<.` <.z.' V ' $ % e s.F ` k.v.0.' r.;.# $ E $.+.W W W W W W W E #...t.+.$.q.&.$.l.u.q.l.).c.a.p.a.p.H.t.o . 8 l I r UX] t # eXi.i.G.D.oXoXS.S.S.h.S.oXoX+X#X%X@X#X+X+X=X0X@X#X0XV SX0X3XpX<X>X3X1X1X:X:X3X;X3XeX9X3X1XdX<.. . 0 ;.* . :Xv.- v.@X#X#X@X%X@X@X%X0X<X<X0X0X+XS.&X%X%X+X0XKXKXMX%X.X9 ZX<X0XL.+X+X4XuX0X9X9X4X$X@X;X<X3X9X9X<X>X2X>X>X>X4XwX@.qXpX3X,X;XH.;X;X@X@X@X@X<X<X0X=X=XAX*X%X=X=X=X*X*X6.5./ - i.5.L.K.>XD.$X2X%XG.+XG.%XD.D.K.G.S.D.%X+X=X0Xr 1 7 O 6 q t 6 . ; w I .._ +.w.@.W ' W _ l Y _ _ _ L J L L & 6 0.@.Y U ' } 0.' l [ % o ..a.w.w.0.p.e % O # ; Y _ +.} } } [ J 5 %   ",
"  C % ..e.e.( ..c.~ e 0.$ % a d...3.e.<.e.e.0.` & $ %.t.} } W W W W Y W W #.+.a.i.$.q.@.0.$...@.0.0.@.0.q.q.q.1.i.u.& X l 7 c.MX1X@.L H.D.D.f.oXoX+XS.oX&XoXS.oX+X#X#XoX+X#X%X*X%X0X0X%X9X7 ZX+X9XpX3X3XdX9X:X;X;X1X1X3X,X;X>XpXT . 1 0 nXZX9Xp.. A 4 . .X0X<X+X%X+X<X0X#X+X+X$X%X@XG.+XoX@X#X@X+X@XsXAXbXC 0X0X#X@X%X<X0X0X2X<X<X<X>X>X>XuX3X>X3X3X4X9X2XJ.>X>X6Xz.dX3X4X3XaX$X:X<X@X$X;X1X;X<X*X0X0X.X.X=X=X=X*X*X*X.XH G @  .0X2Xi.%XS.f.%X5.%X+XK.@XJ.$XS.D.#X$X%X+X<X0XD 1 3 Y R Y u U 8 w L L l W _ w.} E L E A Y } t.Y l L I L L 5 z @.r.r.E ] ' ' J l w O % } +.] $.l.eXa # r & 5 _ $.@.] @.} t.A w 3   ",
"  D @ X.0.q.0._ #X' ~ 0.3 3 r 3.3.e.3.e.v.~ ` [ & * l z W #.$.@.+.W W z W $.#.w.p.X.X._ q...+.q.+.@...0.q.w.v.r.e.g.R X q w.} t.z.l $.8XD.f.g.S.+XoXS.=X=XD.h.j.oXoXj.h.#X&X=X@X%X@X#X=X0X, ZX@X3X,XqX3X;X;X;X;X;X;XJ.^./.8XsXu.1 i.G S.nXbX<X.X> < 5 U U bX%X#X+X+X@X%X+XG.+XoXoX@X+X#X@X@XoX+XG.#X#XmXLX9 9X0X<X%X$X<X<X@X<X<X<X>X$XuX4X$X<X$X>X<X<X4X9X>X;X1X0Xd.1X,XJ.@X@XG.@X@X;XJ.;X9X;X<X#X0X*X*X*X=X=X=X=X=X=X0X0X2 @ R 0XsX0XG.K.X.S.f.S.%XG.%X@X$X+Xi.+X%X0X%X#X%X^ 1 w ..Y z L L u q w r ; 4 ] E l l L u u W } _ w E E L E ] J l w.r.0.@.r.@.I 5 ( E l ; 6 _ w._ z.:Xq & q o u _ _ W ] } } } u U *   ",
"  0 @ ~ <.r.r.q.#X..~ r.< $ e y.<.;.<.<.0.r.r.! X % Y W Y { W } W $.} } x E +.+.r.o.` X.@.@._ @.@.q.w.w.$.$.p.g.q.;Xc.o z xX} Y } z O.:X;Xf.j.g.D.D.D.OXoXh.h.h.oXD.OX+X+XoX=X%X+XoX#X#XmX2 CX0X$X4X4X3X<X1X1X0X;XJ.@XH.<XpXg.e.gXbX-.ZXSXnX4.. . . b.bXJ r.<X@X+X$X+X+X+X+X+XS.+X+X+X=X$X+X+X2X2X+X<X0XpXD sX9X2X<X4X%X;X%X%X$X$XJ.L.S.K.@X$XJ.K.@X@XJ.@XK.>X;X#XE J.J.J.;X%X;X@XJ.J.@X;X@X@X<X:X#X=X=X=X=X=X-XOX=X=X=X=X>.,  .sXsX0X0X2XoXf.0X@ / &X$XG.&X$XD.&X+XS.D.j..X7.F 1 r w 7 6 3 6 u W [ # * u 8 L [ z 8 * i [ L u [ A q Y } J e ' q.r._ E ..0.0.r.( L * 8 m.z.@.T } e & 5 * 6 u 6 5 8 r J u % % *   ",
"  C $ 0.1.r.` 1.p.T I ;.5 3 r e.4.;.3.e.3.;.] U & % l u z W { W { W W Y z W } #.w.$.X.@.i.q.@.+..._ 0.q.q.w.r.p.u.^.W ; u t.z.} 6 ; . t L H.G.7.D.8.8.D.S.h.s.D.oXD.S.+XoXD.$X%X+X%X%X=XAX9 #X@X&.K.K.u.x.#X;X@X@Xe.H./ e.5 . BXbXbXZX#X,.@ . %XAX0Xv.@.Y . G.+X#X%X=X=XOXOX+X+X=XS.+X+X+X+X=X2X&X$X+X&Xh.I ~ <X<X@X%X@X%X<X<X3X>X3X3X4XpX3XK.>X$X@XK.K.D.F./.4X6Xp./.K.F.<X4X3X$XJ.@X<X@X@X^.;X%X#X=XOX=X-X=X=X=X-X-X=X-X8.2 9.mX9X0X2XuX .%Xy.2.&X9X&XG.oX+X&XOXS.D.OX5.s.XX9 D X.q O 6 w Y _ Y 4 ; u L Y Y Y A u L * u W Y } W l ) _ _ e @.8 w r _ 0.' T e E W u 8 #.u W m.p.e & 3 5 } 5 o # . . . X X 3 5   ",
"  9 > 1.<.q.) ..0.q ] ' 3 $ q <.~ <.0.3.0.;.;.[ & % u l } } _ _ z L u z x W { t.z.#.w.t.t.q.w..._ ) W _ $.+._ @.t.] . ; O ; 5 * % & % O 5 ^.S.5.8.D.8.2.7.h.7.oX#Xh.OXOXS.+X+X+X#X@X#X<X4.2 . @ @ 5.1.R F P F F Q / ! D . # & q e.d.9X0 . ` ZX#X#Xe.CXpX0.c.x.@XS.+X&X&X&X+XS.+X&X+XD.+X+XK.S.D.f.S.G.S.+XD C #X@X@X$XL.+XK.$X+X2XuX2X3XsX2XK.>X>XMX>X+X>X3X/.>X:X) lX_.J.<X$X@X@X>X@X$X@X@X@X@X#X=X.X.XOXOXOXOXOX=X-XXX&X-X2 -X2X2X2X%X%X, 7 G iX9X2X%X%XL.+XuX&XD.5.8.7.#X.XC R ,.` J $ 6 l * X w } w.t.} u W t.[ { E . . 6 u q _ E _ _ I _ E l q.0._ _ E @._ w Y 6 X r p.eX0.t # 6 5 } t 6 q * & o . & # V   ",
"  2 + R ` <...w.l.a ..0.5 1 r 4.` <.;.;.` ;.;.! & # u E W W W W l x x u w z U } t.w._ o.} $.w.i._ o.L l l l 8 } z ; % l L 5 . . . o = R W L R @.q.f.D.f.j.j.y.s.G.S.X.D s.S.S.G.oX.XoX,.I 1 % 1.../ 1.g.f.D.D.D.S.S.j..Xr.X Y # . 3 9 9 e .Xk.. . X 9 d.KXbX9Xg.D.+XOX+X+XK.G.<X%X$XS.K.K.f.K.f.D.S.+Xj.e.1 r bX<X<X>X$X$X<XJ.S.D.i.y.D.y.g.G.D.g.l.A.gX6X,X^.J.@XR pX4X$X@X@XJ.G.G.G.@X+X+X+X#X=X0X4.G -.H H H H H H XX*XD.Z mXuXuX2X0X5. .8.*X<X=XL.%X$XG.$X0X0X,. .+X%XAX#XF G / R T ; 5 ; % % u w.p.z.} i A Y { 5 5 * 8 e e J _ E T E ) q ` E ) _ E ] J E U l l 6 6 @.c.v.b.t # 6 < 6 < 4 t * & 5 e 4 % e   ",
"  1 @ ~ ` q.( l.l.K ..0.5 1 0 ` / Q X.X...<.;.[ % % E l 8 x { %.$.} { W Y } } W L 6 E F.a.#.p._ Y i `.rXyX8 4 8 < | | i u W W L l O X o - 8 8 q z u J K a R  .q.u.T i.o.X.^ ~  . . .1.X.1.5 % X.e.y. . .5.f.D.f.f.f.f.+Xk.t t . . . t 9 r U ~ 5 % # 9 ,.#X9X<X$X&XG.%X#Xx.G.j.g.G.G.G.g.5.5.y.y.y.x.@X<X#X7 J MX+XK.H.>XpX<X>X>XJ.K.K.J.J.J.G.K.>Xg.3X9XG.J.F.G.d.a J.J.@XK.G.g.+X+Xg.G.G.@X+X+X#X<X7.2 0 G G S H OXH G 9.G S mX&X&X&X+X+XOX*XuX=X%X+XD.oXS.@XoX,.S.S.1.k.@XG.F G  .R l 6 < u Y u o u ( W _ Y { { } @.L ..@.q.' ' E ' ( K K 7 _ p.0.@.q._ ' E L u i ; ; ( d.r.} t % 5 = u t.w.E w.b.p.t.w.t 0   ",
"  2 % 1.d.y.' T E a q.q.5 $ 0 <.,.<.<.~ ' e.v._ # ; E E { x z W | u y x y x { a.%.8 Y t.%.{ W W Y rXrXm.zXeX; 6 i x i i = i z n.n.6 . u ; . . - 5 # t T ` g.J.@X@XK.9X+X$XX. .X.1.i.1.K.@Xw a G.J.G.K.g.g.i.y.f.@XK.y.qXv.> d.<Xc.b.V > . 0 :X/ U # V ! ^ S.oXS.y.3.0.( T 7 w 0 5 w ~ ) T J J ( ' r...( ( I 4 .Xv.e.l.x.G.z.H.l.l.l.G.J.G.H.H.J.>Xg.<X@XG.H.l.K.d.D @Xg.S.g.<Xg.>X%X@XK.G.S.$XL.oX%X=X/ G 9.S G OX*X>.>.9.G H *X2X$X+XL.&X+XK.D.oXS.S.oXD.D.f.5.g.y.g.g.u.+X>.D G  . .7 o u } t.} Y X . . u } t.{ u E @.$.X.0...X..._ ~ K ( q I ] D K ' ] ( ' ] Y Y 8 * w.;XeXUX5 % 6 o y x W %.#.%.t.W W < 9   ",
"  C @ e.` ;.' ..q.) r.u.5 - q e.i.<.e.e.<.` ;.[ % * l W x i x m.m.m.%.: x { { %.%.#.{ %.x i i 6 %.GX).(.).rX).= : M.i x b { m.i t.p.L } z.;X@Xu.` d.c.G.x.G.G.+X+XL.q.9X<X%X5.5.f.D.5./ +Xw D KXDXMXNXNXVXcXyX/.;X<X#X0X6.. bXCXBXmXAX0X:X;.. 0 ] u < [ K _ _ ( a 4 . . . d.H.;X@XX.5.q.1.D.$X9X.X.X<.0.0.5 J @X#X%X#Xc.#Xz.x.c.y.v.u.e.e.g.x.g.g.y.q.g.i.d.d.) e.0 d.0...1.s.g.u.1.3.1.v.1.3.1.y.f.f.h.8.8.>.G G $.X.y.P.H 9.P.f.5.D.K.+XOXK.D.f.h.f.f.oX+Xh.h.D.y.f.s.j.d.4.2 F G r < X < ] } { %.#.+.n.#.%.} [ 8 W ) ' ( ) ~ ^ ] ) ;.' c.a 0.) 0.....w.} ] } Y } u u eXeXv.eX4 % 5 o u +.%.@.Y W _ } Y < 3   ",
"  C X K <.<.q.d.' X.u.p.1 % D e.' ( ~ <.) J Q V 3 ; L L x u = u t.{ i W O.x Y { Y i Y M.{ b *.x x VX8XrXxXrX).{ t.n.M.n.t.{ NXu . z @._ c.0X9X#Xj.x.7.1.d.j.S.R + @ 5 q.3X6XD.5.D.K.mXAXnXP R LXMX8X:X,XhXcX1X;X%X%XoX+X0X8.9 <.:XwXnXnXnXZX#X% . J e r.} 8 u 4 . X 5 $ +XbXuX&X*X+XiXmX*X0X2X0X<X<XBX0X<X4 e.bXqX0X0X0XmX0XsXbX<XsX0X9X0X<X9XsX0XpX0X9X0X0X.Xx.3./ 0X=X%X<X0X0X#XoXs.+X*X#X%X=X=X<X0XAXmXmXiX*XS P H.a.D.G G H G X.,.5.D.h.8.7.5.7.2.2.h.h.s.7.f.5.3.j.3.k.e.1 C D 1 V # . u * Y Y %.a.%.%.} E = @.' _ ' / R I ! / ' q.] ' J e _ T ] ' ] [ @.Y 8 x * 5 b.v.UX.Xt % J * } w.W Y } } } } } < %   ",
"  G X K X...i.r.) l ' 0.% - q R U ` U P 1 5 ; 4 q 3 L W Y x y } %.| { { x O.z w e ) l.^.,XaX,X^./.pX3X<XsXfX3XaXSXHXSXHXGXLXCXMX:X9 . bXsX=X+X+XG.S.g.S.G.%X%Xd.~ 0 . . K 3XJ.G.&X0XAX.XbXG F bX+X+X+XD..X.Xh.oX#XoXoX+XS.<XwXk.q 7 y.L.f.x.;X3 > 9 ^ ) p.E 8 O # w 0 & <XbX0X*X=XiXZXnXiX0XsXbXsXx.wXx.x.D h.oXG.D.oX#XoXj.j.j.G.G.@XK.g.j.D.g.S.S.+X+X#XoXg.0X3.1.=XoX#X%X#XoXoXoX=X+X=X=X=X=X=X=X=X=XXXXXXXOXoXD.9XG.3.0 H mXAX<X=XoX$X=X=X&X+X0X9X*Xj.j.3.s.f.s.y.j.d./ D 5 9 9 V ( ; W ).i * i i u 6 x . . +.r.T I ' T K r q K D e 8 5 l q I ] U I r K u y u y ; 8 r.d.c.c.u & u o Y t.{ +.{ } +.+.I < >   ",
"  -.X q 1.) ' <.R 0.( r # @ - w u 5 $ $ q 4 q t < < W %.O.%.x n.%.%.{ { c w I ;X<X+X3X3X3X$Xg.G.+XOX%X%X@XS.S.S.i.D.+XL.L.+XoXf.SXmX1 ZX+X5.f.f.S.j.%XoX<X0XmXAXAX0Xd.' O 5 q.f.G.h.s.4.3./ 0 +XoX+X@X=X*X%X=XoXoXoXOX=Xh.7.=X9X#X+XD.+XL.+Xs.Q % 1 a q l u % O w 0.) + F nXiX*XiXZXKXKXbXiX0X<X#Xu.. 5 x.F 9Xj.D.+X#X#Xx.@XG.G.x.#XK.oX%XS.g.S.G.S.G.+Xj.G.j.<Xe.X.%X+X.X#X=XOX.X.Xh.h..XOX#XOX.XXX.XOXOXOXOXOXOXOXS.s.F 2 S -X=X.XoXOXP.5.8.8.8.D.D.D.f.D.f.j.G.S.+X%X#X0X<X. # e.0.w.u W +.c O.} { i w 6 . +.c.u.q.' ' ] R ^ ` ;.~ ) E E T ~ 4 Y 0.} E K x z y y 8 z Y } t.b.A * < o { m.$.$.#.+.$.{ Y 6 1   ",
"  4.@ @ 4 q J [ 5 4 q X # # & % # $ 4 U r w E #.# 8 %.%.b O.v $.{ { { { Y w X.g.5.7.5.2.5.P.D.7.5.5. .2.h.k.s.d.s.q.s.g.D.D.+XS.@X .1 bX+XD.D.5.5.7.g.&X0XbX0X<X0X0XbXMXsXj.F 0 y.#X#Xf.h.3.7 iX+X+X=X=X*X=X+X8.+X=Xh.h.XX8.8.oXoXh.OX-X=X=X%XmX1 % 1 w u 8 5 [ @.W p.;XF / *X&XD.%X9X1Xx.q.D 1 . D ` ` j.r #XS.S.oX+X+XS.G.S.S.+Xj.h.j.S.S.S.S.D.S.D.S.#Xj.f.h.^ F *Xh.OXOXXX.XXXh.XXOX.X.XOXOXOXXXXX.XOXOXOXOXP.OXX.G.X.0 2 *XXXOXXXOXXXOXXX8.8.9.7.8.8.8.8.7.8.s.7.7.3.x.0X! @ b.c.o.; Y c o.o.O.W x O . J p.X.<.,.Q ` ~ 1.r.3.` ( ) I T T r P _ ' ' @.$.y 8 v j y j x x Y Y u u t = $.n.$.%.*.#.a.{ t.A %   ",
"  2.@ @ o X o # $ % & & # # < < > % % > 3 a 0._ 6 6 W %.{ b x { ; l W J E a ) f.2.5.3.4.1.5. . .5.S.D.+Xg.f.s.y.f.s.f.f.s.h.h.h.S.H G D.K.f.5.P.5.f.3.s..X#X#XoX0XAX0X%X<X0X0XoX^ %XmXj.+X8.1 bX=X=X+XoX.XXXOX8.OX8.8.oX=X*XoXoXoXD.5.D..XOXh.0X4.@ . . . . . t 5 [ 6 UX^.U . / X.,.e . o ; i.BXLXPXSXdX` r sX#X=X#XoXd.S.oXj.+XoXf.j.j.D.h.j.D.S.S.S.j..XoXj.x.v.F %X7.h.h.oXs.h.OXh.8..X.XXXXXOXXXXXXXXXXXXX.X=XOX7.g.^ e.2 *XOXXXXXXX8.8.8.8.8.8.8.8.7.7.7.7.8.7.s.D.7.6.XX<X% % ' K & _ Y W x z x x o & p.' ` ^ / ;./ ^ ` d.) K J J J J D w r.T w l l x x x { { i i z i y u u { 5 * %.+.{ O.#.%.a.#.%.Y $   ",
"  6.% + > * # & & & o + @ > > 4 * $ 4 3 7 5 # ; ; 6 E O.+.O.o.+.8 u } K _ T ) D.2.8.h.s.P.1.D.D.D.K.D.D.5.D.D.P.h.D.D.P.P.D.D.8.7.G G P. . . . .f.f.H @ g.=X+Xj.@X*X#XoXh.f.7.OX=X*X=X>..Xh.+ &Xf.D.+XOX=X=XOXOXOXXXOXOXoXoX=X+X5.8.8.D.s.h.=X*XF 1 3.j.+Xx.%X#Xj.x.s.0 0.] @.Y D 4 + q y.q.F.nXVXZXKXPXMXF KXj.+XoXj.G.+XoXS.h.j.h.f.f.g.h.j.f.j.j.j.+Xj.k.j.j.s.F #Xj.h.h.h..XoX8.s.oXoX.Xh.XXXXXXXX.XXXh.8.XXoX.X8.,.Q D 2 8.XX8.XXOX8.OX8.8.P.P.8.8.7.7.5.5.7.3.7.7.h.s.7.x.# I x.) 6 x j c { { %.8 # o v.:./ -./ :./ ;.] t % J L E u A 4 ( I e J a z s z j : i y 6 ; ; 5 ; * u 6 8 y 6 = ; ; 6 = : 6 ; *   ",
"  6.F 1 % . . . X & X X % < 6 < # 3 3 3 5 5 . . . # $ . . 5 8 8 a Y ; [ ' ..) D.y.f.h.D.D.D.A.5.g.f.5.5.P.f.P.D.D.D.OXD.OXOXD.>.8.S H iX*X&X&X&X*XS.R 1 @ f.+Xj.S.j.h..Xh.h.P.8.8.8.OX8.6.h.@ =XD.8.oXoXOX=XOXOXOX8.h.D.h.oXOXOX7.9.5.9.h.=XoX*X, >.mXmX0XmXmXAX0XmXbXnXi.8 z.r.q s y.J.D.5.R a a X.qXl.ZX1 #XoXh.7.h.j..Xs.j.j.oXoXk.j.j.G.x.x.#XoXj.+Xx.j.d.k.3.D oXj..X.Xj.oX.Xk..XoXj.2.h.h.XXOXXXOX8.XX8.8.8.9.9.OXXX6.2 8.8.8.8.8.OX8.8.8.8.8.8.XXf.8.8.8.7.7.7.3.5.7..Xv.@ D l.v.u [ W z z x ; X * * b.U Q ! / ~ / ;.' ~ ` ] J r U d.( [ ] _ $.R 8 z s j 8 : X . . o * * ; u 5 = ; } { Y { } { a.a._ #   ",
"  6.9 9 u U U J r r t 3 $ < # u _ K 5 7 w e J R u r 5 E a.J.a._ t.A.K a ( E r @X+XS.D.OXS.oXD.7.f.h.h.f.f.S.D.D.D.S.D.D.D.oXf.>.OXH S -X&XD.D.D.oXD.oXf.+ 1 4.*XoX=X*XoXoXOXP.8.8.8.8.8.8.8.2 =X8.P.oXXXoXOX=X=XOX8.OXOXOXOX8.P.8.D.h.h.oXD.=X0X0 OXOXOX8.XXXX9.OXOX*XnX/ X % $ 7 K 1.f.i.D.y.y.7. .0 1.oX0 #X.XoX#XS.S.+X#X%X#Xx.+X+XoX3.#X+X#Xl.d.j.j.j.h.s.s.3.0 .Xk..XOXk..XXX.X.Xh.h.f.h.f.h.8.8.OXXXXX6.6.9.XX8.8.9.8.S =X8.XXOX8.OX8.8.8.8.8.8.h.8.h.h.h.7.7.7.7.6.7..X0 # F T ) U Y i.#.W L 8 ; 6 o r.c.e.:.~ ~ ~ -./ ;.;.` ;.;.e.e.~ ;.0.t.+.x &.*.&.&.O.O.} } z 5 o . o % O X ).8Xn.M.n.~.n.%.m.I %   ",
"  / > X 6 I Y I ! ( W I _ 3 * } $.u.$.T $.q.p.p.0.w.l a./.a.i.&.$.q.) r D ` 0 g.j.j.+XoXoXOXD.D.h.8.D.8.D.G.D.D.7.2.2.s.4.7.f.2.P.G H 5.2.2.8.>.5.5.oXiX7.. . f.%X0X*XD.8.8.8.8.8.7.8.8.#X0XF AXh.OX8.7.8.OXXXoXOX=X=XOXOXD.OX=XOXOX8.8.h.OX=X.X0 9.OXOX=X=X=X=XOXOX*X=X+XwXd.# 5 7 @ ) f... .4.P.P.5.oX<Xk.d.<Xh.+Xf.2.j.j.k.+XoXj.#X#XG.#XG.x.j.j.j.#X#Xs.k..Xe.V 0X.X.X.Xk.k.k.k.h..X7.h.2.D 5.oXh.8.XX9.XXXX9.XX8.9.8.9.0 nX8.XX8.OX8.8.8.8.D.8.h.h.h.h.8.f.7.7.7.7.8.8.h.$ a *.A.=.=.k j c v j . = | u X UXx.<.;.-./ / ~ ~ Q Q Q Q Q V ! 0.' L % %.*._.A.A.$.o.*.).).t.Y * o O * o ] a.} %.| { _ I [ 9 +   ",
"  @ + @._.`.`.`.(.(.~.rX5X* % W s $.i.&.&.i.&.&.a.F.s &.&.X.o.&.) ~ 4.V q g.^  .j.g.7.f.h.f.oXoXP.5.P.P.D.D.R 2 - 2 s 2 a 7.5. . .S G D.5.2.7.5.7.7.7.P.f.>./ F >.*X&X*XOX9.>.2.9.8.h.8.8.0XG iX=XOXOX8.>.2.OXOXOXOX-XOX8.P.-XD.OXOX8.9.oX8..X8.@ >.OXOX*XOXoX=XOX=X+X=XnXZXZXbX> [ ;.# i.q ^ 9X%Xj.k.k.@Xe.X.ZXd.Q F / -.>.-.,.s.7.j.#Xj.j.j..Xj.G.g.G.oXj.j.j.e.e #Xk.j.7.k.k.7.7.6.k.7.7.s.G ^ =X8.8.8.6.8.6.6.9.8.8.9.*XD mXOX9.8.8.8.8.8.8.8.8.f.8.7.7.7.7.7.7.7.3.3.s.#XD z =.Z.V.V.V.Z.Z.n =.=.~.W.c = Y r.( ~ / ! ! Q Q Q Q Q Q Q F P I I % { &.8 O.$.#.o.O.#.a.t.$.x 6 ; = < X _ n.#.$.#.} +.Y L 6 $   ",
"  + 7 F.~.8X[.'.'.`.'.[.%.6 ; c a._.A.X.i.A.F.t.8XaXa X.<.X.X.X.u.e.d.4.0 P / a s.3.s.S.D.f.f.P.P.P.5.5.5.5.5.2.>.>. ./ G X.>. .f.S H +XD.OXD.OX+X=X*X&X+X&XiX*X-X*X*XiXP.>.5.9.7.8.OXh.6.7.C h.8.OX8.8.P.OX8.P.OXOXOXOXOX*XOX8.P.P.OX8..XOXXX.X+ h.=XAXOX#XOXh.+X+XnXZX0X<XAXAXk.+ ' ! ; _ eXeX#X.X:Xc.:Xw T :X^ H.g.G.+X+Xj.D.3.5. ./ k.f.3.f.G.y.j.oXg.G.S.S.s.C x.f.5.f.7.s.h.h.7.7.5.s.>.3.7.7.8.8.8.7.8.9.6.6.6.6.XX9.F =X6.XXh.8.OXP.h.h.h.8.8.8.7.7.7.7.5.f.s.8.4.j.D r 5 8 k n f k k n =.f m W.p N ; X P ! Q / / ~ Q / R F F I I K ~ I E s 6 O j 6 ; : 6 8 6 ; : 6 = 6 o o o o O.a.{ } } } } W z 6 ;   ",
"  @ r R W $.*.~.~.'.'.'.(.Y 8 #.W &.$.+...@.@.( E w a a e 0 r F R X.R ^ 1 7 F F X.3.1.5.g.f.2. . . . .>.1.9.>.P.P.P.P.5.8.5.9.>.S.Z G %XOXD.OXOXOX-X=X-XD.D.P.P.OXOXOXP.8.P.P.7.8.8.9.7.7.7.2 8.7.2.8.8.P.8.8.9.8.OXOXOXOXOXOXOXOXOXOXOX6.9.oX7.@ *XXX*XAX*Xs.j.h.j.nXiX.X@X<Xj.@Xd.X T 0.O z.;X@X:X<X;.I 5 . . >XpX3XH.0X@XS.S.5.j.g.D.0X#Xs.d.v.3.e.j.s.y.,.3.T 7 G.y.s.f.s.y.f.S.S.h.5.2.^ 6.4.2. ./ H G / / H / >.G -., 0 8.2.6.9.8.7.h.8.8.7.f.8.7.7.7.5.7.7.7.8.s..X%X@ . ; s c &.&.c k b d f m f n f x $ # c.` ) ~ R ! T P F D F 8 ; 6 q l w 8 O ; ; ; ; = ; 8 8 8 8 L E } u o o p.#.$.#.0.W W z : y *   ",
"  % a D E W %.a.~.'.[.'.(.l 5 w._ 5 ; T o.+._ i.t.0.3 # X . K ` ) X...X.1./ 5 K ^ ,. .^ / ,.>.5.H  .H G H  .>.9.>.>.2.9.8.P.>.>.>.2 S 8.H H H H >.H H >.>.9.H  .H >.H H 9.>.2.H  .>.6.G -.2.9 >.>.>.9.OX8.5.7.6.2.2.2.P.8.P.8.8.oX8.8.8.7.P.8.3.1 2.=X=X*XOX7..Xk.6.OX=X.X=X#X#Xk.%X@XG 1 R / H.#Xx.;.V + + e ;.1.` y.j.s.e.1.4.1.e.f.y.e.f.e.3.;.3.4.3.g.3./ V J 7 e.5.<.y.s.,.) F J ^  .3.3.s.3.3.s.3.' / / / / / ~ T F > 0 5.>.4.,.,.^  .,.^ ,.1. .^ ^ ^ / 4.v.s.v.y.v.V - 6 ; c =.Z.n N W.N N m g M M n c O % c.( J l l l P w 8 z s J P w e ] 0.] q.0.0.q.1.` ` E T )  ...&.} t = o w.#.$._ _ ] E ] Y 6 6   ",
"  1 ` J L W t.#.$.t.A.~.$.q 5 E ] I q w.).(.7X7X6XF._ 7 T R J ) ` q.<XqXbX<X@ ,.D.S.&X*X*XiX*X*XL.P.-X-X*X*XuXhX*X2X+X&XD.L.D. .2 0 2 Z H 8.OXXXXX8.P.P.OXOXOXOXOX-X-X-XOXP.5.9.9.8.8. .-.D 2 >.P.S.oX.X.XOXXX.X#X8..XXX8.8.>.4.7.6.h.oX.XXX-.;.9 0 S.h.=X.X.X8.8.h.h.=X.XoXoXh.oX.XoXD. .3.G.oX#X=X#X#X,.+ %X0Xj.j.oX<X%XoX=X+XD.f.G.x.G.j.j.h.j.G.j.#X+XoXk.<.` 0 g.g.g.@X0X@Xe.1.,.1.s.d.K.<X%X#X#X+X#X%X%X%X+X+X#XS.#X@  .2X%XG.H.K.$X<X%XK.y./ D ..4.v.e.v.d.j.g.e.q.( 4 q % { %.=.O.m N.W.U.m N M.m c 8 = # L q % w l w l w ; 3 # ;X+Xy.5.4.1.3.g.i.5.5.5.1.1.5.X. .5. .K I # # X Y } z o.@.} b.} Y i i   ",
"  + > T u L _ p.X.+.w.@.6 4 e ' 0.` ' ) W i.w.+.t.X.q.T q.1.X.R @ S.<XZXZXoX5  .g.f.D.5.8.8.9.>.P. .9.L.D.D.D.D.P.P.7.5.P.R 1.5.2 2 2 2  .8.9.OXOXOXP.P.P.OXP.OXOXoXOXOXOXD.OXOXOXOX8.OX=X/ + =X=X=X=XOX=XOXOXOX8.8.XXXXP.8.XXD..X8.=X*X*X*X*X0X1 , %X=X=XoXoXoX.Xh..X+X+XoXj..XS.j.j.f.D.s.7.s.k.7.k..X>.1 e.3.,.7.7.6.2.9.9.9.2.7.7.3.4.4.2.5.5.9.7.h.oXs.<.v.T J S.d.#Xe.u.j.3.X.4.<.1.,.^ 2./  .,.1.X.4.>.,.>.D.j.,.f.1 ^ 4.2.2.2.2.2.3.4.7.7.3.2.5.s.s.3.3.3.d./ ,.e.c.J t & ; I u z j f b : m N N c y ; O ; X 5 X.p.u...$.$._ . . j.3.5.f.5.2.X. . . .X.X.X.1.1.X.1.5. .) ) q = X x %.Y $.{ Y { Y * A 6   ",
"  > r ] T ( I r.z.0.] r $ r D ! c.P d.i.X.i.} l I a P ^ ~  . .y.1XSXMXwXMXwX0 ` #X+Xy.5.5.P.5.P.5.P.Z.P.D.D.P.P.D.P.D.P.P.9.9.G 2 2 X X . , G XX8.8.P.8.9.>.H 9.8.8.8.5.8.P.OXD.P.D.OXOXOX6.@ h.XXoXOXOXOXXXXX9.8.8.8.8.8.8.h.h.k.8.h.XXXXXX.X=X0 0 bX*X=X=X=XOX=X.X7.oX=XOXoXoXj.oXh.j.7.7.3.5.7.f.7.s.3.F #Xs.7.2.7.8.9.9.9.8.9.8.5.3.2.9.9.2.9.6.7.7.8.h.7.j.` T u.y.0.^ ~ K 3.1.X.^ / 1.3.^ X./  .4.5.,.,. . .,.h.,.3.1 3.f.5.>.3.7.7.3.3.2.>.3.2.3.2.4.4.2.2.2. .,.Q ~ P ] X . . = c b N N.N.N N b y . . + . . _ p.&.w.&.$.i._.q a G.y.1.5.1.2.1.X. .X. .X.1.1.X.1.X. . .) ( q & o Y %.+.{ W Y L 8 6 i 6   ",
"  0 0 / I ] [ r.z.m.v.< X 1 C r ^ P K W _ ).^.w.r./ X.^ Q X./ G.BXZX1X+Xx.k.0 1.<XG.5.>.5.9.9.5.5.P.9.P.1.P.5.5.5.5.P.8.P.P.P.P.@ @ L.L.A.K Z 9.=X-XOX9.>.9.9.9.7.9.>.>.>.9.7.7.P.D.OXD.h.h.2 8.OXOXXXOXXXXX9.8.8.9.8.6.9.8.8.8.XX8.8.8.8.XXXXOXG 2 AX=X+XOXOXD.8.s.7.7.h.j.oXj.h..Xh.h.7.5.6.2.6.7.3.h.4.D s.s.h.5.2.7.8.6.9.9.>.6.5.>.5.7.7.9.6.2.9.2.s.f.v.e.E P e.d.y.<.) ) ^ ` 3.<.,.P ~ G.0X%X5.D ` 1. .5.3.2.4.4.h.0 / 3.3.5.6.3.3.6.2.2.2.4.,.,.>.>.>.4.3.4.4.4.Q ~ ( l 8 =.W.W.W.M U.I.Y.N.N N.=.k y v =.O.j R 7 ) L.$.&.&.c q.3.`  .1.1.X.,. . .1.1.X.X.>. .1.X.&.i.1.' 5 & o u { l 6 u u i Y u u *   ",
"  C 1 :.:.[ t v.c.p.b.3 + > ;.1 :.J 3 $.w.W _ ..e.` ^  .~ /  .4.-.>.G  .<.;.0 y.L.D.2.X.2. .9.P.P.5.5.5.5.5.>.5.9.9.5.5.5.P.P.L.o.v Z.[.Z.].2 X H 5.9.H H  .>.>.-.G H -.>.>.>.5.8.OXD.8.8.oX, 7.h.8.8.9.XXXX6.9.8.6.6.9.9.6.6.9.6.6.6.6.XXXX6.XX-.1 *Xh..Xh.8.f.h.h.h.7.7.7.h.D.8.h.h.8.8.7.9.7.3.9.8.h.2 . V j.j.7.7.2.9.6.9.>.-.6.8.>.6.6.6.6.8.2.9.5.s.y.s.e.R D f.i.r.<.^ ' / F P / a D #X#X9Xh.3.1.7 a 7.y.5.3.1 >.v.0 C 3.>.4.2.6.4.2.4.2.4.>.4.2.4.4.6.;.6.;.6.G ;.d.J c M.W.Y.N.h C.T.I.I.I.B.M B B B N.| =.| M N.b ; i * o X w d.1.4.2.X. .X.X.1.1. . . . . . .o. .X.X.] Y o # ; o X o o o 6 | 6 i %   ",
"  G > Q ;.;.r t.c.p.c.t + % 9 P -.5 e i.u.q.X...1.X. . . . .X.>.>.,.2.>.6.,.7 y.i.1.f.D.P.5.5.5.2.2.>.2.5.5.>.5.5.5. .P.Z.Z.L.}.[.n d Z.- V.Z.Z._.s a R  .9.6.>.S -.2.k.2.>. .>.2.9.8.f.8..X> 3.h.8.8.8.6.8.8.8.8.8.XX6.6.XX6.9.6.9.9.6.9.XXXX6..X2 =XXXD.8.8.h.D.h.f.7.5.h.h.7.2.2.2.7.2.7.7.6.7.6.2.7.>.> F .Xs.7.7.7.7.9.9.9.6.XX6.4.2.7.6.3.5.2.f.5.7.3.5.d.R l K.1.1.` 0.` R a a 1 a c.x.<Xg.g.g.<. .P R / / ^ F / 6.F 0 s.^ 4.2.4.>.4.>.4.4.4.4.,.4.4.-.6.4.3.<.F 0 K l &.M M B.h N.N.C.I.I.M C.M M N.B M N.m M T.W.N.x o O o * l d.X.X.X. . .X.^ 1.X.1. .o.R  .o. .X.a K [ t % o i * 6 6 = o < i t 6 *   ",
"  G < ;.` <.r t.a.A.z.e & + D #X.XK 7 X.q.t.$.q.q.1. . .X. .>.,.4.2.5.7.3.4.7 <.5.1.D.5.5.D.K.&.1.5.P. .G >.5.P. .R o.n L.Q.V.Q.!.!.Q.{.Q.R.V.L.[.L.d a 5.8.7.2.;.XX#X8.2.>.>. .^  .2.7.8.8.1 >.8.8.8.8.9.XX8.8.6.8.8.8.XXXX6.XX9.6.XXXX6.XXXX6.#X@ .Xk.8.8.h..Xh.h.7.7.7.7.2.>.2.4.>.2.2.2.6.8.8.6.6.7.<.1 / s.7.2.9.9.6.9.9.9.9.6.6.6.6.>.3.7.i.5.1.i.i.l.r.c.E l q.) R J <.q.5.E 7 - 1.<XK.y.G.g.g...G.a 7 X.I P 4.! v.^ 9 .X3.6.2.,.3.>.4.,.<.>.4.4.4.4.4.4.;.;./ F F T s n M B.N.M I.I.I.I.I.T.T.N.W.T.Q.T.Y.M C.h h N.N = . . - 5 X F  . .R ) / X. .) R R R a G R F a F R r X . X < 6 * * * i i 6 i i 5   ",
"  G 9 ;.[ ) w z.).a.p.a # # 0 ] J D ` K g.1...t.&.X.X.X. .>. . .>.4.3.3.3.,.1 e.D.i.5.X.o.5.o.D.P.&.5.i.5.R i.K.D.Z.L.L.C.!.{.!.R.{.{.V.C.V.C.V.V.Q.Q.o.8 / F ^ ,.7.6.G >.>. .>.G / >.2.k.j.1 3.k.8.8.8.6.6.6.6.8.8.8.8.6.XX9.8.XX6.6.6.6.XXXX6.v.2 F .XoX7.8.j.h.h.8.2.7.2.2.5.2.2.2.2.2.7.h.8.8.7.7.2.>.0 3.7.6.>.>.9.6.6.9.9.>.9.6.6.6.6.k.3.R a @ 7 W } E x 6 7 ) ..z 5 a L X.o.. w #XG.~ X...) X.^ 7 @ 7 ` 7 D #X<.3.;.0 f.,.>.<.4.4.;.-.,.,.,.,.,.,.,.;.;.4.4.,.r Q q.=.Z.W.U.T.I.M h I.I.T.I.I.M T.T.!.I.h I.h T.N.m N.M.O.: a O . X R o. .G a a R a a a G a R R a R R s a w q 6 u i y : i 6 i A 6 6 <   ",
"  C 9 [ U ! I l.H.p.+.4 + % , + e R 1.F @ q.i.w.q.X./  . .^  . .^ ,.1.4.,.,.1 1.5.K.D.D.&.D.R o.X.5.1.f.X. .J.A.A.Z.L.Z.n V.[.}.Q.].].Q.C.B.B.B.I.!.R.Q.: q y./ -./ G / /  .H / ^ G / f.3.3.q ^ 6.2.6.9.6.6.6.6.8.8.k.6.8.6.8.6.8.6.6.6.XXXX;.XXXXC @ k.6.7.7.8.8.2.6.2.5.>.2.2.2.9.5.2.9.f.8.8.7.7.6.2.>.1 ^ 9.6.9.>.9.6.6.6.-.-.9.>.6.-.6.<.9 . - ; x { ; o o o % W I l w D R ` ) q...H.d.~ ~ X.` a 0 F X.` F D 5 y./ ^ ;.1 v./ ,.;.-.,.,.;.>.,.,.,.>.;.;.,.>.-.;./ G ! u.a.m W.U.U.Y.M g h I.I.I.h C.I.I.E.U.N.h M U.M !.W.U.W.v : = L T - W X.&.R X.X.R R R R R R  .o.o. .X.R R R a 8 x W c i o : z w 6 *   ",
"  0 , 9 0 1 q a L [ U 4 & > < < J ' X.R P a ` q.X.) X. .X.,. . . . .3.5.g.3.- X.D.i.5.A.K.&.G 1.i.X.1.1.1.K.D.1.5.c  .Z.o.n n N N Z.B.W.Z.V.V.B.Q.Q.g Z.n $ T - C Q ,./ / ^ ^ >.2.2.>. .3.s.1 ~ 7.7.6.2.9.8.8.8.8.6.6.8.8.8.8.8.6.6.XX6.6.6.;.XX.XF D 3.0 4.v.6.7.k.s.8.7.7.9.5.2.9.9.2.8.7.7.2.2.6.9.9. ., >.7.9.>.>.>.6.8.6.9.9.>.9.-.6.4.1 + % 6 u w 6 6 6 8 ; O . ; J X.) a I 1.q.` ..` T T ^ X.<.1.y.1.y.^ y.y.1 X.^ ;.9 ,.,.-. .,.,.,.,.<.,.;.,.;.;.,.,.>.,.-.;.~ I } ; = U.I.T.T.h I.E.I.T.I.h I.I.N.B N.N.M h M U.T.N.N.V.n j y _ X.O X E ) X.X.o.R X.1.o. .a v G o.X.5.X.R R q 5 ; 7 6 ; ; 8 _ A } *   ",
"  > Q / ..U D a r t < + < < < > K u.0.T d.) a t.o.1.1.3.3.1.1.,.2.1.5.1.s.X.- X.1.5.D.i.&.X.A.y.K./ i.J.5.i.1.A.L.A.Z.R d s &.Z.n g V.n V.B.B.V.V.h k n s l O - ` ,. .H ^  .4.5.2.X.H D D 3.7 3.7.3.6.6.6.8.XX6.7.7.6.8.8.8.8.6.8.8.6.6.XX;.XXXX.X:./ e.V V -.;.6.k.XX7.7.8.9.5.7.7.7.8.9.9.9.>.>.9.9.9.9.2 2.8.6.-.9.>.6.8.6.6.4.>.9.>.6.3.1 # % ; 6 O : i i i z 8 6 l ..H.@.7 0.) J R ` ` a K ) ` ....X.X./ R X./ F D ,.,.9 2.>.^ ,.,.,.-.,.;.;.;.-.<.,.,.-.;.>.,.Q P 5 X O M.W.Q.I.M B.I.I.I.T.T.B I.h M N.N.B B h h h h h B = 8 ; q O . X 7 q 7 R a G o.X.( R R R R R ) W ....o.z ; s _ c 8 x W z z u U =   ",
"  @ 0X9XH.H.^.;Xc.b.[ b.> & < % X $ 5 0 > r . 7 r r w D w 7 0 0 D K P a a a 1 R  .R X.R A.D...L l.F.i.&.O.a D R G >. .d 5. .5.Z.Z.Z.n d n n d P.n d k s =.A.8 - X.u.) F ^ ,.3.s.4.1./ / <.` 1 ` 3.3.;.-.6.,.-.3.6.7.7.8.k.8.7.8.8.8..X6..XXXXXb.v.C V 1.D C Q / F G 2.6.s.h.h.8.P.f.P.8.8.7.9.9.>.>.H >.H 2  .5.-.XX6.6.-.-.G :.H / H -.-.:.9 < % o 6 = = i i x j j w E W L l l ) ) R ) ] K K ` ' ` ) E I K P T ~ ^ F 5 V 0 9 ^ ^ / / Q / / Q ~ / / / / / Q / / T @ ; z ~.m m N.N.U.N U.B.B.I.B.h h h N.B | B b y i *.*.*.).n.| O . O X O l a z L a z R R _ X.@.E W a a w w 8 5 a 7 & . 6 j 8 l x j 6 ; * o #   ",
"  + #X<Xq.i.' w.F.H.x.UX] # # + I K 4 1 U Q [ ! V A D V I ,.@X1X/.>Xl.u.u.q.$ i.g.j.H.1X:Xl.- ..A.F.i.i.&.i.R 3.<Xj.3.j.1.q.o.O.Z.Z.d s s s W *.v ; c O.O.v 7 E J r.a 4 e 9 7 0 0 r D D P r 9 0 9 D ! D 0 V D Q 1.1.3.3.,.X.4.X.;.<.,.>.4.3.;.U 9 # . 9 3 F ` / F G -.>./ 2.5.3.4.>.,.>.,.>.>.>.>./ S G G Z a H :.C -.4./ G G 0 F G H H / :.G ;.r < 5 * i * i x x 6 ; = = 5 u _ L E E ~ I T ] [ I Y l 6 r r V D a D 9 e 5 1 $ t 9 9 0 C D D F F D F D D F V 0 V % W ~.Z.Q.N M m f h B g m h N N Z.=.v L eXwX1XH.p.p.:XeX:XMX^.:X_ } w p.= x +.$.i.&.&.$.+._ o._ x o.o.+.( I L l e 6 3 & 3 * ; * 5 * * 5 4 # #   ",
"  + r v.I w 3 ..:Xz.eXc.b.+ + # c.z.q.<.x.+X#Xd.v.y.r y.s.g.G.H.K.K.K.g.D.1.7 y.g.i.s.3.1.) e.1. .R >Xi.X.3.5. .s.oX9.7.D.K.z : a d d 7 : v v 5 ; 3 ; 3 o 8 8 l a . 5 q.y.d.y.e.<.~ 7 . J o 3 z.r.@.) <.p.c.d.r.e.x.H.@Xq.^ / ) ~ ` T I a T V r > 4 V ~ D ! v.x.#X@X<X#X3.P F / ,.3.k.k.s.k.7.^ G F G G S 2 2 C / -.-.:.:.-.>.>.-.-.-.-.H >.;.! P L 5 = y ; i = o * * 6 i i l L K l l L J K Y [ A r A t J a D K F I D P V U & e U ~ F V D ~ <.;.<.;./ ` ] ;.U 9 ; '.'.W.W.N.N m B N B B m j c *.a.) ~ <.0.~ ) ' ....;.` F / ` ' q.@.6 K L z l l W R ) R T T K J K ~ _ ' _ _ ' ' I ( A & r L z l u L L A u & X   ",
"  @ P Q 0 D e P 3./ 3.] ;.+ + V <.d.0.y.e.s.y.5... .q.S.D.&.1.i.i.5.F.D.A. .1 i.f.y.3.3.7.s.3.3.1.1.1.1.>.>.>.6.>.7.f.3.i. .. q o.- d : : s : =.W.~.*.*.L . . . ; % J K...y.1.3.r.1.3.X.4 $ 4 e.` ~ K I ` ' ;.;.` ` / ` ,.<.1.<.4.e.3.e.y.~ ] ! & V 4.3.3.4.4.<.;.` / ^ -./  .4.3.k..X.Xk.j.3.^ 3.3.^ / R Z 2 G -.>.4.-.-.-.-.-./ H H / ^ / e q 8 x ; j N N N.N.k k y * 6 = . O 8 3 l L L u L l U 0.D 0 P / Q / / / ` <.` ..4 Q ;.4.;.;.! ~ ` ` Q F ! Q d.< t + . # i %.'.~.B k m n N k O % ; r.~ ;.^ ..) ` ' <.;.0.r.p.x.q.1.] ] ` X J o.@.@._ o.@.$.X...1.' ) ( ( P T R ) R ` E I U o u u u L Y Y [ A u & X   ",
"  @ e 3.<./ / ,.e.9 v.e.! # + ;.<.;.` 1.1.e.1.q.X.q.l.u.l.q.5.5.5.&.5.1.1.X.1 y.3.1.5.3.2.3.3.,.1. . ./ Q 3.f.3.v.,.e v.X : i.i.c ; : : s f N Q.V.W.m *.~.=.v c e ; . J 4.>./ ` X.^ x.c.I > > .Xe.<.<./ ^ ;.X.` ` ` X.,.` ..1.1.1.,.,.,.;.;./ / $ U -.6.4.>.6.6.4.>.7.7.6.6.>.>./ H -.2.>.-.G 0 4.4.1.>. .0 1 5./ -.-.6.4.-.Q F -.<./ Q / ! J $.j y k N W.Y.N.T.U.m N N k p O.v 6 j x %.] L t 1 P D a Q F D ! / ` ` / ` P ^ V D 3.v.3.;.<.F 0 L 8 N M =.Z.N g m =.N j z { M.k k n f O 3 O . - d.r.3...<.,.<.` <.;.` ;.v.<.~ <.<.) ~ 1 F ;.j.3./ I / ` ' ' ....` R ~ ~ T R P P L U J A o I U e U L U A r u % +   ",
"  % . / ! Q ,.4.k.<..Xv.V & # ;.4./ ,. .X.4.1.<.,.` q r D X.X. . .5. .1.1./ 1 q.X.4.3.,.3.3.3.3.y.f.j.^ ^ e.v.<.~ v.! . O a.&.O.c : d j : N V.W.Q.N W.B M N n c _ } +.. <.4.../ X.^ k.;XUX& 9 e.4.<.;.;.' ` / X.` ,.,.<...) ` ,.4.<.4.<.;.<.;.4.> ;.k.6.v.-.-.,.7.7.4.2.2.>.>.-.-.-.6.>.>.>.a 2 G 4.k.j.D.7 1  .a 7 2 G r 7 0 5 9 9 r D J E $.| b W.W.W.I.E.E.N.I.I.T.N.m m W.N.p B %.%.} r # e ! ;.;.[ U F F F F D V D V / / 1 v.4.-.;.a =.Z.Z.V.B.Y.Y.U.Y.I.I.T.T.W.Y.h N f : O.%.W _ A A ! ;.X.` ;.,.<.;.' ` T ` ` ~ I ~ ) ( P ~ q ` ;.XX6.;.-.P Q ! _ ' ] U P J ! Q F F Q U e A t # ' E I J u L u t t < X   ",
"  @ @ <.^ ^ X.^ ^ ;.;.;.< # 9 ;.F / ` / ) ,.1.1.1.q & @ 4 ' ..~ R X. .^ X.R 1 d.y.>.X.3.y. .,.y.3.4.,.4. .4.,.s.e.e.k./ 1 J.T &.v d v n : d m N ].[.Q.U.f f j j : `.xXY ; [ l L K P ..<.[ > U e.;.` ` ` ` ` / X.^ ` ,.q.r.X.) ) ` <.4.4.` -.:.;.# ;.3.-.3.6.4.G -.-./ G -.>.,.>.>.4.-.:./  .2 0 3.3.;.;. .- d o.N N n B.n k f k n N n =.j v b i N W.!.R.I.E.E.T.T.T.N.T.Y.T.h N.M B B b ; . X q I ` ! V D Q ! ! Q Q Q Q ~ U Q > ;.V C X Z.].!.R.B.g g B.B.B.B.C.h g C.g T.Y.N f y p.r.;.;.r.b.e.;.;.<.` ;.` ` ` ~ ( ` ( ` ` ` ~ ~ ] 0 D A ;.v.#X;Xd.V r ( ] ( U U V K V V Q V V V A # > ' I L J A u A u e < X   ",
"  + @ 4.Q F ^ ^ F ~ Q ! # % C b.-./ / ^ / ^ ^ ^ ) I 7 7 w 5 K <. .X. .^ ^ F - G.s.f.e.,.4.X.,.3.^  .3.3.7.,.>.3.4./ e.d.1.G.$.a.c : d v d d : v N.=.p : : j : 6 j a.b c n.; X . . . . . X 5 ;.r.<.<.;.;.` ` ^ ^ / / ^ 1...( ' ..' / Q ,.;.-.Q ! @ ! ;.>.6.4.<.6.,./ :.>.-.-.>.6.-.-.-.>./ ,.2.7 R G F V @ O R V.n V.Q.V.V.V.B.B.I.I.M W.V.M B M.M.!.!.Q.N.N.I.T.I.T.E.N.E.E.E.E.I.C.M M B 8 y . # 4 t t V I ! ` ! ! ! D P U A V 5 X o o.V.B.!.V.h f M N g M g M h C.C.h M h M k = $.;.;.e.;.b.0.v.;.` ;.<.` / ` ~ ~ ! ` ` ' ../ ~ ` 1 V Q :.;.s.e.` ( I J U ! ! U U U V V D ! ! e U o # I L r U U A Y A A < X   ",
"  + # D Q F / / ! / ! ] + # V v.` / Q / R R R ) R X./ ) a . . - a 1.1.^ ` F 7 S.5.s.y.4.1.3.-.^ ,.3.3.,.4.^ ,.X.,.,.,.,.X...@.&.v d f f f - : j O.v : k z j { = l 8 ; 8 u y x z Y W l Y U 5 Q <.;.e.e.1.,.` ` ` P ~ 1.) T T P J I D ) ` ` ` ;.x.5 .X3.v.4.-.-.,.-.G Q -.-.-.-.4.4.3.7.>./ 2.5.R . @ 1 5 - P.V.g C.V.B.B.C.C.V.C.h h M T.Y.W.m N.W.N.T.Q.E.T.N.h C.C.I.N.T.I.!.E.E.I.T.I.M U.N.N k k 8 % 4 V 9 V F D V 0 V r A 9 w O.o.v n k N N d k n m n g M h C.I.g C.h h m B : z.;.<.;.;.;.0.;.' / ;.` ] ` ` ` ] ~ ` ~ ` ` ;.` ` r 0 Q -.~ ;.<.' ! ( U ] I V U U U V Q I P U A L # 4 I V J A u e A t r 5 .   ",
"  # # ~ ^ Q / ^ / <.<.` X & r d.J / T ^ D a y.e.^ ' q.u.u.R X . q g. ./ / 0 0 y.1.3.3.3.4.4.^ ;.e.e.3.4.4.,.4.X.^ 3.4.X.s  .z o.n : f s f d : O 8 8 : 8 ; : { ; X o o . l W o.O.O.%.+.$.0.> V 0.` <.e.<.` ` / P F P F P P I T ^ F 0 D ~ d.;.] :X1 x.3.3.;.-.-.-./ G -.;.;.Q F 4.5.4.-.^ >./ -.6.< # V D d o.n n B.n m m m N B.V.U.N m M m k k p B m I.W.N.M M M N.h h h I.M I.I.R.M T.T.I.I.T.I.U.W.b B f f c : 6 w 4 u a $ 5 ..+.o.o.f d : X . . : O = k : g g k N B.g g h M M.8 #...;.` <.;.` / / / ;.] / ;.;.;.;.! ` / -.;.] ~ ~ 0 V ~ Q Q -.:.] ] e e I P D J D V J P I K q 6 % o 4 Y U r r P U U U A 5 X   ",
"  + + J ~ / P 4.1.Q ( q.X + 3 ] P ~ I / ~ + x.;.' u.1.` K 7 7 a ~ ` / R ~ - 0 3./ ^ <.X.X.,.^ X.,.,.,.1.4.,.,.,.,./  .G G  .&.O.o.d n n j k f c : O % $ E 8 x j y $.*.*.=.j : f j c O.z I 4 J ;.~ ` ;.( X.` ^ T R D D T / ` ( Q e e P P D ~ [ <.> ` ` / ;.-.-.^ / :.-.-.,.-.Q ^ ^ / / ^ ^ -.-.6.Q > . $ a n v s v s s 7 n j : 8 c v k =.=.W.W.Q.W.M U.U.U.U.M M M N.g M Y.Q.U.T.M M M m N.N.Y.M N.h B B B N N b f = 8 Y w q a z s o.&.%.=.=.k O.*.Z.Z.Z.~.c O d X = k k : j =.N = I 0./ / ;.;.;.;.` ! ! ~ ` ` ~ ( ;.` ] ! ] ! ! Q ! V 0 v.;.! Q I r % r 0.` r F D J K J I D 5 1 X X X 6 A [ u e q I Y e e 5 X   ",
"  @ @ I / R G ` ~ ! ~ ~ + + < [ P ( I ` ` e / 3 I I 9 . . ` 1./ R 4.^ P P @ D X. .X.^  .;.` ,.,./ ,.,.4.^ 4.-.,. ./  .R R  .q.a.c d A.n o.o.*.*.n o.o.&.W s A.~.{ $.&.W O.c 8 8 v z k c Y 4 4 e.<.` ` ~ ~ ~ P Q Q T ^ ` ( Q D ! Q D V 0 J ! [ ` 4 ~ / ;.>.-.;.-.-./ -.G / ,.2.,.0 F / ^ ^ >.4.;.` ; #.~.L.Q.Z.Z.Z.Z.'.[.Z.Z.=.=.N =.[.Q.U.Y.Y.T.I.M I.Y.Y.I.I.M I.M h I.N.M B M N B B B h m m N N.f k p p f p : : y 8 u ! 1.) 1.i.L.~.F._.A.~._.L.'.[.W.'.W.*.: - X : O.b O.c y 5 t.] ~ ;.;./ / ;.` -.] ;.` / ] ` / ~ / ~ ! / ! ~ ;.F 1 3.;.~ ;.<.> + 4 <.E e ! I I I R ~ L 4 r < X o A [ } Y w L Y 5 5 u 5 X   ",
"  # $ F F 0 a ^ F F F r + & + U ! ` ! T ] v.0.$ . . . 4 ( e.^ F R / / P ~ $  .,.^  .^ ^ ,./ / / ^ Q F / / ` ^ ` ` / ^ / X.q.X.u.R - c X.X. . .~ X.i.&.i.q.0 R z.v - j 8 s z x u 8 c W z L r > b.T I T ( K P U V F P D e 0 e e J F I J F q D J r q ~ ` ~ / ` ^ ^ / -./ F G / ^ / C D G ^ -.-.4.6.P q 3XZ.n n V.V.V.B.V.V.C.W.W.W.W.U.Y.U.U.I.N.U.I.T.M M I.B.g M B m N.N.N.M N.N.m m j k p B b p = = O = p y % # W w.e.e.e.,.R o.A.&.&.&.i.w.&.&.o.&.o.o.=.o.$.; O O X &.+.W c { t ] ;.-.-.;.` ! ;.;.-.;.! ;.! -.] ~ ! ! ! ;./ ;.;.! ! @ ` Q P P D 9 . . + % r U D D D V 4 U ' J # o X [ x A u e A L 5 6 < $ >   ",
"  @ + t 5 t F / R P ~ a X # # # r [ ;.5 P ( V X % X . 0 E I ~ T F F F R I % / ,.F R / / ^ ` ^ / ~ R -.X.,.` ,.X.4./ ` / ^ <.1.) L ; )  .K ~ 1.` ) / X.,.T R P K K $ O X 5 * z z O z W v E U 5 V V D l J I ! ` ` ( I J P K D P P J K D I U A ! U 0 e F P I Q / ! ~ / Q Q Q G Q Q F C / ^ ` / -.v.0 0 a - v N =.n N O.n f n N n N N n f g g d g B.M M Y.M Y.W.h V.m U.Y.B.h M h W.f : j : : ; X & . . = 6 x | 6 r :.V / -.:.:.X.F P ~ K ) I T 0 w s R ) ) D ' q.) ( ' w . T z u L q Y V U F :./ ! / ;.;.` ~ ;.;.! ! Q / / ~ ~ ! / Q P <.1 ! ! P D V V 4 + . V [ U 9 < < r U U I e % X o # # . . . . . X & * # >   ",
"  @ # 9 t 9 r 4 q e r 5 # # + < 5 q e ;.r 4 r e r r 4 & + q r q 0 D I 0 r 1 F P F a e D F P Q F Q P Q ^ / / Q / ) / ^ ` r K K q 4 & J R I R o.^ o.~ R ) ` ~ ` e.e.d.! # . % o _ c s j L W I r Q ~ ! a a D J I ] ( ! P U a D r D a I ~ I r V A 0 r e 9 4 0 0 9 0 D F I P J Q Q F P P r F R D C 1 K q.i.o.A.A.&.*.o.o.L w W W n n n n n k f f v k m k f f N M B k M h m B.N.m B m B j 6 O . & = o u O o * . 3 ~ ;.3.G G G / F -.0 v.v.;.Q ~ ` <.;./ ^ ..<.<.e.r.0.u.z.d.<.5 - Y 8 ; L :.` / ! ! F F Q ! -.P ~ F U Q U ! Q Q ! ! Q ! U V > V Q ! 0.b.r.! X X r.! . t U [ [ e q u r > X X X . 4 V e V J V Q t < ~   ",
"  # % 9 r q 5 q t e J r # # + 9 U V e e.P ( ;.P P ~ ~ ` I 9 q q r 0.<.` ' % 4 P / F F P ! / ~ ` ,./ Q / ^ ` ` ` ~ ^ r.e.;.` ] @.K . T i.g.u.u.A.l.l.l.i.y.) X.g.e.G.#XG.~ 5 - 8 l j s z E T t ] <.! D V A [ ` ;.[ I J D K 3 3 D P _ ` ) ~ r K V V J J A e r ; 0 q 0 q r e r J T ~ e $ e K @.@.$.w.o.$.O.o.o.c o.o.i.$.o._ o._ o.W O.O.o.O.=.=.c v j : f f f f f k j f f f p k j : : = 6 u A u = Y [ | Y 6 r ;.Q -.G G Q -.Q -.> ;.;.;.;.` / -.;.<.` Q D ` ` / ~ ~ ` X.e.' ' _ 6 6 [ ] ~ ` ;.` ;.;.Q Q -.! ;.;.;.;.Q ~ ~ Q J ~ ` ` V U . Q <.;.r.e.` > . . * o [ ] U u u t t > # # o X . 4 ` ;.` ;.;./ / > > -.  ",
"  @ % % ] e > ;.0.~ U K > < $ 5 ] D D P F F P D Q U Q K T ` ` <.` 3.;.` ' X 0 ^ Q R R / / / / / ` / ^ / ~ ^ ` / / ` / ) ) q.<.' l . ) 1.&.X.X.X...X.X.o.o.X.R ) R ~ ) 3.p.:XL O . 6 8 z E 5 r ;.;.! ~ P Q U U U D J K U ! J F I ~ ^ P I ;.( ` e I U r P P a I I E ' @.0.0.I r 0 3 r ' 0.0.@.o.&.$.*.&.O.&.X.a L #._ _ W W W E E c E W W W _ O.W c c j : v 8 d : : : = : O : p = = * : { Y x Y r X * r ! ` / Q G / :.:.Q F G Q > <.<.;.~ ` ;./ Q ~ / ~ P D P I / ) ~ ` ` ;.d.q.5 3 @.P ( Q ~ Q / ~ U Q F -./ / ! ! / Q / ;.! ~ ~ / Q ;.X Q 0 e $ . . * < # . r p.{ A A Y Y Y Y A & & & . V ] ~ ~ ! ~ Q F < %     ",
"  > > % r t > <.;.9 0 V $ < 9 < ` J 0 D 0 V C D F V Q F F Q F F F C V C V + 9 U D D P D P U F D r 0 F F F R G P / ~ . a K ~ R K J . K ) ~  .R z R K R R R R ) R R ^ R /  .X.j 8 * O w b.Y < ! ` U F U V V U Q U J J J K Q [ [ ! ! I D D ~ ] ~ D D ` 4 ~ ( ' _ ' @.0.' _ ' ( % . . ' r._ E z 3 w @...I L ] L l W _ ( W E E E L L T W E E E T E _ _ o...W c ; 8 8 O ; ; 8 6 = 5 u w . ; { ..I Q I Q C G :.:.6.-.:.:.:.:.-.G G / 9 3.3./ ` ;.] ! ! ! Q P Q P P F I ~ ~ ~ ` / ;.~ # % ' a ~ ! Q / / Q / Q Q Q Q Q / Q Q / ! / G U / ;.V ` + -.+ q J Y { [ | } Y u } Y i Y A Y i [ u & & o X U / ! Q ! ! :.A < @     ",
"  1 & # X 4 < $ 9 Q D 0 1 % 9 > [ 0 0 V 0 V F V D Q Q Q P P F F F D Q V A # 9 F C 9 V V Q J D r D F P F F F F D I e I K D K D J e X 0 R a D F R R R R F R R R R R T z R _ E : Y 6 o w t.q r ( P F Q F U Q ! ! U J J F U ! [ ! ! ! J ! U ~ ~ ` I D ' D 4 J _ _ _ ) E E I J L T q r J E K e l J T L ( _ _ l J _ ( E E I J U L T Y E Y E Y L T I E E E E ' ( E q X . % 5 7 # # z x } L . 5 ! I ^ -.Q Q F G :.>.-.G G G :.Q / / ;.9 4.<./ ~ / ! Q U ~ ! F D K D P F P P P P / P Q t o q D F F Q Q Q ! ! / ! Q F Q Q Q Q ~ ! Q Q Q ! [ U 5 . -.9 Q u A A A Y A Y [ [ [ u { u A A t o o * < . J ( ! Q :.! ! A % #     ",
"  9 & & % V r 1 D ~ P V > # > < ! D D P Q C r F Q Q ! P F F F F F F F G Q @ t Q Q F V V F e P Q Q T F F G F F ~ ' I X.P K K P L L X K X.a F R z a R ) R W R R R R R a z x i { { y o X J # J U D F V D D A Q ! I U P r J [ [ I I ! V I ~ ! ~ ( P V ( ~ r L E E E Y R I [ [ ] E ( +.( I U e J I I I ( ( ! q ; I U U [ I L U E _ } } ] W _ E ( E E I I Y [ ~ ( I U q . o & . X 6 J u U o . $ ~ Q Q F G F / -.-.-.C / :.-.-.:.-.;., ! I V V Q Q Q ! / ! ! Q P ~ [ ! J D K J F U [ U . U I F F Q Q ;.~ ! / -.:.! Q Q Q Q Q :./ Q ! / :.r 9 > ! V r A u u Y A Y x A | Y Y A A A 5 X t t t t o 7 ~ ! ! ~ ! :.A > +     ",
"  , + X 5 A K q 9 F V 0 > . > 3 0 r r F F D 9 D F V F F F P F F F Q Q Q ! > 9 / F Q F F Q V ` ! P F F F P F D T a 5 ~ F a e J R w X E R R z R G ) R R R R ) o.R a z a s : b j x y o o X * e P P V V V V V A V r 5 3 $ < * ; * < 3 3 5 5 4 4 t r 4 9 9 5 5 4 4 q 6 4 4 w q e r r e e r r 5 t q r q q t 5 < $ < 9 4 3 5 4 q q q t t t u t q r q r e r V ! ! U I [ V # % X & < < t # X X # I ! V e V V V F G -.Q F F F G Q Q ! A # V r D J U P ! P V A U Q [ ~ Q P Q D D Q Q ! ;.[ & ( T P ! Q ! ;.Q Q Q Q / Q Q ! / Q Q F Q P Q V V > 4 > 0 ! A A u A i A A x A A u u i u < % V A t t 6 o 5 ) I P Q ! A C < #     ",
"  2 + & < U D 0 Q V r 9 % 3 t + K D Q F F 9 9 0 V 0 C Q Q Q / :./ Q Q F ! & > ~ Q Q F Q Q ` [ V P V D D F K D D % 3 T R r t u 5 6 4 E X.X.7 a R R D K R P R R ) I ( Y : v b i y u * = % < 5 V A A t < o t t * < t V e V V D J A e u r J D e r t r r V t r r t e 7 4 5 $ # % 3 3 % * o $ . - . + X & X X . # . . . . . . . . . . . . . X . X . . . . . . . . . . . . . . X . X . X % . . # 4 < > < $ # % + + X < # & & $ < < # $ . . $ % < < < > > < > < < < 9 9 9 > 9 9 9 9 9 $ & X q U U Q V ! Q ! Q Q Q Q F F P F F Q Q D Q D 3 > V X V A V ! [ U Y I V A A A A Y A t 6 A r X % 3 9 < t q U J A Q A 9 4 % !   ",
"    + # > U q > P D 5 > U V & + V ! Q ! P 0 ~ G V 9 D F F F F F F V F D V + & Q D V F Q F ! K t 9 D I ~ ` ^ ( e.< * u q X X * 5 6 * 7 w R a a a a J a R K D D I L a x . j k j 6 * o . . . X o * o % A b.c.b.u Y :X:X:XeX:X:X;X#X.X#Xx.UXG.l.d.e.k.c.x.c.c.c..X.Xx.G.#X@XH.c.c.c.c.c..X#X#Xx.d.c.k..XUXUXUX.Xv.eX;Xd.k.#X0X:X<Xx..X.Xc..Xc..Xd.k.d.c.c.x.UX.X5 + # U v.A # UXr.[ A U ] ] ] [ [ Y I I A A V A U A A r r $ < $ $ 5 V A A r t t V V V V Q A A V V r r r r e t t $ . . . . t ! ! C V V V A Q ~ Q P Q P D D J D 3 t 9 < . o > V C C C ! :.A C C C :.V V V 9 C V A V Q ! [ ;.:.:.V 9 V V A V C V # !   ",
"    + + 3 q 9 e V 0 0 V 9 9 9 > % Q V ! V 9 ! V V V U V C D F F C C C V V > X V D C V V V D V ! t e <.~ ! ] ] r # < 6 5 * w Y Y z J . . ; 4 7 - q L R L K L J 5 + = = p : f f p o # c.eXc.. . o % 6 c.c.] A t t b.m.UX.Xd..Xv.k.c.v.c..X#X<X#X;X.Xc.0.v.v..X.XUX.X:Xx.c.#X;Xc.c.c.c..XeXeXr.<.6..X.X:X0XAXb.A AX=Xk.k..X#X:X:X:X0XeXAX.X.XeX:XeX0XeXeX0XeX0X> . . :X:X# & wXm.c.c.m.p.c.p.p.t.0.t.d.p.p.t.m.c.p.c.c.c.} 9 e.> d.x.d.d.p.d.c.c.c.d.0.c.d.t.v.v.c.v.d.c.d.p.p.;.A # 4 ] v.;.V Q P Q V ;.9 r I P e D V r 1 5 5 V U e u < . > ;.Q -.-.:.:.G :.G :.:.A :.Q Q :.Q :.;.:.Q Q Q ! Q > U A Q V A A + <.  ",
"    . # > q V V 0 9 V V 9 r V 9 9 5 9 > # # . . 9 ~ V 0 V C V F F F F F F 5 X V V C C V D F r Q 0 % t 0 V t . . # W [ [ j x Y x y Y E z & . . X . X * ; $ t . o k k = N U.N.b = * < eXwX:Xm.4 X o % r.A u A t t r ] ] A [ U U U U A I :.[ ] ] ;.;.Q A V A ! ! [ [ ] e . J I [ e ! T ] 0.I ! V F V C A :..X! @ t C 9 9 , . . C Q ;.:.;.:.:.! -.;.0.0.e.v.v.v.V > 0.#X.XA X eXc.t.c.} t.r.b.} r.} ] u } b.p.m.t.m.t.t.p.[ t eX9 eXc.d.r.v.v.r.r.0.b.p.b.r.r.b.b.p...' 0.@.] } b.[ > ;.I ;.] P U ! 0.<.:.V I ;.I U ! J ` P F U U ! V ] ;.V . v.:.V :.V V V C C C C C :.C Q A Q ! :.Q P V C V t 9 A V A A A 6 + #X  ",
"      + # + 9 0 C V V 0 9 t C t V t < # + + + . > C 9 9 C C C C C C V V V 4 . 5 V F C V D V 0 0 0 V < o . . . % 6 i < w i Y Y x 8 W { { z 5 * o X . o # * O.m B h h B = B B p = O o X Y ] p.r.o + + ! V t V t t t A A [ A [ A A A A t t i t t t A A ;.] [ b.[ ] [ [ A < # A ;.Q Q G :.;.! A U U A A A < # # > ;.Q C C C :.C C C 2 , C A < 9 9 1 > C 9 C C 9 V 9 [ [ ;.t < b.u A A i Y u x [ [ Y 6 t u u A u Y Y Y u t u < [ u ] ] I U [ I Y [ ! ] ' A U [ ] ] b.b.] _ ] ! A [ b.[ A U [ U V V ! ~ U U Q V V U Q U V ! A V C C t 9 V U 5 X t < t V t 9 9 t C t t C V t A V A A A A t A t t t A t V A e 6 t v.=X  ",
"        1 # # > 5 9 V t 9 V C 9 t 0 C 9 & + + < V A A C V V V V V V C C r $ X % V V V V V C 0 V 0 e e u 3 o r J [ { A u * 5 i y i Y W @.Y E Y u # # t # ; b k B g B M B p B p : X # o * t.} } o o . A < # * t 9 u A A A A ] b.b.] [ [ [ [ [ t # 4 A [ ] ;.;.b.r.;.b.;.! + A e./ :.;.b.;.b.v.e.b.A :.:.t + + # 3.b.6.-.:.:.XXXX:.;.;.:.:.A :.~ ;.;.;.b.:.;./ Q 9 ! b.A < t [ A b.b.A ;.[ A [ [ ] { [ U t u A u Y U u u X 4 Y < . 6 r A ` } ;.] Y A A t t V A A u t u w q t u u t t o o < A ! Q Q V 9 t 9 9 t 9 V V V V V V > t t V t . . $ A A u V t t t t t t t t t t t t V A i A t t t u i t u t < 3 D XX      ",
"            9 > & # < < < 9 4 t t 9 9 5 X & o V 9 9 9 t 0 0 0 9 9 < 9 > # X X # 9 r r r 9 9 V V V J l w 5 * w 3 9 9 i t * . . . o % * w 7 ; 5 5 # < V & % o . = = O f k p = o X l 5 o o Y Y . X X U eXv.4 X $ < t A i A t i i u u r u u 6 < o o o X & # > 5 t V A V A t X < t % < < < 5 9 < < < # o X . . . . . 9 V V Q Q ! A A I I U r A V A V A A A :.D 0 t # 4 < % * o < < + o & & % * = J Y U A A t V r A A a e e & < r X & . 5 A e A I Y A t t t u < # 6 6 u t 3 q u u e A 6 o . * q J D U V V V V r 0 V J A P V r < 9 V < 4 # . X . % % # < < < 9 5 6 t t < < < t t i 6 t t 6 6 i t 6 < * 4 G             ",
"                S > , # # o X o % > > < < > > @ @ , + @ + + + + + @ @ @ 9 1 1 1 @ , > @ @ > @ > 2 @ @ @ @ @ + @ , 0 G F G 0 2 2 , , @ . + + + + # @ + > q 7 $ @ % > < , * < < A e.` 4 5 @ + > 5 ;.*X      S , 1 < < < > < t 4 t 5 > % @ % > < 9 9 5 < < > > # # . X X # 4 < > 1 , 1 , 1 > 2 2 0 0 C P ~ ;.-.e.;.> . . . . . . + . . . + , , , > 2 1 2 , @ , , 2 9 Q Q :.! A 1 1 1 < 1 > > > > X X + + @ X + + + + + X > > + @ @ > @ @ + . + . + & % # + X . @ , @ + + + . . . X 1 V F V C + + + + @ + @ @ . % @ @ % + + # > > > @ 5 V P U 0 9 9 < o o + X X o o o * = < o * * < * * 6 < 6 < F /                 ",
"                        H -.9.-.9.H                                                                                                                                                                                                                                   H 6.9.                                                                                                                                                                        H 9..XXX                                                                                    XX:.4.6.b.6.0.e.b.v.v.v.v.v.v.v.b.v.v.                          ",
"                                                                                                                                                                                                                                                                                                                                                                                                                                                        =X                                                                                                                                                      "
};
