/* XPM */
static char *bd4c53a845024876972731ca0103e4aeBXSXcCVIoD388HWk[] = {
/* columns rows colors chars-per-pixel */
"296 150 256 2 ",
"   c None",
".  c #010001",
"X  c #090808",
"o  c #140907",
"O  c #171509",
"+  c #090C12",
"@  c #0A1617",
"#  c #141314",
"$  c #1C1B1B",
"%  c #171817",
"&  c #0F100E",
"*  c #231B19",
"=  c #25160A",
"-  c #1A231B",
";  c #16250E",
":  c #28261B",
">  c #302F11",
",  c #191C22",
"<  c #0A1C24",
"1  c #241D23",
"2  c #052628",
"3  c #1A2626",
"4  c #163335",
"5  c #242323",
"6  c #2C2C2B",
"7  c #282827",
"8  c #342C29",
"9  c #2A332B",
"0  c #37352A",
"q  c #292C33",
"w  c #2A3536",
"e  c #333434",
"r  c #3B3C3B",
"t  c #373837",
"y  c #342D34",
"u  c #433C38",
"i  c #443B2B",
"p  c #483A19",
"a  c #3A433B",
"s  c #36472F",
"d  c #36451A",
"f  c #4D5016",
"g  c #6B7217",
"h  c #474728",
"j  c #47453A",
"k  c #575838",
"l  c #515230",
"z  c #655436",
"x  c #586830",
"c  c #747928",
"v  c #6B7131",
"b  c #5B6311",
"n  c #383C43",
"m  c #2B3B44",
"M  c #123C43",
"N  c #443E43",
"B  c #174B4E",
"V  c #3C4344",
"C  c #3A4749",
"Z  c #3A5758",
"A  c #324C4E",
"S  c #086C74",
"D  c #356C6F",
"F  c #225C63",
"G  c #434443",
"H  c #444B44",
"J  c #4C4B44",
"K  c #444B4C",
"L  c #4B4C4B",
"P  c #474548",
"I  c #534C47",
"U  c #4C534C",
"Y  c #475449",
"T  c #53534C",
"R  c #595749",
"E  c #444C52",
"W  c #494D53",
"Q  c #4C5354",
"!  c #4D5B5B",
"~  c #485657",
"^  c #535453",
"/  c #545B54",
"(  c #5B5B54",
")  c #535B5B",
"_  c #5B5D5B",
"`  c #565557",
"'  c #524E53",
"]  c #645849",
"[  c #625D55",
"{  c #6A5545",
"}  c #4A635B",
"|  c #5C635C",
" . c #57645A",
".. c #58674B",
"X. c #66664A",
"o. c #636354",
"O. c #63645B",
"+. c #69695A",
"@. c #726C5A",
"#. c #6A735A",
"$. c #767659",
"%. c #707547",
"&. c #495C63",
"*. c #575D63",
"=. c #464A62",
"-. c #496768",
";. c #546363",
":. c #5B6463",
">. c #586A68",
",. c #5A736B",
"<. c #566C72",
"1. c #4A7778",
"2. c #547474",
"3. c #547B7C",
"4. c #5B7C7B",
"5. c #597775",
"6. c #4A6F70",
"7. c #646B64",
"8. c #6B6C63",
"9. c #636C6B",
"0. c #666866",
"q. c #726D64",
"w. c #6C736B",
"e. c #677469",
"r. c #73746C",
"t. c #777868",
"y. c #687976",
"u. c #747C74",
"i. c #777A76",
"p. c #686D72",
"a. c #625E63",
"s. c #847B69",
"d. c #837D75",
"f. c #847554",
"g. c #817A38",
"h. c #798631",
"j. c #798517",
"k. c #78894D",
"l. c #58827C",
"z. c #518379",
"x. c #7A846A",
"c. c #6C837C",
"v. c #68847A",
"b. c #7B8375",
"n. c #73837C",
"m. c #7C847B",
"M. c #7C8A7D",
"N. c #758778",
"B. c #718E74",
"V. c #739855",
"C. c #35817F",
"Z. c #848937",
"A. c #8A9230",
"S. c #98A435",
"D. c #9BA52F",
"F. c #8C924E",
"G. c #96A84F",
"H. c #A9B350",
"J. c #87856A",
"K. c #838B7D",
"L. c #868778",
"P. c #88937A",
"I. c #96967A",
"U. c #91906E",
"Y. c #96A86F",
"T. c #ABB36C",
"R. c #A39C7D",
"E. c #B7C556",
"W. c #B9C76B",
"Q. c #C8D370",
"!. c #CAD665",
"~. c #1D7A82",
"^. c #557D81",
"/. c #4D7D82",
"(. c #6C7D82",
"). c #2F8C90",
"_. c #228B90",
"`. c #548384",
"'. c #5C8483",
"]. c #598A8A",
"[. c #559090",
"{. c #638483",
"}. c #698A86",
"|. c #738B84",
" X c #7B8C83",
".X c #778886",
"XX c #6A948A",
"oX c #7C9285",
"OX c #74938B",
"+X c #7C948B",
"@X c #78988A",
"#X c #689895",
"$X c #789A94",
"%X c #6C8D91",
"&X c #6BA399",
"*X c #79A499",
"=X c #77A28C",
"-X c #52AAAC",
";X c #79AAA4",
":X c #6FB0AD",
">X c #5C9EA1",
",X c #6FC6C7",
"<X c #838D83",
"1X c #878B86",
"2X c #849384",
"3X c #8B9384",
"4X c #84948B",
"5X c #8B948B",
"6X c #849A8C",
"7X c #8B9B8C",
"8X c #899985",
"9X c #949B8C",
"0X c #9B9D8C",
"qX c #959786",
"wX c #839C93",
"eX c #8C9C92",
"rX c #889795",
"tX c #939C93",
"yX c #979C97",
"uX c #8E8D89",
"iX c #A39D8D",
"pX c #9AA28C",
"aX c #8CA49B",
"sX c #87A698",
"dX c #94A394",
"fX c #9CA394",
"gX c #9BA49B",
"hX c #96A89B",
"jX c #8CA994",
"kX c #A4A58B",
"lX c #A2A593",
"zX c #A4AB9C",
"xX c #A7A999",
"cX c #AEB29A",
"vX c #88ABA3",
"bX c #97ABA4",
"nX c #88B3A8",
"mX c #98B4A7",
"MX c #94B8B4",
"NX c #A6ACA4",
"BX c #A8B5A7",
"VX c #B4B8A8",
"CX c #B5BBB4",
"ZX c #A9B7B2",
"AX c #949CA2",
"SX c #B9C4B7",
"DX c #ACC4B5",
"FX c #9CC4AD",
"GX c #C5C7B7",
"HX c #CCD787",
"JX c #B4CDC6",
"KX c #95D0CC",
"LX c #CCD4CB",
"PX c #DCE4E0",
"IX c #BCBEB5",
"UX c #857F82",
/* pixels */
"                                                                                                                                                                                                                                                                                                                                                                    S S nXmXMX'.D F S D D S S                                                                                                                                                                                                                   ",
"                        D D D D B F F Z &.&.Z Z Z Z ~ ~ ! ! ~ E A 4  .C >.>.w.w.w.| e.| m.K.+.u.| u.t.i.M.M.3.D D [.).S S D F Z ,.e.A e.b.x.x.P. .} >.y.y.n.,.y.1.                                  ~.~.~.~.~.~.~.~.~.~.~.S S S S S S S S ~.~.~.~.~.S S S D /.~.~.~.~.~./.D ~.D D S S ~.~.S S S S ~.S S [.[./.D S S S S F D D D F F F F F F F F F -.<.M C H x.P.Y.J.k.T.T.HXW.T.W.T.T.HXT.H.G.W.Y.jX=XmXY.x ....~.                                        >X[.[.).S S S S S S S S S S S S S S S S S S S S S S S S S S S B S S S S S S D /.D S S S S S S S S S S S S S S S S S S S S D S S D                     ",
"              S B w $ lXqX= i > L.yXrXrXaXNXBXBXNXxXgXxXxXNXNX3XyXr.8 L.cXpXP.U.U.U.U.U.cXkXY.kXR.R.R.kXI.kXkX3X. . 8 J.F.cXHXHXHXW.T.HXHXHXW.HXHXcXj 8.lXlXiX0XiX3X X4X8XeXi.n 3 2 E m . p.i.r.w.w.p.r.r.i.i.i.m.i.u.i.i.r.r.i.i.i.i.i.K.<X1Xi.' * = r.qXfXyXlXlXlXlXfX3X3XP.L.K.K.i.3XL.i.r.r.i.1X1Xi.1 1 o 1 i..XwXbXbXbXbXbXbXAXyXyXAXNXbXrX.Xq o U.T.W.Q.Q.W.Q.HXHXE.!.E.!.Q.Q.Q.Q.Q.HXQ.Q.Q.Q.Q.HXHXW.W.W.W.W.Y...B.  ~.D F A C a 9 w w e j T 8.i.u 5 8 7 = o.L.u.K.K.L.L.s.L.L.uXi.L.uXL.3X3X3X0XK.3XqXqXqXL.0X0XiXiXxXxXcXVXcX( J i q.d.t.L.s.L.t.q.L.s.L.3XL.i.d.L.1X0Xd.0.t ( [ 0.G B                 ",
"        S 2 9 0.<Xy.t lXI.> R > uXyXeX.Xn.m.b.<XgXNXxXcXxXNX9X7X2XgXL r.fX+.#.J.U.J.%.$.Y.Y.U.F.F.F.F.U.J.X.J 5 - L.U.HXT.T.H.Q.Q.Q.Q.H.W.W.H.E.HXHX%.> j 0 t.@.o.pX3XdXx.K.tX) X ^ t # i.LXCXBXCXBXCXSXCXSXCXCXZXZXZXCXBXSXCXSXVXSXSXVXSXSXCXCXK.r ( T BXfXP.0XxXxXVXVXL.qXL.P.K.3XP.K.3XyXtX9X3XqXlX0X` . . NXbXeXvXbXbXbXbXrXeX5X5XzXtXxXxXBXCXL 0 LXQ.!.H.E.!.W.W.W.E.E.!.!.Q.E.S.H.!.!.!.H.Q.Q.Q.W.Q.Q.!.!.!.!.W.G.h q +.8 i.i.+. .+.o.l #.x.P.fXlXI O o . qXcXcXxXkXcXGXGXkXcXVXkXt.I.t.P.lXqXqXcXSXGXVXpXxXlXxXGXkXcXGXLXGXLXLX9 + qXqXt.cXcXGXGXkXVXxXqXqXqXlXpXkXcXcX0XlXq.j VXL.K.L.L.( Z             ",
"      X G 1XyXbX Xe.9XxX0Xi j uX+.+.a a / _ t *.1XbXNXgXuX7.G K E w % @ n 3 0 ..o.8.yX( T O.o.+.q.> +.R +.8 . t.I.kXT.H.g G.H.E.G.H.W.Q.H.T.T.Q.T.HXHXkXh +.J.t.I.0XfXBXqXqXi.* u d.i O NXCXlXNXNXcXGXVXBXVXVXBXCXVXNXZXZXCXVXSXVXVXSXSXSXCXVXLXGXi.8.O pXP.P.xXlXqXd.@.r.r.r.r.t.t.b.P.L.qXK.L.L.I.L.d.yX6 T xXK.qXqX3XyXyX5XuX1XL.1X3XqX3X9X3XyX0.0 F.S.S.!.W.W.Q.Q.W.H.Q.Q.Q.!.!.S.G.H.E.!.E.A.E.Q.W.E.E.!.H.E.H.G.H.W.Y.+.3 V bX9XK.K.b.x.x.....e.dXj : O q.kXkXY.R.kXR.cXR.R.I.T 5 J K.O.xXt.t.#.h X.o.L.3X3XqXu : X j t.K.9XlXyX% qXGXNXqXlXlXlXxXfXVXxXlXP.#.x.P.L.P.qXi.u.b.K.P.t.I.t.L.L.t.t Z         ",
"    X :.eXeXQ / V X gXlXK.u j O.0 . r L e _ q P ZXLXPXNXZXbX/ PXPXLXAX+ + 7 rXyXu.gXLXLXCXSXLXCXCXNX@ 7 9.9 0 J.U.Y.HXQ.F.Z.H.G.H.Q.HXQ.W.W.Q.Q.Q.W.T.T.$.j i o.@.@.s.s.d.f.= j s.s.8 = R SXlXP.qXqXqX0XI.I.qXP.P.P.K.3Xb.m.K.<XK.P.L.P.L.I.lXlXi.VXO 0 [ xXCXVXVXcX0XuX9X9XlXlXlXxXkXxXpXkXkXiXkXkXkXlXcX[ q.IXlXxXkXkXiXI.I.J.s.s.s.J.J.P.L.t.i.8 : z v A.E.H.H.E.E.!.H.H.H.E.Q.!.Q.E.W.E.E.S.S.E.H.Q.E.S.H.H.g g A.G.%.X.P.- 3 ZXK.P.I.P.P.b.x.L.b.P.q.* : +.U.J.J.$.$.X.X.k X.T , < 9 _ | _ 3X5X8.| T u.3X0X9Xi.m.p.p.p.0.r.w. X5X% gXVXK.lX5X0.G W 7./ U | ^ _ _ ` ` *.W G Q e r r.u.t.+.+.[ O.q.` $ D     ",
"    . bX4X4X3XtXbX@ r.lX1Xt j e 9.yXLXCXBXCXZXNX5XBXLX| 1XNXw.SXLXPXPXw @ tXPXLXCXBXSXSXeXNXCXbXdXCXfXt.0 pXk.X.%.T.HXT.G.b G.H.H.Q.Q.Q.T.G.T.Q.T.G.T.T.T.R.U.J.@.] 8 = j p j ] s.s.i = : t.L.I.qXlXqXqXqX0XkX0XqXqX0X0XqXuXuXqXqX0XL.lXxXL.0XlXyXVX: * X O.L.1XL.d.1Xr.8.m.t.r.x.b.b.L.x.L.P.L.L.P.3XqXlX+.j cX0XqX0X0XkXxXxXxXkXkXkXlXlXfX0X0Xi.8 . f F.S.g S.H.E.H.E.!.!.E.E.S.H.!.Q.E.Q.Q.A.S.E.H.H.S.H.G.A.h.F.v k.h h b.5 9 7.> i > i h j k ..o.j ( . . . l k k h h j j 0 I & K SXZXbX:.. CXCXZXCXNXBXzXNXNXNXVXSXSXSXVXSXBXCX<X% zXSX9XfX7X7.w.i.8.u.r.w.r.r.m.i.i. Xi. Xi.r 1 yX3Xt.s.t.t.i.o.8.G o     ",
"  < Z rX4X4Xm./ y.C _ qXK.t : 3XZXNX4XNXBXgXNXgXNXgX<XtX5XeX7X2X4XtXCXSX+ bXCXNXSXSXBXCXNXNXCXZXzXzXY.kXT.HXHXcXT.T.T.G.c c F.W.HXHXW.HXT.H.W.Q.G.H.H.G.F.Y.U.cXcXkXU.s.J.[ * 8 s.[ j 0 * . 7 R q.r.8.[ +.o.o.8.O.[ ( T J o.O.O.O.o.+.L.K.o.* i.1XUX% % 5 . . o 8 T ^ tXtX7Xe.+.#. .| | 7.9.u.w.r.7._ 8.r.u % r r : e - 6 ( r.8.+.+.8.8.r.0.O.[ o : %.z v f c S.!.D.E.!.!.H.!.!.!.H.H.!.E.H.H.g E.S.j.S.H.S.c A.H.G.v > h 0 9 - + p._ 0.i.p.w. XrXAX1X(.y.y.9.C X X k t.t.@.+.9X^ % ;.JXZXZXNX:.BXNXbXbXhXgXfXfXpXpXpXzXzXfXzXzXfXBXw.O 9XxXpXxX9XyXzXlX9XfXzXpXlX9XP.fXpXxXfXzXtXr # 0.+.@.@.o.@.+.+.+.r @     ",
"  @ w 4X4X5X3XL.T a zX3Xt.: 9 fXNX7Xw.hXeXdX4X2XCXNXM.bXhXbXbXdXZX XoXJX@ bXn.eXBXBXNXbXNXbXZXhX4X2XP.Y.W.T.F.h.H.H.G.F.b A.H.W.Q.HXQ.Q.T.W.Q.W.G.H.A.H.G.G.Y.T.R.Y.U.J.I.kXU.@.. = : 0 $ % 7 1 y o * 8 8 8 8 1 * * : 8 8 u 0 0 8 : : * = 8 u I u . % * * y u y J J I 8.8.| ^ ( ^ T T ^ ( _ ` P ' t 6 7 X 1 6 y 1 # % y P t 1 * 7 8 8 * 8 j i i : I @.> o v H.H.!.E.!.!.E.D.!.E.E.!.E.E.g S.S.E.H.A.H.A.j.g h.A.F.Z.k.d O : t - 0.BXgXyXNXBXNXSXGXLXSXGXLXLXLXGXNXu.M.P.j 9XGXLXH 3 } JXbXhXBXmXbXBXdXhXbXhXgXhXdXdXdXdXeXdXbXhXhXNXM.@ NX7X3X3X9X9XfX3X3X7X2XK.3XBXP.pXpXxXkXfXNXH % i.r.t.@.@.@.@.o.J * %     ",
"  + . .X+X.XdXgX Xm.5XgXuX8 a ZXNXhXhX5X4XeXeX4XhX X4XaXdXdX6XhXmXmXwXZX@ bXoXmXbXaXdXhXhX4XaXhX XdXBXkXHXW.h.H.H.H.W.T.G.W.W.T.W.Q.T.F.G.T.HXHXHXHXHXW.H.Z.T.T.F.T.F.U.%.F.I.R.J.I # # % u 8 o 8 8 I ( I R [ I I I I I ] +.] ] [ ] ] ] [ J u I u 7 o % # u 7 * . . . 7 * 1 5 7 t e t y 8 y y y 1 1 $ $ 7 7 $ 8 1 5 P ' I J j J j J j i j ] 0 8 * * . . c S.S.A.H.H.E.E.E.!.H.H.H.S.A.S.g c A.H.A.H.E.b A.b c c G.F.v x 9 ^ 6 $ 1XyX2X7X8XpXqX9XP.P.9X9X9XpXlXBXBXVXBXzXfXVXZXgX7 4 -.JXbXbXmXdXbXdXhXbXhXhXhXdXhXdXdXdXdXaXeXhXNXdXbX- CXdX7X8XtX5X5X7X2X3XK.2Xb.b.K.pX8Xx.P.L.tXH 5 ( K.b.q.@.+.o.[ t % q     ",
"  @ w w n i.+XwX.XaXu.K.1X6 9 7X2XdXeX4XeX4X4X Xy. XmXBXhXsX6XmXmXsXhXmXw c.aXwXbXhXjXeX6XdXaX7X2X8XBXI.T.F.H.G.T.G.G.T.W.G.T.W.W.H.H.H.G.T.T.H.T.T.T.Q.H.H.H.G.T.T.F.Y.F.Y.U.U.U.I.[ 8 [ J @.[ o % t J R ] I j u u j j j R @.q.[ 0 u = * o * . o 8 8 0 8 0 u 0 0 8 8 = = 5 : 8 I 5 0 8 t j 1 N N y # * % # = i k i : 8 u u u j j u R j 8 . . h z b g g S.D.A.S.S.g j.H.S.S.G.g Z.G.A.A.j.A.S.g S.H.A.h.Z.A.h.h.F.g > x I 0.% @ bXrX XtXfX9XfX9XpXfXzXzX9XfXzXpX8XpXpXBXBXzXdXhX- 9 ! DXaXhXaXaXhX6XaXhXjXaXaXhXdXdXaXaXsXsXdXbXbXeXZX- BX7XM.7XeX2X2X2XM.M.2X2XK.M.M.2XM.u.t.b.m.3 @ : L.t.@.X.@.@.I * # w     ",
"  @ @ Q K V . C V .Xr.i.r.t 9 tXtXdXdX5XeXhXeX4X6X|. XaX6XsXaXhXhX|.wXbXy.>.aXaXmXBXhXmXbXZXZXNXNXCXhX8Xd x G.T.h.h.H.H.HXT.F.F.G.H.H.W.H.Q.H.A.A.S.H.H.E.H.T.G.T.G.Y.Y.U.R.T.Y.k.J.J.R * 8.L.[ o . R L.L.L.i.r.t.t.d.d.t.J.s.t.@.q.t.q.R o O u ] ] { { { { { { { z { { u * o J q.J.s.$.$.t.s.U.] R 5 . . : t.t.@.@.@.s.s.$.$.$.X.@.$.$.R O f g.A.A.D.S.D.H.H.D.A.A.g g A.H.A.b A.E.H.A.H.S.j.S.A.A.j.G.G.h.f c v l h 0 : 5 3 V yXrXtXtX9XpX9XdXpXpXfXfXzXfXdXpXfXfXdXzXBXdX2X6X@ 3 -.ZXsXsXsXaXbXbXsXsXsXaXaXhXaXaXaXaXaXbXaXhXdXeXZX3 ZX2X6XoX2XoX2XM.M.8XK.8X2XM.M.2Xn.M.b.u.m.6 @ 0 s.s.@.@.$.R : I % Z     ",
"  + ! 4XgXtX<Xw.. a 3X3X8.0 9 gXtXfXdXeXhXeX4X+X4XeXwXaXjXsXaXbXaXaXbXmXwX;.ZXBXmXmXBXmXBXBXBXhXBX7XgXzXP.k V.Y.f k.F.T.G.E.E.E.E.H.H.H.H.H.G.g H.T.!.E.S.H.H.T.T.F.F.Y.F.Y.T.F.F.J.U.$.h q.L.j * +.L.I.s.L.L.L.L.L.L.L.U.J.$.J.U.I.R.xXcX* l { { { z z z z z z z z { { J % % : L.qX$.X.%.v $.J.X.i d.J j 7 R +.qXkXJ.J.J.J.f.J.J.J.U.R.h = G.A.D.D.H.D.D.D.H.D.D.D.D.D.D.H.A.S.H.S.D.S.D.S.j.H.j.A.j.A.h.h.H.h.O 0 > - w U 7 yXdXgXhX8X8X8XdXdXdXfXdXdXhXgXgXdXhXzXgXhXaXaXbXmX3 3 -.MXmXvXvXvXbXmXmXsXsXsXmXhXsXaXsXsXvXmXmXmXaXdXmX9 hX2X7XdX6X2XM.8X8XK.K.8X2X8X2XM.M.2XK.<X4X3 % t L.t.t.] 0 : j 0 % ~     ",
"  , .X X3X3X9X<X% u.7Xu.O.7 % 7XfXtXhXhXdXM.4X6XwXbXhXjXjXsX+XmXDXmXmXmXaXC DXmXBXhXmXmXbXhXhXbXhXhXgXNXzXpX%.> 0 l T.G.G.H.G.H.!.H.G.Z.G.!.Q.H.G.H.A.G.T.Q.T.G.F.F.G.F.F.U.Y.%.$.J.J.I.j +.qXuXd.d.qXL.s.s.J.d.I.J.s.L.J.J.I.iXU.U.J.U.iX= { z { z z z z z z z z z { { u O # : 3X#.X.$.$.@.@.@.iX] U.xXU.$.d @.cXcX@.k $.$.$.f.$.$.J.U.0 > T.A.S.A.A.D.D.D.D.H.D.D.A.D.D.S.S.S.A.g g A.j.A.A.S.g g h.h.v b c x d >  .7. .9.+ tX9X7X7XK.8X8X7X7XdXgXdXdXdXdXbXdXhXbXdX7XdXjXaXDX4 3 Z mXvXsXsXnXmXMXmXmXmXsXsXaXvXaXsXsXsXvXaXmX6XjXmX3 7XaX6XjXbX8X2XoX7X7X8X6X8XK.K.3X8X3Xb.u.7.6 # 9.7.T u . 0 J j - & &.    ",
"  < >.<X3XK.K.t.t dXfX+. .% & tX8XoXhX8XeX6X4XoXbXdXjXmXhXaXwXmXmXZXmXZX$XA JXbXaXhXbXsXhXhXhXbXdXbXbXdXgXBX .R ..%.Y.g Z.W.F.F.F.F.b Z.T.Q.F.H.T.Z.A.F.F.F.c g F.F.%.v %.%.z %.l z @.X.o d.s.@.d.s.s.L.I.J.J.s.I.J.s.s.s.U.J.U.U.J.U.I.xXj R ] { { { z z z z z z z z j i * # e o.R t.+.o.+.@.L.L.i X.kX%.v F.U.$.l k k k ] R @.+.q.R q.J i f v A.A.S.G.A.A.S.S.A.b g S.H.S.A.g A.j.j.A.g G.j.G.g g c x O 0 8 s 0 9 9.e.4XoX@ tX2X<X8X8X8X7X7X6XgXhX7XjXdXjX6XjXdXjX6XjXhXjXhXmXA 4 vXmXvX$X*XvXvXnXnXnXvXnX$X*X*XsXsX$XsXsXsXsX$XwXbXc.|.hXsXjXaXoX2X7X6XoXN.M.M.<XM.7X8X2Xt.M.n.t $ 3 @ O j X.] ] 7 * + -.    ",
"  < E u.K.L.b. .e m.u.w. .7 @ 4XdXdXeX6X7X7XeXaXZXaXaXmXbXaXmXmXaXmXmXMX:X_.KXmXmXmXmXbXmXbXbXbXhXdX7X7X7XN.K.9Xx.U.Y.Z.F.Z.h.g Z.Z.x x h.Z.Z.Z.Z.Z.Z.A.c Z.G.H.F.F.Y.%.h p l h i j 8 o : O.s.U.s.J.U.U.J.J.U.J.U.U.J.s.s.J.s.s.U.J.J.J.qX@.: j ] { { z z { { z z l u j 8 1 # 7 @.+.k X.$.$.%.@.J.j o U.%.v v x J.J.%.k k k k +.o.t.O.[ 8 : . = f f h.A.c Z.c g Z.A.g A.A.S.g h.c g h.g A.A.j.h.c f d . O % : : $ . K c.oX,.9 dX<X8X8X2X7X7XjXhXhX7XjXjXeXjX6XsX6XjXsXsXbXbXmXMXZ A JXnXvX*X$X$X*X*X*XsX$X*X*X$X*X$X5.l.{.OX$XsX@X@XmX+XC ZXwXsX+X6XoXoXn.v.|.M. X4XM.m.M.dXpXM.u.9 3 7 [ @.s.f.X.] * # . -.    ",
"  @ ~  X5X3Xb.9 H u.7./ :.7 @ u.6X6X8XM.2XdXdX8X2X7X6XoXv.M.oXoXOX@X@X*X-X_.MXsXhXmXmXbXsXwXsXhXdXsXeXdXM.2XM.b.kX%.v G.F.c G.G.G.T.f > G.T.A.c b c g g G.F.G.G.c Z.F.%.> : . % . . . . . [ qX0XJ.d.L.I.U.J.J.U.U.s.J.J.J.J.J.s.J.s.s.J.I.qX% o j R { z { { { { { { ] ] 8 6 7 J L.U.J.$.J.J.F.v f.iXO 8 J.v v v h.h.F.k.v F.%.J.k 0 i 8 O * 8 i > z v c c c c c Z.H.b f b g g Z.h.Z.c c b h.F.k.k.> k h - % 0 . . Q y.aX+X;.C 4X7X8X7X2XdXdX7XdXaXjXaXwX6XsXsXbXsX*XsXhXjXhXsXvX-.A vX$XvX*X*X*X*X*X$X#XnXnXXX;XvX;X*XXXnXnX*XsX*Xv.,.Z F nXv.@X@X@XB.=X+X+XaX6X6XoXN.M. Xe.M.7.i.3 # $ +.] ] k u o . X # 6.    ",
"  < ~ <X5X3Xb.t T r.H t t 9 % w.u.w.w.M.m.M.N.e.e.7.e.,.;.} } >.,.,.,.2.D _.3.>.y..X+X X|.oXn.n.n.N.M.M.K.2XtXK.+.. f v v f b h.T.H.c G.F.T.H.b f x v x v F.v x %.v X . 0 s $.k z X.U.U.@.8 q.t.[ d.uXJ.s.s.J.I.I.I.I.U.s.t.s.@.s.s.s.d.L.qX[ o . % j ] I u i > > X . . . . . = k R 0XU.J.$.%.$.X.L.0 0 U.] v k.U.T.U.Y.F.F.v $.J.] I u . o I o = > z g.F.c Z.Z.A.F.b f g A.S.c h.g g Z.Z.h.x h d d k k : : 0 O.w. .,.|.}.3 } hX2XK.2X7XeXeXeXoXn.|.wX+XwXaXwX@XsX@XsX@X$X$X$X$X-.A *X$X}.*XnXvXvXnXnXMXKXMX*X;XnXnX*XJXMX*X#X*XXX@XXXD ).&Xv.B.@X@Xv.v.c.|.c.|.v.,.|.6Xe.,.y.>.rXV % % . . . . + r P 5 5 6.    ",
"  , q <Xr.( O U 3X9X5Xm.Q - - V H b.K.K.<X<X<X4X7XdXhXhXjXjXhXbXaXhXbXMXD _.#XwXwX@XwXbXwXc.oXjXdXNXBXBXBXBXhXNXgXtXK.x.k f h.h.Z.c h.c f f x f x > > k > . p h i = : X.U.F.G.H.A.H.H.G.T.U.= u . q.L.L.@.@.s.@.s.t.@.$.@.t.t.L.L.s.s.d.@.t.@.@.P . o y . , W AXNXZXZXCXCXCXCXVXVXxXL.iX$.k X.l X.@.0 O : j X.o.h X.R q.q.t.L.L.r.UXr.0.[ 8.8.q.T j X o . > c c A.c b Z.g E.c b c f f x v v v . h l x $.j : : T _ V t ~ ~ w w y.y.y.e.y.c.+X}.wXaX+X2.,.y.}.|.y.y.2.~ Z D D D 6.D D S D D [.1.6.-.6.^.#X$X{.XXXX'.2.l.%Xz.>X>X>X[.)._.).S F 1.1.`.].Z Z ,.A C Z C 3 ~ ~ w C ~ ;.:.q # . L 8.8.q.i.uXi.: % F     ",
"  < 3 i.U J 0 8.2XgXfXM.V 9 V dX3XK.7XK.9X8XdXdX7X7X7XdXjXjXhXFXBXBXBXFX)._.KXDXmXmXhXmXmXaXDXDXBXDXSXSXBXBXdXzXzXBXcXzX0XI.k.h.G.g g b f x f x %.> > k O : j i o O $.U.G.j.j.A.D.S.A.A.v J.X k kXI.$.@.L.L.L.qX0XP.8XfX9XcXlXVXcXcXkXkXcXcXiXiXzXyXX . yXLXPXPXLXLXLXPXLXPXLXPXPXPXLXLXIXI.. 0 J.R > 0 . . 7 u d.uXuXCXGXGXGXGXCXVXCXGXGXGXGXIXVXIXxXqXi.% h v c b g g b Z.x x x ; s = O U.f v x l O 0 0 0 o . - .XwXwX3 @ + N.mXhXbXbXvXZXmXmXMXMXvXMXMXZXDXDXMXMX$XnX,X>X:X-X_.-X,X:X:X:X:XnXvXnXKXKXFXMX*X$X4 6.*X*X;X:X;X&X;X;XC._.-X>X[.[.>X[.-.sXmXJXZXaXbXy.>.,.;. X7./ e $ # K.3XP.L.t.t.q.R 0 # B     ",
"  w % 9 T T : / w.M.m.7.t a  .3XtX7XK.2X<Xm.N. X2X6X2X2X6X6X6X6X6X6XjXjXXX).nXvXsXsXB.oXbXmXhXjX6X7XM.2X7X7X8XpXK.P.3XK.P.lXkXX.x x f b f f h X.8 = . : t . 7 8 : o l %.G.G.j.S.S.S.Q.H.H.Z.F.F.cXF.f I.s.I.qXs.#.3X8XP.L.qXJ.qXJ.J.x.P.I.0XqX0X<XNX. .XPXLXZXAXuXuX5X9X3XlXL.L.P.0XqX0XlXxXi.J o.h 0X3X0 NXfXfXBXlX0XiXNXlXlX0XlXlXlXlXcXVX0XxX0XiXxXxXCXVX[ . O f v c b g v U.O X O O > %.x F.l . X @ @ % 9 Y  .y. Xy.3 - % N.oXoX@XjX@X@X6X@XB.=XB.B.=XXXB.XX=X*XXX=X;X&X*X[._.:X$XnXnXMXnXnXnXKXKX*XXXXXz.z.z.;X#Xz.XXXXl.&XXX*XXXD &X;X*X*X$X$X=X@XXXMXJXl.}.}.|.v.c.aXmXhXY @ & u.b.b.#.X.@.+.R 0 # B     ",
"  ~ + 5 Q ^ H ( e.u.i.m.t 6 7.<X5X3XM.<X2X<X2X2X2X4XoX4XoXoX+XoXoXoX@XsX$XD :XvXsX$XB.aXbXbXsXsXaXaXaXdXeXdXdX9X9X8X9XqXyX3X9X0X0 h h d > > . . . # (.i.bX*.# $ . t X %.c g H.H.S.Q.Q.T.H.Z.H.H.S.c > $.I.lX0X0XqXqXL.qXqXL.L.3XpX9X9X9XI.qXkXfXyXi.3 PXPXCXtXBXNXNXNXzXzXNXzXxXxXxXxXzX3XtXVXSX3Xj SXqX0 zXfX9X9X3X3XqX5X<XK.K.yXyX9XfX9X7X3X0XlX3XxX0X3XxXVXi.. . > h k f > . X # . . . . h l l o.& % e t y.c.-.,.4Xi.3 $ - oXsX*XjX=XjX=X=XsX=X=X=XsXvXvX=X*X=X=X=X*Xz.XX;X[._.:XXX&XnX*X*X=XXX#X#X&XXX&X&XXX*X&X].[.&X#X&X[.&X&X`.C.#X#X].#X}.].XXXXXX$X}.l.}.l.l.5.5.}.-.c.n.@ X  Xw.K.L.@.+.o.T 8 # B     ",
"  <.@ t | | / ( m.2Xi.7.e e 8.3XK.M.<X2X2X2X8X2X2X4X+X6X+X|.oX+X+X$X$X@XXX).:X*XmXv.+XsXbXsXsXaXbXaXsXdXdXdXdX7XdXfXfX9XpXqXfXcXj ; k h ; : O % _  XbXAXrXAXy 1 ( [ O h f F.F.Z.Z.Z.b b v v c A.h.h.x.L.0XlXqXI.0XI.qXpXxXcXcXpXpX0XlXxXqXqXP.pXNX~ C PXLXbXbXZXBXNXNXNXlXlXVXVXcXcXVXVXzXzXcXVXGX8.cXVX: u.9XfXgXzXlXlXlXtXfXfXtXfXfXfXdXgXzX0XlXP.3XxXuXfXlXgXj . & X . . 7 [ xXNXuX8.r.T : X.k ..+ w >.>.4.v.{.-.rXy.$ 3 - |.OXOXsX*XvXsXsXsX=XsXmXvX@X@X*XsX*XXX*XnXXX}.;X).).KXnX&XXX=XXX&X&X&X&X&X&X;X&X#X&X&X&X&X[.&X&X&XXX#X).S [.XX#X#X#X#XXXXX].'.l.XX}.}.l.{.5.5.} |.9.@ @ i.b.L.s.X.( | W < $ B     ",
"  y.@ H m.i.7.8.K.3X9X3X9 t 7.3XK.K.2X<X5X7X5X6X6X6XoXwXwX+XsXc.v.v.5.,.-.D &XsXmXsXsXaXaXsXbXhXhXaX+X6XdXzXdXdXfX9X9XqXpXpX3XcXo.O 0 7 j 7 e K rXbXaXmX(.(.y 1 [ : . . > f v x > > . > ; > > k.f k.kXlXlX0XqXlXpXqXpX0XkXxXlXxXcXkX0XcXcXxXkXpXZXq rXPXCXgXzXBXNXNXNXVXcXxXxXVXcXVXcXcXNXNXzXxXVXfX( qX% b.fXfXgXfX0XlXlXfX9X9XyXfX9XgXfXfX0XfXlXcXxXqXlX0Xr.R J T . % w.NXzXNXBXzX5X<XqXK.t & % 7 3 >.,.>.} 6.l.y.+XQ @ V @ vXsX$XsXsX*XsX*X@XsXsX=XnXmXvX*XsX=X*X=XnXsX*X:X).-XMXvX*XXX&X&X#X&X#X#X&X&X;X&X#X&X#X#X&X&X&XXXz.&X>X_._.[.[.&X&X#X#XXX#XXX}.}.}.'.'.'.3.5.2.,.~ oX+ @ & t.J.X.] R j r G $ F     ",
"  <.+ e w.b.u.L.9XdXyX<X6 e w.3X3X2XK.2X5X7X7X4X6X6X4X6XwXmX@X~ } Z M B -.} |.aXmXmXsXaXaXsXsXmXbX6X6XdX2XdXdXfX9X9XpX9X8XpX9XNXY - . T j . 6 @ C >..X4X*.w $ # T tXuX1X_ ` O . : o l l f z > z > X.kXqX0X0XlXxX0XpXlXqXxXcXkXkXkXkXxXkX0XlXpXpXfX7 JXPXVXcXzXcXNXzXxXxXcXVXVXxXcXlXxXxXNXfXxXlXcXcX. 5X% w.fXzXlXfXyXfXyX9X0XqXlXyXfXfX9XfXfX9X0XVXVXt.I I O u 7 yX+.J.VX3XL.m. Xi.i.i.3X5XO.: . @ 3 } y.-.6.D 5..XV . 6 q 3 wXsXsXmXsX@X@X*XB.$X=X*XvXmXmXnXvX=XXX=XsXsX=X;X_.>XMXnX*X*X#X&X&X#X&X&X&X#X#X&X&X&X&X#X&X&X#X&X].&X-X)._.&X#X#X#X*X&X#X#X;XXXl.3.'.'.^.-.5.2.~ e.mX@ @ H b.@.k k X.] j [ % F     ",
"  -.+ t b.K.r.+.3XtX9X1X7 e 8.K.<XK.2X5X3X2X2X2X2X2XoXoXhXwXa 4 -.$XvXmXvX4 c.sXbX$XsXsXsX6XjXsXjXdXdXdXdX7XhXfXpXpXdX9X9X9X9XzXU : 7.7.w.r.u.r.( G . . u ( $ . 5XtXeXeXhXbX<XK.O = X.f z f l U.= j +.qXlXlXpXxXlXlXfXlXxXpXqXpX0X0XI.pXpX9X8XfXyXe PXLXVXxXxXVXBXcXcXBXxXxXxXcXzXlXxXxXVXlXxXxXVXVXX.u.- w.xXlXyX9XyXfX3X9X9XtX9X9X9XfXfX9X0XxX0XlXNX0X. : 0 I i.J L.xXGXL.i.3XtX3Xm.n.u.5Xr.. ^ w.n.|.-.l.$X}.>.Y R q.pX9X- y.sX@XsXhXsXsXsX=X@XsXvXsX=X=XvXmX=XB.XXnXB.@XnX_.:XnX$XnX*X*X#X&X&X&X#X&X;X#X&X&X>X>X#X&X#X#X&X;X&XS ).~.&X&XXXXX#X&X#X#XXX'.XX}.3.2.-.2.6.v.} |.rX# @ % a t J J [ ] 0 0 *       ",
"  <.+ a 3XK.+.T 3X3X5X<X5 6 7.K.K.3X2X5X3X3XK.8X8X2X X6XsXc.C } ZXDXmXmXbX3 +X6X+X@XsXsXsXwXjXjXjXdX7XdXdXdXdXfXfXpXpXfXpXqXpXBX9 J GXGXVXBXzXNXgXyXyXr.. 8 7 ( m.rXy..X4XtXyXCXL.> k p . > R = . 7.7.r.VXcX9XlXlXlXxXlXI.pX0XpXlX0XpXpXpXkXqXxX<Xr PXSXNXxXBXVXVXBXBXBXBXcXxXxXxXxXlXxXcXcXlXlXcXVXI.+.% H NXtX9XtXtX9XtXlX9X9XzXgXfXNXfX0XlX0X0X0X0XxXj % $ $ 5 # i.NX0XL.qXqXqX9XtXtX5XuXT t xXZXBXBX X$XZXZXY Y kXkX0XxX6 / sXsX6X6X+XsXwXsXmXmXmXsXjXjX=XsX@XXX=X@X=X=XXX).>XvX@X&X*X*X*XXX#X#X&X&X;X&X].[.#X&X#X&X[.[.:X#X#X[._.S [.#X[.#X&X#X[.].`.].}.l.l.l.l.-.6.2.-.>.7.. @ % X # % . . . t L 6       ",
"  -.X a m.m.8.o.3XfX9X9X6 e r.qXqX9X9XK.3X9X7X8X7XM.2X6XoXN.dXjXZXFXhXbXaX3 +X+X6XsXsXsXaXhXaXdXjXjXdXdXgXBXdXpXfXfXpXpXfXpXfXzX; K.BXfXK.u.b.K.K.K.qXNXd.` d.NXbXrX.X.X.X4XrX5Xq.0 > i > o +.O.t  XyXw.8.qXxXlX0XxXVXxXlXpXlXlXkX0XlXSXkXxXcXVX` e PXBXfXlXBXVXcXxXzXBXVXNXxXxXcXxXlXxXxXcXcXxXqXo.0X0Xa H NX9X9XtX9X9XgXfXfXgX5XfXdXgXpX9X0X3X3X9XfXfX5X5 . . & r IXxXxXxXt.P.pXlXtXfXlXxXR 0 0 j U ! Q V Q L O +.J.U.J.I.J ) sX$X=XvXbXsXwXhXbXjXjXhXjXsXsX@X@XB.sXsXhX=X4 F l.aXsX=X@XXX*X#X#X&X&X#X*X*X&X&X&X#X#X#X>X>X;X[.#X:X)._.[.[.#X&X#X#X#X[.].}.l.3.l.3.2.5.5.-.y.>.L ( $ . & & 0 I ( I L.O.r       ",
"  -.X U <X<Xw.r.qX9X3X3Xe t i.b.b.+.K.fX3Xb.b.u.e.8X2X7XM.8XBXBX6XmXmXsXaX3 4XoXhXaXsXhXaXaXhXhXdXdXhXdXdX8XdXfXfX9XfX9X9X9X9XfX7 m.m.r.w.m.m.m.K.K.9X0Xi.1XtXyX X X.X X4X<XyX5X0 = i j = 0 r.i.9. XyXm.. : t.NXlXxXcX0XVX0XlXxXlXpXlXcXcXxXlXxX0.5 LXGXfXlXxXBXBXxXxXcXBXxXxXcXlXxXxXlXcXlXw.b.O.R GXP.0 9 fX9XdXfXpXpX9XfXgXfX9XtX9XtX7X7X8XdX9X9X3X3X5X<X( ( % 6 cXI.cXVXP.P.9XqXK.P.L.i.0.5 q u.rXrXrX6 . . : @.{ f.@.X.8.) |.}.XXsXhXsXsX$XsXwXoX=X@X=XsXB.@XoX=X=XjXB.s - w mX$X$XXX@XXX*X;X*X#X#X*X#X&X&X#X#X#X#X>X#X#X&X&X:X)._.&XXXXX#X#X#XXXXX'.].'.'.l.1.2.6.6.} A ;.j T : 1XL.i.L.L.0X0Xi j *       ",
"  -.X ^ <Xi.8./ M.K.m.b.t e 8.+.a ( s b.#.Y  .| Y 7...e.N. XeX6X} v.wX|..Xa N.hXaXbXaXhXjXjXdX7XdXdXdXdXdX3XfXzXtXw.r.+.b.K.K.zX$ j 7.H O.7.e.e.b.K.P.i.1XyXeX X.X.X.X.X1XuXtX( % I 8 = 0 0 9 ;.>..XuX_ $ : . ( 0XlXcXlXxXkXpXpXkXkXpXlX0XlX0XxX*., p.PXzXfXxXNXxXxXcXxXxXxXzXxXlXlXlXlXkXlXqX0XxX0Xt.X.U X zX7X9X9X9X3X9XfXfXfXtX3X3X5X5X2X7X7X7X3XP.3X7X9XlXVX0 t IXcXcXkX0X0X9XP.L.qXb.3XtX| >.bXBXNXZXi.# # i { @.U.iXqXj e ! v.,.@XwXOXv.$Xv.B.B.oX@XwX@XB.6XoX@XwX6XoXe.C 2 wXOXOX@X*X@X*XXX#X&X&XXX#X#X;X;X#X#X#X#X#X#X#X#X:X)._.>XXX#X#X#X#X#X].z.].].z.1.1.1.Z -.~ C 4XH O 7 uXt.t.t.q.t.q.0 u 5       ",
"  &.+ V 0.w.+. ./ b.m.i.e 6 J R R U J | j ..e. ./ Y Y | |  .| e. . .C C ! C  .eXN.2XhXhXaXaXaXjX7XeXdXhXfXfXhXdX5Xb.3XK.J r.fXfX. uX5XK.u.u.m.K.t.L.q.0XNXNXeX4X5X<XtX5X1Xi.J 0 R @.X.+.i I L :.Q u.i.e * 5 : . ( VXVXlXpXI.pXpXkX0X0XpXkXkXpXlX0., . LXVXcXVXVXVXVXVXVXcXcXxXxXxXxXxXxX0XlXxXxXcXxXL.+.U & <XgXgXzXgXzXNXgXNXNXBXgXgXgXzXfXgXfXgXfXfXgXdXgXfXNXw.j GXxXlXlXlX0XfXqXI.qXP.xXVXN.e.bXaXeXNXBX. o @.f.f.J.R.I.O r y..XA C OXmXvX$X@X+X@X,.sXmXwX@XjXB.M.hXaXoXs .... .6XsXsXsX$XXXXXXXXX].#X;X#X&X&X#X#X#X#X#X#X[.#X&X)._.>X[.].[.[.].`.`.z.z.1.1.1.1.6.6.2.-.V w @ 5 . _ K.q.q.@.8.O.L r 1       ",
"  &.% <X3X3XL.b.r.8.i.i.G 9 ( #...t.b.r.t.x.b.M.b.b.M.K.N.| e.N.M.M.v.e.Y 9 C a s Y |  X|.M.oXoXy.y.M.N.N.N.e.7.| . 7.i.a t ( J O j G q.+.+.w.1Xi.+.7 ^ 5X5X<XtXtX<XyX1X( . . j i . j q.. X 0.bXi.1X1 . . . : . j VX0XBXcXVXVXcXVXkX0X0XP.I.I.uXuX. . . 0XqX0XqXiXlXxXlX0X0XqXqXqXqXL.P.K.K.L.t.b.K.i.+.6 : r tXyX1XuXuX1X1X1Xi.u.i.i.w.w.7.w.e.w.w.w.w.w.w.y.p.Q 7 NXuXi.0XgXgXeXeX7X3Xb.zXSXdXM.eXeXeXyXZX0.0 s.f.s.f.s.s.8 W y.y.! >.rXhXu.u.oX6X6X4XeX6XN.dXhX7X2XdXdXe...k k P.k.B.v.v.v.v.4.l.'.].#X*X#X#X#X#X#X#X[.[.`.z.`.>X)._.D D D D 6.D D F F D 6.1.Z -.-.5.5.4 3 < 3 . U b.x.R o.O.O.[ L n 1       ",
"  C H BXCXGXVXxXNXlX3XtXG : 8.o.+.u.+./ ..R | T e.| #.| 0 Y Y Y Y  .N. . .3 + Y e.b.K.r.7 w w Y w.r.r.w.w.i.m.K.<Xw.8.| T r.U i. .o.t.$.t.L.i.0.+.0 X 5 0 T ( w.j # I ( [ O.+.L.VXVXVXcXVXCX# ^ CXCXVXVXNXNXxXlXlXqXP.VXGXCXGXGXGXlXL.NXVXL.uXNXi.7.zXGXGXGXCXVXVX0Xd.qX3XlXfX3XlXlXNXVXzXBXlXK.fX0X_ L t 6 : . G uXyXyXgXgXgXgXhXyXtX7XNXBX9X3X5X7XuX3XuX5X1Xi.o X I [ 8.r.9.u.i.y.u.i.8.i.m.tX5X<X<X<X4X5XyXq.[ { { { k 8 O _ a t U j X...s s > 0 U O./ H t H | 0 0 Y s s X.x v h.V.h.h.h.l l s Y Z Z Z } Z -.Z Z Z -.6.-.B D D ).D F Z D Z Z D -.-.{.{.'.#X}.-.}.>.y.+Xy.@ @ @ 9.3XK.L.L.o.( O.` ^ r 5       ",
"  w t 3XqXVXVXpX0XqXqX<X( 7 a 0 t t 0 R h R J j ; : 9 a a H  .>.7.8X4X4X XH % 7.K.fXfXdXu.+ # BXSXSXVXBXBXSXSXBXBXSXcXzX9X7XgXK.J +.xXo.X.k 0 7 : 8 5 . ` . G I xXL.xXVXGXVXGXGXGXGXSXVXLXGXX R GXVXcXxXxXxXpXxXlXqX0X0XxXP.P.9XqXqXfXxXxXxXzXBX. 5XPXLXLXLXGXGXGXVXcXGXSXzXcXGXSXVXBXSXGXGXGXGXGXVXVXyX- V $ m.CXJXCXSXSXSXLXSXZXBXdXhXZXNXdXdXhXgXhXZXBXNXtXxX7 [ 1Xt.qXlXfX2X5Xu.5X3XpXlXlXVXVXVXcXVXVXxXxXVXVXNXuXd.J . i.SX9Xx.x.t.x.P.I.pX8XpXP.L.P.P.b.x.. O j 0 > %.F.k.h.x g h.h.V.V.V.h.V.V.k...Y l.}.3.l.OXnXnXnXsXvX;X#X4 B *X$XXX#X$X*X#X#X&X$X{.XXOX|.a ;.$XaXy.@ 3 4X7./ L.L.t.o.[ q.0.J 8       ",
"  q - +.8.L.qXt.q.b.3XK.8.: : r # - t 8.X.l : U | >.>.v.n.|. X|.|.c.|.,.9.V - eXgXfXfX9XdXU @  .BXfXfXfX9XL.3X8X3X3X8X8X3X5XeX7.V / j * . . : : . o O t [ yXfXxXVXkXkXkX0XlXlXxXlXxXlXBXVXK.O 0XcXlX0XkXxX0XqXpXpXqXqXxXlXxXlXlX0XfX9X0XlXlXpXCXe t GXfX9XSXzX9XtXzXfXfX9X8XfXfXzXfXBX9XzX9XfX9XzXfXfXgXV t $ hXSXDXSXCXBXBXbX|.oXeXwXwX.Xc.sXsX6X6XjXbXeXeXtXzX6 NX5XL.t.L.pXqX0.r.lXxXcXcXcXcXcXcXxXxXlXlXlXcXxXcXxXxXuX$ 0.ZXv.oXjX6XM.x.x.I.9XBXgX3XP.x.x.pXx.0 0 i > k v v v F.G.V.h.h.G.G.V.G.H.G.k.s } -.'.XXOXnX*X*X$X}.$X$XB 6.'.6.'.].}.].].}.}.}.}.{.OX{.~ c.|.OXv.3 @ ! / 7.8.o.O.O.O.i.[ T 8       ",
"  3 % j #.t.t.t.L.L.qXu.i.O j T & & 6 j @.> r.m. Xy.y.c.c.c.|.|.oXoX+X+X X3 3 JXhXtX7X7XdXgX<XK.dXdX3X7X7X5X9X9X7X8X3X3XdXtX7XgXH : - O % 0 o j k L.i.lXxXxXlXlXxXlXlXlXlXlXkXkX0XlXlXxXfXT X LXcXlXkXxXlXxXxX0X0X0XlXlX0X0XlXxXqX0XfXxXcXlX9XfXe / VXzXNXzXNXBXBXNXgXgXzXzXgXfXzXNXBXNXzXzXzXNXzXfXdXgX^ 3 3 mXZXZXmX6XoXv.>.-.hXmXwXwX+XaXaXsXaX6XhXaX+XrXtXtXX 5XzXzXL.( r.r.i.L.qXlX0XlXlXxXlXlXpX0X0X0XlXlXlX0XpXlXyXe ! LX.X$XsXoXP.Y.I.J.P.P.x.K.N...K.P.pXP.: 8 0 h x k.v v G.G.G.G.h.G.G.S.G.V.V.V...} l.OX{.*X*X*X$X*XXXXXB vX#X#X#X`.'.}.}.}.{.}.}.}.'.'.4.$Xv.v.v.@ @ ) 7.7.w.( 7.| 7._ P J 8       ",
"  w 9 / R #.t.t.t.q.x.@.q.u : O X # o : j 8.e.9.n.y.v.v.n.|.|.|.|..X.X XwXQ 7 CX5XeX7X8X7X2X7X7X9X9X7X5X7X5X3X5X3X3X3X3X8X3X7XzXj j o.= o . t.I.U.cXlX0XqXqX0XkXlXlXlXlXpX0X0XlXkXlXlXlXNX3X: GXVXcXkXcXpXkXxXpXpXcXcXlXxXxXfXpX9X9XfXcXpXqXpXfX7 7.BXNXzXlXzXzXzXBXlXlXzXzXzXNXNXBXBXNXzXgXgXzXzXfXfXgX_ 7 H LXDX$X*XXX}.sXaXmXzXzX6XN.N.hXhXhXdXhXhXhXaXaX4X/ G 5XqXqX3Xi.i.i.i.L.L.J.P.L.P.qX0X0X0X0X0XyX0X0X0XlXlXpXqXU / LXmX6XN.N.x.x.P.x.x.b.P.M.v.v.M.P...P.j X > X.F.G.h.h.h.k.G.G.G.G.G.h.V.G.k.x s Z v.OX$X$XvXvXOX}.%X}.4 $X}.%X#X}.}.'.'.{.'.}.}.{.'.'.}.{.5.c..X@ @ ) w.O.| / / | ( _ T P 0       ",
"  w i.b.q.R t.J.#.+.x.b.8.+.0 : . O o 0  Xn.y.n.n.n.y.v.n.n.|.n.|.|..X.X Xy.a ZX5X4X4X<X2X3X3X3X8X8X8X5XdX9X3X3X3X<X3X9X<X3X5XdXj $ 8 8 = U.iXkXkXlX0X0XlX0XlXlXlXpX0XpX0XlXpXlX0X0XlXlXNXi.j VXlXlXlXxXpXlXcXxX0XxXxXlXlXcX0XqXqXL.0XlXlXqX9XgXa 4XSXBXfXNXNXzXzXBXBXNXzXzXzXNXBXBXBXBXNXgXgXzXzXzXfXgXy.3 C JXaX} $XvXv.9 gXLXSXDXhXN.oXBXZXZXm.^ w.NXdXaXhXw.hXdXJ.P.3X3XL.3X8.t.L.P.L.P.P.t.qXK.P.qX5X5X5X3X9XfXlX0XxXi.5 CXb.N.K.b.P.P.P.x.b.P.L.L.L.x.P.P.x.$.s j O > x x h.F.F.h.F.F.G.G.V.h.V.V.s s ,.,.$XOX$X$X$X$X%X}.}.'.Z XX}.}.}.}.}.}.{.'.l.'.}.}.{.4.OX$Xc.v.v.;.@ t r.r.t.t.( [ ( [ I ^ 6       ",
"  w ^ K.L.t.X.R j h @.t.t.t.8 X % ^ G _ i.>.Y y.n.y.y.y.c.y.y.n.|..X.Xy..X .a BX5X<X4X<X2X<X2X7X5X<X2X3X7X<X3X3X<Xm.<X2X2X3X5XtX9 $ j R i cXI.iXiXiX0X0XlX0XlXlXlXlX0X0X9XfXlXlXfXxXlXxXNX3Xj VXlX0XkXpX0XfXxXpX0XxXxXpXlXlX0X0X9X0X0XpXpXfXyXfXt i.BX2XzXBXNXZXBXCXZXNXNXNXzXgXBXNXNXBXNXNXgXNXgXzXzXBX<X3 rXSXwX~ } >.} v.+XhXSXDXhXhXZXZXCXNX7 5 . _ NXhXbXoX<XNXL.J.P.K.3X3X+.+.b.L.L.P.K.t.L.xXyX3X3X3X3X3X3XqXqX9XxXt.$ NX3XqXqX9XfX2XP.x.x.x.x.x.x.k.k.k.k ] = R 0 T d l x x v v k.v x x v x x s d a B.v.}.}.}.{.{.%X$X%X}.Z Z *XXX}.%X}.'.'.'.'.4.4.{.OX|.{.{.}.c.,.e.y.@ + 0.7.t.+.o.+.+.O.J I 7       ",
"  C U ( J u t t 0 j u 0 0 0 . r i.m.n.y.u.w.e.y.n.n.y.y..Xn.c.y.y.y.|.y.n.9.U NX5X4X<X<X2X2X2X2X XM.2X8Xm.<XK.<XK.<X<XK.<X3X<X<X7 $ t . = kXkXI.iXiXlXlX0X0X0XlXpXpXlXlXfX9XfXfXlXcXpXzXNXxX0 VX0XkXpXpXfX9XlXzXxXxXcXlXxXlX0X0XpXxXpXL.qX8XK.tX_ 0.NXNXgXZXZX3Xi.5XSXBXzXNXBXBXBXNXNXNXNXbXhXhXdXhXdXgXi.3 JXSXhXmXsXoX@XDXsXA 5.sXbXaXtX XtX5 . 9 e . tXbXNXdX5X5Xu.t.3X0XL.i.b.b.i.qX0X3X3X+.i.lX1XqXqXuXuXqXqXuXqXuX9X8.: BXNXyXtXNX3XM.x.K.b.M.x.x.x.J.G.k.O O j L.w.tXY ..f x d d f d d d d ; > ..Z c.c.,.y.$XOX|.}.}.OXOX}.M Z $X{.{.}.}.{.}.'.{.{.4.4.{.4.4.y.v.v.y.y.y.$ 3 7./ U ( O._ [ ( [ G 3       ",
"  Z r u j R ] [ [ +.O.T = . j i.u.9.y.y.y.y.y.y.n.n..Xe.,.n..X.Xn.n.n.n..X9.t NX9XtX<X<X<X4X4X X X2X XM.<X3X<X2X<X<X<X<XK.<X2X<X- - O o 0 kXiX0X0X0XpXpXpX0XqX0XlXlX9XlXfXfX0XfXpX0XfX9XyX8.0 GXpX0XpXVXcXfX0XcXcXlXBXcXlXlXqX0XlX0XpXb.P.K.K.gX9.G ZXBXCXZX/ - . . e.DXNXzXNXNXBXNXbXNXBXbXhXhXhXdXdXNX4Xw JXCXmXZXZXmXZXZXmXbXbXZXbXdXdXhX4Xn.:.K fXm.N.y.bX9.9 r tXgX9XfXlXlXfXfXfXlX0XNXlXqXlX0XlXlX0X0X9XqXqXqX3XuX5X0.: NX9..XrX4XCXZXNXtXM.7XM.K.L.pXJ.%.P.qXP.N.7XbXV 0 t.x...9  .u.......s s  .v.}.y.>.{.}.{.v.}.$XOXv.4.4 Z }.{.{.l.{.{.}.{.}.{.v.4.4.5.2.5.4.y.y.y.e.% 5 % 7 5 : 5 6 7 t e $ 4       ",
"  <.@ $ O o o . . . . o * * <X Xy.y.y..Xi.y.y.y.n.|.y.y.(..Xn.n.n.n. X.Xm.| / fX3X3X3X<X2X2X<X<X<XM.M.K.3XM.<X2XM.<XK.3X<Xb.2Xb.# . O X J.kXI.0XkX0X0XqX0XyXyX0X0X9X9X9XfXfX0X0X9X9XtXtXtX7.0 SXzXpXxXVXxX0XqXfXBXxXlXxXlXlXfX9XqX3X<X3X8X+.P.lX9.a ZXNXgX$ . 7 7 7 . SXBXBXNXNXBXbXNXNXbXhXBXBXhXhXhXBX>.a LXSXBXZXbXbXmXbXvXbXaXbXbXaXaX6XaXmXbXoXhXBXbXoX4XC @ t LXNX3X9X9X5X3X5X9XtX7X3XfXlXI.qXlXfX0XqX9XqXqX9X0X9XtX7.5 yX+X;.p.p.(.1Xp.(.+XrXrX.Xw.@.b.fXSXdXb.e.eXn.3 X H m.y. .U y.M.N.} ~ ! >.y.y.OX{.{.(.{.v.v.OXwX{.4.4 w OX}.l.{.l.{.}.{.{.y.4.4.^.2.5.5.y.{.y.y.Q $ 5 t V t t r 5 5 $ 7 7 /.      ",
"  <.@ X L _ 0.w.w.i.i.Q # # i.u.y.y.y.y..Xi.y.y.y.y.p.i.y.>.y.N.c.n..Xc.n.9.+.uX3XK.K.K.3XK.M.<X2XK.K.3XM.K.<XK.M.M.m.<XM.M.K./ . G * & 0XI.I.0XkXlXlXlXlXlXlXfX0XqX0X9X9X0X9X9X9X9XdXdXtXeXa NXfXpXxXlXpXpXpXfXzXzXfXfXfXlXlX0X9X3X2X9XpX9XzXBXu.a CXNXtX) + X . . a ZXBXNXbXbXNXbXbXNXhXmXmXmXdXhXhXmX,.A PXJXmXbXvXbXbXvXaXvXaXbXmXmXbX,.sXaXhX6X+XhX+X XbXeXr 3 NXNX3XfX3X5X9X9X5XuX<Xi.K.0X3XqXqXqXqX3XqX9X9X0X0XqXpXO.0 yX X<XyXrXZXNX(.*.! n m w 3 Y 8X7XgXy.u. X.Xw.G % . U 7.T ; K / ~ } ;.>.;.y.y.y.|.OX{.{.OX{.v.5.y.y.A 2 $X{.v.v.v.{.4.v.y.{.4.^.^.<.-.2.4.y.>.! $ % 3 G V G r 6 V G 6 7 5 [.      ",
"  <.+ 7 yXcXVXVXVXCXCX0.X # i.n..Xy.y.y.n. X<Xi.u.m.<X4X Xe.y.n.y. X.Xn. Xm.8 lX3XK.K.<X<XK.K.M.b.K.<X<Xm.M.2X<XK.m.m.m.m.b.u.9 J K.* . I.I.kXkXkXpX0XlXlXlXlXlXfX0X0X0XfXfXfXfXfXdXfX9XgXNX- BX9XpXlX9XzXfXfXzXpXfXfXlX9XfX9XlXfXP.fXzX9XzXfX9Xm.9 NX9XfXtXgXZXE 0.CXBXhXgXNXbXbXmXbXmXmXmXaXmXbXhXaXmX,.4 mXZXmXmXaXsXvXvXvXvXsXmXmXbXZXvX+XmXaX|.wXwX|.+XbXZXgX- . NX<Xm.3X<XK.b.i.<X3X3Xb.8.t.b.K.L.b.3X3X3X3X9XkXiX0XR : CXtX.X.X.X4X.Xp.y.9.0.r a # 7 <X2Xm.M.m.m.w.uX0.# % X 7.9.9.u.>.C ,.>.;.y..Xy.} |.+X+X|.{.-.,.,.y.y.~ 3 5.v.v.v.{.{.v.y.y.4.4.2.2.2.&.A Z Z 3 @ @ X 5 r G G L _ :.e 7 * 1         ",
"  5.+ 6 L.kX0XI.0X0XyX| # - n.>.} n.n.r.i.K.3Xm.t.O.i.r.+.r.K.<X Xn.M.| n./ $ qX9XK.K.3XK.K.3XK.b.5X3X<XK.K.b.M.u.8.m.| H 7.w.m.L.j 8 [ J.I.I.I.pXlXfXzXzXzXfXfXfXfXfXzXNXgXgXzXgXfXfXdXhXhX3 DXdXhXfXzXNXBXBXzX9XzXlXlXfXxXxXlXpXfXfXzXzXzXzXgX.X- X t...fXgXSXbXNXNXNXhXNXbXbXBXmXBXBXmXmXmXmXbXmXbXmX-.2 . JXZXmXmXmXmXbXvXvXbXMXZXmXMXMXmX-.v.$X$X$X+X4XhX7XtX9.# :.3Xu.m.i.3XzXCXNXgXgXtX3XK.lXfXgXgXm.<X4XoXn.r.i.d.j e rXn.}.<.<.*.>.>.p.) :.p.w.0 = J 8Xe.>.e.N.e.b.u.$ + @ 6 ! >.>.;.w / >.,.oXoXc.c.(..Xy.}.y.5.}.OX|.y.5.2 4 |.{.5.{.}.}.{.y.5.5.5.4.<.<.;.;.*.~ C % # 6 r t 9 e 7 . . . . e         ",
"  <.X 9 +.o.X.U.U.P.K.7.& V b.t.k R x.x.%.X.X...0 . . . . : r.L.( +.b.u.% O . . r J #.t.x.t.t.8.O.7.7./ 0 7 : t 8 8 : : ( L.r.8.J % 7 u . R R t.i.b.u.u.b.b.M.K.<XN.M.K.M.<X5X2X2X<X<Xm..XY w ZX6X XM.8X7XdX7XK.2Xb.t.t.b.b.b.b.b.b.t.t.b.e.i.O.e 3 5 / 3XfXgXNX7Xu.NXdXdXdXeXeXdXdXdXeXwXwXwXwXwXwXsX+X} 4 @ rX4X+X+XvXbXbXmXbXvXvXsXsXbXmXaXn.! n.bXeXc.hXBXbXAXy.t Y U u.r.7.T / r.0.O.w.uX5X:.yXrXbX4X9.9.y.y.n.Q . r 5 8 :.! &.=.&.<.:.:.>.*.9.(. ./ 9 0 u.M.e. .#.u.Y a + % r @ 3 V Q Q V ! Q ~ Y ~ ! ~ *.E C ~ ~ &.>.>.! ! ;.4 w ~ ~ A ~ ~ ~ ~ C m C C V 3 w ;.y.>.:.;.! $ # + . . e P G L P G 0.).      ",
"  &.. a m.M.#.#.J.L.3Xw.& G J.J.I.k.x k.F.v x x k X.R $ & . . . . 0 j j % X 0 +.u * 8.x.t.t.P.L.q.t.pXpXJ.J.@.i.+.q.L.0 +.j j I 8 # . O.i.8.zXVXBXBXVXSXCXCXgX7X8XBXCXZXBXBX8XdXNXCXSXSXSX3 . .XdXhXdXeXeXdXgXtXu.uXgXzXtX9X<X<X9XyXlXlXzXzXqXK._ $ ) N.H  .| U . . t m.CXBXaXeXaXbXmXaX4XoX X+XwXwX+Xy.-.3 |.mXrX+XvXbXbXaXwXeXaXbXaXbX7XdXDXZX3X3XSXgXdXdX.X(.E 6 . ` NXVXVXVXNXzXlXCXCXVXVXNXL.d.xXlXqXqX3XP.P.9X1XK.r.% - u.n.u.u.0._ 0.) ) ) *.:.*.Y Y ..| | N.tXbXb.k +.o.k X.R : t T 8 5 r J J L Q K Y H V n V V n t < q w q q 3 2 q C E t w w q r , + + + < *.y.u.u. Xy.+ + . w.7.8.i.i.i.d.r.K.t       ",
"  &.X ( fXP.U.I.I.U.P.7.. # w.t.R.k.%.x f f f k.x X.0 X % I O.[ u . . . o ( d.uXi.1X9Xb..... .b.3XK.3XcXlXcXfXfXP.3XSXb.u.fXtXqX1X6 L LXGXP.0XcXxXBXVXBXSXSXBXdX7XhXDXSXDXBXaXhXbXaXmXrXbX3 >.bXZXZXJXLXJXZXBXZXwXZXCXJXDXDXZXbXBXdXgXCXZXGXSXCXyX+ bXCXdX<Xu.u.u.u.u.JXSXDXZXZXDXDXZXDXZXZXDXJXJXJXMXJX|.2 sXJXMXZXvXbXbXmXmXmXmXZXZXbXNXSXr.fXxX3X0XlXSXBXT 9 % % tXLXGXSXVXVXVXVXBXSXVXzXdXfX9XL.qXlXlXL.qXiXlXxXlXcXiXo.b.zX9Xb.P.L.P.qX9X5X4X4X;.n.| R x.t.j a +.M.l k k...k 0 i i i * . : R @.+.r.e.:./  .U | e.:. .w. X<Xu.:.K 3 7 / ) :.9.:.:.:.) w 3 3 @ q ;.9.+. ./ i.$ & # m.8.+.+.+.8.t.O.q.J F     ",
"  &.@ ( fXfXJ.t.$.$.K.i.# <XlX$.F.b x k.f k ..k k O . : q.L.J.s.I.@.o o o I s.s.t.^ G w.<XK.8.u.i.m.w.w.M.K.3XK.u.n.N.2X6XdXN.7XNXr / LXVX3XfXpXgXdXzXdXdXzX8XhXmX6X6XdXsXsXmXvXvXsXsXsXwXw JXDX$X$XaXsXsX$XXX$X$X*X$X@X=XsXsXsXsXsX@XjXoXjX XZXJX3 ZXSXZXCXSXSXSXDXSXBXmXmXvXvXsXsX*XsXvXsXvXnXsXvXvXvX$X4 4 $X*X*X$XOX@X$X*XsX$XsX*XsXvXhXa M.P.P.I.L.P.pXt.9 e 3 PXSXNXNXNXzXNXNXgXtX7XyXtXtXyXlXqXyXtXuXqXqXqXL.I.iXiX$.P.GXxXq.+.] s.qX3X0X1Xr.w.e.t.#.t.a U Y ..k d k h i : = O = > ; h #.X.X.x.x.t...#.+.j R s j R q.q.+.8.O...Y 0 #.e.|  .U H H 6 n 9 6 3 6 >.:.j j K.5X6 # $ i.o.+.+.+.o.+.o.o.L 4     ",
"  A , T P.P.P.L.t.P.qX| # uX0Xh k.F.l O x v $.t.J * & [ s.f.f.%.J.R.0 . X j t.@.i.( # K.yXK.m.<Xb.K.m.m.M.M.4X<X<X<Xu.2XN.4X8XtXZXa H PXLX7XdXhXhXhXmXjXdXjXaXaXjXhX6XaXmXsXvXsXvXvX$XvXMXD ;XnX*XnX*XvX*X*XvXnXnXnX=XsXhXsXsXhXsXsXaXmXoXhXZXbXZX@ DXaXaXmXbXbXsXsXaXbXbXvXvXvXvXvXvXvXvX;XvX;X;X;X;X;XMX4 JXsXnX$X$XsXsXsXsXsXwXsXsXvXmX.X$ e.N.9XfXqXqXL.+.r w % aXNXZXNXNXNXbXyXtXyXtXyXyXtXtXtXtXtXyXyXtXqX0X0XlXlXxXt.O.fXlXuXqXi.1XyXi.i.qXi.( O.j X.f.%.z z %.v z z ] k * * * $ ; X.%.#.( +.e.+.q.o.#.+.X.R R @.+.$.R l t.@.+.o.a U 7.8.7. .^ T _ C E W q V :.7.w.t.L.K.t % # d.r.8.+.+.o.+.[ O.T w     ",
"  4 5 G L.3XL.L.qXuXL.t X ( 0XX.%.k.O h l l X.I.+.= j L.s.J.J.J.R.kX8 o X qXt.t.L.t.% [ t.qXK.i.r.n.u.u.n.n.m.m.M.M.M.M.M.2X2X7XZXa a PXLX<Xm.4X6XhXbXsXsXsXsXaXwXhXmXsX*X$XnXnXnXnXnX;X:X_.&XnXnX#XvX*X*XnXnXsX*XnXvXmXsXsXsXsXhXaXmXsXbXaXmXaXZX3 JXbXbXbXbXmXvXsXsXvXsXsXvXvXvXvXvXvXvX;X;X;X;X;X;X;X#XB $XMXnXvX$X*XsX$XsXsXsXwXsXwXaXeX@ 9 M.<XL.t.K.1Xi./ % 3 Y JXBXgXbXgXtXtXtXrXtXtXtXtXyXtXtXtXtXeXtX7XyXxXyXNXNX^ U tX:..XAXAXP ' 5Xi.w.K.8.w.#.k k z p p f.%.l k h O * 0 l f f x l s ..t.t.L.L...R +.o.X...+.$.R +.+.j R +.r.- G 7.| 7.w.O.| w.9.) ^ e K L ^ b.3XL.K.a + : L.q.+.+.+.+.+.8.+.J q     ",
"  4 @ J t.P.I.I.I.L.L./ & % +.R > k h @.k j u j = = 8 +.@.@.@.] @.R . . = uXq.s.L.d.% i.qXqXb.b.i.u.w.u.m.m.m.m.<X<XK.M.n.M.eXtXZXa w PXCXM.M.6XhXaXsXsXsXvXsXsXsX*XnXnX;X;X;X;X;XnX;X;X:X_.>XMX;X*X*X*XvXvX*X*X*XnXvXsXvXsXvXsXsXsXsXmXmXhXoX X+X3 ZXmXbXbXbXbXbXaXvXvXvXvXsXvXnXnXvXnXnX;XnXnXvXnX;XnX:X_.nXvXnXvXsXsXvXvXvXvXvXvXsXvXbXZX3 3 C u.w.8.8.7.w.7.e 9 7 LXNXtXtXyXyXtXtXtXtXtXtXtXtXtXtXtXtXeXtXyXgXyXgXxXBX8.U CX^ 1XZXNX[ 8 L i.i.L.5X9XP.Y.G.G.F.z h X.R : 0 v F.Z.A.A.h.g b f x x k.J.k X.X.( o.R #.J.+.#.Y R R T r.| X t e.| ( | / 7.7.| ^ t r H j r.b.uXb.K.U X & i.O.+.+.+.+.+.O.q.I 3     ",
"  &.X / i.cXkXI.I.qXqXyX% # . 9 R $.L.t.@.@.[ +.t O . . X . . . . . 8 i : +.t.t.i.t.+.d.3X3Xb.b.m.u. .9.n.m.m.<X<XK.2X5XN.n.eX2XNXH 7 LXZX7X XdXmXmXsXsXsXhX@XvXvXvXvXvXnX;X;X;X;X;X;X;X:X_.[.KXnXnX;X*X;X*X*XnXvXsXsX=X@X=XmXvXsXsXsXsXmXmXy.eXAX3 mXbXaXvXbXbXbXbXmXvXvXvXsXvXvXnXvXnXnXnXnXvX;XnXnXnX>X_.,XnXnXvXvXvXvXvXvXvXvXvXvXvXbXmX@ 3 w w ! / / / | 7.a _ e bXeXyXhXtXyXtXyXyXtXtXtXdXhXdXyXyXtXtXyXyXgXzXxXxXVXo.@.GXxXlXt.R q.q.J 0.i.w.L.J.%.k.A.A.F.U.t.8.: = F.G.S.D.D.A.j.j.A.D.S.S.A.h.f 0 k 0 R o.$.$.R J R o.T R T : - U | ( U a G / J ( ( ^ W J J O.O.q.+.t.T X & i.+.+.O.+.+.( q.[ I w     ",
"  &.X m.3XxX0XI.I.0XyXyX7 % w.O.o.o.s.t.t.$.q.L.O.# X # . : 8 j R s.J.t.O i L.t.t.t.r.i.m.i.i.m.i.i.e.m.<Xm.5X<X3X2X8X8XN.N.2X5XNXQ 9 LXZX4Xy.n.4XZXsX@XsXaX$Xv.sXnXvXnXnX;X;X;X;X;X&X;X:X).[.MXMXMXnX&X;X;XnXnX*X*X*X*X*XvXsXsXsXsXsXsXsXbXaXbXAXw JXbXbXaXbXmXsXaXvXvXvXvXsXvXvXvXvXvXnXnXnXnXnXnXnXMX&X_.:XnXnXnXmXmXmXmXnXmXnXvXvXvXaXaXy.3 3 3 9 C V V 9 t 5 5 % X q 9.yXbXgXyXhXyXyXyXgXbXbXgXyXyXyXyXyXAXyXNXlXlXcXX.t.VX9XL.uXi.uXuX' t u ( o.x.%.F.T.F.k.%.R j > l Z.A.j.j.A.A.D.D.j.A.D.D.A.A.v f f ; > h > > > k X.X.k u 7 * e _ O.( 7.| / O.| _ _ ` L ^ L ( 8.r.t.r.^ X % 1X[ [ R J J T [ I u w     ",
"  m % L <Xt.x.J.P.P.L.r.7 3 _ O.j +.@.@.t.s.t.d.T # X X J o.t.@.@.$.%.s.j : L.s.+.t.r.K.L.i.u.i.u.u.u.3X<Xi.m.m.<X2XK.2Xx.M.dXgXZX/ 9 JXZXtXe.y.aXZX$X|.sXvXmXnX*X*X&X*X;X;X&X&X&X;X;X;X:X-X).KXnX;X&X;XnX;X;X;X*X*XsXvXvXvXsXvXsX*XsXhXsXsXaXwXvXw ZXmXaXaXbXvXaXvXaXvXvXvXvXvXvXvXvXvXnXnX;XnXnXnXnX:X[._.KXnXnXvXvXvXnXnXnXvXvXvXmXmXhXbXJX4 < 3 $ K ! V 5 @ + e ^ J r . 6 5XZXyXyXyXhXyXgXgXyXyXyXyXAXyXyXyXtXtXgXfX0X0 0 iX0Xi.i.1Xi.G L T ^ i.K.t.x.Y.Y.v x x X.x.k Y.G.A.A.g D.H.H.H.A.j.S.S.A.j.b c h.c c Z.Z.g f %.%.%.@.R O 7 [ +._ w.8.w.( 8.( T O.^ ( _ T T t.t.t.t.7.X & ( ^ T I T T T T I : B     ",
"  q 3 % - | x.x.$.#.x.3Xe % 9 ..R X.+.@.$.s.U.L.I & & u J 8 8 0 > i l i ( : L.L.t.q.i.i.L.i.b.m.u.w.w.m.<Xi.: 0.K.3XM.N.M.P.hX7XbXY 9 JXBXdX7X6XsXwX+XOX@XsXnXvX$X*X&X;X;X&X&X;X;X;X;X:X:X-X_.KX;X&X;X;X;X;XnX;XnXnXnX*X=X*X*X*X*XsXsXsXsXmXwXaXbX< ZXbXwXbXbXaXaXsXaXbXMXmXvXvXvXvXnXnXvXvX;X;X;X;X;X,X-X).KXnXvXnXnXnXnXnXvXvXaXnXvXbXbXbXZXw 3 3 3 - . . 9 ^ yXBXVXyXtXL & 3 rXBXyXtXyXhXyXyXyXyXyXgXyXAXyXyXtXgXgXyXxX8 ] xX0X0XuXuXi.m.i.8.+.8.<XT R $.l l x v J.U.k k.h.g S.S.A.A.j.D.H.H.A.A.A.h.A.j.j.g g j.j.A.c f l 0 : o O 0 T I j G _ 8.O.| _ T T T O.8.( 6 i.K.L.i.r.& X O.( [ R R R ( R i O -.    ",
"  q 3 m.8.9 ..#.+.b.3XtXa , | a R @.t.t.J.U.I.kXt & . 5 5 u u 7 6 7 # . o O T L.i.L.K.K.m.<Xm.b.m.K.w.u.3X8.# a <Xe.| N.6X7XdXeXbX! w JXBXNX7XhXsXsXsXsXnXnXvX*X*X;X;X;X;X&X;X:X:X;X:X;X:X-X_.KX&X;X;X;X;X;X&X;X;X*X*X*X*X*X*XsXsXsX*XmXaXsXbXaXZXq JXbXaXvXvXvXvXvXbXMXmXvXvXnXnXnXnXnXvXvX;X;XnXnX:X,X_._.:XnXnXnXnXnXnXnXnXnXnXbXsXbXbXmX|.q q 9 3 - % u.9XtXgX0X5XK.5X5Xe # . SXrXyXyXbXyXgXyXyXyXyXbXyXtXgXNXtX1XqXL.* ( NXqXxXxXlX0XfXpXqX0XqXuXL.u.J.J.J.%.%.%.X.l X b j.A.A.S.A.A.A.A.A.g c g g b b g g c g c h.v h . X o 1 6 O 6 6 0 6 8 8 t a t j j t r r j T i.K.i.i.i.X X r.+.o.+.X.+.[ ] @.7 4.    ",
"  < U 3XK.b.x.@.J.t.b.L.G 7 L 5 : R d.t.X.@.$.@.& # & 6 [ +.@.+.[ [ j 0 * * 8 L.d.+.3X<X<XK.<Xm.m.K.m.b.u.T & X ^ | u.4X.XoXoX.X4XC C JXBXbX6XaXaXsXsXsXvXvX$X$X*XnX;X*X;X;X;X;X;X;X;X:X:X-X).KX;X;X;X;XnXnXnXnXnX*X;XnXnXvXvXvXsX*XaXvXmXmX@X,.y.3 y.BXsXvXsXsXbXmXvXvXvXsXsXvXnXnXvXvX;XnX;X;XnX;X:X,X_.~.&X*XnXnXvXnXnXnXnXmXmXmXmXmXmX+X. . . . @ - e gXhXhXeXtXlXK.uX5XuX: & w.NXgXbXbXyXyXyXyXyXyXgXyXtX<XgX4X7.T : * X | R +.+.+.u.t.L.t.i.L.qX0XiX0XL.J.$.$.#.$.X.d h.G.A.A.A.A.D.A.j.g A.h.b f g g c c b A.A.b x > : : J ( J j T ( T O.( ( T T T ( J j 8 j 8 i.r.u.L.r.1X. X d.O.+.+.+.+.[ J L.J y.    ",
"  @ ) 3XK.0XU.J.U.$.X.L.t 1 * o X . $ 8 0 0 : % # # % e 0 = O > 0 j i R P * * u j : t.P.K.3XK.K.L.K.b.m.m.w.a H L 3XtX<X4X4X<X9.! 4 a 4X+X|.c.y.|.}.}.OX$X$XvX$X>X:XMXMX;X:X:X-X-X-X-X-X-X_.-X,X:X-X-X-X>X-X>X>X:X*X=Xv.l.l.v.|.|.c.+X|.c.y.s s . 3 . mX.X|.4XwX4X4X+X|.+XwXsXwX$X$X*X*XvXvXnXnXnX;X;X:X)._.].l.l.{.3.1.5.2.2.,.,.,.v.y.;.V n.4XeX4X7 + . + y.m.<X5XlXqXd.L.r.. 7 j uX<XuX1X<X Xm.i.uXyX<Xm.uX5X5X9XqX1XL.O +.8.R o.@.( R R R R X.X.@.$.$.X.$.X.#.X.R k X.x x G.G.A.c S.S.H.H.A.Z.c b x x v v g c A.Z.v h h R h I ( o.+.+.O.( T ( ( R +.o.( j T 0 8 q yXe.i.i.i.9.. & 1XO.o.T J r H r H t )     ",
"  @ t <Xb.P.P.I.P.J.I.0Xt 7 e qX8.O.r.r.t.q.q.8.% # * u j j j t.+.o.R R u # t r.L.L.L.L.L.K.1XL.L.b.K.1X1XuXuXtXgXdXfXgXtXtXNXNXaX+ X .X+XwX+X+X$X$XsXvXvXvXnXnX:X:XnXMX;X:X:X:X:X:X:X:X:X).~.).>X>X,XKXMXnX&Xl.l.sXmXmXsXwXwXwXeX Xy.- - O t T 0.5 - 9 +.K.m.K.dXbXaXeX XN.e.n.|.y.,.,.,.>.-.2.5.v.{.;X)._.>X*X$XsXsXvXsXaXvXsXwXaXmXBXJXLXPXPXLXLXLXLXgXb.: . T T ( R j = = qXGXGX0X0XBXNXNXNXlXBXBXVXlXgXyXgX0XqXuXuX0X8 xXVXiXiXI.qXI.qX0XlX0XI.U.J.J.J.J.x.$.$.x.x.J.h . G.c F.g g A.S.A.g g b F.l > > > f v x f > = 0 T e 5 t t t j j J T R O.+.t.+.[ +.| u * 5 uXr.i.i.8.L & # P 5 O * o * e t 0 0 5     ",
"  , % G H a H U T T 8.K.e 6 j 3XO.r.i.K.t.q.i.8.% # : 0 : j +.+.R R j j 8 # I d.i.K.t.w.t.r.r.t.r.t.i.i.b.K.b.u.m.m.2X2X X XtX X4X! 9 DXmXhXhXsXvXsXaXsX*X*X$X=X*X*X*X*X&X&X*X*X*X;X*X&X;X-X_.;XvX*XDXFXDXmXOX=XB.B.|.sXaXaXsXsX6X6XhXs ; U a T j 5 & 5XzXBXZXBXSXLXLXLXJXSXdXbXJXLXJXJXJXJXJXsXvXvXMXJX).).KXJXJXDXDXJXJXJXDXJXFXmXhXmXmXBXBXBXhXdXDXSXLXLXGXyX8 o +.+.8 xXCXCXxXcXcXVXNXfXfX9X3XlX9X5XtXeX5X3X3X5X5XqXuXj qXlXiXiXiXqXiXqXiX0XJ.$.J.I.U.J.%.$.X.X.#.#.#.X O F.v f g Z.S.S.c c g f k > o O . : 0 > & - e G G e :.w.7.O.+.[ o O j t j R o.+.w.O.t O O.1Xw.8.r.q.G + & . J L.uXL.qXiXkXiXiXj     ",
"  q 3 G L L | O.0.0.0 r.7 7 _ a O.8.+.r.+.q.8._ % $ 8 J I j +.o.R +.[ [ e 5 +.i.L.i.t.t.u.i.i.u.w.t.u.b.K.P.K.3XM.M.m.m.n.y.n.c.n.y.C jX6XoX+X$X@XOXOX$X*X*X*X*X*X*X*X*X*X;X&X&X&X&X&X&X:X).-XKXMXnXsXvXsXsX=XsXvX*X$X|.OX+X|.+X|.+X+XoXe.a a e e 6 % 4XdX7X8X2XN.M.M.7XjXmXmXmXDXDXmXmXmXFXFXnXMX*X}.MX)._.:X;X*X*X*XOX*X*X*X*X*X@X@X$XwXsX6X6X6X7XdXdX2X8XdXSXNXT . . BXBXtX3XtXgXtXtXtXeX7X3XeXtX7XeX5XrX4X<X<X<XM.K.K.8 iXcXxXxXiXkXkXiXiXL.j ; k X.l f h k h > O X . O x F.g h.b b b b v F.f h = 8.( t $ # e 9 - 6 r C w n C 9.w.7.( R R 0 O 0 j 0 = : : 8 . 7 xX9Xr.i.r.r.P X + X P.I.U.I.I.I.iXJ.s.0     ",
"  q $ T w.m.3X<X2Xi.r.0.X % _ t 7.7.O.o.o.[ ( _ 5 $ G 8.q.R @.t.t.@.[ [ 7 8 [ L.i.b.K.m.m.b.b.b.u.u.b.K.b.b.b.m.K.b.m.M. X.X Xy.,.c.,.ZXN.oX$X@X@X$X*X@X=X*X*X*X*X*X*X*X*X*X*X&X*X*X*X&X;X[.-XMXnX*X*X*XnXFX*X*XsXsX$X+X$X+X+X6XoX|.v.6XaX Xt . e 7 % ZXhXdX8X4X4X7XjX6XsXsXbXDXJXZXsXsXsXvXnXnXnXnX$X#X)._.,X:X*X*X*X;X*X*X*X*XsX*XsXsXsXsXsXsX6X6XoX6X6X8X7XdXgXBXu t.VX9X5XtXtXtXeXeXtXeXeX5X4X4X4X4X4X4X4X4X4X2X XM.3X: qXcXlXqXiX0XiXiXiXi.s s O R l X.h lX8.8.| U t . > %.v c g f f > f x > = J w.0.W P n 7 , e K ) ~ ~ ! A V *.0./ O.T j 0 R t.O.u [ [ O.* T lX0Xr.K.i.d.' & & X iXJ.s.$.$.@.@.R j 7 B   ",
"  q e 5 H L j J L O.i.i.# X e Q w 9.0.O.[ R O.0.5 % ^ t.R j +.t.t.+.t.d.6 8 0 d.L.L.L.K.m.b.b.b.r.u.b.K.K.m.K.m.m.m.m.m. X X Xy.y.aX! BXoXoXoX@X@X$X*X@X=X*X$X&X*X*X*X*X*X*X&X*X*X*X*X*X;X).-X:XvX*X*XsXsX@XOX$XsXsXwX@X$X@X|.+XoX6XoXoXM.aX.X9.@ 9 @ hX5X8X7X2X7XeXeX+XsXsXsXwXhXhXaXsX=XsXvXnXvXvX$X:X)._.-X#X;X;X*X;X;X*X*X*X*X*X*XsXsXsXsXsXsXjX6X6X6X7XdX8XtXNXr VXgXfXtXtXeXeXtXrXrXrXrXrXrXrXrX5X4X4X<X5X4X4X<X<X3X: L.xX0XL.L.uXL.K.i.w.j a . s : 0 lXSXzXzXNXtX0XBXO.O l l c g f z > : 7 o L.q.O.9._ 0.` G r t Q )  .} ;.C *.:._ j O u R 0 8.8.r J O.: % q.qXt.w.8.t.r._ X % . s.$.@.X.] ] R I J 9 B   ",
"  q e _ 0.( w. .+.m.t.8.% # :.9.0.w.O.+.+.+.+.[ 7 % I +.j j @.@.+.+.+.q.r 8 t K.qX3XK.K.K.b.u.u.u.u.b.m.<Xm.m.m.m.m.m. X4X<X4Xn.y.y.9  XN.6X+X+X@XsX$X@X$X$X$X$X$X$X*X*X*X&X&X*X*X*X*X*X*XF -X:XnX*X*XsX*X$X@X$X$X$XwXwXwXwX+X+X X+XM.oXoX+XwXbX;.. + BX5XM.2X8X6X7X7X+X6XsXaXmXbXmXmXmXMXFXvXvX*X;X#X:X)._.-X&XnX;X*X;XvX*X*X*X*X*XsXsXsXsXsXsX6XjX7X6X6X7X7X4X4X3Xh cXtXtXeXtXtXtXeXrXrXrX4X5X4XrXrXrXrX5X5XrX1X<X1X5XfXj qXlX0XqXuXuXuXt.L.+.0 j j : t ( yXO.i.K.3XK.K.zXBXfX= i k k p . . . qX= j +.R r.w.w.+.8.O.U H / :. .e.U T r . * u u I j J J t - $ 7 O 0 r.r.i.r.7.O.^ X # . O R R ] ] ] R X.I 8 4   ",
"  q 7 0._ ( O./ / | r.i.t # H i.m.r.8.O.+.8.+.T 6 # J t.o.: q.@.] ] ] [ u * T d.L.K.K.L.b.b.b.b.b.b.i.i.i.i.i.u.i.i.i.<X.Xm.e.n.wXoX .y.2X6X+X6XwX@X@XsX*X$X$X$X$X$X$X$X$X=X=X=X&X*X*X*X*X} 2.MXvXsXsXsXsXsX$X@X@X@X@X6XwXwXoX+XoXoXN.dX4X4Xc..XbXNX- LXhXdXdXdXBXZXbXaXjXjXsX$XnXmXmXaXhX=X}.XX#X#X*X:X-X_.,XMXnX;X;X;XnXvX*X*X*XsXsXsXsXsXsXsXsX6X6X6X2X6X7X4X4X<XL.lXyXtX5XeXeXrXrX4X4XeX5XrXeXrX4X5XrXrXrXeX4X3X1X1X9X: t.xX9XxX0XqX3Xt.t.+.j +.L.L.fXb.K.r.3Xb.L.b.K.L.O.1Xt # # X . | u.K.qXt.T T 8.r.8.w.t.x.t.t.r.t.b.O.0 j u O j q.q.] [ [ [ ( I j e 7 # % :.u.| _ _ [ *.# $ & O.O.j R [ X.@.] o.0 3   ",
"  w - # : 6 9 9 9 e r r K % e 7.G 7.8.+.O.O.+.0.e % d.1X+.o.@.@.@.[ [ t.[ 7 j r.[ j o.b.b.m.m.i.i.i.u.u.i.i.i.i.b.i.N.N.u.n.y..Xy.+X .| eX7XoX6X6X6XsXsX@X@X@X@X@X@X@X$X=X$X@X$X$X$X&X$X;Xz.1.nX*XsXbXmXmX@XsXwXsX$X6X6XsXsX4X6X6XoXM.dX2X X X>.NX:.- SXhXdXdXdXhXjX6XjXdXmXbX$XZ 6.3.6.z.#X*X;XnX;X;X:X-X_.,X:XnXvXvX;XvXvXvX*XsXvXaXsXsXsXsXsXwXwXM.oX6X6X7X2X7XgXt.xXtXeXeXeXeXrXrX4X4X5XeX4X4X4X4X4X4X4X4X4X4X<X4X4X<X8 k cXb.t.K.K.w.( / w.8.w.i.9X3XgX5XK.b.b.u.b.b.u.w.y./ $ X T L.zXVXVXfXt.U w.i.i.0.| w.t.t.t.t.L.9XqXd.O.o 0 [ O.I J [ R [ T I ( ` ' % 7 i.1Xi.d.d.p.a., 1 & i.o.j o.i.q.t.@.] 0 3   ",
"  q 3 _ O.w.r.w.r.i.p.9.9 @ t 9./ U 8.r.+.+.w.r.e : uXq.J t.q.[ @.t.q.O.( : u r.r.r.. R K.i.i.r.w.u.u.u.i.i.i.m.m.m.b.m.n.u.n.n.y.;.U a hX6X6XoXoX6X+XoXN.@X@X@X@X@X@X$X@X$X$X@X$X$X$X$X;X)._.;Xc.wXaXBXZXmXbXsXaX6X+X4XwX6X6X6X7X2X X7X XoXn.eXNXbXa SXdX6XoXM.M.oXoX6XdXdXsXsXl.*X;X#XnXnXnXMXnXnXnX;X[.~.,X;X;X*X*X*X*X*XvXvXsXsXsXsXsXsXsXsX@X6X@Xv.M.oX8X8X<XtXY xX9X5X4XeXeXrXrXrXeXeXeX4X4X4X4X<X4X4X4X4X<X4X<Xm.NX0 X.GXP.3Xu.e.| 7.8.8.b.N.K.N.e.2XN.N.M.N.b.x.b.w.i.1XL % T 9X0Xr.b.VXu.u.r.w.w.i.r.w.r.t.8.t.x.t.x.t.i.qX0 7 J u I J j 0 8 j +.T G ` $ 6 <XtX5XuXd.' p., 1 X 5 r ( [ O.R J 8 i 0 3   ",
"  q 7 8.7./  .<X1X1XK.i.5 + 5 _ e u.b.+.8.r.0._ 7 * [ o.( q.t.+.t.+.q.+.q.i [ q.t.( % [ 1Xi.i.u.u.i.u.i.i.i.m.m.i.i.m.K.n.w.N.N. XdX| a gXM.oX2X6X2XoXoXoX|.@X@X@X@X@X@X@X+X$X$X$X@X$X=X&X[.).MXwX6XbXjX>.~ C aXdX6XoX7XeX6X4X6X4XeX4X4X4X2X2XeXyX/ 9 BXM.M.2X4X6X7XaXmXmXbXwXXX*XMXnX*X*X#X#X&X*X*X#X;X:X_.:X#X;X*X*X*X;X;XvXvX*X*X$X*XsXsXsXsX@XB.6XoXN.N.2X2X2XM.R 9X7X5X5X7XrX4XrXrXeX5X4X5X4X4X4X4X4X4X<XeX4X4X5X9XVX0 qXpXK.9X#.e.m. XM.m.<X<XN.M.b.b.2Xn.M.K.b.2XK.9X5X5X6 6 yX9XK.b.| m.u.w.u.i.<Xi.u.w.8.7.e.u.u.e.e.u.7.3XJ * R o.R o.[ R R o.] j I I % 8 uXuXr.w.r.( i.% # # 1Xo.R I R I @.t.X.0 %   ",
"  q 7 / ) 7.r.7./ O.8.0.$ + | :.^ w.+.( U T _ ^ 7 * J [ ( o.+.( R q.o.+.R j j R t o P 0.^ 8.u.u.r.i.i.u.i.i.i.n.i.u.u.N.N.N.N.dX7.4XH Y tXM.6X7X6XoXoXoXc.c.oX+X@X@XOX@X@X@X@X$X$X$X$X$XsX6.} JXhXc.M.....U - 8XhX2X4X7XdXdX6X2XhX5XM.M. X4X2Xm.yX. . NX9XdXdXhXhXdXdXdX X X5.v.sX*X*X&X*XXX#X#X#X&X#X#X>X_.KX;XvX*X;XnXnXvX*X*X*XsX*X*X$XsXsXwX$X+XoXoXN.N.dXdXK.qXx.L.K.<X5X4X4XrX4XrX4X4X4X4X4X4X4X4X4X4X<X4X4X5X4X4X3XH K.t.u.+.| N.m.M.4X4Xn. XM.M.5XeXu.m.2XM.N.2XK.2XM.m.9 0 8.u.N.e.} >.e.e.y.y.w.e.e.e.w.8.w.w.9.w.7.w.w.1X` & L.@.i I ( R [ [ t.[ j 8 X : qX3Xr.i.1X' p.5 $ # 3X( j R [ o.@.+.+.8 #   ",
"  w % Q :.Q a t a ^ ^ 0.7 # L 9./ 8.w.8.+.( _ ` 5 % * t u o.o.o.t.q.j o.[ T 6 j 5 ^ 6 e . . a ( 8.<Xm.m.m.m.m.i.u.u.u.u.u.u.u.8XtXbXU H dX8X4XeXjXoXn.v.v.OX|.oXB.B.OXOX@X@X@X@X$X$X$X$XvX-.Z mX7X8XM./ N.e.a dXhXeXeXeX8XdXgXNX7X4X<X X X7XdXtXbX9 <XBXK.M.K.n.N.y.y.{.OXsXsXsXsXsX;X;X;X;X;X&X;X;X;X#X>X_.:X*X#X&XXX}.*XnXvX*X*XOX$X$X$XvXwXvXwXbX+X6XbXdXN.b.b.t.s ( j P.5X<X X1X<X.X<X4X4X5X4X4X4X<X4X4X.X.X<X4X XyXw.5 w.i.e.e.n.y..Xn.n. Xn.n.y.y.eXeXw.y.N.y.u.w.e.n.n.u.t e w.>.y.e. .n. .>.9.>.>.e.e.w.w.u.u.e.e.e.e.w.w.r./ # T j t I R ( ( ( I I u P % 7 qX1X0.w.<X(.0.5 $ # j u R +.( j j 8 : 7 $   ",
"  w 3 9.:.p._ Q 3 t 9.i.5 # r :.:.| 0.i.i.w._ *.5 # r u u [ q.t.+.R O.8.G j 7 X . G u _ L j . . & ^ m.K.m.m.u.i.u.u.u.y.y.w.w.n.:.9.@  .2X2XN.M.oXoXv.v.N.oXoXoXoXoXoXoXoX+X+XOX|.|.XXXX$X,. . .e.#.Y Y s e.s ,.bXdXdXhXgXNXCXdX5X5X<X Xu.hXw.:.w.5 5XN.| e.e.c.+XwXvXvXsX$XsXsXvX*X*X*X#X}.}.}.#X$XXX1.[.~.D `.1.*X$XXX;XvXvXvX$X}.$XsXvXOXmXJXZXmXbXCXSXBXy.n.e.| 9 - e.#.t.t.b.b.( | 9.u.y.u.4X<Xu.u.0.u..XtX7X7X7X1X^ X H 7.U | w.9.y.n.y.w.w.w.7.e.e.w.w.w.w.e.:.w.| )  .Q 7 % j 7.7.u.>.w./ Y | :.| | 7.| 7.7./ /  ./ | 7.| 0./ % 5 * 6 8 u P t u 8 5 e t O e K.U 0.r.1Xr.K , # 6 L T R j R O.T 6 J 8 7   ",
"  m 3 :.9.w.| 1X7.t w.m.# & r 9.~ ) y.i.O.T 0.0.5 $ _ r.r.o.+.o.[ [ ( O.I 0 7 8.i.uX0X3X3Xi.r.I G . . T J +.r.8.e.w.w.u.y.e.u.N.n. X&  .n.w.M.oXM.N.N.N.N.M.M.M..Xn.n.+Xc.v.y.aXeXeX X,.! a / 9.| s 0 | e. .U N.y.tXtXbXhX5XgX3Xm.<Xn.i.y.n.m. X9.$ NXBXfXgXBXbXbXmXhXbXBXhXc.|.$XsXsXvXsXnX*X*X$XOX%X$X[._.:X$X;X;X;X;X*X*X$X*X*XsXsX$XsX6XoX@X|.|.oXc.y.c. Xw.e.U 9 ( t.#.l pX0XP.b.P.8XP.P.pX8XP.P.8XP.pXfXpXpXpXM.8X8.U 3XK.<X7XdXeXfXpX9X3X9X9XfXzX3X9XK.9X9XzXfXpXdX5Xm.U X O.b.b. XN.e.w.|  .U >.u.7.>.e. .7.w.e.w.| 7.w.e.e.8.t 5 j 8 8 t 7 8 8 8 * * % % 6 K.u.r.q.p.p.E , # 5 I j 0 j [ R j 0 u 7 6   ",
"  A % | :.7./ w.0.e 0.w.X X t p.! >.p.y.| 7.0.r.1 # e J +.q.[ +.[ [ [ O.[ 8 8.0X0XI.L.L.L.L.0XL.O.L.8.0 . X / K.u.c.#XM.n.m.b.b.3XNX. a b.e.8X7X7XoXoX6X6XoX.X.X.X.X|. X Xy..XJXLXSXfXw.) t w U t & 3 | a CXBXtXzXtXtX5XN.m.dXgX9X7Xm.<XtXtXyXtXQ # m.gXzXdXM.dXeXdXjXjXjXbXsXwXvX$XXX$X*XvX*X*XsXnXMXMXD _.:XnXnXvX;XvXnXMXvXvXjXvXmXhXmXmXbXmXhXjXhXBXjXaXhX9Xb. .; 8.L.J.s x.l I.P.J.I.P.x.x.x.P.P.P.pXI.pXP.pXpX8XzXw./ fXdX8X2X2X6XdX6X4XoX XM.N.N.n.4XM.M.M.2XM.2XoX4X4X .% 1X<Xw.y.c.e.e.e.N.M.e.e. .| e.w.e.w.w.w.7.t.w.u.w.w./ O j +.O.I T I I I I P * # $ +.w.i.<Xi.r.P # # t G j I u 8 t j u 0 : 6   ",
"  Z + K ) 7.:.i.L e 0.w.# X e w.p.9.7.w.r.r.P i.$ # r ( o.+.+.o.+.+.[ [ I = @.qXP.0XO.( r T r.xXr.+.b.m.+.8 . J L.y.3.e.m.m.b.u.i.m.& T L.K.K.m. X+XwXwXwXwXrX4X4X+X+X.XOX$X+Xy.v.v.-.-.>.V @ :.u.9.t . e.SXgX5X9X7X2X2XdXCXBXgXtXgXdX7XtXdXgXgX_ @ i.fXdXrXeXaXoX XeXaX+XwX$X$XsXvX$XsX*X$X$XMXnXnXnXKXD F #X;X*X*X*X*X*X*X*XvXsX@X$X*X@X$X6X6XsX6X6XaXoXM.7X2Xw. .9 8.b.K.u.8.3XP.b.qXfXpXfXP.2X7X8X7X7XfX7XfXzXe.e.gX .U 4X+X|..X.Xn.n.n.|. Xn.|.oXn.n.n.n.c.c.n.n.n.n..XM.:.9 n.e.,.e.y.,.e.y.c.v.} }  .C e.m.| Q | | 7.7.+.w.8.| T X T +.+.[ [ +.q.t.T u 6 & e i.<Xr.r.i.i.W , $ r ( j j j J I T R ( t 7   ",
"  Z @ ^ 9.7._ 9.t 6 0.p.$ # e p.0.0.w.w.w.r.0.9., # r J J #.q.t.o.q.L.t.o.: t.qXL.3XO . ^ L . 8.lXK.L.J t.t.r . J i.O.w.e.w.w.i.m.5X6 t 0Xw.i.m..Xn.+Xn..X4XrXrX4X.X|.OXOXOX+XwX@XaX$X>.y.a 9 <X<Xm.5X9 7XPXzXM.fXK.K.M.3XM.u.r.b.<XgXtX4X4Xm.5X0.@ <XNX3XeX4XeXoXwXrXrX+XwXwXwXwXsX$X*X$X$XvXvX$X%X}.nXA A %X*X$X*X*X$X*X*X*X*X$X$X@X$XsXsX@X$XwX6X6X6XoX6Xv. Xm.7.9 BX2XK.b.2XzX7XgXzXfXpXpXpX7XdXhX7X7XdX9XtXdXdX:.hXe.a 6XoX|.|. X X.Xn.n.n.|.oXoX|.N.v.v.c.v.c.n.N. Xy.n.U 9 u.e.,.y.>.,.,.,.y.e.e.>.>.~ / ! :.7.7.) )  .7. .| Q 7.X J O.( R I +.[ ] R G r & e uXr.i.d.d.d.*.$ $ $ j : j I j J R ( t.r ,   ",
"  &.@ H _ / :.L ` G i.p.# & $ ^ a V i.u.7.7.*.) # # G ^ ( O.O.8.( R 8.+.t.0 d.qXL.0XT 7 ^ u ( r.xX0X8.uXr.t.q.% 0 8.U w.b.N.<XK.m.5XL a VXt.i.u.;.y.n. Xn.n..Xc.+X+X|.OXOXOX+X+X+XwXaXy.! 9 3 eX Xu.m.M.zXSXzX3X3X3X3X2XM.M.3X5XfXgX9XtX<X3X<XyXp.X | 9XM.7X7X7XeXeXeX+XaXbXwX$XsXsXOXmX@XsXvXvX*X;X#X;XF D D $X*XOXOX$X$X*X$X*X$X$X@X@X@X+X+XoXoXoXoXoX6XM.oX2XM.| 9 NX5X5X2X8X2X7X7X7X7X8X8X7XeXeX7X7X7X7X6X6XdXdX4XeXn.w wXOXOXoX X X.X|.|.|.|.|.c.n.oXoX|.|.|.|.c. XM.c.u.Y a n.y.y.e.e.,.,.y.e.>.7.e.e.w.| w.w.b.w.7.7.|  ./ 7.7.:.# 8 I G u u j i j J r e # 5 m.w.( i.q.r.^ % # 6 J j T j I T O.j 8 O #   ",
"  >.+ U ) ) u.^ i._ n K $ # % :.:.:.y.w.7.w.) Q & # : 6 6 e 5 6 6 u T u J 7 t.L.t.L.L.uXi.q.fXuXL.r.| O.O.8.T O j i.r.w.m.b.m.m.i.i.t e 9X7.i.u.e.e./ u. X4X.X|.c.|.c.c.+XwXwXwX.X+X.X>.2 V w bX X9.4XgX<XK.9XfX7X9X7X7X9X9XtX9XgXzXtX7X7XeXtXgX9.+ gXtX5X5X2XbXhXdXhXhXhXbXaXaXvXsX$XsX$XOXvXvXvXvXvX;XS _.).:X*X$X$X$X$X*X$X$X@X$X*XsXsXwX@X+X+XoXoX+XoX6X6XoXM.t s 5X2X7X XoX4X4X6X6XeX4X2XoX4X4X6X6X6X6XjX7X6XjX6X6Xn.C $X@X@X@X+XoXoX.X|.|.n.c.|.|.|.|.oXoXoXoXn.n.N.n.M.C H eXe.v.e.N.,.e.,.,.oXx.e.P.| #.#.+.+.8.w.r.e.8.e.8.7._ $ 5 . % 8 0 0 8 = X . e % t w.r.+.r.q.r.) % 1 r ( j R k R I 0 t 0 7 5   ",
"  ~ . G :.9.0.L / t | _ 7 # 6 9.:.9.y.w.w.w.0.*.& & e T ( ( ( o.R R R [ ^ % o.t.+.t.r.t.+.R q.+.O.O._ O.[ ( 7 * 8 8.G t j T T G O.0.$ 6 r.7.w. X Xn.9.m.<Xw.m.<XrX+X.Xn.|.|..X.X+XrXZXNXNXZXE BXH e.i.7.` 7.U / +.#.e.m.fXfX7X5XtX9.y. X5XtXtXyX0.+ NXgXm.<XhX4XBXZXDXbXoXoXwXsXaXwXwX{.A vXbXvXvXvX;X}.F ).).;X$X$X$X*X$X$X*X$XXX@X$X@X$X$X+X+XoX@X+X+X6XoX4XM.n. .N.2X4X XoX X4X4X+X+X4X4X6X|.|.+XoXoX+XOX@X+X$X6X+X6XaXC wX@XOX@XoX.X|.|.|.|.|.|.|.|.|.oX|.oX|.|.|.N.v.v..X- U 9Xu.M.u.w.m.u.#.e.x.e.t.3Xe.t.#.+.+.+.8.w.| 7.w.7.0._ % 8 ^ J 8 * 0 0 u j L r # L w.0.0.i.r.i.' # 7 P J J I j u u 0 : 7 : 7   ",
"  &.e r 9.:.5 e i.t w.:., # 6 9.K 0.p.w.w.Q 9.^ # & ^ O.o.o.+.q.+.X.R O.j X o.b.O.8.+.+.+.+.+.O.O.O.O.| w.( X . _ O.r 8.<X+.( r G ( $ r. X_ ! i.y.p.i.w.p.:.:.0.9.9.9.y.y.i.p.w..X4XJXNXbXJXm rX1XeX1X1X5X5X5X5XtXtX4Xi.3Xm.i.eXLXZXZXZXdXgXyXNXp.# SXSXu.b.M.dXeX4X X X Xc.n.y.c.+XwX|.y.Z {.OX|.{.}.6.&.A 4 }.{.%X$X$X$XOXOXOX$XwXwXsXOXoX.X,.} c.n. X|.M.M. XM. XeXoXM.N.2X4X2X2X X XM. X XoX2X6X6X6XwX+X+X@X@X$X@X+XaXs +XOX|.|.OX|.OXOXOXOXOXOX|.|.|.OXc.|.|.c.|.oX,.y.n.H $ L t O.j H i.K.qXpXt.#.u.r.O.e.r.w.8.7.7.O./ 7._ | _ _ & e r.8.( G ( q.0._ O.r.X G i.Q 1X1Xr.r.' , 6 G 8 1 X . . o # % % X X   ",
"  C t 6 t + V :.(.3 0.^ 7 # 9 9.E 9.p.p.w.w.p.*.+ # ( ( o.[ ( ( ( R +.R | . J b.K.w.+.8.+.+.t.8.8.r.r.m.9X_ . | 0.^ U / 3X7Xi.| L r % J i.u.u.i.4XeXdXdX2X3Xm.m.<X7XeXeXtXtXtXhXhXdX5X<XaXbX7 LXSXBXCXVXVXlXgXzXNXhXtXtXb.b.fXNXlXLXLXCXNXgXNXNX9.# gX3X<XzXfXM.8XCXLXSXNXtXw.eXZXDXbXmXDXsXoXoX>.mXDXMX<.M 5.2.5.v.{.|.{.OX+X|.wXaX+X4XaXeXeXrXrX4X Xn.e.9.|  Xu.w.5Xm.w.N.M. X4X4Xm.m.n.m.u.n. X Xn..Xv.c.v.y.v.c..X.XvXC wXOX}.}.OX@X@X|.|.OXOX|.|.OX|.|.c.|.|.B.|.|.OX.X>.t | O.( - . T P . j t.R 9 w.r.U 8.8.| 7.| |  . ./ :./ | | & 6 8.i.r.r.r.i._ ^ N ^ X _ uX_ i.i.w.m.` , q * X 0 I ( 8.t.r.r.i.G X   ",
"  @ 3 7.0.p.^ *.9.w 0.` 5 # e 0.0.y.w.9.p.0.p.) + # G T ( R R R k k R t a.y r qX+.t.t.s.+.@.+.+.+.+.O.r.L e G yXw.5 U U s H | i.yXr X X 0XyX5X3X<XtXtX7X7X7XdX2X3X5X5X2X7XeXeXhXeXdXdX7XhX>.a NXpXfXlXxXxX0X3XK.<X<Xm.K.M.3X9X5X2XO.8.7.:.Y  .r t % GXfXtX7XhXeX4XoX4X+X XbX|.bXwXwXwXwX+XsXaXvXvXDXZXMXZ B JXvXsX$XsXvXvXsXsX$X$X+XoX|.aXhX+XhXaXdX6XeXeXtXn. .u.u.N.m.m.2Xi.9. XeXhXeXhXeX4X2XeX6X+X@XrXaXrXwX$X$Xy.>..XA |.}.|.OX|.|.|.XXXXXXOXOX|.|.|.|.|.B.c.|.|.oXc.oXy.a t.T / O.0 8.u.t +.b.t.O.w.r.( 8.7.| | | ( | ( | 7.0.7.U X 5 i.i.i.w.0.0.| L U G & T L.G 8.i.r.i.` $ 5 5 % q.i.q.t.i.t.t.i.u &   ",
"  3 7 w.i..Xu.u.i.V Q ` 5 % t y.y.9.9.w.y.:.9.*.+ # _ +.+.[ ( R R R R I O.[ 8 qXi R @.q.t.t.t.8.q.8.O.r.T . 8.7.( U O.7.| :..X| m.% & L 3XK. X.X.X.Xi. XoX+XwX+XoXoX.X.X+X+X X+X+XwXwXwX+XC e.zX<X<X3XK.qXBXVXNXtX3X5X3X<X4X<Xi.<X<XN.m.K.m.r.3X_ $ CX5X X+X.X+X|.|.v.OXOXOXwX$X$XOX$X$XOX|.}.}.%X5.{.vX6.A MX$X}.@XOX@X$X$X$X$X$X|.XX@X@X@XOXwXoX+X+XoX6XdXoX2XgX .2X2X2XdX7X2XeXeXeXwX6X6XaXwXc.sX@X$XwX$X$XvX*X;X$X4.OX~ -.XX}.}.}.}.}.|.|.|.}.|.|.|.|.|.|.c.|.|.OX.Xv.n./ Y t.J j U T : % O.O.r.O.8.| t O.w.O.O.( | O.O.O.8.0.( ` G & 7 0.( 0._ 0.` _ ^ u e o t t.t | i.r.i.^ % 1 5 8 +.( +.O.8.t.8.q.r &   ",
"  3 3 0.9.y.i.w.w.G _ _ $ # e y.>.:.9.9.9.0.:.:.X $ I T ( o.+.+.q.q.o.j 0 ( J o.+.q.[ [ O.O.[ O.O.8.8.O.8.O.. 7 i.i.b.<X<Xi.<X:.5 a $ u.<Xm..X X.X.Xc. X|.|.c..X.X|..X.X|.|.|.+X+X.X X+XrXC eXhXm.<X3X3X3XM.M.<X<X7X3X3X<X5X4Xi.n.i.4XzXNXNXdXBXi.5 gX Xy.|..X|.|..XOX|.}.{.v.OXOX$X$X$XwX}.}.}.%X}.4.4.<.A JX$XOX|.OX|.|.OX$XOX@X@X*X$X@X+X+X+X6XwXwXwX+X+XoXdX<XK 4X7XoX2X4X7XeX4XoXwXwX+X4XwXOX$X$X$X$X$X%X$X#X#X$X#X}.Z A $XXXXXXXXXXX}.}.}.|.v.c.|.}.}.}.|.OXOX>.v.y.>.a U O.8 0 T J L i.d.O._ O.7.T / 8.O.J j T ( R [ +.8.8.^ ^ u X % _ J _ T ^ ^ J j t I * 0 1XO.U 7.w.m.H $ $ $ 0 +.O.8.8.O.+.[ [ e X   ",
"  w % H Q L G ^ i.` Q ` $ # t 9.! ;.p.0.0.p.p.0.& 5 8.O.+.o.o.o.o.o.o.T J 8.O.+.R r.q.+.w.w.O.8.8.+.8.w.+.r.r.T . T r.8.r.i.i.r . u & r.N.y.n.|.c.c.v.c.|..X|..X|..X.X.X|.|.|.|.|.|..X.XrXt CXtX X4X4X<X<X<X4X5X3X3X3X3X<X5X5X<X4XeX4XrX X5XhX5X.X;. .7Xn.|.+X+X+X.X.X|.OXOXOXOXOXOX$XOX$X$X$XvXvXMXvXaX4.w MXOXOXOXOX@X@XOX@X$X+X+X@X@X+X+X4X4X+X4X6X+XeX4X2X7XtX5X4XeX4X2X X<X4X XoX X+X+XoX+X$X%XwX$X$X%X$X$X#X%X$X#X$XZ 4 *XXXXX}.XX}.v.{.|.OXXX}.v.5.5.v.}.|.c.v.|.,.} 9 U j : : L P u 8.^ j L O.( ( 8.+.T ( J ( I I [ [ ( I J L 0 & 7 T P J _ ^ ( _ 0.( I * 0 L.8.8.r.r.i.j % # & : ( +.+.O.O.( ( T e #   ",
"  m @ / :.:._ :.i.) a :.$ # t y.C ) y.9.:._ 9.0.# $ R O.o.R R R R R R T T +.o.t.o.+.8.O.O.r.w.8.u.i.t.r.t.w.w.b.8.o . 0 j L r UX^ y o qXw.e.n.y.}.}.c.c.{.v.v.c.c.|..X X.X|.|.|..XwX.X.XrXr SX5X7XdX5X<X7X7X5X5X3X7X<X3X2X7X5X5XhX:.. . e ^ $ . 4Xp.3 w..X|. X.X+X+X.XOXwX$X$XwXwXOX}.OX+XOX|.wXJXJXbX$X(.w MX$XwXOXOXOXwXsXwXwXaXwX+XoXoX4XeXeXeX4X4X4XoX4X2X2XtXO.dXdX6X6X X X X X.X X.X+X+XwXwX%X$X$X$X$X$X$X#X#X*X1.3.-.2 l.4.OXXX$Xv.OX$X$XXXXX|.$Xv.}.|.}.}.v.+XOX$X+Xa 3 9 # e e e 8 . 5 t J | ( o.8.+.T ( ( ( j I ( ( ( J j J J & 6 0.0.I G ( _ 7._ G T * X O.r.8.8.0.r.r # # & : I ( O.[ ( O.T G 7 %   ",
"  m @ :.9.0.^ | u.Q r :.$ $ r y.;.>.9.:.9.9.0.` & * +.@.o.[ R R R I I R R +.o.r.8.+.7.O.7.7.O.O.+.0.O.0.7.7.7.7.w.w.& X G 9 i.NX5X| L m.c.v.y.n.y.|.c.}.OX|.c.|.|.|..X|.|..X+X+X+XrXwX+XrXw BX X7XdX7X7XgXeX4X<X<X3X3X5X3X2X<XdXU . 3 w mXZXeXp.. r 6 . i.rX+X.X+X.X+XwX.X.X|.OX+X.X|.|.|.OX.XOX|.+XvXbXbXm wXwXOXOX+X@XwX$XwX6X6X+X+X+X+XdX6X4XeX7X6X7X6X X2X2XeXm.gX7X6X7XhX X4X4XoXoX+X4XoXwX$XvX$X#X%X%X#X#X#X#X$X'.D Z 4 -.$X*Xl.$X}.l.$X5.$XXX|.OXOX$Xc.v.|.OXOXOX+XrXC 3 5 U U U j G e t H J j T ( 8.O.I J T j I [ q.I j J I J J 7 G 0.8.q.T ( _ / G G t % * [ O.( +.r.uXr # t & 7 ( +.O.( O.( 8.P e 5   ",
"  V @ _ 0.7.7. . X_ Q 0.5 : t 0.>.9.>.9.9.^ ` ^ & * j j ( +.+.o.[ R R j R o.+.+.r.|  . .7.| | 7.O.7.| 7.7.w.w.9.9.y.L & t 8.( 8.i.j +.9Xv.y.y.c..X|.c..X+Xc.y.y.|.}.c.y.|. X X X X.X|..XrX< ZX X7X3X7X7X<X2X<X X<X<X X<XK.7XgXw.3 ,.Z c.mXbXwXi., 1 6 P G bX4X|.|.|..X+X|.|.|.|.|..X|.OX.X.X|.|.|..XOXbXJXw wXwX+X+X@X@X+X+X+X+X+XoXoXjX6X+X4X+XoX6X4X6XwX4X2X5XrXy.5X4X X XoXn.oXoXoX XoXwXoX+X$X$X$X#X#X#X#X#X#X#X#X;X;XM 2 Z *XvX*X}.XX6.}.l.{.$X}.@XOXOXOXv.OX$X$X$X.X+X&.q t | T j J J j 0 j t $ 8 ( T j j J t u T O.( t T T J L ^ G j 0.w.0.| 8.0.J 6 T T u : 7 ( 8.( i.1Xe & t & u ( ( T ( [ [ [ u P *   ",
"  w @ Q :.9.9.0.m.| Q 0.5 - t 9.:.:.:.:.0.9.9.L X % T T I [ R [ ( +.[ ( I R o.o.w.( / | O.O._ O.O.8.7.7.+.7.r.r.7. Xi.o J lXO.I [ j o.P.<Xy.y.y.|.y.v.}.|.y.y.y.|.y.|.|.|.|. X+X|.|.|..XbX4 CXeX2X8X6X7X2X4X5X5X<XM. Xn.<XdXu.9.aXbX} BXSXBX;.. . . _ NXG w.4X X|.+X|.|.|.|.|.c.|.|.OXOXOX.X.X$XwX.X$XwXaXV aXwXwX6X6X+XoX+XoXoX+X|.oXv.M.|.oXM.M.|. X XoXn.oX<X X/ M.M. XoXoXoX X|.|.+X+X.XoX+X$X%X%X%X#X#X#X#X#X#X#X#X#X1.B 1.vXvX*X$X*X}.'.;X4 } $X$X|.OXOXv.OXOX{.{.{.{.5.C 3 t a e 0 5 8 u ^ T O * j t G I J 0 : u I G j T j 0 L _ j r _ 0.8./ T O.0.7.w.^ J * 0 L.i.O.T _ r # 7 $ 8 j 8 7 e 0 G r % % $   ",
"  w $ :.0.9.) 7.r.U W *.7 3 t 0.:.) :.9.:._ ` L & % j u j R ( R ] R R I j ( o.+.8.O.| O.8.7.O.| | ( 7.7.+.8.8.r.w.m.T : j q.r.[ 8 7 . 0 J n.c.,.v.5.4.y.v.y.5.y.|.y.{..X|.v.OXOX.XOX X.XAXq .X Xe.N.N.e.i..X X.X X0..X/ 9.q . BXbXbXZX.X:.@ . +XAXrXw.| L . n. X.X+XOXOX|.}.OX|.OXc.OXOXOX|.OX$X+X@XOXOXy.Q ! wX+X X+X+XoX4X6XwX+XeX7XoXdX6XM.2XoX Xn.M.v.N.M.8X7Xu.M.M.N.4X6X6X X XoX+X+X.X X+XOX%X%X%X#X#X#X#X#X#X#X#X#X[.~.-X:X;X*X*X;X6.%X4.2.OX*XOXXXXXXXOX}.{.{.{.2.4.(.w C  .t % 0 0 T ( J 6 : j j I J I J t J * u T I ( T j ^ ( ( r O.e t t ( 0._ L r T ( i 8 8.j ( L.r.r & 5 5 _ 7 & & . . . X X 7 6   ",
"  4 3 0.:.7./ | 7.e / | 7 $ e :.Q :.>.9.:.:.*.' & % r j ( [ [ ( J J u j j R [ q.i.8.+.8.w.8.+.| / / / | O.O.( O.8.( . : O 7 8 : % & % O 5 K.y.,.y.l.4.2.5.y.5.}.|.y.{.|.c.|.|..X.X.X|.+X>.3 . @ @ ,.>.Y C C C C E ~ Z V . # # e 9.y.yXt . ! ZX.X.Xp.CXyX0.i.n.|.c.OXOXOXOX|.c.|.OX|.v.|.|.c.c.v.v.v.|.|..XC V .X.X XoX|.|.|. X|.+XjX6XeXdX6Xn.6X2XNX4XM.8X8XK.2X2X .zX2XM.4X XoXoXoXoX+XOXOX.XOXOX$X}.}.#X[.#X[.>X>X#X[.#X>X~.-X:X*X*X$X#X4 B Z vX*X$X$X$XXXOX*XOXl.5.4.4.%X(.A Z ;. .H $ 6 j * X t ( 8.q.[ j R q.( T T . . 8 u 0 ( ^ ( _ L ( ^ G 0.O.( ( T O.^ t J 8 X t r.uXO.e # 8 7 [ 0 8 0 $ & & . & # r   ",
"  3 + L ) :.| 7.r.a _ 0.7 3 t :.) :.) :.) ` *.W # % G T R R R I j j I i t J J ( q.8. .| o.O.q.w.( | J j j j 0 O.j 7 % j G 7 . . . & : J / Y H >.>.y.v.y.y.y.9.y.|.v.;.V y.}.|.|.}.}.}.;.E 3 $ :.;.! >.y.y.y.y.c.v.c.v..X9.X L # . 1 7 q n i.y.. . @ 9 y.JXbXwXv.c.|.}..X|..Xn.oX+XoXn.|.c.y.c.y.y.c.|.c.9.3 w bX4X4XoXoXoX+X Xc.v.e.e.y.e.y.c.c.y.u.u.hX7X3XM. X XU hX2XoXoX+X.Xc.|.|.OXOX|.|.OXOX$X1.Z 6.D ).)._.).).`.;X>X_.:X;X*X*X*X3.6.l.*X*X%XXX$XOX}.OX$X$X2.-.OX$XwX|.A Z Z Y U 6 7 : $ % G 0.r.t.+.0 J T R 7 8 * e r r j ( ^ U T / 0 / T / ( U ( G T J j j 8 8 O.r.p.a.8 # 8 * 8 1 6 0 * & 7 r 6 % r   ",
"  3 @ Q ) 7./ u.i.H | :.6 3 9 ) ~ E ) :.:.0._ ^ % * L j 0 l o.@.o.o.R R I [ [ T J 9 U b.t.+.r.( j j I.iXyX0 6 t : R ] j j ( R J a $ & & : t 0 0 j a a G V Y / e.y.U e. . .! / ~ !  .>. .:.9 %  .9.e. . .,.y.c.y.y.y.y.|.i.y y . . . e q r C ! q % # 9 :..XrXwX+X.X|.oX.Xn.n.y.y.n..Xn.c.9.9.e.y.9.c..X4X.X9 V bX.Xn. XoXdX4X2X8XM.M.M.M. X Xn.M.4XN.eXeXN.M.n.m.y.V  XN. X.Xn.v..X|.v.|.}.OXOXOX|.$X4.M B )._._.).-X).)./.D _.:X&X#X#XXXXXXX#X*X#XXXXX{.XX}.%X}.-.}.{.,.y.+X|.A Z ~ ~ a 8 5 t J r O r T T ( I [ ( [ O.H | O.0._ _ ^ _ ^ H H 7 _ r.7.0.0.( [ T J t u : 7 / r.0._ y % 7 * u 8.+.I 8.0.r.q.0.8 t   ",
"  3 % 7.w.w._ U T G 9.7.7 3 w :.;.:.;.! | 9.p._ # * T ( [ j j I R j i l i k ] t.@.0 I q.@.( / T T 0XkXJ.zX5X5 7 j R i i = i j t.d.8 . t : . . : 6 # e Q ) y. X X Xn.eXM.+X} } ;.,.e.,.n. Xa a n. Xc.n.y.y.y.e.y. X.X9.aX9.3 y.4Xy.0.n , . e .X^ P % V E } c.c.c.9.>.7./ Q 9 t t 7 t Q Q U H H Q  .:.:./ ^ L 9 m.w.9.y.i.n.n.n.u.N.y.n.M.n.m.M. X2Xy.4XM.n.m.u.n.y.V  Xy.c.y.+Xv.+X+X+X}.|.v.OXOX}.$X%XD F )._.).[.#X`.).).D _.:X&X#XXXXX&X#XXX].XX}.}.}.}.'.'.l.v.5.v.v.y.|.>.A Z -.&.e # u O.r.O.J X . . j [ @.[ u T +.+.| 7. .(  .) ^ H / t L / a H _ ` T ( ( I I 8 : 8.<X1X1X7 % 6 o i R R +.+.+.q.R T 7 7   ",
"  w @ 9.) ) _ _ 7.^ w.w.7 - t 9.9.:.9.0.:./ *.Q % $ j R j i j d.L.L.+.8 k R ] +.q.@.] @.k i j 8 8.GXK.K.L.0XL.: 8 @.j k ] ] L.0 r.r.J O.m..X.Xy.! y.y..Xc.|.|.|.n. X>.eX4X+X,.,.5.v.,.} .Xt V JXCXNXBXBXBXBXdXM.2XoX XrX<.. mXCXBXbXeXrX.X) . t ` u , W H  . ./ V 6 . . . y.n. X X .>.9.>.c. XeX.X.X:.7.0.7 H  X.X X.Xn..Xm.m.u.w.w.p.9.9.y.y.y.y.e.>.y.e.y.w.) 0.w y.:.>.>.9.y.y.,.>.,.5.,.2.,.4.l.l.{.'.'.`.).D 5.,.'.>X).-X>X].z.].#XXX#XXX].`.'.].'.}.XX'.'.{.4.v.y.{.y.<.4 A Z V 3 + 5 _ O.( @.+.+.s.+.o.o.R 0 T ( _ ^ / ! Q ` ^ _ _ i.r 7./ 7.| _ 0.[ ( [ I O.i t uX1Xw.1X7 % 7 O u o.+.+.R ( R [ I 5 3   ",
"  C X H :.:.7.r._ / w.r.- % V 9.| / Q :./ V W V 5 5 J J j j * j +.[ j R X.R R ( T u I t.] R t.j I VX9X9XlXlXL.[ q.d.@.s.@.[ xXj . J +. .n.wXrX|.c.}.,.>.y.c.|.~ @ < 9 :.eXaXy.y.v.}.vXvXmXZ Q LXNX7X<X3XdXNX4XoXOX+X}.}.$X5.q >.4XbXbXmXmXZX.X% . G V 9.O.0 t 6 . X 7 $ .XbXaX@X6XoXsXvX$XwXwXwX4X4XBXrX4X7 9.bXaXwXwXrXaXeXaXbX4XaXrXeXrX4XeXaXeXeXeXwXrX4X(.(.>.~ rX+X+X$X+XrX|.}.4.}.$X%X$X%X%X$X;X;X;X;X;X-X_.).XX{.'.D _.D D 6.1.3.'.].'.`.3.3.1.1.{.'.^.3.4.5.2.{.<.y.<.q V V q r % . t * I R +.t.@.+.o.I * O.o.( _ ^ K K E ^ ` 0./ _ G r ( U ` _ ^ ^ O.I 0 j : 7 *.i.i.(.e % P * [ 8.R J ( [ [ O.[ 7 #   ",
"  Z X H  .| w.e./ H  .7.$ % t L K ^ K K 3 7 5 6 t 7 J T k l 0 O.q.+.[ R R o.H a a ) i.M.2XfX2XM. XaXwXwXdXhXwXhXSXSXSXSXJXJXCXNXoXq . bXvXOX|.|.|.{.v.{.}..X+Xy.~ w . . K eX|.|.OX$XaX(.bXZ A bX|.|.|.v.{.{.(.}.|.}.}.|.{.+XeXy.t w e..Xy.y. Xq 3 9  .! r.T 0 % # r e @ oXbXwXwX+XsXZXbXaXwXaXbXaXn.tXi.i.V y.|.|.c.c.|.}.y.y.y.|.n. Xn.y.y.v.y.c.c.|.|..X|.y.rX,.>.+X|.|.$X}.}.}.}.OX%X%X%X$X#X%X%X#X#X].].].#X>X[.;X}.3.F _.:X;X$X#X%X#X#X#X#XXX*X*X$X{.{.4.4.4.5.5.{.y.~ C w q q V / : R U.i * 8 u j 8 J . . O.w.T L _ U H t w H V a 0 7 j e J ^ P P r G i i i i : 0 0.p.i.r.t % t o I q.o.o.[ [ o.[ J 1 $   ",
"  &.X t | / | | L 7.^ r # & 5 t r 7 - - t e t e 5 5 ( q.o.#.k s.@.+.o.X.R a Y oX+X|.wXeXwX+Xv.c.|.}.OXOXOX}.}.}.4.v.|.|.|.XXOXv.DXvX3 ZXOX,.v.v.{.{.OX}.$XaXvXvXaXrXy.;.- 9 9.y.}.v.y.<.2.! a |.}.OXOX%X%X$X%X}.}.}.%X%X{.5.OXwX.X|.v.OX|.|.y.~ % 3 V t j j % O t 7.) @ C bXsX$XsXZXJXJXbXaXeX4X.Xw.. 7 i.V rXy.c.|..X Xy.|.n.n.c..X.Xn. Xc.v.c.n.c.c.|.c.c.y.rX9.;.+X|.{.%X%X}.{.{.{.{.}.%X%X}.}.].}.%X%X].#X[.[.XXXXl.Z B ~.-X#X].#X[.[.`.`.].].].'.}.'.{.'.}.}.}.XX$XOXwX4X. , 9.7.w.j R +.R o.[ ] i 0 0 . O.u.w.7.) _ ` Q ! ) *.Q / ^ T L ^ 6 L O.O.T J J j i i 0 j T [ q.0.u * 8 o R s.o.+.@.+.o.[ I y 5   ",
"  ;.@ + 6 e G Q 7 6 e X # # & % % % 6 G r r ^ 0.% 0 +.@.R X.j +.R [ (  .U a } y.5.5.2.,.5.l.v.l.2.5.-.6.y.y.y.y.y.,.y.v.l.}.}.{.OX-.4 vXXX{.{.5.5.5.v.OX$XvXaX$XwXwXbXmXvXy.A a 5.OXOXy.y.2.4 vXOXOX%X$X$X%X%X4.%X%X'.^.'.4.4.{.}.{.}.XXXXOX$XvXq < 3 t r e 7 ^ 7.^ w. XC ~ $XOXv.+XeX5Xi.9.C 3 . G ) _ i.t .X.Xc.}.|..Xc.n.c.c..Xc.y.y.|.c.c.v.v.c.v.c.}.}.y.y.) C OXy.{.{.^.}.'.'.'.{.{.{.}.}.}.].].].].[.#X[.[.[.1.XX6.A F -X[.[.[.[.].[.`.`.`.`.3.`.'.`.`.3.4.4.4.4.2.c.rX~ @ :.u.| : U Y ....X.k j o . G w.| :.) Q ) Q :.9.0.) ) ^ L L Q t K ( | ( +.O.i 0 l i i i l k R I 0 j t O +.t.@.@.@.@.t.R q.G #   ",
"  <.@ # & X # % % # & # # # 1 5 , # % 3 5 a 7.( 6 0 ( #.X.] l o.8 j / H / C -.v.2.5.5.2.,.6.6.-.5.}.{.XXv.y.4.5.4.4.v.l.l.'.'.'.].).F }.}.4.l.l.5.4.2.4.}.OXOX}.wXvX$X$X$XvX$X}.-.$XvX{.%X4.4 vX%XXX}.}.{.{.'.'.'.'.'.}.%XOX}.%X{.{.3.{.{.}.{.wX;.< . . . . . t 8 ^ e 1X<XL + ~  .:.a X X 5 w.NXLXLXSXhX) r eX|.OX|.}.y.}.}.c.|.}.y.y.}.y.y.y.v.c.c.c.v.}.}.y.y.p.C +X5.{.{.{.4.{.{.'.^.{.}.'.}.].].'.].].].].].#X#X^.'.-.3.F ,X>X[.[.[.`.[.`.`.`.`.`.`.3.3.3.3.4.3.4.{.4.5.y.+X< 3 ;.K # ( R R R j R j o # r.` ) ! ~ ! ! ) ) w.^ H G H G G G t 9.U t j j j k k X.] h i j i 0 j j [ : * +.+.] X.@.@.t.+.+.T $   ",
"  <.% & $ $ # & & & # + # $ $ 6 5 $ 6 7 9 6 % 5 6 9 T o.+.o.| O.0 a | Y  .! } {.2.3.'.l.l.l.v.v.v.XXv.l.l.'.'.'.'.'.'.'.'.'.'.'.`.).D ].6.6.6.6.'.'.} 2 {.%X%X{.%X$X%X}.{.'.3.}.#X$X#X6.{.{.@ $Xl.'.#X}.%X#X}.].].'.}.}.}.}.#X#X3.3.3.{.4.'.%X$XA 4 ,.y..X.X+X.Xy.n.y.w 0./ O.U G q @ e 9.7.u.zXZXBXSXPXNXY JXc.|.c.y.}.|.}.}.y.y.y.y.y.y.y.y.y.y.y.y.|.y.y.y.y.y.C .Xy.y.(.y.{.}.4.4.{.}.}.{.'.'.].].].].].`.].[.].`.1.Z F F -X[.`.[.[.[.].`.`.].].].`.3.3.3.3.3.3.3.4.4.4.5.y.$ Q i./ e J j k R ] @.0 % # p.Q ! ~ ~ ~ ! ) ^ q % G L I j j 6 ^ L a V r j h j h > j i 8 : 7 : : : t 0 0 t 8 = > : : = : 8 : 3   ",
"  <.C 3 % . . . & # X X # 7 6 7 % 5 7 7 7 5 + . . % - X & 9 t e a U 9 ! :.>.} {.4.'.'.{.{.{.{.l.{.l.l.l.'.].].'.].].}.].XXXX}.1.[._.).;X$X#X#X$X$X}.} 4 2 '.%X{.}.{.'.}.].].'.`.`.`.].3.3.'.2 $X'.'.%X}.#X%X%X#X#X'.].'.'.}.}.}.3.3.3.1.'.%X}.$X2 6.vXnXvXvXvXvXvXvXmXmXe.e i.8.t a e.M.c.,.Y C a | dXu.NX3 .X|.v.5.y.y.c.y.c.y.}.}.y.y.y.n.c..X.Xn.y..X.Xy.y.y.>.C (.y.y.{.{.}.(.y.{.}.{.2.4.{.{.}.].].`.].`.`.`./.1.#X[.`.S -X[.`.[.`.[.].`.`.`.`.`.`.`.`.3.4.3.3.3.3.5.4.(.y.@ V i.9.r T R j j j : X * # 0.K E E Q ~ ~ :._ Q ` ` G t P r.^ W _ / +.T 0 j s s 0 > . . . o * : 7 t 7 O : +.R I ] o.] q.r.( #   ",
"  <.w e u P P G t e 8 5 $ 5 % j ( H 5 9 t a H U a r 9 / u.M.N. .w.n.Y C ! ! C OX%X{.{.}.}.}.'.'.'.'.'.'.'.}.}.'.}.}.'.].}.XX'.1.-X_._.#X#X].].'.}.'.XX'.2 4 2.$X%X#X$X}.].[.].`./.`.`.`.`.'.B #X'.].].}.%X#X#X#X].].}.%X%X].'.'.'.'.'.'.{.}.%X;XB }.%X{.3.'.'.3.}.{.$XMX! @ - 3 9 H ,.y.e.v.,.,.,.;.w >..Xw }.}.{.|.c.y.|..X+X.X}.|.|.|.>..X.X.Xy.y.y.(.y.y.y.p.>.w |.y.}.}.y.(.(.{.(.{.l.l.{.l.l.'.`.].].]./.`.`.`.`.`./.[._.>X].].[.].].].`.`.`.`.`.`.'.'.'.'.3.3.3.4.5.4.(.m @ H Q ^ H T q.+.R j 8 : 7 # 0.i.9.! ~ ! ! ! ~ ) ) ) _ :.0.9.Q :.0.r.o.k $.t.#.#.X.R o.[ j 6 . . o O O X d.qXs.s.s.J.t.@.d.L #   ",
"  Z % X 8 J L L L ` ^ J _ 5 - | +.r.7.^ 7.9.w.u.7.7.H w.M.N.e.e.,.,.;.C A ;.A y.{.}.}.}.}.}.}.}.'.`.].`.'.XX}.'.'.1.3.'.1.l.'.3.-X_.).`.1.1.z.1.3.`.XX;X'.2 2 '.#X$X$X].].`.`.`.`.`.`.].%X*XZ ;X].].`./.`.].].#X%X#X#X#X].].%X#X].].'.l.'.}.%X}.B 5.{.}.%X%X%X#X}.{.$X}.|.eXy.< 6 9 < } y.>.;.>.v.4.>.}.+Xy.y.wXy..Xy.>.y.y.y.|.}.}.|. X.Xn.|.y.y.y.y.|.|.y.y.(.p.m +X(.}.{.(.y.(.^.(.{.4.{.2.A 2.{.'.].`.`./././.`././.`.`.F MX`.].`.].].`.`.`.`.`.'.'.'.'.'.'.3.3.3.4.4.5.(.3 H t.x.k.%.x h k l h . = X.j X i.i.:.) ~ ! Q Q Q E W W W E V W *.` J = +.@.L.x.t.o.X.t.L.L.q.J * o % % o ( r.o.@.] ] ( J L 6 &   ",
"  @ + O.P.I.I.I.L.P.L.qXqX: - T s | e.7.#.e.e.e.x.b.a e.e. . .,. .! <.A A c.-.-.{.{.l.'.'.'.}.XX].`.`.`.}.].D B M B A B Z `.z.6.)._.).[.3.1.z.3.`.`.`.].].6.-.Z 6.;X#X#X].3.1.1.3.`.].].`.;XD ;X#X[.].`.1.1.].[.#X#X#X#X`.].#X].].#X`.1.}.^.].^.2 6.{.#X$X}.}.%X%XOX%XOXMXmXZXbX3 Q :.$ y.t ) wXOXv.y.y. X9.| BXy.~ A ! ! &.;.;.5.,.y..Xy.y.y..Xy.c.y.c..Xy.y.y.p.m .Xy.(.4.y.y.5.5.2.4.5.4.4.Z -.#X'.^./././././././././.&XA ;X]./.`.`.`.`.`.`.`.`.`.`.l.3.3.4.3.4.4.5.5.4..XC j %.k.k.h.h.F.k.v v v U.J.x ; T 9.Q E Q Q Q W W E E E E L C K L J % [ @.i X.+.+.X.o.+.q.q.o.j 0 7 * 7 . ( t.+.+.+.[ O.J I 8 $   ",
"  + 9 b.L.I.R.I.U.I.U.I.q.7 : R x.P.b.| t.b.b.w.7XdXa >.,.>.;.>.5.5.4.<.A ~ -.A 4.3.l.}.'.'.'.'.].z.z.l.l.l.z.1.1.1.1.D Z 6.1.1.[._.).>X].#X[.[.#X#X&X&X#X&X;X;X&X;X;X;X[.1.1.1.`.].[.].1./.A ].].[.`.`.[.[.`.].[.[.#X#X#X#X].].].].].].}.%X].'.< {.#X;X%X%X%X{.}.OXMXDXsX+XvXbXy.@ *.Q 5 _ uXeX.X.X Xu.1Xt Q 4X/ m.y.|..X|.v.c.,.,.} ! y.y.,.y.c.y.c..Xy.c.c.c.y.V c.y.,.4.5.4.y.4.4.4.2.4.6.5.4.4.'.`.3./././.3./././.`./.D #X/.`.].`.].[.].].].`.`.3.3.3.3.3.3.4.4.5.2.c.C r 9 0 k x l l l x %.f x J.f X.: X K Q Q ! ~ Q E E L K C L L J ^ L ^ r 7 O i 8 : : 8 0 8 8 8 8 = 8 . . = X o.t.[ [ +.O.[ R j 8 *   ",
"  @ w U T +.$.J.J.U.U.U.I.I 0 +.R q.+.|  .:.| / / a V V C V C Z } -.} } w A Z Z -.4.2.3.'.'.z.1.1.D 1.z.`.`.1.[.`.[.[.`.].`.`.1.>X_.).#X#X].[.[.[.#X#X#X].].].].].].[.].`.].].`.`.`.1.`./.`.B `.`.1.`.].[.[.`.`.].].#X[.[.[.[.].].[.].].1.3.'.3.2 $X^.$X;X$X4.{.y.v.vXsX{..X+Xy..Xy.@ Q 7.# m.<X X4X4X:.Q 7 . . 4XdXeX.XwX Xc.c.,.y.y.v.wX Xy.y.,.9.,.y.y.,.>.>.U w n.y.y.y.y.,.y.v.{.y.5.2.-.5.2.2.-.-.Z Z D D D -.6.D 6.4 A '.1././.`.`.`.`.`.`.'.'.3.3.3.3.3.4.4.4.4.{.+X@ + 7 s k $.X.k l k f f x f x l l $ # p.` ) Q U L K K C V H t : 7 0 j t 0 O : : : : O : 8 0 0 0 j ( [ u o X t.+.O.+.O.( T h : i *   ",
"  % a a T / +.t.J.U.U.I.L.G 6 7.( 6 5 U |  . .w.w.9.9 - @ X K ;.;.>.2.;.,.} w Z -.6.-.-.-.6./.[.).).)._.).).).[.).).).[.>X-X).).)._._.-X).).).).).).).).).).).).).).)./.1.1.1.D D 1.1.D 6.1.B 6.1.1.`.[.`.3.`.1.1.1.1.`.].].`.`.].].`.`.z.].'.3.4 2.$X%X$X%X3.{.'.4.}.%X}.OXOXOXy.$X|.Z 3 ~ ~ .X.Xy.;.C + @ V ;.>.} e.y.y.<.>.>.>.,.y.y.,.y.9.>.;.>.>.>.y.>.! V V 9 9.,.>.y.y.>.! Z C ! ;.2.5.4.2.5.4.5.<.-.-.-.-.-.-.Z Z 4 A 3.1.6.6.6.6.6.6.-.6.2.-.-.-.-.-.<.4.y.5.p.y.m 3 e 7 k k.%.x v k.h.v v b c v x k O % i.^ H j j j L t 0 j s j L r r / 7.` 7.7.7.7.:./ ) / U /  .>.7.O.0 * o 8.+.+.( / / T ( I 8 8   ",
"  3 ` G G R q.+.+.$.x.b.O.e 6 U / U 9 e.K.P.9XdXeXn. .w / Y Y } ;.y.+XaXvX$X4 6.{.}.#X#X#X;X&X#X&X#X#X#X&X&X;X;X;X;X#X#X[.#X#X1.F _._._.).-X-X>X[.>X-X-X-X-X-X-X-X-X-X>X#X].`.1.1.`.`.6.1.F B 3.].].[.].].[.].#X#X`.].].`./.6.1./.3.'.}.}.'.6.6.m A {.{.%X}.{.^.^.^.{.%X}.}.}.{.}.}.}.v.-.,.|.}.OX+X.XOX>.@ +XwXy.c.|.wXOX}.|.}.c.y.n.c.n.c.y.y.y.c.y.|.|.|.y.>.) w y.y.y..XrX|.9.>.;.,.y.y.OX$XOXOXOX%X}.$X$X$XXX#X%X}.%X4 6.$X$XXX}.|.OX$X$XXX4.} Z <.2.5.2.5.y.y.y.>.>.! 9 t $ ( #.$.%.v F.F.F.x v %.v k 0 * # L e % e j r r t : 5 #  X.X9.>.>.>.>.y.y.9.,.,.>.>.,.>.} >./ Y L % % . R o.j ( O.o.O.8.J i 8   ",
"  + 3 Q j J ( r.( O.7.| 9 e V :.0.) :. ./ e.8.O.w.| 9.! ,.,.;.} 4 c.$XMXMX}.4 -.{.'.'.`.].`.z.1.1.z.1.#XXXXX].].].z.z.].z.D 1.`.S _._.~.).`.1.].[.[.[.].[.[.].[.[.[.[.[.[.[.#X#X#X[.].[.#X6.4 #X#X#X#X#X#X#X#X[.`.].].].].].].].].`.#X;X$X$X$X*X4 4 $X#X$X%X}.%X}.^.'.%X%X{.{.{.{.{.{.y.v.4.5.4.4.4.4.}.-.4 5.5.-.4.5.2.2.2.3.2.2.5.5.>.<.<.<.2.5.2.5.y.{.y.>.9.! H c.y.|.9.y.y.>.;.>.>.>.>.-.2.-.-.-.6.-.2.,.6.2.'.{.2.l.4 6.1.1.1.1.3.3.3.1.3.3.2.2.5.4.4.5.5.5.y.;.;.,.n.L e # 5 I j j h h z > z v v l i : # * X 6 ( r.r.O.O.+./ . . n.,.,.y.,.;.;.! ~  .} }  .>.>.| >.>./ / / 8 * X R @.R +.[ I R I * J 8   ",
"  , t ` T ^ L 0.i.0._ t , t V E y.E y.w. .w.| G L V E ! ! } } 5.+XDXmXaXmXvXA -.OX%X4.3.z.`.z.`.z.].].l.].].].].].].].].[./.1.D S ~.S S S S D [.[.].[.`.1.1.1.3.`.`.`.`.`.].#X].].[.[.[.#X/.4 ].[.[.[.[.[.[.`./.`.`.`.`.`.`.].].].`.].].`.].].#XB B nX$X#X#X%X%X%X{.4.}.OX}.{.{.{.{.y.{.4.5.5.2.5.y.5.y.5.A OX4.4.2.5.4.2.3.1.1.1.5.2.2.2.2.2.<.2.2.2.5.5.v.5.y.) Q y.9.>.! ! C ,.>.;.;.} -.2.-.>.} -.2.5.6.-.6.6.6.'.2.5.4 3.'.3.1.3.3.3.3.3.2.2.3.5.5.6.2.2.2.2.2.-.-.! ~ E ` + . . = k k %.g.c v v z i . . + . . _ r.7.e.e.+.t.P.0 a n.e.>.,.>.>.>. .} } / } >.>.;.>. . . ./ ^ e # o I @.] [ R I j 0 8 u 8   ",
"  w w Q W _ T w.i.i.p.1 X 5 m m *.K K ^  .m.K.e.9.! ;.-.~ -.} |.mXZX6X|.}.{.A 5.$X}.3.6.z.1.1.z.z.z.l.z.z.z.z.z.z.`.].`.`.[.-X[.S S XXB.B.D D ).>X>X[./.1.1.1.3.`.1.1.1.1.z.`.`.].[.[.[.].].M ].#X[.[.#X#X`././././././././.`.`.`.`.^.^.^.`.'.'.&.M vX%X#XXX}.'.'.4.4.4.l.{.{.{.{.{.{.'.4.3.2.2.2.4.2.^.>.A y.4.4.2.2.3.2.3.1.6.-.2.5.,.2.2.2.2.2.2.2.5.y.y.9.p.Q L 9.y.9.:. . .! ;.<.<.;.~ ! }.aXOX5.A -.2.-.5.2.2.2.2.^.A Z 3.3.3.2.2.2.2.2.2.2.2.6.6.6.6.-.6.2.-.-.<.~ Q Q H s %.F.F.F.c Z.Z.A.c c c %.k d l X.X.h I 9 / L.+.#.@.J 7.>.}  .>.>.;. . . .;.;.;. . .} ;. .>.9.:._ 7 o o t [ u 8 u u 0 I u u *   ",
"  m 3 ! ` ^ e w.i.p.0.7 & 3 ! q ~ C 7 O.8.T / | 9.;.} -.} } ;.-.-.6.&.-.6.-.A 5.OXv.2.6.1.6.3.`.z.z.3.3.z.3.1.1.1.1.1.`.z.[.>X&X} Z B.B.V.mX4 B D /.1.D D 1.6.1.D D D 6.1.6.1.3.`.[.].`.`.].4 3.].`.`./.`.`././.`./././././././.1.3.3././././.'.-.4 $X'.{.'.l.4.'.'.'.4.3.4.{.{.4.4.'.4.3.3.3.2.2.2.3.'.4 @ A {.{.3.3.1.2.3.1.D 6.3.4.-.2.2.5.2.5.2.2.2.5.,.y.9.L C y.y.9.;.!  .~ Z ~ ! C C |..XwXv.2.5.a A 4.4.5.5.4 6.^.A A 5.6.2.2.2.2.2.2.2.2.2.2.2.<.<.<.<.<.-.<.Z ;.y.H R k.F.F.Z.g c A.A.Z.Z.Z.h.b v x v X.%.v v v k : 0 = = . e y.>.;.>. .}  . .>.>. . . . .}  .~  . ./ ` J # # 7 o . o o o 8 R 8 u =   ",
"  A 3 Q ) *.t w.r.r.i.e + % w E *.q a e.u.7.| :.9.;.} -.-.-.-.-.-.6.6.6.5.<.a y.5.,.l.{.l.l.l.l.1.3.6.6.3.3.6.3.z.1.6.z.z.B.Y.Y.Y.x s V.9 ..x.B.B.s Z Z 6.1./.1.A D 1.`.3.1.6.6.1.1.`.`.].].4 ^.].`.`.`./.`././././.`.`././.3.3.1.1.1.3./.^.^.^.%X4 $X'.'.3.'.'.{.{.'.4.2.'.{.4.2.2.3.3.1.3.3.3.3.2.3.3.-.4 Z {.^.3.3.3.3.3.3.1.1.^.2.<.<.5.2.2.2.2.4.5.5.,.,.y.Y V M.>.>.) 0.;.E C a 3 V y..XoXy.y.y.>.;.Z ~ ! -.-.Z -.2.Z A y.-.2.2.2.2.2.6.6.6.6.<.<.<.<.<.<.<.<.<.Z m Y a %.v c c c Z.Z.h.A.Z.c c c c c b v Z.c c Z.F.F.z o O # : j y. . .;. .} ;.} ;. .;. .! ~ ~ } }  .H H L e # o u * 8 8 = o 8 u y 8 *   ",
"  A 3 *.) *.t w.u.t.u.r & @ n .Xi.K w  .7.e.7.7.9.>.} -.-.-.-.-.6.2.5.5.5.>.w ,.5.5.v.5.5.v.}.l.2.5.l.2.Z 6.3.'.-.} -...P.G.G.G.T.Y.G.T.G.V.V.Y.Y.B.s A l.'.^.1.6.'.#X`.1.1.6.6.D 6.1.3.`.'.4 6.'.^.^./././././.3./.^.^.'.`.^.^././.^.^.^.^.^.^.%X2 {.'.'.3.'.{.{.'.4.3.3.3.2.6.2.6.2.1.1.1.3.3./.3.3.3.6.4 -.4.3.1.1.3.3.1.1.1.1.3.2.2.2.<.2.5.5.,.,.,.y.y.w.i.Q Y 9./ U V :.9.>./ e - >.rX.Xy.c.v.y.>.|.C w ;.~ ~ >.Z 4.-.m {.5.4.2.6.2.2.6.6.-.<.<.>.<.<.<.<.<.>.&.C C Q s x c h.h.c h.A.A.A.A.A.A.Z.F.F.G.A.A.c g g g c %.= . . $ 9 X C  .! Y ~ Q  . ./ Y Y Y Y C Y H C H U r o . . * 7 * = * i u 8 u 0 8   ",
"  A q *.Q ) t i.b.u.t.a # # w ) V V ! H y.:.7.w.e.;.} } ;.-.-.-.-.<.2.2.<.>.w ,.y.4.4.,.} ,.,.l.l.v.5.4.5.} 4.|.v.v.P.Y.h.H.E.H.G.W.W.h.h.V.h.V.h.G.Y.#.s -.Z -.6.^.1.D 6.6.-.6.Z -.6.1.^.{.4 5.'.'.^.3.3.3.3.3.^.^.^.^.3.3.3.3.^.3.3.^.^.^.^.^.3.4 Z {.}.4.^.{.'.'.3.1.3.2.1.1.1.1.1.1.1.^.'.'.^.^./.3.1.A 2.^.3.1.1.1./.3.1.6.6.1.1.2.2.2.y.5.~ V @ 0 ( ( U L 9 w ^ | H 9 V Y  . .X a .X.X!  .>. .;.} w < w ;.w A OX>.2.>.m y.<.-.<.6.6.-.-.-.-.>.>.>.>.-.-.-.>.>.;.m ~ >.#.k.F.A.A.h.c g c A.A.Z.Z.Z.A.S.G.A.g Z.g F.Z.v c F.X.> j O . . K / / Y a a Y H a a a a C C a Y Y a a t 9 : j j i : i 8 i j 8 8 1   ",
"  m q ^ K W K u.b.t.O.6 + % , + a Y >.C < 9.e.8.e. .! } } -.-.-.-.-.>.-.>.-.4 ,.4.}.v.v.5.,.} } >.5.,.4.,.-.|.v.v.v.M.k.v k.Y.W.Y.T.T.G.x h.h.h.h.G.G.Y.9 a y.&.-.&.Z -.-.-.-.D -.&.Z '.4.5.A -.3.2.3.1.3.2.2.2.^.^.^.3.3.3.3.3.3.3.3.3.3.3.3.3.^.A 2 y.2.5.4.4.4.2.2.1.3.1.1.1.1.1.1.1.3.`.'.`./././.1.6.4 6.3.1.1.1.1./.3.1.6.6.6.6.6.6.<.<.w . 5 5 U R 8 o o O $ / U V a V U / / 9.:..Xy.~ ! ;. .C w C ;.;.A C w ,.! -.-.4 4.-.-.-.-.<.>.-.-.-.>.>.-.>.-.-.-.-.;.~ Z Q w.x.v F.Z.A.A.c b g j.A.Z.g c A.Z.S.A.c g c Z.c H.F.Z.F.k : ; J U % ^ | 7.Y  . .Y Y Y Y Y U } U .. . .Y Y U s 0 I R R i O 8 j 0 8 *   ",
"  q , q w 3 e G J T G 6 # , 1 7 H  .| Y K a  .7. . .} ;.;.;.-.-.-.} ,.,.y.,.3 >.v.5.l.v.B.,.Y ,.,.>.,.,.,.c.v.,.,.} ,.B...x %.%.%.k.k.F.k.k.V.h.G.G.g k...3 Q 3 A ~ -.-.-.-.-.-.2.2.-.-.2.y.4 -.4.2.2.1.2.3.3.3.3.3.3.3.4.3.3.3.3.3.3.3.3.3.5.^.(.Z A <.A <.4.5.4.4.^.^.3.3.3.1.1.1.1.3.`./.3.1.1.1.3.3.1.B 1./.1.1.1.1./.^.3.1.6.6.6.6.2.<.4 @ $ e j t 8 8 0 0 : # . 5 H | / a Y 7.7. .:.;.~ E ! ;.>.>.y.>.y.} y.y.4 ;.;.&.w >.-.-.-.-.>.>.>.>.>.>.>.>.;.>.-.-.-.;.>.~ Q _ : = F.A.A.A.g Z.A.A.A.A.g Z.Z.c g c c v g c Z.A.Z.c c x h s / | # X T /  . .U U  .>./  .C H Y }  .7. .Y U 0 7 : 8 8 : : 0 [ j [ *   ",
"  , E ) | H V V t q 6 & , 1 , , H w.7.U w.) a e./ 7.>.,.,.,.>.>.>.>.,.,.y.;.3  .,.,.v.y.e.>.c.e.|.~ e.oXe.e.,.v.B.B.,.} s s v.k.x x v x k.%.v h.k.x x x s j - 4 -.<.-.-.-.-.2.5.2.-.-.A A 2.w ,.5.2.2.2.2.4.^.4.3.3.2.2.4.4.3.3.2.2.2.2.4.3.5.(.(.&.~ 5.A A &.-.2.4.'.^.3.'.1.3.3.l.`.z.3.1.1.1.1.1.1.1.`.~.`.`.1.1.1.1.1././.1.1.1.1.1.3.<.4 < 3 9 t - 8 i i i j 0 8 G | m.:.9 :.) H U / ) V Y )  .>.;. .;.! ~ >.! Z C ;.;.w <.-.-.-.-.-.-.;.>.-.;.;.;.;.;.;.;.>.;.E K 6 . O $.F.F.h.h.Z.A.A.A.A.A.g Z.g c c c b b g g g g b f = 0 : 0 % . . 9 9 7 Y a H /  .^ J U J U U ^ / O.|  .j : 0 ( k 0 l R j j 0 J *   ",
"  @ 4XtXm.i.K.K.r.:.^ *., # , # X $ 6 e 3 t . e t t t V t 9 w e C H Y V V V 3 Q ! } } } u.u.>.Y y.n.e.e.#.j C ! E >. .a ,.Y #.k.k.V.x f x x l k.x d l s #.x.e 3  .y./ C } -.2.5.2.>.-.! >.;.q ;.<.2.<.-.<.-.-.<.2.5.5.4.4.y.4.4.5.4.4.4.(.(.4.2.y.m C ,.A A ~ &.Z Z 6.3.3.'.'.'.'.'.`.`.`././.1.1.1.D 1.).~.D 3.1././.1.6.6.&.&.D D D D -.-.w q 3 # w : : j j j j j j T T J j H / / U ! ) K K ) :. ./ ! Y Y Y Q ! ! C w C m w ;.&.! ~ ~ ~ ~ ~ ~ ! ! ~ ~ ! ~ ! ! Q @ 9 l J.v v Z.h.Z.v Z.h.h.h.Z.g c v c v v l k h h t.$.t.U.t.+.o . # X & j j j Y j j U U / | O.^ T r r t t 0 5 t 9 & . 0 j 0 h j i 8 : * o #   ",
"  @ .X4X0.w.| 8.i.m.i.1X` # # + L G 6 5 K E ) ' n V V V L *. X5X X4Xu.w.y.9.3 y.y.c..X5X<Xn.3  .b.b.e.u.7.e.} >.+X(.,.y.>.>...X.x.k.d s s h ..x.j : Y X.X.l 0 Q H 9.a 9 V q w t w w C C E t w w q C Q C w C C ~ >.,.,.2.;.;.>.-.>.>.>.-.<.<.>.Z w < @ q q C &.-.Z Z -.-.-.<.5.2.1.6.6.6.1.6.1.1.6.D D ~._._.~.).D Z 6.1.D Z &.B A Z D D -.-.Z -.V q 9 5 r 7 0 I J 0 8 * : 6 j ( H ^ ^ ^ K Q ` Q L ^ G e t r V V n V w n 7 3 3 w q q w C C C C C C C C C C n m r - I x.k.G.c c c f b b b g g v v x.%.h J 5XyX5Xm.r.u.uXuX1XNXK.L.( [ u t.O I o.+.q.8.+.+.| | ( R k R ( o.T I J j r 8 5 # 7 $ : : 7 * 5 1 6 # #   ",
"  + w p.U t 5 | <Xi.uXr._ + + # i.i.0.:.i..X.Xy.y.e.t 9.y.y.n.M.N.N.n.c.y.>.9 w.y.y.y.>.>.) >.>. .~ oXe.>.,.,.;.5.{.2.5.{..Xj 0 j s s > : j j 7 7 7 7 9 O t t j V . 7 9.w.y.p.9.:.~ 9 . G # 7 i.w.:./ :.u.u.w.9.9.y..X.X9.! ~ ! ! ! Q Q V E n n 3 q V ! C ~ 9.}.|.|.$XOX5.Z Z -.-.5.^.^.4.^.4.6.Z F )._._.~.S _.D D -.-.6.6.6.6.6.-.-.-.-.-.-.~ E Y 9 - 0 0 h : # * * 7 j 0 j J G j G L H J L ^ G r G e V V C C K E C E G G # n K ~ E V C ~ >.>.>.;.! ) ! *.G 6 : P.U.U.F.h.v v x v b x v h k $.t./ Q *.0.Q /  .| | *.^ V Q ) | 0.O.6 G J j j j Y T R Y T U H G H T ( | / ( _ ( L ^ G & t P G u j J P G r & X   ",
"  @ K E 9 V n K 9.) :.) *.+ + C :.y.:.9.9.y.,.,.;./ 9.y.y.e.,.e.e.e.N.N.w. .3 e.y.y.>.>.,.y.,.y.,.,.>.>.-.-.-.2.-.2.y.>.e./ . t R : d > > s > %.U.k.$.$.I . . X 5 - H i.>.y.>.>.9.>.,. .9 3 9 0.) Q C Q  .;.;.;.) ;.~ ;.:.;.>.>.>.>.>.9.9.! ! ~ # V >.<.2.<.>.<.-.-.&.-.-.Z -.6.2.^.}.}.{.{.3.6.2.3.6.6.)._.S D 6.1.1.6.6.6.6.6.D D D D -.-.C V r U 7 h %.k.k.v x l 0 : 8 % . % t 5 G G J r L G K :.C e K Q Q ~ ! ! } ;.) :.6 Q ;.>.:.) E ! ! &.~ E E C r.5 y + . # 0 @.U.J.l x v x v l O O 5 9.Q ) ! :./ ) _ :.a.0.p.w.i.:.:.) ` ` + G / O.+.( | O.O.| | :.| / ^ Q K U U ^ U / ^ L G X G u t J I I I P r & X   ",
"  # r :.;.~ ! ;.p.q 9.9.W # + ) :.) ! >.:.>.>.>.) 7.i.w.u.e.,.>.>.,.,.,.>./ 3 9.>.>.,.>.>.>.>.;.>.} ! ! ~ ,.y.>.p.;.n w.X : e.e...> > > h l v F.h.F.v $.J.%.l J a 7 . C >.>.! } ;.! i.y.K 3 3 .X9.:.:.) ! ;.;. .) ;.;.;. . .>.>.>.>.>.;.;.*.! ~ 3 C &.2.<.-.<.2.<.2.5.4.2.2.6.6.-.D 6.1.6.6.Z B 1.2.1.1.6.F F l.-.6.1.2.6.-.&.Z 6.6.&.&.-.~ K 7.j h l %.F.A.h.A.Z.v v %.l 0 X.l 0 h j 8.( L e 5 K C V W C C E ~ ~ ! ! ) E ! V C >.p.<.>.;.C w Y d v v k.k.v b v %.%.h h ] $.l z x f = : o X - w.9.7.| :.;.:.) *.) ) *.p.0.Q :.:./ Q 3 K *.y.:.^ L Q ` _ ) | | ) U Q Q U Y K K L L G N X P J r G P P J r u # X   ",
"  @ . Q E E ;.>.y.:.i.p.r # % ;.>.~ ;.;.;.>.>.:.:.) w t V | ;.} } >.-.>.>.~ 7 >.-.-.>.;.9.>.,.>.9.y.y.! ;.>.y.>.! w.W . # e.#.#.k > d h > x h.F.G.h.F.g c v x R ( | | . :.>.;.!  .) y. X X# 6 p.:.;.:.;.) ) ~  . .;.;.>. ./  .:.:.>.>.>.;.;.&.<.3 >.y.<.4.&.&.<.4.5.-.2.2.6.6.6.6.-.1.-.6.6.B B Z 2.{.{.{.M 4 -.A B A A A A A w w m C ~ C ) 7.....J.F.F.A.G.S.Z.A.Z.Z.F.v v F.v f k @.@.o.t % r W *.*.Q C C K C C C n V C Q ! 3 >.>.*.:.a #.k.F.h.h.A.A.A.S.A.A.A.A.F.F.c v h > X.+.( ( N P L _ | )  .:.0._ ) ) Q ) ^ Q K Q ` ^ K Q 9 ) <.p.<.*.*.K W Q ` _ ` P K K E K C C E C r G y # _ ^ L G G j u y e $ +   ",
"  @ @ :.! ~ ;.! ) ) ) *.5 # q *.C ~ ! ! ! ;.>.:.:.w @ % 6 _ | ! ~ ;.} !  .Q - y.,.-.;.>.y.! ;.9.>.>.;.;.;.;.;.9.>.p.y.Q 3 K.T #.k > l k > h x v T.G.F.F.f f h h > qXlXI : T G H H K  .:.Q , K 9.*.) ) ) ) ! !  .)  .;.:.9.| / ) ! ;.>.>.*.&.~ *.< ! <.&.<.2.>.~ -.-.&.Z -.6.6.6.6.6.6.-.-.-.B A 2.5.-.<.-.s s  .k...x ....x l x x %.x %.l k ..h v F.H.G.h.A.S.A.A.A.h.A.A.A.g Z.c v b k : . . t L ) W n C E Q Q E E E E ! K K , *.C y X $.T.G.S.h.b g c h.Z.h.j.g b c b A.A.v f h r.9.*.*.0.0.0.*.*.:.*.*.) ) ) Q Q ) / ) ` ) Q Q ` t V C *.p..X1Xy.a t ^ ` ^ P G r G n n E K t n G % % _ U P G u u j u r 1 X   ",
"  + @ :.E C ! ! C Q E Q # # w >.! ~ ! ~ Q ! / / / Y w 7 t 7 H | )  . .! ! C - n.y.y.>.>.>.;.;.>.! ;.>.,.,.;.;.,.>.! >.y.:.n.+.r.k > h h > 0 > l %.%.> > > h > : h t.R k s.: X . . . X . . 5 ) 0.:.:.*.*.) ) ) ! ~ ~ ! >._ T _ :.:.! E *.;.&.E ! @ ) ;.>.2.>.>.<.-.&.&.-.-.-.6.2.6.-.6.6.-.6.6.B -.Z Z A 2 4 ..k.v V.V.V.V.V.h.h.k.k.h.k.k.k.l $.F.G.H.G.Z.h.A.A.A.A.S.A.S.S.S.S.A.c c c b > 0 . # 7 6 q n E W ! E W W V K K G n 7 X # R k.h.H.h.x f v v b c b c g c c c j.g c b O 0.*.*.:.:.0.0.0.:.) *.:.) Q ` Q Q Q ) ) _ _ ) ^ ) 3 n K ~ ;.p.9.) U J G J L L K P K n r V W L r P X # L H r G P G J N r 5 X   ",
"  + # V E C E ! E ~ W ` & # n y.) ! E ! Y Y U / Y  .Q / j . . $ t :.>. .) C 9 n.,.y.9.:.:.>.;.! ;.>.>.>.>.! ;.;.;.;.! :.;.| O.#.l d f f h ; > l X.l > k h h R % u 0 * 0 u u j j I R j I L 6 W :.:.>.9.:.;.) ) ) H Q :.) U U K H Y V ! ) ) ) :.i.3 y.>.p.<.-.&.<.&.Z Z -.-.-.-.<.<.2.2.6.-.2.5.Z @ 2 w w 9 x.k.x v h.h.h.g h.h.h.g g h.F.F.F.v v F.h.F.G.G.Z.h.c c g Z.A.A.A.S.S.S.A.A.A.c Z.F.v l k 0 % 7 n w V V V n e r r r 6 a o.] k x x v v f l x x x b c g j.h.b j.g b g b > i.) ;.:.:.*.:.*.) ) ) ) ) ) ) ) ) ^ ) Q ) ^ ) ) ^ w w E ! W *.:.) Q ^ G ` L G G P G G W L L G G P # 8 L V G n r t N e t 5 .   ",
"  @ # ^ Q E ~ ! ) *._ _ + & t p.G Q Q ! V a 9.:.!  .7.w.w.U X . 6 u. .Q ! w w y.>.>.>.:.:.>.! ;.9.>.>.:.>.;.>.! } >.;.} a / Y ..k > f f f h > ; 0 0 > 0 : : X.: . o o . j R X.X.@.@.o.O.0., n 0.) :.0.:.) ) Q L C K C L K U Q Q H e V Q y.) ) 1X3 i.>.<.>.-.&.&.Z Z &.-.>.~ Z >.5.-.-.-.-.-.-.<.4 3 C C s ..x x v x x v v v h.k.k.v v v v x l d x v h.F.Z.c c c h.g c g Z.c A.A.S.j.A.A.Z.Z.A.A.Z.F.v l f f k > : t 6 j j % 6 | O.o.k f f > . . . = ; ; l > x b b c h.g b b c F.0 +.:.) ) :.) *.) ~ ! ! ! Q ) *.*.*.Q ^ ! ^ ) ) Q ! w t ~ E E ! ^ ^ ^ r r K K V V V V G H K L e e % o 8 L L t t G P P G G 7 X   ",
"  + + G Q ~ Y :.:.E ) 0.X + 5 ` K Q Y Q Q @ u.| _ w.0._ G 9 7 a Q ! ! E Q $ 9 >.~ ! >.;.;.;.! ;.;.;.;.>.;.;.;.;. .! } E K ..| ..X.d x x f l h k > O O * T 9 I h j +.t.#.$.h > h h k X.l L 7 G :.Q ) _ Q ) ) ! E E V V L Q ) ) Q r r C K V Q ^ :.3 ) ! ! ;.&.&.&.~ ~ &.-.>.-.~ &.&.~ -.-.-.-.-.<.~ 3 . 3 Y ..Y k k l a 9 R l d s k l k %.v F.F.G.G.c Z.F.h.Z.c c c h.b c F.G.Z.F.c c c c c Z.A.c Z.g b f b v c x h = i I r 0 a j 0 ..#.$.#.#.l X.$.x.k.J.J.x O > . ; l l > f g.v = L :.! ! *.*.) ) ) Q Q ! ) ) Q Q *.^ Q Q Q ! Q E Q n w p.*.W K E r % t 0.` r G V G G V L V 7 5 X . . 8 G ^ u r e L J r r 6 X   ",
"  @ @ L ~ ~ C ) ~ E E Q + & 5 W L Q L ` ) n ^ 3 L L 6 . . ) :.! Q ;.! K K @ V ;.! ;.! ) ;.) ;.;.! ) ;.;.;.>. .;. .! ! E ~  .+.t.R > J.k R o.#.#.......#.T s x.L.X.+.#.R X.k 0 0 h l l k J q 7 9.:.) ) Q Q Q K Q Y L ) ) ^ E C W Q C n w K W ^ ^ 9 Q ! ! ;.;.;.;.&.~ ;.Z ~ >.<.;.m Z ~ -.-.<.6.<.*.6 7.M.Y.U.k.V.V.F.U.U.x.$.%.$.%.k.Y.G.Z.F.A.A.Z.h.h.F.F.h.Z.c Z.c c Z.Z.c b g v b x b v v v c v f x p p h p > > h 0 u W :.^ #.t.P.L.x.P.x.x.U.J.U.U.U.U.J.$.: O O : X.R X.l h 7 9.) Q ) :.! ! *.*.! ! ) ) ^ ^ ) Q Q Q Q Q Q Q Q ) C 3 9.*.Q :.0.3 & 7 7.^ r L L L L L U K 6 r 5 X X J I ( I t G J 7 8 r 7 .   ",
"  # % G C w t ! C V K r + & & G L ` L L ) p.0.$ . . . 7 / 7.! C Q ! Q E Q % ! ;.} } ! ! ! ! ~ ~ ! E C ~ ~ ) ! ) ) ~ ! Q  .>. .w.J 5 J .. .)  .~  .e.#.8.7.e Y x.j ; s 0 h j I 0 0 k R l J e $ :.U L U ^ K K K V K K V r t r n V K K K C e V G r e Q ! ~ ! &.! &.! &.~ A Z ~ &.&.V A Z -.-.&.<.5.E t 8Xx.x x h.h.h.h.k.k.v F.F.F.F.k.F.h.h.h.h.Z.h.Z.c c Z.h.b c g g Z.c Z.c c v x x f f f l l p O = o > 0 i % # T 8.9.0.>.*.Y  .e.#.#.#.e.e.q.#.o.+...X.+.X.+.> O O X +.( R R R 0 ` *.! ) *.! Q *.*.) ) Q ) ! ) ^ Q E Q Q ) ! ) ) W Q @ ) E K K C q . . + % t G V V V V 6 G _ G % X X ^ J P u u P P 7 8 5 $ $   ",
"  @ X e 7 q K ~ E K Q r + # # # r ^ _ 7 K ^ n X % + . e Q L Q Y V H C K L % ! ;.Y E ~ ~ ! ! ! ! E E ) *.*.) *.;.:.~ ) ~ ! :.:.` J 5 / ) H Q | ) Q /  . .Q U H H G $ o X 5 : j j O j R l T P 7 r n V G H L W ^ ` ^ K G K G G K K V H V U G G W G e n G E K W ~ E ~ ~ ~ Z Z A Z ~ Z V ~ &.;.;.&.5.m a C - s %.%.X.%.X.x f v v x v v x f b f f b h.c c F.c F.F.c h.g Z.A.c g c g F.f p h > : > X O . . O 8 k ] 8 e Q C ~ ~ ! ~ ! C L U H ^ U U t t t H ^ / G _ 7.( ^ _ t . U j u J e L C K C Q ! E ) ) ) ) Q ) *.W W Q ! ! Q ! W Q E K :.3 Q W K V n n q X . t Q K 6 , 7 r G L L r % X X # % . . . . . . & $ % ,   ",
"  + # e q q t q t r t 7 # # + 7 7 e r _ t 6 e r e e 7 & + e r e w V K e t 3 V K V r r V C K E V Q K E ) ! ~ E ~ ! ~ ! ) t K K e 6 & H U Y U  . ./ / U / / / ) 0.w.w.L & . % o ( I 0 h k T J r L Q Q a r G P W ^ ^ W K G V a t V a L Q L t n V e t n q 6 e t 9 w V K K K C E C C C E t C E C m 3 C 7.e...x.x.e.e.( o.U a R R ......x x x h h f x v x f f v c b x c c c c c v b v l h 8 # . # % o 0 O o * . 5 W *.;.Z C Z ~ Z &.w p.9.*.Q Q ) :.:.! /  .:.:.7.9.0.w.i.r.| 6 $ I 0 : J Q Q Q E W C C E E ) K ) K C K C E W K E W K Q G r , n K W 0.0.0.P & X 0.P . 6 P ' L r e r t * X X X . 6 r r n V n L e , ^   ",
"  # # 6 e e 7 e 9 r G t # # X y P V r 9.K ^ :.K K Q Q ` L e e e t 0.*.) _ # 6 H Q K K K E ~ ~ ! ;.~ E ~ ) ) ) ) ~ ! 9.9.| ) ` _ G . U e.u.w.w.u.u.u.r.e.8./ | u.9..XoXn.U 7 $ 0 j h h j T U e _ :.W V n G W ^ _ Q L G G G 5 5 r K _ ) ^ Q e G r n G V V V t 3 e e e t t V t V Q Q r - a K | O.7.e...#.#.+...Y R ( w.O.| ....R ......X.X.#.%.X.k l h d > f f > f l f f f f > l h > > : : j j u = I ] ] R 8 t :.E &.Z C Z ~ W ~ 3 *.*.*.) ) ^ ! ) :.) K V ) ) Q Q Q ) :.9._ _ ( 0 8 T ^ Q ) :.! *.*.E W ! E *.) *.*.K W Q L C Q ^ ^ r G . K :.*.p.0.` % . . $ # ' _ P u e e y $ % & & X X 6 ` ) ) *.*.~ ! 5 # -.  ",
"  @ # # ` r , *.0.Q K G , 5 , 6 ^ V V K V K L C E K E V W ) ) :.) 9.) ) _ X e ! Y Y Y Q ~ ~ ~ ! ! ! ~ ~ ~ ! ) ~ ~ ) Q ) / 0.:._ G . / | |  . . .| |  ./  . .Y ^ U ~ / :.w.1XU O . 8 0 j T 7 t *.) W Q K P K L K G G G K W G G K Q ^ L L :.) ` r L G t L K a L L ^ _ 0.0.7.L t e 5 r | 7.0.O.| +.+.t.#.X.O.+.j U +.| / / / / U / T T R R R X.o.R k k h > l d h > > > > > O > 0 = = * > o.I u I e X * r L ! ~ E Z ~ E E Z Z Z Q < >.:.) ! ) ) Q K Q Q E C C K L Q Q Q ) ) _ w.0.7 7 O.K Q K Q E Q Q K W C *.! ~ E E ! Q Q *.E Q Q Q E :.X K e r $ . . $ 7 # . e r.( P J I I I I P o & & . n ^ Q Q Q Q E K 5 #     ",
"  , , % t e 3 *.*.q w r % 1 q 5 ) V e V w m n C C V K C C E K C C m C m e X e K V V V V G K G V t w V C C K K C ! Q . a H U U H G . H U ^ ^ U H Y H Y U Y Y U U U / U U ) | j 0 * o t O.I 5 W ^ K K C n n G L K G G G G W ' ^ E Q W V V Q ` Q V V ^ q Q ^ _ _ ( | O.| ( | ` % X . _ w.( ^ H : t 7.| U U ( J G ^ ( / / T T T U J U T / T T T T ( ( .. .R T : 0 9 O : 7 0 7 O 8 u t . : [ | L E E E w C ~ &.<.&.~ E ~ =.=.Z E Q q >.>.! ) *.) Q W W K K K K K K L Q Q Q ^ ! ) Q # % ( V Q W E Q Q E Q E E W E E W E E W Q E E C Q ) V ) X ) + e G I I I ^ [ I u [ I 0 I I I u I u # # # . K Q E Q Q W W G , #     ",
"  3 & # + 6 3 % q E C e 3 $ 7 % W e w n w w C n V K E E K C V V C V C V G # 7 G n q n V K G V r V C C C C C C V L r U V V H G G r X w U a a H H Y H U H U Y Y U H U a U / T 8 j 8 # 0 r.0 r ^ K E K C K K W W L G P G G W ^ W W W G L K Q Q ^ L V _ V 6 G ( _ ( / T U L G H L e e G T H r a G U L ^ / / G G ( ^ T T L H G L L L T U U T J L U T U U ^ ( / ^ e & . % 7 e # # j J [ I . 7 L K ! ! ~ ~ C C ~ &.&.A Z Z ~ ~ ~ E *.q :.:.Q Q Q Q K K Q W K V C V K K K K L K ! K L e & e V K C E W E W Q ~ W E C E E W E Q W E E E E Q K q . *.q L u P j J J J I I ^ I u R u u G y o o * * . G Q E E W E W n # &     ",
"  q # & # r r 3 V Q K n , # , 5 W V n L E n t K E Q E C V C V V C C C E W # e Q K C V n G n K L E L K C Z E V Q _ L ) H H K H H J X H ) a H H H H Y U Y U U Y Y Y Y a j k j ] ] 0 o X G # r K C V V V V P K W L P P t G T ^ L L L n K ^ Q Q ^ W n ^ ^ t H ^ T T U L L U L ` U ^ | ^ U H a G K L L ^ ^ U t 5 L G H L L J J T _ _ O.^ ` ` U / T T L L L ^ ^ ^ W P e . X & X X 8 P j J o . % Q E E C C Z Z &.&.&.m Z ~ ~ &.~ ! *.% W L r V E E E W Q Q Q E L Q Q L G V V K C K ^ P . G L V K E E ) Q E Q ! Q W E W W E E Q E E E Q Q t w , *.m r u u u P J I I I I I I I j P 5 X 6 6 y y X y Q W E Q W W n % @     ",
"  @ + & 6 G G e 6 V C t % . # 5 w r t V K V q n C V C C K K C C C E C E W % q ~ C E C C E n ) W K C C C C C V L r 7 Q C a t G L t & ^ U U H H Y / U U Y Y U / U a j a s > z l l i O & X * r K K n r n r n N r t 7 3 $ 5 : : * * 5 5 7 7 6 6 e e 6 6 e 7 6 6 6 e 6 6 e t t r r t r r t t 7 e t e e e q 7 6 $ 1 7 6 7 7 6 e e e 8 y e t e e r t t r r n L W L W W r # # & & 1 1 y # X o # L Q n n n n V C C ~ E C C C C E E W G % n t V G G K E K n n K L Q Q W E K V V K K Q ) ' & ^ L K E E Q *.~ E W E Q W W Q W E E E E C K V n , 6 , w K G u u u u u J J J u u t i t 1 $ n N y e 8 & 7 ^ K K E E E n , #     ",
"  4 + # 5 G G w K n t q $ 5 e # G V H C V 3 w w n w n E E E E ~ W E C C W @ , Q E E E E Q ) ^ n P n V V C C V V # 5 U U t e r 7 6 8 T / / 9 a Y Y V H Y Y Y U / L T k > h z h i j * # % * 6 r G G 8 6 X y e $ 1 t r r r r G G V r r t G V r t e t r r t e e e e e 6 6 % % % 7 7 $ $ & % X $ . & + + . X . # . . . . . . . . . . . . . . . . . . . . . . . . . . . . . . X . . . . % . . # 7 1 1 , $ # % + + X 5 + & & % 1 $ # $ . X $ $ 1 , , , , 5 , 1 5 1 7 7 7 5 7 q w q q $ & X e G K E C Q E E E E Q K C E C C C K E V K G 5 , r X n C n P L L P J r N P N P P u y 8 N e . % 5 7 7 6 t L G P P P q y % &.  ",
"  F + & , P y , K V 7 $ L n & + r W K W E t Q E n q C C C C C C V V C C V + + K V V C C C E G q 6 G K Q ! ! ) 9.7 % r e X & * 7 8 * e t U t H a a H V K H a V L L j j . h l h 8 = o . . . o o % # # L 0.r.a.u I 1X1X1X5X1X1X1X X.X.Xi..Xn.u.y.9.p.y.i.i.i.i.i.(.i.i. X Xn.u.i.i.i.i..Xn. Xi.i.y.y.(..X1X.Xy.9.4X Xp.y. X4X4X1Xi.i.w.u.i.i.i.p.r.p.i.i.i.(.i.7 + # P p.G # 1X0.' G P ` ` ^ ^ L L L L P G u G L u G r r $ 5 , $ 7 n n n t t r r n n e G G n n n r t t t r y e % . . . . y W W n t n n P K ! K K K K V V G V 5 e 6 5 . X $ C A q m W ~ C m n C C n n n q t n C C E W Q *.*.W n y n N n n y t & E   ",
"    X & 7 t q r V e n r q q 5 % % W C E C q E n n t K t m C C C m m m n V 3 X C V m V n n V n W 6 n :.! W ^ ` t # * 8 7 * u I I j u . . 5 6 7 - 0 G L J J J j 6 & O = > > f h 8 o % i.uXr.. . o # 8 r.i.` N y y 0.i.UXi.i.i.y.y.y.y.y.i. X<X1X X(.y.9.p.y.(.(..X(.1Xi.i. X1Xi.i.i.i. X5XuX0.:.p.y.(.1XuXyXp.E AX.Xy.y.(..X1X1X4XrXrXrX(..X1X1X4XrX5X5X5XuXyX, . . 1X1X# + yXi.r.r.i.r.i.r.q.q.0.w.r.w.r.8.i.i.r.r.i.r._ e 9.3 p.i.p.w.w.r.r.i.i.r.0.i.r.w.p.r.i.p.u.u.r.r.r._ N # 6 ^ 0.) V E K G n ) 7 e L K r G r t 5 7 7 r G t n 1 . % *.E &.&.=.E Z A A Z Z Z E E W ~ E ~ &.Q E E E E E , G G G n E P + *.  ",
"    + @ , e r V t q n n q e n w q 5 7 , # + . . 7 ^ V w m m V V C C C V V 7 . n t w n n C V r K r % e q N y . . % I ^ R i k R j i J T j & . . . . X : : $ 6 . O f z = v F.c z = O * uXyX1X<X7 X X % 0.G t u y y t ^ ^ P W K K G G G K Q ^ ` _ _ *.L G t G E W ^ W ^ r . G L L r U U Q :.L W n V m V K W i.K # n w w q < . . w E &.*.*.=.=.W ! *.:.7.7.e.p.w.t # 0.1Xi.r . uXi.q.t.O.8.8.+.O.0.[ T u _ 0.r.d.r.i.q.q.r.T y 1Xq uXi.p.9.w.w.8.9.0.0.w.0.w.0.0.[ r.| | 0.O.` _ *.' , *.L *.) K K Q :.:.^ V L *.L K L G ^ K G E G W n ^ *.t . 0.) n E C n n n m m n C C V C C E Q ` E K n n n e 6 n n n G L 7 X .X  ",
"      X o @ 7 w n n t w y t n q m n 5 # X & + . % w q w w m m m m m m V V 6 . 7 m V V n V n w w w n 5 o X . . % 8 t 7 u u j R j 0 R [ ( j 7 * o . . o % = X.x b g g f > b b p = o o X J ` r.8.o X X W n y t y y y N P L P L P P N r t y t t y 8 r G _ ` ` ` ` _ T ' N 7 o N ) E K E ) *.W W P P r t N 7 # & , *.E n m m m m m 4 4 3 q m q q q q 3 q m m m q n q ^ ^ _ e 7 [ u u J u J u G ^ I J 8 e t N u u L I I e 0 t 6 T r ^ ` L P T ' L L L ^ ` G P ' ^ ` a.[ _ _ ` ' N ' a.^ G P ' K n t W ' G K K n n G W K C W P n y n e q r L 7 X y 7 6 n e q y y y y y n n n n n n P W G r r e y y r y t r u 8 y p.%X  ",
"        4 o o % 7 w n e q t t q q w e y # + + q n P n n n n n C C n m m r $ X % V V V V n w w n w r r r 5 # t G ^ ^ I u * 7 0 i u I I [ R I I u # % y % : k z b f b g.z f f p > . % & * q.[ [ o # . G 1 & 3 y 6 e N P P P I ` ` ^ ` ` ' ' L r % 6 G L ` _ *.:.0.*.*.*.W + K 9.~ ~ *.*.*.:.p.9.a.' W ' q + & # 0.:.<.&.&.*.<.<.*.*.*.=.E E E ` &.*.*.*.*.*.~ E q W ` L 1 y L L *.*.N *.' L ^ ' ( ` I P 0 t N u I J N t X 7 L 1 . 8 t G _ _ _ ^ I J J e 6 n r N N e r t t e u t y y o X 5 G W W W n w w e q y w r e n G t n , y t n q . . % G r r e y y y y y y y y y y y t r r t t e y y u t y t y 1 5 A ].      ",
"          ~.m % o o 1 5 7 q q w w q 6 5 X o o e y q 6 6 e y 6 6 6 1 5 $ o X X o 7 y e e 6 6 y r r G r 0 : = 0 * 8 8 8 8 o . . . o = * 0 8 : : : o * r o o o . = = o f z > = o . G 7 o o J I . X . P uXp.q . = * 0 u u u 0 u u u u 0 u u 8 * o o o X o o * 6 e n n n n e + 5 e # 1 1 % 1 5 * * = o o . . . . . . 6 r n K K P P P J J G t r r n n n G G N r y 6 o 1 = o o o * * o o o o o = o u I J J u 8 u e u P u t t o 1 t . o . 7 u u P I L G e y e r 6 & 6 8 u 8 : 8 t u u u 8 o . * e u G G N n r e e e r r G G r e 1 6 t 7 6 # . X . # % % 1 1 7 7 8 8 8 y 7 1 7 8 y u 8 y 0 8 8 8 8 8 = = 7 F             ",
"                S 4 < o o o . X o o = % $ 3 3 < 2 2 2 2 2 2 2 2 2 2 2 2 w 4 4 4 2 4 4 2 2 4 2 4 4 2 2 2 2 4 2 2 2 A F F D B B 4 4 2 2 2 2 2 2 2 2 2 2 4 a 9 3 2 3 3 3 < 2 3 7 V 9.) 9 7 @ @ 3 q <.$X:X    S M 4 q w q q q e w w q 3 3 2 2 3 q q w q 3 3 3 % # + . . . o * * , 3 4 4 4 4 M B B B A Z Z -.-.<.5.*.4 2 < @ @ < @ @ @ @ 2 2 2 4 4 M M M B B M M B B B D D D &.Z 4 4 M 4 4 4 4 4 4 2 2 2 2 2 2 2 2 2 2 2 2 4 4 2 2 2 4 2 2 2 < @ + + o o o X . X , < 3 2 2 2 < @ < 2 4 C C C m 2 2 2 2 2 2 2 2 2 2 2 2 2 2 < 3 3 3 3 < q n G K e 7 7 * o o . . . o o o o o * = = = = * = 1 7 w m Z Z                 ",
"                      ).D 6.6.1././.`.[.                                                                                                                                                                                                                          ).)./.`.`.[.                                                                                                                                                                    ).~.6.y.^.                                              >X                                -X>X[.1.<.<.>.>.>.>.:.9.9.p.p.p.p.p.p.9.5.                          ",
"                                                                                                                                                                                                                                                                                                                                                                                                                                                        &X>X                                                                                                                                                    "
};
