/* XPM */
static char *_[] = {
/* columns rows colors chars-per-pixel */
"65 65 87 1 ",
"  c None",
". c black",
"X c gray12",
"o c #282008",
"O c #282108",
"+ c #38270F",
"@ c #37280F",
"# c #39280F",
"$ c #382810",
"% c #3F3018",
"& c #202020",
"* c #282828",
"= c gray22",
"- c #413017",
"; c #403018",
": c #483818",
"> c #513817",
", c #503818",
"< c #584020",
"1 c #594020",
"2 c #684820",
"3 c #704828",
"4 c #704929",
"5 c #000040",
"6 c #000048",
"7 c #000058",
"8 c #000060",
"9 c #000070",
"0 c #000078",
"q c #484848",
"w c #505050",
"e c #606060",
"r c #63737D",
"t c #63747D",
"y c #63757D",
"u c #62747E",
"i c #63747E",
"p c #64747D",
"a c #64757E",
"s c gray44",
"d c gray47",
"f c #984800",
"g c #805028",
"h c #885830",
"j c #905830",
"k c #986038",
"l c #9F6038",
"z c #A06038",
"x c #C86000",
"c c #F87800",
"v c #A86840",
"b c #A86940",
"n c #B07040",
"m c #B77848",
"M c #B87848",
"N c #C87848",
"B c #D08050",
"V c #D08150",
"C c #D08051",
"Z c #D88850",
"A c #E88858",
"S c #F09058",
"D c #F89860",
"F c #F79F70",
"G c #F89F70",
"H c #F7A06F",
"J c #F8A070",
"K c #F9A070",
"L c #000088",
"P c #0000A0",
"I c #0000A8",
"U c #0000B8",
"Y c #0000D0",
"T c #0000F8",
"R c #888888",
"E c #989898",
"W c #A7A7A7",
"Q c gray66",
"! c gray69",
"~ c #F8B080",
"^ c #F8B890",
"/ c #F8B898",
"( c #F8C0A0",
") c #C0C0C0",
"_ c #D0D0D0",
"` c #D8D8D8",
"' c #F8F8F8",
/* pixels */
"                                                                 ",
"                                                                 ",
"                                                                 ",
"                                                                 ",
"                                                                 ",
"                                                                 ",
"                                                                 ",
"                                                                 ",
"                                                                 ",
"                                                                 ",
"                                                                 ",
"                                                                 ",
"                                                                 ",
"                                                                 ",
"                                                                 ",
"                                                                 ",
"                                                                 ",
"                               WRdw                              ",
"                              Qeswq*                             ",
"                             Rdsswww*                            ",
"                            =)_)QRsww                            ",
"                            d&:2hh2:&&                           ",
"                            q.vT~MTv.&                           ",
"                            &3S/Mv/S3&                           ",
"                            &:B~SS~B:&                           ",
"                             :kn::nk:                            ",
"                             .kA~~A:.                            ",
"                            ...2zzz...                           ",
"                          Je.'s.2Z.s_.jj                         ",
"                        HDJe=s_...._snBBB                        ",
"                       FSBDZeg.qg;g.nSSSNB                       ",
"                      GSBkZD=egDDvDDDDDNBAB                      ",
"                      SBvg,ZD==DD3Dkkh3N3NAB                     ",
"                     SBv3$$znB&=B;DkDD,g3vBAv                    ",
"                    Bk2g$+t3zBB&==Bhjj;;ojBAB                    ",
"                    JJM$t  <3nBB.&=n3;g;ojvnAv                   ",
"                   SJvg$    <zBhB..&=ngo$2$gvB                   ",
"                   zJJBk    :znhz.B...:o o<AAB                   ",
"                    S,,,.  .&&==`!E=**&.  :2jM                   ",
"                    >nS~A<SSg$**ddq&&&..  :vBM                   ",
"                     n~j&q<nSn;Mg.nknz:<  ogjg                   ",
"                     3SBqQc<gBn;g.nBBng;% o::k                   ",
"                       3&sQx<<jjg.kBBnj2; ~Sv                    ",
"                         Xffx;oo<.kBBnz2;t$k                     ",
"                          &ff;<;o.kBBnz2;:B                      ",
"                           $<;<<$$$$$$$$o                        ",
"                           Mkvkg<$gggg<<o                        ",
"                          MSJSvk3$3ABzz<o                        ",
"                          SSJSBv$t$ABBzzo                        ",
"                          SJSBvg@ :zJBz,o                        ",
"                         mS(Bgg$  $hJBz2;                        ",
"                         S(~Jv,$  gMAJzgo                        ",
"                         S~kvJg-   :~^JN,                        ",
"                        NSJSg;;    :Mvjg,                        ",
"                        SJSBvg#    jAJBz,                        ",
"                        gMkg,o     :jvh2;                        ",
"                        ......     ......                        ",
"                        .I6&&.     .&&&&.                        ",
"                        .06&&      .I9&&.                        ",
"                       .IUL5.      .5I6&.                        ",
"                       .L9&..       .I6&                         ",
"                       .I6&&t       .I9.                         ",
"                      .IYP85        5IY9.                        ",
"                      7LL65&        86P85                        ",
"                     .&&&&&&t      t&&&&&.t                      "
};
