/* XPM */
static char *_[] = {
/* columns rows colors chars-per-pixel */
"65 65 79 1 ",
"  c None",
". c black",
"X c gray12",
"o c #281F08",
"O c #282007",
"+ c #272008",
"@ c #282008",
"# c #282009",
"$ c #37280F",
"% c #382810",
"& c #202020",
"* c #282828",
"= c gray22",
"- c #403018",
"; c #483818",
": c #483A18",
"> c #503818",
", c #574020",
"< c #584020",
"1 c #684820",
"2 c #6F4828",
"3 c #704729",
"4 c #704828",
"5 c #000040",
"6 c #000048",
"7 c #000060",
"8 c #000070",
"9 c #000078",
"0 c #484848",
"q c gray31",
"w c #505050",
"e c #606060",
"r c #63737D",
"t c #62747D",
"y c #63747D",
"u c #62757D",
"i c #62747E",
"p c gray44",
"a c gray47",
"s c #805028",
"d c #90582F",
"f c #885830",
"g c #905830",
"h c #915830",
"j c #986038",
"k c #996039",
"l c #A06038",
"z c #B06F3F",
"x c #A86840",
"c c #B07040",
"v c #B17040",
"b c #B17140",
"n c #B87847",
"m c #B87848",
"M c #C87848",
"N c #D08050",
"B c #D88850",
"V c #E88858",
"C c #F09058",
"Z c #F89860",
"A c #F8A070",
"S c #F8A071",
"D c #000088",
"F c #000098",
"G c #0000A8",
"H c #0000B0",
"J c #0000D0",
"K c #0000E0",
"L c #0000F8",
"P c #888888",
"I c #989898",
"U c gray66",
"Y c #F8B080",
"T c #F8B890",
"R c #F8B898",
"E c #F8D0B8",
"W c #C0C0C0",
"Q c #D0D0D0",
"! c gray91",
/* pixels */
"                                                                 ",
"                                                                 ",
"                                                                 ",
"                                                                 ",
"                                                                 ",
"                                                                 ",
"                                                                 ",
"                                                                 ",
"                                                                 ",
"                                                                 ",
"                                                                 ",
"                                                                 ",
"                                                                 ",
"                                                                 ",
"                                                                 ",
"                                                                 ",
"                                                                 ",
"                                                                 ",
"                                                                 ",
"                               UPaq                              ",
"                              QPwwq=                             ",
"                             PPewwq=X                            ",
"                             Iapwwq=&                            ",
"                            IW!WPpew*&                           ",
"                            I****&**.*                           ",
"                             3xLScLx4                            ",
"                             :CRXlRC:                            ",
"                            y.j&!XV:.y                           ",
"                           V...I.I&..-g                          ",
"                        AMls-W.waw.W-xxsj                        ",
"                       AACZAAfE.*.m..ZZZZj                       ",
"                       AAZZAjYmcABmmj<NNmmc                      ",
"                       TVxNm1YYcTAmmj<xxxg4                      ",
"                       nxljff<fffx@@..<344                       ",
"                        ,<<:%&&@.:::cf:@%                        ",
"                         s@@->&&&qNccf:@                         ",
"                          f:@-s&&&qclf<$                         ",
"                          Mf>:-s.&&&f<%                          ",
"                          MCj>--.f...<@                          ",
"                          wq=&&PPw&&&..                          ",
"                          wq=&&www&&&..                          ",
"                          MCjN44-44%1<@                          ",
"                         MCCBNc4.444s1:%                         ",
"                         MCCNNc4.4lgg1:%                         ",
"                         CCCNNc..>lggs:%                         ",
"                         CCNNc4.@.4gfs:%                         ",
"                        gf44--.@%@......O                        ",
"                        cBVVm<-o @<lmBls@                        ",
"                        MVZZms-  +<mBZcl-                        ",
"                       zMZYZmf@   @gNBZc-                        ",
"                       cBYY4m<@   @14jZZ<                        ",
"                       cYNmC4@y    @mZBll-                       ",
"                       BZYm:4-     <<lBZl<                       ",
"                       BZYmg:@     @gmBBl<                       ",
"                      cVZZmf<      @gNNNl<                       ",
"                      dmmm44-       <gg<<@                       ",
"                      .&&&&&.       .&&&&.                       ",
"                      .995&&        .G855.                       ",
"                      .G65&&         7G65.y                      ",
"                      .K95&&         &GK5&.                      ",
"                      .G65&          .7G6&.                      ",
"                      7G6&.          y&G85.                      ",
"                     *GJ96&           DJHH8.                     ",
"                     G8856&           GF855&                     ",
"                   y&&&&&&.          y.&&&&&.y                   "
};
