/* XPM */
static char *_[] = {
/* columns rows colors chars-per-pixel */
"65 65 82 1 ",
"  c None",
". c black",
"X c #281F08",
"o c #282007",
"O c #272008",
"+ c #282008",
"@ c #282009",
"# c #37280F",
"$ c #382810",
"% c #202020",
"& c #282828",
"* c gray22",
"= c #600000",
"- c #403018",
"; c #483818",
": c #503818",
"> c #574020",
", c #584020",
"< c #684820",
"1 c #704828",
"2 c #000040",
"3 c #000048",
"4 c #000060",
"5 c #000070",
"6 c #000078",
"7 c #484848",
"8 c #505050",
"9 c #515151",
"0 c #606060",
"q c #62747D",
"w c #63747D",
"e c #62757D",
"r c #62747E",
"t c gray44",
"y c gray47",
"u c #980000",
"i c #C80000",
"p c #E80000",
"a c #F80000",
"s c #B05000",
"d c #805028",
"f c #90582F",
"g c #885830",
"h c #905830",
"j c #915830",
"k c #986038",
"l c #996039",
"z c #A06038",
"x c #B06F3F",
"c c #A86840",
"v c #B07040",
"b c #B17040",
"n c #B17140",
"m c #B87848",
"M c #B97948",
"N c #F05050",
"B c #C87848",
"V c #F88820",
"C c #F8F800",
"Z c #D08050",
"A c #D88850",
"S c #E88858",
"D c #F09058",
"F c #F8A858",
"G c #F89860",
"H c #F79F70",
"J c #F89F70",
"K c #F8A070",
"L c #000088",
"P c #000098",
"I c #0000A8",
"U c #0000B0",
"Y c #0000D0",
"T c #0000E0",
"R c #888888",
"E c #989898",
"W c gray66",
"Q c #F8B080",
"! c #F8B890",
"~ c #C0C0C0",
"^ c #D0D0D0",
"/ c gray91",
/* pixels */
"                                                                 ",
"                                                                 ",
"                                                                 ",
"                                                                 ",
"                                                                 ",
"                                                                 ",
"                                                                 ",
"                                                                 ",
"                                                                 ",
"                                                                 ",
"                                                                 ",
"                                                                 ",
"                                                                 ",
"                                                                 ",
"                                                                 ",
"                                                                 ",
"                                                                 ",
"                                                                 ",
"                                                                 ",
"                               WRy9                              ",
"                              ^R997*                             ",
"                             RR0997*%                            ",
"                             Eyt997*%                            ",
"                            E~/~Rt09&%                           ",
"                            i&sssss&.&                           ",
"                             =NsFsN=1i                           ",
"                            =uVCCCVs;                            ",
"                            =sFC/CFs.                            ",
"                          HS.spNFCps.-h                          ",
"                        JBzd-=NVVsN=sccdk                        ",
"                       KKDGiKg=sss=..GGGGk                       ",
"                      MKKGGKkQavKsMMk,ZZMMv                      ",
"                       !ScZM<QQv!KMMk,ccch1                      ",
"                       Mczkgg,gggc++..,111                       ",
"                        >,,;$%%+.;;;vg;+$                        ",
"                         d++-:%%%7Zvvg;+                         ",
"                          g;+-d%%%7vzg,#                         ",
"                          Bg:;-d.%%%g,$                          ",
"                          BDk:--.g...,+                          ",
"                          97*%%RR9%%%..                          ",
"                          97*%%999%%%..                          ",
"                          BDkZ11-11$<,+                          ",
"                         BDDAZv1.111d<;$                         ",
"                         BDDZZv1.1zhh<;$                         ",
"                         DDDZZv..:zhhd;$                         ",
"                         DDZZv1.+.1hgd;$                         ",
"                        hg11--.+$+......o                        ",
"                        vASSM,-X +,zMAzd+                        ",
"                        BSGGMd-  O,MAGvz-                        ",
"                       xBGQGMg+   +hZAGv-                        ",
"                       vAQQ1M,+   +<1kGG,                        ",
"                       vQZMD1+w    +MGAzz-                       ",
"                       AGQM;1-     ,,zAGz,                       ",
"                       AGQMh;+     +hMAAz,                       ",
"                      vSGGMg,      +hZZZz,                       ",
"                      fMMM11-       ,hh,,+                       ",
"                      .%%%%%.       .%%%%.                       ",
"                      .662%%        .I522.                       ",
"                      .I32%%         4I32.w                      ",
"                      .T62%%         %IT2%.                      ",
"                      .I32%          .4I3%.                      ",
"                      4I3%.          w%I52.                      ",
"                     &IY63%           LYUU5.                     ",
"                     I5523%           IP522%                     ",
"                   w%%%%%%.          w.%%%%%.w                   "
};
