/* XPM */
static char *out[] = {
/* columns rows colors chars-per-pixel */
"180 708 256 2 ",
"   c None",
".  c #020404",
"X  c #040A03",
"o  c #0A0B04",
"O  c #03050B",
"+  c #09060C",
"@  c #050A0C",
"#  c #0A0B0C",
"$  c #0A0504",
"%  c #110D0B",
"&  c #0C1303",
"*  c #0D120D",
"=  c #071605",
"-  c #12130D",
";  c #131B0C",
":  c #151906",
">  c #040513",
",  c #050A13",
"<  c #0B0C13",
"1  c #03051A",
"2  c #0B0D1A",
"3  c #070818",
"4  c #110E13",
"5  c #110E1A",
"6  c #0D1214",
"7  c #0D131A",
"8  c #0B1816",
"9  c #131414",
"0  c #141A14",
"q  c #1A1C15",
"w  c #13151B",
"e  c #141A1C",
"r  c #1A1C1C",
"t  c #191517",
"y  c #241C1A",
"u  c #2B170C",
"i  c #192607",
"p  c #193604",
"a  c #1C221C",
"s  c #192417",
"d  c #0F2A07",
"f  c #263706",
"g  c #22241D",
"h  c #232B1C",
"j  c #262917",
"k  c #293619",
"l  c #353818",
"z  c #2C2B0C",
"x  c #080A23",
"c  c #0C1623",
"v  c #131622",
"b  c #151B23",
"n  c #1A1D22",
"m  c #191D2A",
"M  c #13172C",
"N  c #241E24",
"B  c #1C2324",
"V  c #1D242A",
"C  c #1D2A2B",
"Z  c #192524",
"A  c #1B2633",
"S  c #1A2E2A",
"D  c #222524",
"F  c #242A24",
"G  c #2A2C25",
"H  c #22252A",
"J  c #242B2B",
"K  c #2A2D2C",
"L  c #2A2525",
"P  c #352926",
"I  c #2C3324",
"U  c #25322D",
"Y  c #2B332C",
"T  c #2A3727",
"R  c #32342C",
"E  c #333C2C",
"W  c #363927",
"Q  c #252C32",
"!  c #2A2D32",
"~  c #252935",
"^  c #253333",
"/  c #2C3333",
"(  c #2C343A",
")  c #2C3937",
"_  c #323533",
"`  c #333B34",
"'  c #333B3B",
"]  c #3A3D3B",
"[  c #373937",
"{  c #302F33",
"}  c #4B3415",
"|  c #48392E",
" . c #68361E",
".. c #184702",
"X. c #284606",
"o. c #385606",
"O. c #2B4515",
"+. c #374819",
"@. c #385517",
"#. c #2E4F0A",
"$. c #356710",
"%. c #384529",
"&. c #3B4334",
"*. c #35423C",
"=. c #3C433C",
"-. c #394837",
";. c #37502C",
":. c #3E662A",
">. c #46591A",
",. c #465111",
"<. c #476618",
"1. c #517012",
"2. c #454929",
"3. c #465828",
"4. c #42443C",
"5. c #434B3C",
"6. c #464936",
"7. c #485639",
"8. c #55563A",
"9. c #56502F",
"0. c #6C5535",
"q. c #496727",
"w. c #57692A",
"e. c #587627",
"r. c #586738",
"t. c #507034",
"y. c #687333",
"u. c #647416",
"i. c #373D42",
"p. c #2B3643",
"a. c #3B4343",
"s. c #3B4945",
"d. c #3C4E4B",
"f. c #444C44",
"g. c #444C4A",
"h. c #474A45",
"j. c #4B5444",
"k. c #4B534C",
"l. c #4D5B4B",
"z. c #475647",
"x. c #535C4C",
"c. c #555948",
"v. c #4A5854",
"b. c #535B53",
"n. c #565B57",
"m. c #494C4F",
"M. c #655A48",
"N. c #58654A",
"B. c #5B6454",
"V. c #5B645B",
"C. c #5C6A5B",
"Z. c #586656",
"A. c #546C51",
"S. c #656848",
"D. c #687648",
"F. c #636B54",
"G. c #636C5B",
"H. c #676858",
"J. c #6B735B",
"K. c #687558",
"L. c #74785B",
"P. c #746F4D",
"I. c #5B6764",
"U. c #5C706A",
"Y. c #646C63",
"T. c #666B67",
"R. c #6B7364",
"E. c #6B746B",
"W. c #697767",
"Q. c #747B64",
"!. c #737C6B",
"~. c #787A67",
"^. c #6C7774",
"/. c #747C75",
"(. c #696D72",
"). c #535B65",
"_. c #403F46",
"`. c #8A4A2A",
"'. c #90602D",
"]. c #84775E",
"[. c #853E1A",
"{. c #6D8E15",
"}. c #598A2F",
"|. c #718E30",
" X c #64951E",
".X c #77855A",
"XX c #718B4C",
"oX c #7C836B",
"OX c #778468",
"+X c #7A8677",
"@X c #748B70",
"#X c #759E50",
"$X c #3C8618",
"%X c #8CAE30",
"&X c #87A32A",
"*X c #A7CB38",
"=X c #879451",
"-X c #91AB50",
";X c #84896B",
":X c #838B74",
">X c #868A78",
",X c #8C937B",
"<X c #899477",
"1X c #949B7C",
"2X c #949879",
"3X c #8B946B",
"4X c #99A37A",
"5X c #91A96E",
"6X c #A7AF75",
"7X c #A3AA5B",
"8X c #ADCE4E",
"9X c #B1D36A",
"0X c #C8E460",
"qX c #C4BB68",
"wX c #717A86",
"eX c #7A8785",
"rX c #7A918A",
"tX c #858C85",
"yX c #8A9687",
"uX c #959B87",
"iX c #8A9994",
"pX c #959B95",
"aX c #878D94",
"sX c #99A489",
"dX c #9AA596",
"fX c #90A692",
"gX c #A4A88A",
"hX c #A5AC97",
"jX c #AAB498",
"kX c #B3BA9A",
"lX c #ADB68A",
"zX c #9AA8A5",
"xX c #94AAAB",
"cX c #A8ADA5",
"vX c #ABB5A6",
"bX c #B5BBA7",
"nX c #A7B6B5",
"mX c #B5BCB5",
"MX c #939C9C",
"NX c #B7C495",
"BX c #BCC3AB",
"VX c #B8C3A8",
"CX c #BBC5B5",
"ZX c #B6CCB3",
"AX c #9FC091",
"SX c #C3C9AB",
"DX c #C4CBB7",
"FX c #CAD4B8",
"GX c #D1D8B7",
"HX c #CED7A3",
"JX c #B8C5C6",
"KX c #CAD5C6",
"LX c #CDD5CB",
"PX c #D8E4D1",
"IX c #E5ECDC",
"UX c #B8BCBE",
/* pixels */
"                                                                                                                                  g.n.U.(.E.                                                                                                                                                                                                                            ",
"                                                                                                                                  a.V p.s.I.U.W.W./.+X+X+XeX>XtX            yXg.*.                                                                                                                                                                                      ",
"                                                                                                                                  v.8 ( ) W.oXeXyXyXyXG.7.Z.C.x.E.+X+X+XyXpX).. @ 3                                                                                                                                                                                     ",
"                                                                                                                                  I., A V n.tX/.eXtXtXB.s N.C.Y.Y.T.I.I.I.(.m.> > > tX                                                                                                                                                                                  ",
"                                                                                                      JXiXE.                      (.@ b 7 a.Y.m.n.n.n.D @ 9 F H n H B B e w O O , @ m.zX                                                                                                                                                                                ",
"                                                                                    /.T.Y.I.V.n.v.f.f.U 0 @ * @ 8 a K ' a.g.m.n./.A , w 7 V ! t n m N n # < w 6 w b r w w < 7 > $ , * / s.d.d.v.d.s.i.) ( A Z 0 #                                                                                                                                                       ",
"                                                                                a - 9 * < < $ O # $ $ O O O # # # + $ $ . O + . > < + < < e m + n N 3 4 < t t w < t 2 2 7 < + + , @ # < 8 e 0 7 b e e r e 8 7 # # r                                                                                                                                                     ",
"                                                                              a t . # # # # @ < < < + O + < # 9 4 + + + + + + + 4 4 + w t H H 5 ~ H n t 5 < < < < 4 4 t 2 < 5 + O + O < 6 e r r e 9 9 0 r 9 * # < 9                                                                                                                                                     ",
"                                                                              h R R f.] [ _ ' _ ' K h.t * # * 9 - 4 - t t y t N N N N n P _.{ N { P P 4 + + t + # + + < + O + + + + # $ 4 4 # + # < + t * 4 9 4 # 9 +XeX                                                                                                                                                ",
"                                                                              &.vXbXmXhXpXpXdXdXpXiXpXtXtXyXpXpXhXcXbXCXKXLXPXIXPXLXKXmXUXKXDXKXLXPXLX_.+ _.g.| [ _ { { ~ n 3 + + + + + K [ _ i.h.h.] K _ H # < 9 < % . [                                                                                                                                               ",
"                                                                              ; >X^.yX,X+XtX+XtXtXyXyXI.rXfXiXyXtX>X].tX>X/./.+X/.!.Q.>XyX>XsXhXhXcXcX| 9 D ] ! Y Y Y U K ! < + + + $ # B n ! ] ] a._ / B D < 2 v v w . b.                                                                                                                                              ",
"                                                                              o &.T b.x.b.R.E.W.W.!.tX) @XiXiXrX+X/.^.E.!.!./.@X>XoX:XdXuXhXdXdXdXhXcX_.e D =.L U G I F r V w 3 + + # # 6 6 e a V / a w e B t 2 5 5 w O V.                                                                                                                                              ",
"                                                                              . G G a F a *.%.-.-.*.-.9 G s.U.@XtXtXtXrXtXtXyXyXyXyXsXVXdXVXjXhXgXjXcXf.s g h.I G U a U J ! b < 3 + + e a B e e e e @ @ 8 B n 3 5 x w # f.                                                                                                                                              ",
"                                                                            tX$ W k.*.C.g.Y.W.A.C.A.5.# e S ^ U.tXtXfXrXyX+X:XyX>X:XyXjXfXvXhXsXsXgXjX7.h s k.Y U G F a F ! w 3 + + + Y ' ' D B Z 9 * @ e a n 3 5 5 6 @ K                                                                                                                                               ",
"                                                                            >X. [ j.T k.v.+XW.G.W.C.z.4 t e e W.fXhXdXiXiXrX@X1X,XOXyXdXsXhXvXsXuXlXbX5.s h k.Y U F h B C / v 7 < O . D ) ) J Z J ) # e H B e > 5 5 4 < B                                                                                                                                               ",
"                                                                            R.$ R 5.S v.v.T.W.C.C.Z.k.4 9 * X C.dXjXhXrX%.A.,XfXuXyXsXgXuXhXkXgXuXlXkXj.h g h.Y G F B B D / m 7 < @ O a.*.K C Z / / @ e H a B < 5 < 9 < B yX                                                                                                                                            ",
"                                                    yXiXyXyXyXyXtXtXtX+X+X^.4.* [ s.f.b.b.n.n.b.b.v.h.9 t t 8 ^ v.7.z.W.T d.yXfXyXuXfXdXfXdXVXgX4XjXkXf.r a g.Y F F F F B / v 6 3 # $ 0 U a s e ' ` # 8 B a e < 5 4 7 0 a m.4.                                                                                                                                          ",
"              I.=.f.=.' ` Y G a a a q a a a a q s q s s q q q e s a s s q 6 q # G Y F F G D / H B n n 5 9 r K T.+X@XdXaXiX/.uXsX<XuXhXfXsXjXjXjXgXjXkXP * q f.U B F F a a J , 3 3 @ , C Z @ @ X F K 8 0 C e e , < 6 6 7 8 a 0                                                                                                                                           ",
"              p.= * 6 0 6 r t t 0 0 e a r r t t 0 q q a F a B F B B n N F D e r B G D D D r D D ! ' [ ~ / ] B C Z d.pXpXeXyXyXfXyXuXsXjXfXjXjXjXgXhXhX| - a v.F Y a S a B / b 7 3 # O Z ) U 6 w v.T.a.' *.B J 7 7 w w e / w Y n.                                                                                                                                        ",
"              rX* 6 e e 0 9 t r a D F F F L K P I G G G G h F F F F G P D F 9 # * q - 9 - # 9 4 n H n n D D q g s *.(.tX=.+XvXyX<XfXjXhXfXhXjXjXjXjXjX| - q k.K K F g B V ( c 2 3 , . 6 *./ s X ) ^ 8 s K a Z , 7 w e H s.a b.b.                                                                                                                                        ",
"      JXJXJXJXJXa.V V Z J C.yXtXiXyXuXpXpXpXcXhXhXcXcXcXcXvXcXcXcXhXdXhXcXdXR.0 j.x.+XY.~./.G.eXtXeXeX(.tX>Xc.sXjXbXsX; S S fXdXuXgXkXcXdXhXjXgXgXjXhX4.0 0 f.J U F a F F ( b 2 < + $ 6 g.C C 8 g.B 8 0 U s 8 , v w 6 B v.K h.`                                                                                                                                         ",
"    x A xXJXLXIXLXLXJXrXz.JXLXKXDXCXUXmXmXUXDXUXBXbXBXmXBXbXCXSXCXBXUXBXCXCXcX&.hXsXhXsXhXR.pXbXbXcXcXcXvXbXc.kXhXgXOX0 @ ; f.bXbXbXcXbXbXjXsXsXgXgXhX6.- 6 =.F F B B B V / b 3 3 O O 8 U B B J ' C * 8 ) Z w 8 m < < V a.J D ;                                                                                                                                         ",
"    x x x M xXJXJXLXLXLXd.JXPXKXKXDXDXDXDXDXDXDXDXDXKXDXDXDXKXKXKXFXKXKXKXCXbXtXcXCXCXVXCXmXpXLXLXLXLXGXLXuXG.uX4.;X2.h X . 9 E H.j.2XuX~.gX2X.XL.9.c.K r 6 =.B F B B F H ! b 3 3 O @ e e e b Q J b e e ^ H b 7 ( 6 6 B k.0 * .                                                                                                                                         ",
"    > x x x p.JXLXLXLXJXs.JXFXKXUXBXmXBXSXCXUXBXmXmXCXBXbXcXmXbXcXbXcXjXhXdXuX/.fXuXuX<X].!.R oX>X2XuXkXSX!.+XpX| ].~.].y # $ $ y >XjXuXc.1XlX2X1X].>XR r * *.F F F a C D / b 2 < O @ , , 8 7 7 8 e 8 8 Q 7 B V m.9 n V ) @ X .                                                                                                                                         ",
"    > 1 1 2 d.PXPXLXPXPXA ).JXFXcXgXuXgXuXuX2XuXgXhXgXuXcXBX].].N.vXpXdXsXcXgXCXVXZXFXGXBXFX:XBXSXgXgX2XgXH.].tX6.L.].~.c.4 + % % :XsX>X6.uXlXgX4X].tXP 0 6 =.B F C a B B / v < < . O @ > 3 2 t < < + 5 t 5 t m H w n V e @ *                                                                                                                                           ",
"    > 1 x w A PXPXPXIXIXp.U.KXFXbXkXSXSXSXSXbXSXDXDXGXLXLXDXmXPX+XFXGXKXDXFXSXSXFXFXGXGXVXBXBXSXGXGXbXDXDXpXpXaXE L.~.L.~.L $ 4 - ~.cX].M.2XgX6X6X].tXP 9 6 g.B F F a e e J 2 , 7 O . 6 5 5 4 4 t 4 5 5 5 L [ v Q i.K H / V./.                                                                                                                                          ",
"    2 1 x 8 8 IXIXPXPXIXxXnXKXFXkXkXSXSXSXbXSXGXDXSXDXGXGXbXKXcX+XdXPXFXbXDXFXKXGXGXGXFXNXSXFX3XGXSXlXlXlXc.~.].| ~.].].H.| 4 4 . h uX>X| uXlX6XuX].].[ * 6 k.F H F F 0 H a.6 , < > . _ P P P P P P N t y [ P + D g.] n B /.                                                                                                                                            ",
"    V > c b , nXPXLXzXvX) fXZXBXkXkXSXSXkXSXSXSXBXBXSXSXSXSXcXyXh hXSXSXDXSXGXGXGXGXFXkXOXSXsXN.GXSX6XlXlXJ.uXpXM.>XuX].].H.+ + . t tX~.0.].kXgXgX].uX_.6 0 s.H F F B Z V /.B @ 7 O O R | P P P P N y u y P N N n a.] w # Y.                                                                                                                                            ",
"      , 1 7 , , , ) ; dXKXSXZXjXgXlXkXkXkXkXkXgXkXBXkXkXbXBXSXyXZ.vXZXSXVXNXGXGXGXGXVXlXL.lX;XL.kXkXlXlXlX;XhXuXc.;X>XP.H.H.- o . . !.~.2.;XkXgX2X].pX_.4 4 =.F B C B e C ` 6 @ < # $ K | P } N P y y t t N y y 4 @ 6 5 . b.                                                                                                                                            ",
"      > 2 , 8 , . X iXPXPXPXBXVXcXbXVXSXHXSXHXgXlXgXgX>X2XkXDXvXOXsXVXVXjXkXNXGXGXNXkXkXBXDXhXJ.sXlX6XgXgXQ.,X!.| H.].M.M.H.- $ # . b.H.| S.kXgXuX .].{ * # s.B B B B Z e r < O < # # P | P P P L N N N 4 t y n < w 7 < O k.                                                                                                                                            ",
"      x > > 2 O , @ fXIXIXFXyXyXfXZXZXSXSXSXSXjXgXgX1XlXNXSXVXsXz.C.yXdXgXkXgXkXSXgXlXgXuXmXsX~.uXkXgX4XgXQ.:X!.P P.].0.M.M.q # o . ] c.6.8.hXgX2X0.].| # X =.B g B B 0 Z V < # + + # L P P P L y y r N # 9 n n w v H 3 . m.                                                                                                                                            ",
"      d.> > , @ > , 8 CXZXz.%.T %..X:XSXGXHXBXlXkXlXgXNXSXVXVXuXz.h.&.Q.1X1X;X2XsXuXuXpXE.tX].>XuXgX4XgXgX!.>X!.P H.H.M.M.H.D $ $ O e c.8.6.gX2X2XM.>X_.< * =.B D B F a B J 8 # < < < y N 4 4 4 4 3 t e t e w n w M m < . g.                                                                                                                                            ",
"        O 2 3 2 , > > , Z 8 U sXkXNXgXkXSXGXgXlXkXVXSXHXSXNXkXfXA.&.C.sXNXVXNXkXNXsXuXuX~.aXR.R.,X4X4XgXgX>XtX(.t H.P.8.0.M.L $ O O 4 c.8.| gX2X2XP.~.] 6 * *.D F C F B B / 8 < < < 7 w 9 < 4 < + 4 w 8 e @ e n 5 M A 3 + h.                                                                                                                                            ",
"        A > 3 1 3 1 > > , c ) <XgX1X>X3X3XlX3X4XlXVXSXkXSXVXlX1XyX-.!.VXVXNXlXkXlXjXsXgX].eXc.M.>XgXgXgXgX>X>X(.$ M.M.0.0.M.L $ O O + j.| h.gXuX2XH.].[ 6 * [ F F F H B e ^ < 6 2 7 2 H N < 4 w 4 5 e J / ' J n 5 m m > O _.                                                                                                                                            ",
"          O > 1 x x x 1 1 1 , +X^.x.x.j.W 6.c.K.oX<X1XgXgXkXjX>XdX` !.sXlXlXNXkXkXlXgXgX>XtXh.c.sXjXgXgXgX,X].].u H.].M.M.M.P + O 3 O 4.4.c.,X].P.P M.] * 0 ` B B D B e b / @ 6 < 6 n _ m.i.B e < $ b ' i.' ! ~ 1 M m > O f.                                                                                                                                            ",
"            > 1 2 x c 1 x x 1 s.cXY.b.W.E.n.z.N.S.S.F.F.F.F.N.F.+Xx.:XjXNX6XlXjXkX4X].H.| /.k.c.uXgXlXlXkXuXpXE.P P.].P.P.H.6.$ $ < $ [ j.6.uX>X].].M.[ # a =.D D F D n Z ^ @ , , 6 n { i.H 9 e 6 # r _ [ [ J ~ 2 M m + O 4.                                                                                                                                            ",
"              , 3 2 1 1 x x x > 3 C I.I.E./.L.Q.:X:X<X4XsXgXjX,X>XoX1XgXsX4XgX1X>X>X3XuX,XuX6.6.uXgXgXgXgX,XuXH.R 9.M.M.M.P.6.. O @ . D h.5.,X>XuX].T.h.# B f.K K K J B B ( 6 6 < < b _ h.b 9 w w # r / ' _ J ~ 3 M m + $ =.                                                                                                                                            ",
"                , > , 1 3 x x 1 > > 7 p.^.+XJ.oX3X3X<X3XOXL.L.oX:X>X~.<X,XoXOXQ.H.].gXhXuXyXj.&.;X:X2X2XsX:XuXc.G y | 9.9.M.| . . O . r 4.l.].>X].uXuXc.* G g.Y K K K Z Z ) 6 , * 6 b / i.B w w e + e / _ R H H + M m 3 . a.                                                                                                                                            ",
"                  , > 3 1 x x x 2 8 , Z zX>XF.:XOX;X;XOXL.L.L.K.oXoXR.!.;X:XOXG.7.J.Q.!.E.+Xx.H.oXoXoX>X4X3X1X4.E j 9.c.| M.| $ . O . $ | n.+X].].].].n.q F f.D K K J B Z i.8 , < 6 e ! i.D e r 6 9 6 K Y K L Q + M m 3 . g.                                                                                                                                            ",
"                    , > 1 1 3 3 2 x c , v.^.B.oXL.OXL.L..XOXL.OX;X;XOX:X/.!.!.A.%.B.L.~.R.!.k.k.R.!.OX:X3X,XR.k j % | 6.h.M.c.$ . . . $ _.b./.eX].].].| X a g.F K K J V Z ' , 6 # < e ! i.n n w w < t K ! / F K < v b + . a.                                                                                                                                            ",
"                      3 1 > , , 2 x M 1 , 8 a.n.6.S.T.T.~.~.].~.:X].~././.!.Q.-.-.d.4.6.7.R.j._ b.Z.N.C.F.K.L.s t : P P P M.c.$ $ X . # / V.Q.~.~.L.].| < r g.F K K J B Z a.7 6 6 6 w K i.r n B n 6 t / K Y F K < w b # . a.                                                                                                                                            ",
"                        > 3 > 1 1 x x x x M ).^.].(.T.).x.b.n.n.Y.H.n.m.h.j.B.f.v.N.x.&.5.Y.b.=.v.v.` =.5.c.x.g j D H.P | M.6.$ . O . < L Y.J.~.~.].].h.* a g.F K U J B Z ' 6 , , 6 e J i.e H ! K w w K / K K K < w w O . h.                                                                                                                                            ",
"                          3 1 x x x x 2 2 m.wXwXwX).wX_.m.m.m.i.[ [ _.h.] [ ] k.V.V.b.b.4.k.k.v.Z.v.5.h.z.j.4._.y L | | P 8.| + $ $ @ @ K G.J.].].L.].h.X q v.K F / J V Z a.8 , 6 6 e Q ' e b v v 6 w / / R _ K @ 2 7 . . '                                                                                                                                             ",
"                            3 x x 1 2 x 1 x x x x x x x x x x x M m n D y D { i.' a.i._ _ Y / s.-.d.' [ R K | | u | M.h.| M.0.$ O O O < H n.~.R.L.L.>Xm.$ 0 I.L F / J Z Z *.6 , 6 6 e Q ' e b w w < t / _ / _ ! < < < # . f.                                                                                                                                            ",
"                              3 1 1 3 1 3 1 x 1 x 1 1 1 1 x x 1 1 3 5 y t r n N H H N D D 9 L F K D D q u N N u y u P P u | _.$ $ O + < { b.~.H.L.L.].| . a Y./ Y / U Z S *.8 6 6 , e J ' e e 7 7 < w / / _ _ K < 7 w < . b.                                                                                                                                            ",
"                                3 > 3 > 1 1 1 1 x x 1 1 1 > > > > 3 w N r r r t N N y L D N D F y L G D N P P u P P } P P | h.% $ O # < ] n.~.Q.L.~.tXM.o D g.K F K C Z C ) 8 6 < @ e ^ i.e e 2 2 3 t / _ / _ H w ! ( n 4 aX                                                                                                                                            ",
"                                  > , < 3 > 1 1 1 1 > > > > + > 1 O 5 r r n n N r y r D L F D y N L P N N N N N N P P P y | h.$ O O < 2 f.n.>X~.~.].>Xj.% a f./ J J F J a ) 8 , 6 6 e Q ' w 7 7 7 w w _ K / / K t ~ ( N D pX                                                                                                                                            ",
"                                  O @ O , O > > > > > > > > > > > > w 9 w t t r n r n r N N y r y N N N u N u N u P P u N P | + O . + > i.n.~.~.~.].].h.* r g.! K J C Z Z ^ 8 6 7 6 e ^ ' 7 7 7 2 w w ! ! K R _ w ~ ~ w 9 pX                                                                                                                                            ",
"                                    ] 6 + < O > > > > > > 1 3 1 3 3 t w 9 t w n n r r r r r r r y D L y y y y g y y y g 4 y N $ . . O O _.x.~.~.L.P.].M.5 t m._ J F J Z B ) 8 6 6 6 7 ^ ' 7 e 2 2 w w / K K _ _ 4 n m w 4 dX                                                                                                                                            ",
"                                        O , > O O > > > 3 > 3 3 2 < w 5 w w e r r r e D r r D B y D D n q y r y N L L 9 4 + . . O . O O h.b.~.~.~.H.].h.t r b.! J J H B a ' e 6 6 6 e J ' 0 7 7 2 5 w ! / { _ G < w M n w zX                                                                                                                                            ",
"                                            O O O + < < + > 3 3 2 3 2 5 w w e r t r t r r e r n y n r y r r q n t H < O + O + O $ o . B m.n.].~.L.P.tXh.- r n.( J U F B Z ^ 8 , 6 < b Y K * @ 2 w < w ! K F _ { < v m v w dX                                                                                                                                            ",
"                                                O O O > 3 + > 3 x 5 > 5 m n w n n n b n n r t N D D D r 9 t n t < O O O O O O + . < @ B h.b.!.].L.M.2Xh.# e b.i./ J C H J ' 9 6 < < r ' h.=.i._ _ J H H K J { { 4 w m v w zX                                                                                                                                            ",
"                                                    t < > O > 2 1 > 1 > > w w w w w w n v n n t n r r m r t + O O O O O > O O > O n 9 H m.k.(.~.].M.>Xh.o r v._ J F B B H ' 7 @ 6 e 9 ` &.=.=.Y K J F B F ! ! { < v m 7 7 MX                                                                                                                                            ",
"                                                        wX(.m > > 1 3 > + 2 O @ < t w w t r v n r n n N t < O O . O O O O O O O > m.> ~ v.c.].H.L.M.>Xh.o r v._ / J J V U ' 8 < < v 9 Y ` &.E G F D a r J ! ! ! < w b c 7 MX                                                                                                                                            ",
"                                                            p.O > 1 M > > @ O O O 3 < < > + 3 t 5 5 5 N O O O O O . O O O O O O ).w w a.n.n.~.J.L.H.>Xh.# g m./ / J H J / ) @ , 3 w n K &.G I Y K K 0 r K H { ! + 5 v 7 8 pX                                                                                                                                            ",
"                                                            m.O > > ~ > O O > O O O > O > > > O + + O O . O . O O O O O O O . ( m b g.v.).H.~.H.L.M.].6.# F g._ J U F H _ ' 6 < 3 7 b e q g a a D B a r ! K ! K < 5 v c 6 pX                                                                                                                                            ",
"                                                              O > 1 A > O O > + 2 3 O O > O @ O O + > > + 3 O O O O O > O @ n n < m./.h.m.H.~.~.~.H.].i.# r f.! J J Z B ! ' 7 7 2 v m r e w e e 8 B e n K / ! K 4 2 m 7 , iX                                                                                                                                            ",
"                                                                > > 1 > O > O < O O O O O O > O O + + + O > + O O O O O O w 6 < m.m.Y.n.m.H.J.L.L.M.~.P o 9 [ / K J F Z D ) e < 2 b m V n V V V m B V n H ! { H w 5 m 7 ,                                                                                                                                               ",
"                                                                > > 3 3 + + O O O < 3 3 3 7 7 , > > > > + > 3 O > O O , / H t c.n.G g 4.c.M.H.H.L.c.].h.o r a./ J K C F / _ e 7 < m H V B H J V B V n V ( { [ { t 5 v 8 O                                                                                                                                               ",
"                                                                  > + 5 O O O > O < 4 2 2 v 7 > > + > 3 1 > 3 2 O O 6 V . / _ E 5.5.n.M.H.T.~.H.P.H.!._.# r h./ / J F K Y ) e 7 6 n n B B Z B V V V V H p.i.{ [ n 2 v 3 O                                                                                                                                               ",
"                                                                    aXiXi.O O O O < < , , w 7 O > 2 5 2 1 > + 2 > 3 6 8 8 g.aX[ x.H.H.H.H.Y.Q.L.L.H.~.=.# B k./ / Y / Y ' ' e 6 , e Z b n B Z B V V H H ! ~ ! ~ t 2 b v @                                                                                                                                               ",
"                                                                          O O O < 5 < , @ 7 2 , 2 5 w 5 < 3 3 3 3 3 6 Q Y 6 G c.B.H.G.H.S.H.~.L.P.c.>X| # G n./ _ ) / _ ` ` e , , m V a b B B V C J Q H { { L { n 3 n v @                                                                                                                                               ",
"                                                                          , @ O O < O < v 7 7 7 O O < > > O 3 3 , v V ' J ] R h.H.x.H.H.H.H.~.L.H.c.>X6.o F k.Y _ / K D J ' e 6 , B B m B B C H H H K H ! ! ! { w < m 7 O                                                                                                                                               ",
"                                                                          7 O . < < , O , , O O O > 3 + 3 O + > B ( C ` s.n.x.x.J.x.H.J.S.L.~.L.P.M.>X[ X K k.L F K J K f.[ b 6 6 V V a e 8 * e Z H J H ! { H { t < m 7 @                                                                                                                                               ",
"                                                                          V . O > @ O O @ O O O O > + < 3 O # > 7 e e _ m.V.x.B.J.F.F.H.S.~.~.L.L.S.;X| # ] k.g D a D J ' i.B w 6 V J b e e e B J Y ! H F K ! [ n < H v $                                                                                                                                               ",
"                                                                          ! O O < e b w w 8 w w n n w 4 < O < 2 6 Q e _ V.Y.k.H.H.H.J.H.N.~.].~.S.Q.>X| X f.n._ H w 8 $ K i.H < e Q n B n Z B H / ) ! K K K / _ r 3 m v O                                                                                                                                               ",
"                                                                          m.O O 9 6 w t 6 r r r n t n n r n n B n V ! f.n.T.B.H.H.V.Y.H.B.J.~.H.c.J.E.g 4 N n w 5 5 w b H i.! @ w F B B e a K / / / ` F K Y _ [ n w w ~ @                                                                                                                                               ",
"                                                                          v.O O # w n n g a a a n n n y r n r n n B H { _ _ [ ] =.] 4.` R [ h.[ N y 4 4 + 4 5 3 > 2 5 w w B b w w n B n e 6 J Y Y / / F K / ! _ n < 3 ! .                                                                                                                                               ",
"                                                                          I.O O @ < < @ < X # 9 4 6 4 < < < 9 < @ # 9 9 # # # 4 9 < t < 9 4 y + 4 4 + + < < < 2 3 2 w 2 O < @ 6 7 n e e B B D J J F H F L / K ! w < , b <                                                                                                                                               ",
"                                                                          (.> O O 6 < 9 9 t r 9 9 t 9 t w t w 9 < < 9 9 9 - - # - # t + 9 + 4 + 9 t # + $ 3 < + + 2 w 3 O @ < , < @ w r e e e e e 8 6 r B F F D < @ < < r                                                                                                                                               ",
"                                                                          eXO O . D J F F D D n L _ [ D D K H / K / =.` ` R I P D L G P g [ G W 6.[ W t # 9 4 > 3 5 v w w 6 < w w r e B B b e e 7 6 B 6 < < 7 w 7 3 3 @ aX                                                                                                                                              ",
"                                                                          aXO O O Y / K K L g D _ { K N L [ K [ R ` h.4.5.5.5.h.c.F.x.J.H.>X>XsXuXjXbXn.g y _ N t < < < @ $ @ $ 6 w n w 9 9 w n H e w n B r 7 D < O @ < pX                                                                                                                                              ",
"                                                                          aX> , . =.f.4.4.4.| _.k.R | [ [ 4.] 4.&.4.j.5.j.c.c.H.]./.].].].].gXsX4XgXjXW K L ! 5 w O < t < @ @ < 6 6 6 # e r 8 w < # B H r w e B < O , , zX                                                                                                                                              ",
"                                                                          MXO < $ k.j.j.7.4.c.n.x.n._.c.4.4.7.4.4.6.c.H.H.S.S.M.~./.].P.].gX4X4X2XgXgX[ R L H 4 < # D g.h.' @ O < n n r 6 # < < w w B n n B n e 6 3 , @ /                                                                                                                                               ",
"                                                                            3 @ O =.b.j.c.c.c.~.c.c.6.c.4.6.j.j.n.L M.c.!.uX2X;XL.~.R.~.c.gXgX1X4X1XuX| _ L K t e O D ] _.r + # $ b D r r e r e # 7 e n w w < v b 2 O 6 n                                                                                                                                               ",
"                                                                            , O . 4.n.5.6.j.c.R.J.c.6.| W j.c.M.H.| h.c.>XhXcXmXcXnXmXbXE.uX1XsXsXuXuXP G G K V e @ L ] _ y $ O < n n n r r 9 9 B @ r B D ! ! { ( < < 3 _                                                                                                                                               ",
"                                                                            @ < . -.k.j.J.B.x.H.H.S.j.&.I E c.G.Y.mXhXbXcXtXT.).wX(.d.I.JX:XsX,X,X>X>XR F G _ w 6 , K [ R D + < < 9 n r r r e 0 r 6 B F K ! K ' i.> < , ]                                                                                                                                               ",
"                                                                            @ @ @ a.k.V.x.k.f.4.[ j.n.B.b.6.4.Y.n.MXnXmXeXH + 5 Q v.rXxXCX+XyX>X>X3X,X[ G F ` e w w K ] [ D < + 6 w n n r r 9 0 a 6 B ! K / ~ ' [ 3 3 , !                                                                                                                                               ",
"                                                                            O @ O a.i.K F ' ( Q # o D J / K K ] ~ N ].wXY.cXbXcXbXcXcXcXcX<X:X2X2X>X>XE F G ' D w w _ | [ y . < 4 9 n r 0 9 9 9 9 @ a B ! ! H ' ( > < O J                                                                                                                                               ",
"                                                                          iX, , O B ! ( i.m.m.g._ n ! { _ H [ L 5 M _.i.I.mXcXcXhXdXdXdXuX<X>X,X,X<X>XY F G [ n 7 b _ ] R r + < 5 < D n r 9 # # * e r D J K H ! ~ > 2 @ !                                                                                                                                               ",
"                  A n V n n b n v m n B B H H H ! J / / _ ( i.i.i.' ' i.! H > O . e r H ! H N w 5 5 N ~ ] _.h.n 5 Q p.x m ).hXgXuXuXpXuXyX<X,X,X3X>X>XF G F [ B 7 r K K D 9 # < 4 < B N D # 9 r r H e D ! ! e B V > 2 O K                                                                                                                                               ",
"                x x O < 6 w w w v v w v v e 5 x 7 7 6 7 5 5 5 6 7 e e e w 3 O 3 @ 0 N { _._.i.{ { { L [ N N t y N w n p.x n pXsXuXuXsXyXuX,X3X>X>X<X;Xy G F [ H w b D r - # + < 5 9 D D D n r _ _ J r r D F H H H , 7 O Q                                                                                                                                               ",
"                I.x 1 x r H C J { i._.m.v.).).(.(.(.(.^.(.T.T.tXY.eX/.(.T.T.m.P n.T.pXhXhXBXCXDXFXDX>X!.V.y >XE.- f.4 H e $ ^.dXuXuXyXyX>X2X>X>X>X:X:Xg K F a.J 8 7 B F n 6 # < 5 < H K J F D n r 9 < r H H C F J 3 7 @ D                                                                                                                                               ",
"      JXJXLXPXPXLXJX(.LXUXUXmXCXJXLXLXLXLXLXLXLXLXLXLXLXDXmXmXCXhXDXCXCXUXmXcXzXcXhXbXgXSXBXBXbXSXjX>XH.yXuXx.` hXcXn.r F 9 r aXnXiXyXyX,X>X2X>X>X>X>Xg Y F =.J 9 b ( ) / V + + 9 4 H K K L r ! D ' / B K U H J C < < < B                                                                                                                                               ",
"  a., M p.rXJXJXKXKXyXCXbXbXvXCXCXmXDXDXCXDXDXDXKXKXDXKXDXhXbXmXpXvXDXDXmXbXuXdXUXhX>XjXSXBXSXbXBXgXL.dXuXdXsXh Y.uXpX/ 9 9 ! zXm.).eXyXuXtX>X,X>X>XuXq F K s.J < 8 U Z Z 0 @ , 9 < K _ _ ! 6 B n r 9 K J / H J V < 6 < n                                                                                                                                               ",
"  ( , , 2 3 ).LXKXBX~.BXcXbXbXbXbXbXbXvXmXbXCXDXDXmXDXBXDXhXkXbXuXvXDXbXbXbX,XhXbXhXH.cXbXbXBXBXbXdX2XgXjXsXvXE yXtXdXh.o 6 m.rXi.[ 3 yXuX].>X>X].>XyXy K Y f.J 9 0 C a 6 . O # < < H ! { Y # $ . @ # / J ) B ! B 2 < < B                                                                                                                                               ",
"  ).M c A c b CXLXDXuXBXkXkXkXBXvXbXjXjXbXbXDXDXCXBXSXBXBXjXcXbXgXjXBXbXbXvXjXhXjXpXW H.].].].hXjXgX!.uXyX,XyXC.>X>XpXR.. . a 9 w % N yXhX>X;X>X>X;XuXq U Y f.K 0 e U ) ' D O @ 6 < { ! _ _ @ # # O # ! K / J ! n w 2 < D                                                                                                                                               ",
"mXU.A > M 7 O nXLXJX2XFXsXjXNXbXjXjXjXjXjXjXBXBXbXBXCXBXbXkXkXjXuXgXbXFXSXSXbXkXkXgX(.LXLXDXGXDXBXjX>X>X+X+XY.n.Y.g.b.# X o @ @ $ + N uXhXtX].>X>X:XuXa Y _ f.K 0 a Y ) *.F # # 4 < ! K _ ! . . . . # / ! / J / B b 7 < D                                                                                                                                               ",
"nXwXV 2 7 7 . nXKXJXJXKXgXjXjXlXgXgXhXhXkXvXBXbXbXbXmXSXbXkXbXkXhXgXbXSXSXBXbXgXbXbXgXDXDXSXGXSXSXbXgX,X>X/.!.G.V.n.vX4.* # * 6 t y K !.jX].+X>X:X~.uXg _ ` f.Y 0 a ` ` ` a # @ < , / K ! _ $ O < # < [ / / ~ / n v < 6 B                                                                                                                                               ",
"ZXeXm A 3 6 # cXPXPXPXIXCXjXbXkXhXhXcXkXkXbXDXGXCXkXSXbXbXkXjXcXjXkXkXSXBXkXbXkXkXbXuXBXDXSXGXGXFXSXkXkXjXyXR.V.B.h.hXpXG * 9 $ + 4 r 4.bX~.].tX:X~.,X- Y K ` F 8 s T ) Y a X $ < # K K _ R O . 9 6 9 ' / / H / r n 3 < r                                                                                                                                               ",
"  eXm V 2 9 @ zXLXnXxXnXVXzXVXbXkXBXBXBXSXbXjXVXBXBXSXDXSXsXgXkXgXgXkXbXBXSXSXSXbXBXhXcXSXSXGXGXSXSXhXuX>X!.E.Z.Y.h.mXcX+Xk.9 $ # < r G hXR.~.:X:X/.>Xr Y Y =.F r a ` / Y a @ X < @ K K ! ! # O + @ 7 ' / _ ! _ e m 5 w r                                                                                                                                               ",
"  iXv V < w 8 , M 2 8 , LXZXjXvXbXBXSXbXBXSXBXVXSXSXDXDXjXgXkXkXhXgXkXkXDXSXGXGXDXSXkXgXkXSXSXGXSXSXuXuX+XW.B.Y.R.F.CXbXpXtXB $ # 6 F D pXH.!.+X~.].>Xg _ ` ' F e a [ ' ' B * . # + K K _ Y @ O . O w ' _ ! ! ( w m w 6 e                                                                                                                                               ",
"    v V , 6 6 O . . @ O JXVXvXvXSXbXSXBXSXGXFXSXBXSXDXSXhXuXBXhXjX2XgXbXGXSXDXSXSXbX].].hXkXDXSXSXkX,XuXuXyXyXE.Y.N.dXpX>XH.@ . o < 0 * /.G.!.].].+X>Xy _ ] ' K r B ' ' i.! @ o # # K / _ K @ . O # B _ ( { ! ! 4 m t 5 e                                                                                                                                               ",
"    V V O O @ O . + @ O nXnXfXVXBXBXSXBXBXSXFXSXbXSXBXkXkX2XjXlXkX>X1XbXSXbXSXSXkXcXaX2XhXgXkXSXkXkX;XyXyXtX+XY.R.h.uX>XE.n.* . o @ # X E.H.Q.~.+X].yXr Y =.` K B D ' / J t @ . # # L ! _ K O O @ 6 J [ ! _ ! ~ < m 2 w e                                                                                                                                               ",
"      m.O @ > + O + + @ LXbXhXbXSXBXBXBXBXSXkXhXkXkXBXkXkXgXhXjXkX;X2XbXbXhXBXSXBXhXgXuXkXkXSXGXkXkXoX,X+XR.Y.b.H.k.yXR.Y.h.$ . @ $ * X k.c.Q.Q.!.~.>Xr D Y [ K e n ! $ O . . O @ # F _ _ _ $ $ 6 * D / / _ K K < H v < 9                                                                                                                                               ",
"        > + > + + + O O UXDXcXBXkXhXhXkXkXgXgX1XuXbXBXkXhX,X1XgXgX;X,XkXgXkXkXkXkXgXuX].gXgXkXkXbXkXjX:X/.R.Y.V.V.j.>XR.C.f.o X @ @ 6 @ n.c.!.!.!.~.].K G f.=./ r n ) n < . . . # # K / _ H 6 =._ 0 6 _ K ! K J < H w < 9                                                                                                                                               ",
"        e , > O > + + V IXCXuXvXbXjXsXgXgXsXsX1X<X1XsXjXkXsX2XsX1X<X;XsXuXkXjXgXgXhX>XL.,X;X2X2X2XgXsXOX!.Y.V.B.C.5.oXY.B.4.o @ o @ 6 6 b.H.~.!.].~.>XG ` a.f./ V H i.N 6 O O . $ # K / _ D 0 K / B 0 _ K Y K K < H w < 9                                                                                                                                               ",
"        e @ , > + O O < nXd.; 5.,XpX,XuXsXsX2X;XJ.OX1XsXgXsXyX1XL.oXJ.2XgXjXuXjXuX1X~.8.L.;X2X2X2X2X1XoX!.E.G.C.V.&.!.H.x.=.# o # # 6 # k.H.~./.>X~.tX] R f.g.! K { ] ! ! B , O @ # H K ) L 8 =.] Y _ Y Y Y J K 3 N v < 9                                                                                                                                               ",
"        * @ . < O $ . O . . O . O T.!.Q.oXOXK.L.D..X:XoXP.L.L.;X,XL.F.2XuXbXkXlXgXyX,Xc.c.3X1X3X>X>X,XoX,X+XE.G.H.&.E.G.x.a.< # @ # t 9 n.F.+X!./.~.yX| _ k.f.R ! ! [ { _ D 6 $ O # K K _ F w ' ` r L / _ Y L J O n w 4 9                                                                                                                                               ",
"          k.@ # + # O < O O O > 3 tXdX:Xr.S..XL.L.OXgXkXsX3XOXsX2XJ.J.,XsX1X2X1XuXgX;XM.c.gXsX;X].;X].R.hXyXQ.G.V.=.Q.H.x.| 4 + # @ 9 9 x.n.].~.oX~.>X4._ f.f.K R K [ ! ! H < O @ @ F K / D ; ` F @ K [ _ / ! ! < n m w w                                                                                                                                               ",
"            E.@ < O # 3 < O O 3 O ^.uXtXL.J.1X4XL.L.gXlXgX3X;X2X>XS.L.Q.Q.2X;X2X;XL.H.&.2.~.L.J.H.L.F.6.Q.J.N.x.l.=.C.F.j.] # $ @ O w # h.B.>X~.oX~.>Xf.G ` ` a G K R K K H < O @ O J K / g * U r . L [ ' _ / K < H m 2 w                                                                                                                                               ",
"              , O @ . @ # > + O O . /.yX].L.1X2X1X2X,X2X2X;X;X;X;XH.].!.H.~.J.F.~.~.H.7.6.uX3XgX;XOXJ.N.F.C.l.f.z.&.b.c.6._ @ @ # $ 9 6 h.c.R.~.!.~.>Xh.G _ ` F Y _ _ H K D 6 O @ @ J K / a * B e . D _ _ _ K Q < H n 4 6                                                                                                                                               ",
"                7 O O # + < + O O < g.R.H.H.R.H.Q.;XgXjX2X;X>X~.>XH.:XoXc.c.;XH.J.H.n.H.x.M.8.c.c.8.6.8.x.N.j.5.f.&.c.c.h.| 9 o # # 9 @ h.j.R.Q.~.~.>Xn.r _ *.F Y Y ' K J H , @ $ , H K / F X 0 # o D _ _ _ ! ! @ m v w 9                                                                                                                                               ",
"                    6 , 3 + < < O t tXm.F 5.7.6.c.7.c.b.S.c.n.6.j.6.x.M.c.j.6.6.j.c.c.j.j.c.c.F.c.8.c.c.j.j.j.z.7.=.f.k.f.i.# # # @ 9 # h.4.!.~.~.~.>Xn.s =.=.F Y / ' K H B 8 O > @ D Y / B X 6 @ @ D _ _ / ! K + n n 7 9   uX                                                                                                                                          ",
"                      < < < < < 7 < ' K j.n.c.7.j.7.&.%.2.6.6.6.6.c.H.j.8.5.6.j.H.n.6.b.5.c.8.F.c.8.c.N.7.j.j.j.f.-.s.j.4.[ # @ # @ 9 @ f.` oX!.~.~.>Xn.e g.=.G Y / ` Q J H e O < @ J / / a @ a r # a _ _ _ ! ! @ m n 4 9                                                                                                                                               ",
"                        2 < 2 < 6 6 r _ ] m.G.c.F.H.5.6.E 6.H.H.8.n.b.c.j.6.j.c.c.c.k.k.c.j.j.c.7.c.7.j.z.j.j.-.f.%.4.5.&._ # @ # # 6 . f.E !.~.~.~.>Xn.9 k.*.F Y E ' J J ^ 8 @ w 6 J Y / e @ _ J O r _ _ / ! L @ V n 9 w                                                                                                                                               ",
"                          2 , 3 7 v , v ! i.v.b.H.b.5.f.` h.f.j.` 5.=.&.4.] E E j.4.5.x.h.5.[ &.5.&.5.&.E %.-.f.f.T &.=.` Y @ # + + # @ f.4.R.R.E.E.].).9 i.) K U Y K U B A < @ 9 # H / ` e < ' B @ F _ ) R _ _ O N n < t                                                                                                                                               ",
"                            , 7 v ( 2 > O O @ . < e a Y I ] ] [ ` ` 4.&.4.` E ] ] 5.` =.` &.I =._ &.` &.*.&.=.*.` Y ' ` _ Y # $ 4 # * o f.h.T.E.~.R.wXV.e =.K D B B B J Z J 7 @ 8 @ C Y ) t 6 / e . H _ _ R / K O n n w q                                                                                                                                               ",
"                              2 x 7 O + O < 2 + @ O @ @ @ @ O @ @ 8 8 e a e 0 e r F D F D H B F F D B G G U Y ` J F U Y Y U @ o + o # @ f.b.Y.E.~.E.!.T.e / H B a B D C B V 7 @ 6 # B Y ) w < / r @ H _ _ / _ ! @ H n 9 t                                                                                                                                               ",
"                                3 O @ > < 3 5 3 2 O > O < , , O 6 , < , 7 6 6 7 < 9 w w 6 w 8 9 6 0 9 < 6 8 0 e ; 6 e B K F @ $ 4 # * = f.n.H.E.E.!.E.T.e B U s 0 e D C C Z 8 @ < # B Y / e # H e @ B _ _ _ _ / $ m n w 9                                                                                                                                               ",
"                                  O O < 3 > 3 + > 3 , 3 3 , , 3 > 3 7 x 3 7 > 6 2 6 6 w w w 7 t w w w e 6 e 9 e e a B 9 / B 6 # # # @ * m.V.I.!.R./.E.^.e _ / q 0 e e e Z V b @ 4 6 B F / w @ n 6 * B _ Y _ ` ! @ V n w e                                                                                                                                               ",
"                                    , > + O 3 3 > , > 3 , 3 > > > 1 , 2 2 c c w e w e w w e b b r B B D n n B D Z b 8 e H a @ + # o # # g.n.T.!.E./.!.(.a ` _ D g C B ^ e C 7 @ < 8 D F ) 9 w w < # r ) _ _ / F < N v t 9                                                                                                                                               ",
"                                      3 1 3 @ O , , > , , , , > 3 2 7 2 v v Z b b b a e b Z B C B B B a B H e e a 0 B B J B @ $ # $ @ 6 k.V.V.E.E.E.!.(.r Y [ K K B a C a V w @ < 9 G H J 6 < 9 6 < t _ Y _ / L < n n b q                                                                                                                                               ",
"                                        , . O , @ , , @ , > , , 5 3 2 , 7 7 v e e a e w e e Z a B B Z B B C s e w e U Z B Z X $ $ . @ X b.V.Y.!.E.~./.^.D / ' Y Y F B H C C e @ 9 9 Y Y R K G R y 9 L _ K / / H t N w t t                                                                                                                                               ",
"                                          > > , O , O > O > < > w 2 O > 7 7 m e e e a e a Z Z Z s Z b 8 s Z Z e @ , , 6 * 6 @ @ * @ * ` v.B.V.E.!.R./.^.e U [ Y / / ^ / ^ ( b O < 9 Y | P | W } W | W P R { _ F , b w e t                                                                                                                                               ",
"                                            , $ . O 7 O > O > O > + > 2 c Z v Z Z Z Z b b Z Z Z V Z Z Z Z Z 7 8 > , , @ . @ @ D 8 Y f.g.b.n.x.R.(.R./.!.a H ' ` ` ' ' ( J Q n O + 9 K W | | } } l P W L G _ K D < t w t e                                                                                                                                               ",
"                                              < . nXnX@ , , , , + 2 5 2 m m e m b b Z b b Z B Z Z Z b e w e , 2 , > > @ @ O @ 8 _ ] g.b.n.b.n.R.!.R.E.^.F B *._ / / _ J V C 7 $ # 0 F W h.| | l P } P K K / K D < e 4 w 9 pX                                                                                                                                            ",
"                                                    zX)., > O O , > > 3 v B 7 e e e e 7 b v n b b b b b 2 6 , 3 1 , O , , O O C / ' =.k.n.b.I.Y.E.E.E.E.F B =._ Y / ' J J Q 7 O # 9 a | W P P P z P y r L Y F H w n w t 9 pX                                                                                                                                            ",
"                                                      JX6 3 O O , , > 3 7 < < O , , , , 7 w 7 2 7 w v 7 > @ , , + , > O O O O ) _ B / k.b.x.Z.Y.R.E.E.E.F F *.` U Y / V Q C b $ + 6 6 0 y % % % y - q D K / K K ! n w w 9 pX                                                                                                                                            ",
"                                                        I.O , O O O > > 3 + + > , @ @ , 7 7 , 6 7 7 , , < 3 O 3 > > > O 3 O 4 J _ g.f.k.k.k.Z.H.R.E.E.E.B F ] / K Y / B Z J e < < e * 6 9 % g r t 9 r 9 K / / _ / w < 7 9 pX                                                                                                                                            ",
"                                                        zX. 3 < , A ~ > + > + > O O > O < , > > O > 3 < > > , > > > > O O m Q i.v.v.v.k.k.k.V.C.Y.R.R.T.a B ` ) U Y K Z C K B @ < e V J n e H Q r t b 9 K / / / ! w w 9 t pX                                                                                                                                            ",
"                                                          . . . @ ( O O O O + > O O > < 3 2 w 7 9 3 < O > + > O + > O > b ! / g.g.g.f.l.b.b.n.C.Y.R.R.Y.a a ` / J J J / ) U B # 9 C C Q H n Q ! m w e r H / Y Y ! w n < t yX                                                                                                                                            ",
"                                                          ) @ 8 @ a.e n < O O O O > > 3 , 2 b 2 3 , , > + > > + O + < w J ) _ g.g.f.g.b.b.b.n.b.C.Y.Y.Y.a a ' ` Y ` / / ' Y C @ # n V C J V ! ~ n n t 6 K R ! / ! t w < r uX                                                                                                                                            ",
"                                                            Z , . m.< . O $ O O + > # 3 3 w v 3 > , > , > > O O + O O J / =.s.k.x.b.n.n.V.V.Y.R.E.E.R.E.a B ` ) / U J ^ J J B @ 7 B B V V V _ ! J n n 6 ! _ K K ! w w w r aX                                                                                                                                            ",
"                                                              ^.s.UXv.).H O . O O > O > > x 7 > > > > , > > O + # # 9 J _ *.f.v.b.n.V.I.V.Y.T.Y.E.!.!.E.a F =./ / / / ` ' a.C 6 8 e B B B e H B B D D r K K R K ! w w t t yX                                                                                                                                            ",
"                                                                        JXb O O O O O O O 7 3 O O , @ > , > O < @ n J _ s.v.k.V.V.T.E.Y.T.T.Y.n.=.&.b.T.s U a.' ` ` ) ) / ` B 7 # @ e 6 B e r 8 t 9 9 g K R R / ! w t e y iX                                                                                                                                            ",
"                                                                        UXm.O O > . O O > c v v 2 , 3 , O > O < e F Y a.f.k.b.V.V.E.T.k.k.I.Y.Y.b.k.V.E.0 B ' ) J ) / ' ) ) / 0 ; B F F B B n a a r L Y R R Y ! H w t N r yX                                                                                                                                            ",
"                                                                        JX).O > + O < 3 7 b m w 7 3 , > , > < B B / Y *.k.k.k.B.V.E.^.E.Y.Y.Y.E.G.Z.R.Y.= B a.' ) / ' a.' ( J 8 8 e ' B D r B r J L K Y K R G K ! w 6 n t pX                                                                                                                                            ",
"                                                                        JXI.> O O . > O > , , > > O O 3 O O 7 ' J / U ) f.k.b.V.T.Y.n.b.Y.T.E./.Y.G.E.Y.4 L i.' ' ( a.a.*.Q ' J 6 B U a r e L D F K G K Y G I L H e t e r iX                                                                                                                                            ",
"                                                                        JX(.O O O . O , O , . O O , O O > 6 < Z J U 0 K -.b.Z.I.Y.I.Y.v.V.T.^.(.T.Y.E.n.[ ! / / / K / / ) ) *.) e B J F B 8 n ! L _ ` K G Y L H b w D e a uX                                                                                                                                            ",
"                                                                        JX^.O . @ w V C Z B e e t e t @ # 6 w n V B H a.g.n.n.T.T.T.(.(.n.).b.n.i.{ < + + + + + @ O O O B Q ) V B Q J H n 6 n B B D K a.V < w 3 2 w e 9 r pX                                                                                                                                            ",
"                                                                        JXwX. O , e C ^ Y B r B D D D n n D n ~ n v 8 r B B e B n 6 9 w 6 7 7 < 3 w + + + + + + O $ @ @ 6 @ e 7 8 9 n H < 6 6 < 3 w n v n < 2 w 3 < w 6 Y.                                                                                                                                              ",
"                                                                        UX/.O . O O O @ @ X $ # + + + + + $ + + > + + > < < + + < + 5 4 + + # O , < O # + + + + + O # O O . . < < + w m < < + < < < N i.~ 2 v m 3 , < e iX                                                                                                                                              ",
"                                                                        JXwXO . O O O * 6 $ 9 + 4 < 4 + < 5 9 w 5 w < t t t - + # # 9 r t # # < 6 9 # + , + @ O O $ < @ O . O O O < < + w < < O 3 + H v H b H m , < # K                                                                                                                                                 ",
"                                                                        mXeXO . . e V J K a [ G [ ] { K D _ ! / ' / f.j.g.b.V.b.W.W.!./.Y.!.+X+XyXtXaXh.e ) ! J Q V V b b 7 < w O + + < < < O > < 2 n v 3 3 H n < , , _                                                                                                                                                 ",
"                                                                        JXwXO O O B V B F a [ ` n L a K D K K / ' ` s.=.z.j.z.Z.C.x.C.-.T B.W.OX:X>XyX] F U ^ ^ ^ C C Z ^ ( J b < 7 < 3 $ O < O O w n H J w H n # 7 O h.pX                                                                                                                                              ",
"                                                                        JXwX. . 3 C C J C G s.=.` E T &.T T ` ) a.) -.*.s.s.z.A.l.*.-.U -.W.+XoX>X+XsX*.S ^ S ) ^ ^ S ^ ^ ^ Z 6 @ O H Q J b < , w 6 < H _ ~ ! m < 6 < O .                                                                                                                                               ",
"                                                                        UXwX. O e *.) / ) ` z.f.s.C.-.s.=.*.-.*.a.^ *.U T T z.W.W.Z.A.z.= OX+XoX+XoXuX` T *.S ) ^ ) ^ S Q ^ 7 @ , 6 / b w 7 v w ~ Q < b ~ V H H w w w e 0                                                                                                                                               ",
"                                                                        mX^.O O *.f.*.a.` -.s.=.` -.*.a./ E &.*.*.) d.b.v.N.C.OXZ.d.z.v.*.U.OXOXOX;XuX&.S U S ^ ^ ^ ^ S Q / 8 < 7 7 Q Q V b @ 3 V ( V V J v n H 9 w n V 7                                                                                                                                               ",
"                                                                        JX(.O . / S C F U ` -.` ) s a U J Y &.Z.+XU.C.Y.W.@X@XyX+XU.@X/.I.+X@X@XOXoXsX&.U U S ^ ^ ^ ^ ^ J J e 3 7 , m Q n , < v V J J V ! n ~ J < b v n 7                                                                                                                                               ",
"                                                                      nXJXT.. @ f.` &.=.k.l.k.l.x.n.B.n.m.b.C.W.K./.Y.@X+X<X<X1X,X+XyX,X:X1X1XOX.X;XsXW U U S ^ ) ^ ^ ^ F B < . O O 7 V A < , , , @ , Z V w V H 2 n w V 7                                                                                                                                               ",
"                                                                      JXKXf.< 9 =.*.s.h.f.l.Z.c.k.j.] B ; D =.j.x.k.+XtXyXyX1X+X;X;X<X;X~.,X,XQ.OX;XsX{ I Z F U ^ ^ ^ Z J ) e . O , Z Q H 7 , , 7 , 6 J C b ~ H 6 n w m 7                                                                                                                                               ",
"                                                                  @Xd.(.).K t / a._ J D D =.[ Y _ G R ] e w r e s B ` yXuXyX,X+X;X@X<X:XoX@X:XOXoX].sXR C U Z ^ S S S a K / w w < , V A Q < < b m 7 . V J v ~ H 9 m v b 7                                                                                                                                               ",
"                  6 Z w Z e w 6 8 , 6 = , 6 @ @ = @ 8 , 8 = @ * 0 w O . $ < 6 @ F V B a a h a 6 q [ H.F 7 < w 8 , w B ` _ dXuX<X@XOX3X:X;X;X+XOXoX>XgX{ Z S Z U ^ ^ U C ^ K w w 7 2 C Q ~ 7 < 7 b 8 @ Z H w m H 4 H v Z 7 T.                                                                                                                                            ",
"                  8 a 8 V Z b b b Z Z b Z v e b Z B V V J C N r r H r N 9 g r q K K F R R g a h g P 6.L g.5 < . , B ! V * q yX:X;X;X;X;X;XoXoXOXQ.oXdXY J U S ^ ^ ^ U J / J r v 7 < J ~ Q 7 8 7 Z e w C J c m H 4 m v b 7 T.                                                                                                                                            ",
"                  e * 8 ( i.s.a.a.a.a.a.a.s.s.k.m.m.m.v.n.v.m.h.4.k.m._.E Y G D G 0 q x.gXuXG.<XhXjXsXj 0 * + @ * 6 7 N + r n.dX>X>X].oX;XoXOXQ.Q.oXuXF C C / ^ ^ ^ U J J / n H n 7 A Q Q w 7 b V Z B ^ ^ b ~ H < H v m 7 E.                                                                                                                                            ",
"                mXa.@ +XCXKXKXKXKXKXKXKXKXLXKXKXKXDXKXDXDXKXDXCXvXvXcXcXhXuXuXpX+X+X:XOXgXKXIXGXGXGXbX2XL.c.l.%.E.IX) . 4 h.h.E yX>XQ.].oXoXoXOXOXoXhXs Z Z ^ S S S J C Q J B n 7 6 H / ! m w Z v 6 V ^ ( A n H < N v m 7 E.                                                                                                                                            ",
"  iXI.      mXCXCXdXl.vXCXZXCXVXbXvXvXcXvXjXcXcXvXvXbXbXbXmXCXUXmXbXbXbXvXhXsXuXuXyXgX8.4XSXGXPXPXGXBXkXGXZXKXZXmXyXY < N nXR.q - V.!.R.:XQ.~.Q.OX+XhXF Z ^ V ^ ^ U C H Q / w t < 7 Q J Q b 7 v 8 @ 8 ^ ( V V H 5 V v v 7 E.                                                                                                                                            ",
"  A > , , ^.JXZXKXmXdXcXfX+XvXvXvXdXdXdXdXsXfXsXgXjXvXvXjXcXjXdXpXcXbXDXVXsXpXjXkXFXDXSXBXBXBXBXSXSXNX3XHXOXFX<XyXf.0 @ t D r $ 0 q /.;X~.Q.Q.J.Q.~.hXF B ^ Z ) ^ ^ C Q / ( n B t < J J J b e Z b 8 c ^ ( V V V 5 H v m 7 T.                                                                                                                                            ",
"  Z 3 x x 8 JXnXCXvXvXDXKXZXfXZXVXZXVXVXbXVXVXVXmXSXDXCXCXDXDXDXDXDXGXLXGXkXFXKXPXPXIXPXbXfX<XW.L.L.OX3XlXA.fXOXdX&.0 @ O . @ @ # q I >X,XoXQ.L.Q.oXpXF V / C ) ^ C C Z J ! H F e < J K / B b ^ ^ Z 8 Q ^ A V ~ 4 H b v 7 E.                                                                                                                                            ",
"  ~ 3 c c , nXJXJXmXCXDXjXjXO.hXVXKXFXFXDXDXCXmXDXDXDXCXSXDXKXCXDXbXDXLXPXhXlXVXvXNXlX:XsXhXjXVXSXFXNXjXsXOXfX@XhXKXY < < + @ @ # + % gXuXQ.OXQ.Q.L.fXF B ^ Z Z C C Z H Q / b r e * ! J / Z Z ( a.^ Z V Q ~ A H 4 ~ b M b T.                                                                                                                                            ",
"  d.x x c x s.JXJXKXKXKXDXhXl.jXZXKXDXBXDXDXbXjXbXCXDXSXKXDXFXFXbXvXkXSXGXVXFXGXGXSXkXOX@XsXjXNXlXlXNXNX4XC.<X@XyXfX] . # O < @ t < + dXgXH.!.Q.Q.Q.uXF B J C ^ ^ S J C Q ) r w 9 < J H _ V Z ) a.( / Q ^ A A V 4 ~ b b 7 U.                                                                                                                                            ",
"  v.x 1 x 3 > JXZXCXKXKXCXvXA.1XGXKXFXVXDXZXVXbXbXBXVXCXCXjXG.+X>XH.sX1XKXGXGXGXSXSXVXN.N.<XNXNX4XNXlXSXsXJ.:X@XfX-.LXJXaX> 3 2 < < 9 >XjXS.!.Q.Q.Q.dXF b S ^ ^ ) ^ Q C U ( V w w 3 J J ! B V ^ C ^ C ( ^ A A V 2 H m b 7 E.                                                                                                                                            ",
"  U.2 3 x M O b I.dXKXbXmXdXyXjXBXZXVXkXAXvXVXkXBXCXBXCXDXsXN.6.B.x.,XuXZXGXIXGXHXHXNXOX7.5XNXNX6XNXBXkXhX~.N.N.uXs I.IXIX1 2 + > v 9 H.bXc.OXL.Q.R.uXD Z S a.^ ^ ^ U V / _ D n e < ! H ! b v 8 8 , Z ' p.A p.V 4 ~ v b 7 W.                                                                                                                                            ",
"  rX2 c x wXM O 6 U.nXpXpXyXyXpX@XgXdXsXfX5X1XhXbXCXCXDXDXhXOXOXjXZX@XsXVXFXGXGXKXPXZX@XK.:XNXNXlXlXkXkXhX~.j.c.K.yXY.IXIXaXw O O w # 7.bXN.!.!.R.J.uXD Z S ^ ^ ^ S J C J ) n w w < Q J p.v 7 , , 6 Z ( p.^ ~ m t ~ m v w Y.                                                                                                                                            ",
"  iX2 x x wXwXO @ Z LXmXdXdXbXZXVXZXZXZXVXVXVXVXbXCXBXBXZXvXvXhXjXjXuX@XVXKXFXNXBXAX@XU.C.GXIXPXSXSXGXGXBX~.7.;.<XPXC.Y aXPX2 O O v $ R jXc.W.Q.R.G.yXC e V ^ ) ^ ^ ^ C ! ( r 5 t < Q C ( v 2 3 @ @ b ( p.^ ~ b 5 ~ v b 7 T.                                                                                                                                            ",
"    2 c 3 ).)., X @ ) iXg.iXvXCXZXVXZXCXCXZXBXVXVXbXVXbXDXZXVXtXvXhX7.+XZXPXGXFXFXFXVXOXK.OXkXNX4XlXGXGXBXOX%.6.jXyXl.e wXUXM 2 + m # h jXN.OXQ.R.H.iXG a V ^ ^ ^ ^ Q J ^ ' m < 9 < H C / m 2 2 7 8 c ( ( A ( b w ~ v v t T.                                                                                                                                            ",
"    x c 3 M Z @ @ O O Z *.yXZXZXvXvXVXZXBXBXZXVXvXVXZXZXDXFXZXhXZXjXN.yXVXZXKXVXhXsXOXW.D.<XSX4X8.;XkXSXVX@X-.N.BX,XY.' ~ UX~ O < w # R eXC.!.R.R.H.pXL e V ) ^ ^ ^ C U / _ n w w < ! ^ ( m 5 v 7 , Z ( p.( ( b v ! v n w T.                                                                                                                                            ",
"      M 3 , 2 @ @ + 3 O ^.rXvXhXyXfXdXdXdXdXsXfXsXdXVXVXCXVXVXyXjX<X@X:XyX<XyX<X<XOX+XOXK.@XVXjX1XSXIXGXlX.X%.N.sXG.Z.k.w UXH O @ > @ 0 F +X!.R.R.x.yXY b S ) ) ^ ^ Q Q C ' n e t , ! Q p.n c c m 8 V ( ^ ( p.m v H M M w W.                                                                                                                                            ",
"        c 8 @ @ @ @ 3 . S +XfXeX+XeX+X<X@X,X<X+X+XsXdXsXdXsXyX<XyX@XG.Q.@X<X,X@X<X<X@X.XF.J.@XOXS.].6XlXgXK.7.N.K.j.Y.k.H JXV O < O < * * yX/.H.J.n.pXK Z Z ^ ^ ^ U J ^ ! a.B < w O J J p.b m m A 7 v ( ~ ( ( m N ~ N v 8 Y.                                                                                                                                            ",
"        c @ , , # > , . , rXrXfXiXtX/.+X@X+X:X@X@X@X<XhXjXuX<X+X@XOXC.@X<XyXsXOXOXOXOXL.N.K.OX.XA.OXOX3X@X.XD.K.N.7.G.b.a.nX~ O + > < , o yX!.Y.W.B.uXK B Z ) ^ ^ ^ J Q ^ ' b 6 w # J Q ) ~ m A ~ m b ( ( ~ ( v v ~ n v 8 Y.                                                                                                                                            ",
"          , , , , , , 3 @ rXxXeX^.rX+X+X+XOXOXW.W.C.K.C.@X@X+X@X+XOXW.<XdX,XdXW.K.J.F.K.8.A.W.K.K.K.OX<XOXK.l.N.j.-.C.=.*.aXV O @ O < @ , yX@XR.Y.b.pXK B b ( ^ ^ C Z / J i.B , w 6 Q V ' V A A p.V V p.~ ( [ n 5 H v v 6 Y.                                                                                                                                            ",
"          rXA x 2 O , x 3 , Z x O ) eX@XZ.G.C.C.Z.N.Z.N.K.C.K.W.W.W.W.@X@X<XyXW.C.l.7.c.N.Z.C.F.G.G.K.K.K.K.B.B.N.-.A.Z m ).s.O $ , , w 6 yX!.Y.J.B.pXL B B ) / U J C ^ J i.B , w < J Q ( / V V A A V ( p.( _ n v H m m 6 Y.                                                                                                                                            ",
"            JXA , @ c A M 3 > > , 6 iXE.l.l.x.B.Z.V.Z.C.K.B.C.K.G.R.K.G.W.W.OXC.x.N.C.A.A.x.C.N.A.x.N.A.N.N.j.l.k.z.b.J r s.i.O @ O < < @ yXOXY.Y.b.pXK H n i.( ^ U U ^ U ' B < w < J ! ( Q V M A C b ! ( ( ( n 5 H m b 6 T.                                                                                                                                            ",
"              aXx . b x 2 2 , O , , @XZ.N.x.B.B.B.Z.B.C.G.F.F.G.G.H.Z.N.N.F.G.B.N.C.B.B.Z.C.N.N.x.z.k.z.N.N.N.l.k.z.k.Y B g.g.O O , # # * yX!.R.H.b.uXL N b ' ( / U U ^ S a.B , w # H / ( Q Z 8 Z Z 8 A ^ ^ ( v 5 N M v < Y.                                                                                                                                            ",
"                  , , , > > O . @ @ ^.v.l.l.A.B.B.N.N.N.C.K.K.G.F.B.B.B.B.G.Z.N.A.N.C.B.K.Y.OXC.C.N.N.N.x.N.N.7.j.-.k.V./ I.).O $ O > 6 @ tXW.R.Y.x.aXL n b ( / J U C ^ J ' B O 6 O B ! ( A c 8 ^ S 8 ^ ^ ^ ( e t ~ m 5 < Y.                                                                                                                                            ",
"                    > O > O . < @ 8 U.v.v.f.-.&.&.f.-.l.N.N.Z.N.N.N.N.N.Z.K.N.B.d.l.x.z.j.5.j.j.l.c.l.z.N.j.7.z.z.;.z.Z.[ ).(.> @ < 6 8 * +XE.W.Y.c.iX{ n w / ! ^ U J U U p.Z , 6 < D Q ^ C b c S S 8 ^ ( Q { t v m m 5 @ Y.                                                                                                                                            ",
"                      > < O O < @ , U.v.k.V.Y.C.C.C.l.B.G.N.Z.C.B.z.l.l.l.N.z.k.7.z.z.l.7.7.7.&.;.7.j.7.z.j.N.x.z.5.l.=.D _ i.. O @ < w @ ^.!.E.Y.x.yX{ H n ( / J ^ H ^ U ) B @ 6 < H / ( ~ Z V ^ S c ^ p.! i.v 5 N m 5 @ E.                                                                                                                                            ",
"                        3 < + 3 6 , , 8 8 8 B J Y ' k.+Xk.k.z.7.l.j.j.j.j.l.j.7.j.l.N.z.j.j.z.-.5.;.-.5.5.7.j.j.j.7.z.-.a ^ ) O $ , < n B yXR.R.Y.n.yXK B e / ^ / / C U J ' Z , 6 < ! J ! p.H V ^ A b ~ ( p.p.w 5 m m 2 # E.                                                                                                                                            ",
"                          3 O 3 3 7 , , 3 c , 6 7 6 a e 0 a Z ` &.5.l.N.x.j.j.l.k.j.5.j.7.-.5.-.5.j.j.k.z.z.N.z.7.z.&.&.J w b # < + O ! B >X/.R.T.c.iX! B v ( ^ U ^ C / U ' B , 7 6 ! / ( ( v b V b 8 C ^ ( ' m 5 m m t @ T.                                                                                                                                            ",
"                            O 1 1 x x 2 c 7 x 7 5 2 5 3 , , 3 7 6 e H B B F F I _ ' -.a.=.*.*.&.-.-.-.-.&.&.&.&.&.T ` G H e 8 6 + + + < e E.+XR.~.k.pX! n 8 ( ^ J U H U C Y 9 # < < Q _ ( ' V 7 v V 8 A ^ Q ~ n v m m w @ (.                                                                                                                                            ",
"                              1 1 c x c x x x x 2 x 3 2 2 3 3 7 c n ! J H F U Y Y Y Y U J F F a D F F U F a h a F T Y U @ 8 , 9 + + + 4 9 /./.Q.~.x.iX/ Z 7 ) ) ^ ) U Y ` R 9 < < 3 V ' ( ( V v Q Q b C ^ ( ( n v V n 7 @ !.                                                                                                                                            ",
"                                3 v c x x x 2 2 5 x 2 2 x 3 3 x 2 m ! F H F U Y &.' ` ` / Y ` ` _ ` ` ` ` Y E T T G K H 8 O e e > + + < e E.oXR.R.k.tX[ e 8 a.) ` ) U U -.b.k.9 < @ H _ ( ' V B ( ( Z Q ^ ~ ( m v A m 7 # /.                                                                                                                                            ",
"                                    > 2 8 c 7 x x 5 x 2 3 x 3 2 3 w m n e B B Y / Y Y Y K U U Y T Y Y ` Y U U G U a a F B w b B + + < w C E.+XE.E.k.tXi.b e ) ^ Y ) U ) T 5.D # < < ~ [ ( ( C v A Q V C ^ ~ / b 7 m m t # +X                                                                                                                                            ",
"                                      7 w < v 2 5 2 5 2 c x 2 v v w n B B B Y Y U ) Y K T F J a F / ` Y Y Y Y T a q B B w H n b < O < a s.Y.+XoXR.h.yX_.w e a.) / U U T ` =.G # < < H p.! i.V c Q a.( ) Q Q Q V 2 V m < O +X                                                                                                                                            ",
"                                          O + 3 3 3 > 2 2 5 3 w v m V B H F K U G Y U Y Y K U G Y E Y Y Y Y I a * e n 7 w ! 2 2 O O K a.s.E.tX~.!.f.aXh.v b s.) / ) T *.` =.U # 4 3 V _ ( ( V b ( ' ! ) ( ~ ! A 7 V v < O tX                                                                                                                                            ",
"                                              < 9 2 9 3 3 < < v v b e b 0 e a C C C B C U F U I Y Y G U G T F a * 8 < 7 @ 2 7 , < , B / v./.<X+X/.f.yXi.7 b *./ ) U ^ ) ) f.G < 4 + H ( ( ( V b ( ( n ! ^ ^ ^ A v m 7 7 @ +X                                                                                                                                            ",
"                                                      # , + , 3 5 n w 7 e 8 ; a s s a s B a C F U U G F B B a F e < O 7 O 3 O 7 2 O 6 J s.Y.+X!.E.&.eX_ 8 w ) ( ) ) ) U K ] D # 5 < m ( C ( Z , v 2 O > b ) ^ A v m v 6 @ tX                                                                                                                                            ",
"                                                          # < < w 3 2 6 e s 8 e e 6 6 6 6 0 e e e 0 0 e e D B w < b w w O > > 7 b _ ( ' k.I.@X!.!.=.tX_ 7 e / ^ U ^ ^ ^ ' ' F + < 2 ~ ' ~ ) m O w 2 O > S A ) A 7 m v 7 < tX                                                                                                                                            ",
"                                                            O O w 6 8 8 c e s B Z Z Z e a B B B C B B B 9 9 e 2 < < ~ b > O , O ~ i.g.a.b.C.!.!.!.] eX_ 6 e ^ ^ ^ U U U / =.D # 4 < n ( / p.m O 5 3 O O 7 ) p.Q c m v 6 @ tX                                                                                                                                            ",
"                                                              7 m , O , < e b e e t w a B B D D B a n n 6 9 w 6 . < H m O @ , O ( i.m.v.b.V.E.!.!.&.+X( < 7 J Q U ^ S ^ / *.D # < O m _ ^ ( n O < + > , 8 ) ( A 7 m v 6 # tX                                                                                                                                            ",
"                                                                v > O , @ O @ < < 8 e w e n n w w w 6 w 7 b w < O , n b O 3 , , ! i.m.I.Z.Z.E.+X!.*././ @ 7 J ^ J U S U / ) D . 4 < m ( Q ^ b O > > , > m ^ ^ Q 7 V v < @ yX                                                                                                                                            ",
"                                                                x A > w # < O 3 + > O , < + + 5 e n n n 6 n @ O O @ < < . < 6 , p.m.g.n.b.V.@X+XoX` +X/ 8 e Q C S Z Z C U ` D + < # n ( V ^ S , b V V ( C ) ( A v m c 7 # tX                                                                                                                                            ",
"                                                                  ).x 2 < + < v v 5 2 2 2 5 5 3 < w 2 6 < 7 @ O , O O , e O , , s.I.i.m.Z.^.!.oX/.` ^.J @ e J B V s s C F Y H # 4 3 n _ V C A ( i.i.( ! ) Q ^ A v m v 6 @ tX                                                                                                                                            ",
"                                                                    wXM x > > 5 5 5 5 5 5 3 5 + O > > O O O O . O O . @ J V O 7 ~ i.f.) V./.E.!.!.=.^./ < 8 B B C ^ ^ *.S ` K # 4 3 e ( J Z V ^ ) i.i.^ ) ^ ^ Q v m v 6 @ tX                                                                                                                                            ",
"                                                                    nXwXx > + 3 > + + 3 + 3 3 + > + + O O < > O O . < e / i.a.( i.I.! f.I.dX+XR.!.f.E.' 6 , e B Z C ^ C a.) / < < < w / ^ b Z ( p.' ( ) / C ^ A M m v < @                                                                                                                                               ",
"                                                                      rX3 O # O + + + O + 3 + 3 + 3 3 + > O O . O O B e ! g.v.g.v.I.v.U =.-.Z.!.OXs.T.J @ @ 8 7 8 8 8 8 V ! ! 5 > < 7 ( Q C ^ ) *.i.) ) ^ ^ ^ A M m v 7 @                                                                                                                                               ",
"                                                                      (.(., , + + O O + + + + 5 + + + + O O O O . e / ! ' m.k.k.n.V.b.` * B -.E.H.&.E.F @ . 7 e b e c 8 6 ! ~ < , , v i.( ^ C V B 8 7 s Z C ^ ~ c m 7 7 X                                                                                                                                               ",
"                                                                          ).7 3 < + < < < > 5 < + 4 + + O + O > O ) F J _ f.k.k.b.b.k.a.*.Z.^.!.W.-.eX] @ 6 i.U U ^ U C ) ' ! + , < e ' p.) ^ / B H B s Z C ^ ~ M m 7 < .                                                                                                                                               ",
"                                                                            v O , < w w < < t t 3 < + 3 + O + O , H / / _ s.g.k.v.Z.Z.k.*.k.E.>XG.x.tXg.8 U a./ / T ^ ) / _ K + < # b a.s.*.) J / / Q U J / ( ( c V x 7 O                                                                                                                                               ",
"                                                                            d.1 > 3 w w t e D n n r n N r r w 6 F / / Y -.f.k.b.V.Y.l.b.` =.G.yXR.b.tXa.@ , w @ a U Y Y F L H # # , b ' s.d.) / Q F J U ^ / ( ( b A 2 v @                                                                                                                                               ",
"                                                                            wX3 , 7 b w a D a r n n n n n B n e F / / ` a.f.f.=.V.Y.b.-.&.c.V.oXR.x.eXf.. @ e a =.-.d.=.a.=.{ O , @ 7 m.s.) ( ( ' ' ' / s.Q ( ( b m 7 3 <                                                                                                                                               ",
"                                                                            MXM 1 x V B B a F B n B B n n D D B C Y ` =.-.k.b.x.V.!.!.+XY.oX+X>X+XV.dXn.. , e U k.*.a.` =.=._ O > > 3 J C C A Q / ' ' / ) ' ^ ( b x b , ,                                                                                                                                               ",
"                                                                            xXM x 7 C H D D D H H H D H H H H F K / ` a.=.f.k.x.=.k.B * * * 0 8 * a (.J @ , 2 b e c e 8 6 , > > > > > > , , , , , 3 , 6 b V Z 2 , , Z , 7                                                                                                                                               ",
"                                                                            UXA 1 M H F L L D D F H N n H n H F L Y F K G D a 6 < , , O > O @ , > O O > > > > > > 1 3 , > 3 1 > > > 1 > 1 > > 1 1 1 3 x x 1 1 > < < m < 2                                                                                                                                               ",
"                                                                            nXp.1 , 9 4 4 $ 4 % 4 5 + # # w t 9 * # 9 4 * 6 * $ O O > > > , > 1 1 1 x 1 1 1 1 1 1 x 3 3 1 1 1 > > 1 1 1 1 1 1 1 1 x x x x 1 1 , @ , 6 O O                                                                                                                                               ",
"                                                                            JXp.2 , r % $ . . . + + + $ . + < + + + # $ $ # # 4 4 3 > > 1 > 1 1 x 1 1 1 1 1 x x x x x 1 1 1 1 1 1 > 1 > 1 1 1 1 x 1 x x x 1 1 > , O !                                                                                                                                                   ",
"                                                                                d.I.aXG.| L m.m.n.n.n.m.m.P y _ r $ o 9 9 - $ 4 + + 1 1 1 > 1 3 x x x 1 1 x 1 x x x 1 1 1 1 1 1 1 1 1 1 1 1 1 1 3 1 1 x x 1 1 > O . T.                                                                                                                                                  ",
"                                                                                                        tXh.4 # q 9 % % $ # $ - t + O 1 1 1 1 x x x x 1 1 1 x 1 1 1 1 1 1 > 1 1 > 1 1 1 1 1 1 > 3 x x x x 1 > O O . (.                                                                                                                                                  ",
"                                                                                                            x.h.[ | n.T.        zX. 3 x 3 1 x 1 x x x 1 1 1 1 1 1 1 1 > > > > > 1 1 > 1 1 1 1 1 1 2 x 3 x 1 1 > 3 O v.                                                                                                                                                  ",
"                                                                                                                                  + O 1 1 x 1 1 1 > 1 1 1 3 1 1 1 1 > > > > > 1 > 1 1 1 1 3 1 1 1 1 1 x 1 1 1 > , < 9                                                                                                                                                   ",
"                                                                                                                                  O > 3 3 3 3 1 > 3 > 1 > > , 1 > > > > O > > > > > > 1 > 1 3 > > > > > > 1 > O , , , tX                                                                                                                                                ",
"                                                                                                                                  > 3 1 3 3 3 > 3 3 + > > , @ O , , O > O > O > 1 > > > + 3 5 v b w 7 2 2 2 3 > 2 3 < '                                                                                                                                                 ",
"                                                                                                                                  > 3 3 3 3 3 3 + + + 3 6 , @ @ . O O O . O > > > > > > 3 + 5 3 2 7 w 6 7 < w 2 3 < O f.                                                                                                                                                ",
"                                                                                                                                  > > 1 3 3 3 + 3 + @                 m.b O O > 1 > > 5 + O > > , O > , O , < 2 3 7 O Y.                                                                                                                                                ",
"                                                                                                                                  O 1 3 3 3 3 3 + < ,                     2 > > > > > + 5 v < < O , , < , < b , 3 7 @ m.                                                                                                                                                ",
"                                                                                                                                  > 3 3 3 3 > O < @ b                     8 > > 1 3 5 v w n w < O O , 7 , 7 w > 3 w , `                                                                                                                                                 ",
"                                                                                                                                  c > O O 3 3 + > @ s.                    7 3 > + 3 v v v w 3 O @ O O w 6 n H > , 2 3 B                                                                                                                                                 ",
"                                                                                                                                  p.x wXm.> > + 3 > A n.).I.I.).).m.s.Q n , , + > 3 M 5 5 v v < @ O O w 7 B H 3 , , 7 r                                                                                                                                                 ",
"                                                                                                                                  (.d.    O > > O O O . . . . . O O O > , 3 , > 3 2 n n v t 3 t < , < 7 < w n , , > 7 6                                                                                                                                                 ",
"                                                                                                                                          > O O O < < < @ O O , @ @ , 6 < < 3 > 3 x n v v v w J e 6 r n n n n > , 3 < 9                                                                                                                                                 ",
"                                                                                                                                          O O O O O . O . O # @ < 7 < 7 6 < O , 3 x v v w b < ! n e V ! J H B O , 3 , * h.                                                                                                                                              ",
"                                                                                                                                          m.a.a.i.i.' H B n n w < @ @ @ O $ O > 3 x v m v w < H H H B ! J H n > > 3 < @ f.                                                                                                                                              ",
"                                                                                                                                                                          I.. > 3 2 v v m 2 < n D H n n n n n O , , , o h.                                                                                                                                              ",
"                                                                                                                                                                          ` . @ , < b m 7 3 2 w D J 8 @ 8 9 < w O > < < k.                                                                                                                                              ",
"                                                                                                                                                                          ' O > 3 < 7 3 > > 3 b ' _ r D H K / 5 3 > 2 # k.                                                                                                                                              ",
"                                                                                                                                                                          +X@ @ @ 3 , > > > > n a._ D ! K ! H n m O 2 $ g.                                                                                                                                              ",
"                                                                                                                                                                          zX. O @ , , > > > O n _ / D B r B K m ~ > 7 O h.                                                                                                                                              ",
"                                                                                                                                                                            , @ > < + O 3 O w H Y / ! / ( ) ) h.[ 5 n $ n.                                                                                                                                              ",
"                                                                                                                                                                            b O 3 , 3 3 , < H ! H H K H B H D w # O i..                                                                                                                                                 ",
"                                                                                                                                                                            Q > > < + < O O O 3 O O O O O $ O # . # ] .                                                                                                                                                 ",
"                                                                                                                                                                            i.O 3 3 3 O O O + > > 3 3 + > + + . . @ e $                                                                                                                                                 ",
"                                                                                                                                                                            g.O O + 2 2 2 + > > > > 2 > + < < . $ y cXtX                                                                                                                                                ",
"                                                                                                                                                                            m.O 3 > w 5 ~ i.i.i.g.m.a.Q $ O O O O m.bX                                                                                                                                                  ",
"                                                                                                                                                                            v.> 3 , v Z V J s.h.m.' i.J 6 , @ @ . g.                                                                                                                                                    ",
"                                                                                                                                                                            n.. , , b m A ( v.a.g.v.a.H 2 @ , @ $ 5.                                                                                                                                                    ",
"                                                                                                                                                                            I.O , , M b C ) d.d.*.k.' J 6 @ @ # $ h.                                                                                                                                                    ",
"                                                                                                                                                                            T.O , , b Z A ) v.v.d.b.a.J 6 , @ < O f.                                                                                                                                                    ",
"                                                                                                                                                                            (.. < 7 7 Z A ) d.d.s.z.*.Q w @ @ # $ =.                                                                                                                                                    ",
"                                                                                                                                                                            (.O < 2 m M ^ ( d.d.d.z.*.! 7 < < # . ]                                                                                                                                                     ",
"                                                                                                                                                                            /.O 2 w m V ^ ^ v.*.s.z.*.! 7 7 < < @ [                                                                                                                                                     ",
"                                                                                                                                                                            /.. < 7 V b ( ( v.a.s.s.*./ 7 w @ @ # K                                                                                                                                                     ",
"                                                                                                                                                                            eX. < 8 Z b V ^ Z.U d.-.a.Q 7 7 @ # < g                                                                                                                                                     ",
"                                                                                                                                                                            tX. < 7 m c Z ) I.*.k.) ) ( 7 6 < < # D                                                                                                                                                     ",
"                                                                                                                                                                            tX. < , 8 8 8 C _ Y g.a.~ Q 7 7 < < # e                                                                                                                                                     ",
"                                                                                                                                                                            tX. 8 8 p.n.W.B.z.f.=.' ' C 7 7 9 < 9 r                                                                                                                                                     ",
"                                                                                                                                                                            tX. b , *.Z.Y.<X<XsXtXR.a.n b 5 4 < 9 9                                                                                                                                                     ",
"                                                                                                                                                                            eX. b a ) ^ W.sXkXhXhX!.b.r w 9 w # * *                                                                                                                                                     ",
"                                                                                                                                                                            eX@ V p.^ ) A.<XgXsX<XN.-.*.U.B 8 # * #                                                                                                                                                     ",
"                                                                                                                                                                            rXX v Z s.) v.<XdXsXyXB.b.v.Y.D 9 # 6 #                                                                                                                                                     ",
"                                                                                                                                                                            eX. < 7 C C v.tXyXsXyXx.Y.V.V.K # # @ @                                                                                                                                                     ",
"                                                                                                                                                                            eX. @ Z V Q =.yX<X:X,Xl.T.Y.n.f.9 # O o                                                                                                                                                     ",
"                                                                                                                                                                            iXo w Z w B f.tXoXtX+X=.Y.I.n.I.0 @ * o                                                                                                                                                     ",
"                                                                                                                                                                            iXO w J J J _ C.f.V.g.r =.[ k.Y a # # @                                                                                                                                                     ",
"                                                                                                                                                                            dX. e / / B 0 ; 0 * < 9 # 4 9 t 4 # * o                                                                                                                                                     ",
"                                                                                                                                                                            zXO n ( ) / C 0 s e D q + t t 9 r # < o                                                                                                                                                     ",
"                                                                                                                                                                            zX. B ' d.d.z.E OXk.y [ h.h.r t K # @ o                                                                                                                                                     ",
"                                                                                                                                                                            zX. V ) d.d.s.-.fX+X>XR.Y.b.r t f.- * $                                                                                                                                                     ",
"                                                                                                                                                                            zXO B a.d.d.v.A.zXyXoXQ.G.B.a B K # # .                                                                                                                                                     ",
"                                                                                                                                                                            zX# H ) d.v.d.U.vX<XOXoXR.n.0 e B @ f.a                                                                                                                                                     ",
"                                                                                                                                                                            pXo b s.v.).I.A.vX1XOXoXR.B.0 e B * /.                                                                                                                                                      ",
"                                                                                                                                                                            dX@ s s.v.v.v.A.vXfXOXOXR.N.0 9 e 0 +X                                                                                                                                                      ",
"                                                                                                                                                                            iX@ a a.v.).A.U.vXyXQ.OXR.N.0 w e * yX                                                                                                                                                      ",
"                                                                                                                                                                            dX$ 8 *.v.v.v.A.VX@XK.Q.G.b.a r e @ pX  mX                                                                                                                                                  ",
"                                                                                                                                                                            dX@ Z s.v.).U.I.jX4XOXOXG.b.D e e * 9 r K !.                                                                                                                                                ",
"                                                                                                                                                                            pX@ B a.v.I.A.A.fXsXK.J.C.Z.D a e * # o # .                                                                                                                                                 ",
"                                                                                                                                                                            dX. Z ) v.v.l.7.fX5Xr.C.l.m.- * 8 * - # # 6                                                                                                                                                 ",
"                                                                                                                                                                            iXX S d.).v.A.A.VX1X8.A.z.f.o # * 6 # - r                                                                                                                                                   ",
"                                                                                                                                                                            MXX s *.v.A.A.A.jXsXK.OXA.k.9 9 q t 9 a bX                                                                                                                                                  ",
"                                                                                                                                                                            fXX Z s.).Z.A.C.AXuXK.@XG.k.r F g D 9 ]                                                                                                                                                     ",
"                                                                                                                                                                            dX@ S a.I.v.I.C.hX1XOXOXA.v.g 4 g 9 r [                                                                                                                                                     ",
"                                                                                                                                                                            MX@ S *.U.U.V.W.fXsXOXC.A.z.g q g - r 4.                                                                                                                                                    ",
"                                                                                                                                                                            fXX U d.d.v.b.N.OX;XF.A.z.d.G q ] # # 9 _                                                                                                                                                   ",
"                                                                                                                                                                            xX@ ` d.U.zXvXkXGXGXAXW.C.Z.` j n.y r - . .                                                                                                                                                 ",
"                                                                                                                                                                            zX8 *.*.rXzXVXVXkXkX1XW.W.A.=.G x.r q * g.pX                                                                                                                                                ",
"                                                                                                                                                                            xX6 ^ v.@XhXGXHXlXSXsX@XW.C.=.G h.9 4 - h.                                                                                                                                                  ",
"                                                                                                                                                                            MX8 ) d.@XhXFXSXjXkXgX<X@XQ.6.j 4.# 9 Y h.                                                                                                                                                  ",
"                                                                                                                                                                            zX8 a.d.@XjXSXSXkXNXAX<X@X@X4.G 4.- n L _                                                                                                                                                   ",
"                                                                                                                                                                            zXe ^ *.+XvXGXGXBXlXNXgXuX~.c.g h.t r D K                                                                                                                                                   ",
"                                                                                                                                                                            xXZ ^ s.+XjXPXIXDX7.A.J.N.H.5.y | 4 4 D ]                                                                                                                                                   ",
"                                                                                                                                                                            zXa / *.Z.G.gXPXs X X & $ 6.k.| { # r D k.                                                                                                                                                  ",
"                                                                                                                                                                            xXZ ) a.W.uXVXIXfX8 e - y T.n.] h.4 r n |                                                                                                                                                   ",
"                                                                                                                                                                            zXZ ) a.!.>XKXKXVXZ S . q Y [ Y =.9 9 D P                                                                                                                                                   ",
"                                                                                                                                                                            zXZ ) f.Y.pXKXDXvX@XA.h 0 Z.f.Y h.9 t D T.                                                                                                                                                  ",
"                                                                                                                                                                            zXZ / k.H.pXGXZXZXZXZXfXvXfX&.-.&.* * D vX                                                                                                                                                  ",
"                                                                                                                                                                            zXZ Q b.V.sXPXZXZXKXFX@XjXuX-.%.5.o # F nX                                                                                                                                                  ",
"                                                                                                                                                                            xX8 C b.Z.fXPXCXFXFXKX@XfX1X;.T 4.. + D mX                                                                                                                                                  ",
"                                                                                                                                                                            xX8 C k.N.hXPXFXKXFXKX5XfX@X%.h E . # D cX                                                                                                                                                  ",
"                                                                                                                                                                            dX, C z.l.fXPXZXKXGXKXfXfXrX=.E W @ o D cX                                                                                                                                                  ",
"                                                                                                                                                                            xX8 J d.d.jXGXPXKXZXfX<X@XOXl.G t $ # G mX                                                                                                                                                  ",
"                                                                                                                                                                            MX8 S s.-.sXjX@Xl.z.I 0 G Y F r # $ # K mX                                                                                                                                                  ",
"                                                                                                                                                                            xX8 S s.A.C.OXl.@XC.!.[ _ D 0 < 9 4 # G mX                                                                                                                                                  ",
"                                                                                                                                                                            MX8 Z ) T F I s h h a - % $ O . # + # _ vX                                                                                                                                                  ",
"                                                                                                                                                                            MX8 J f.l.k.G.N.yXyXpXR.% t 4 r 9 9 # _ bX                                                                                                                                                  ",
"                                                                                                                                                                            iX8 ^ ` j.l.7.N.4X1XuX].h 4.| D # 9 < L mX                                                                                                                                                  ",
"                                                                                                                                                                            MXc J *.f.N.7.S.4X3X2XL.6.6.4.G # - # D cX                                                                                                                                                  ",
"                                                                                                                                                                            MX2 Q ' k.B.c.D.3X5X1XL.M.8.4.W - - o L vX                                                                                                                                                  ",
"                                                                                                                                                                            iX7 ~ i.k.b.c.D.2X2X2X~.c.8.6.W 9 # # F cX                                                                                                                                                  ",
"                                                                                                                                                                            MX2 ^ ( v.x.B.F.5X4X2X;Xr.8.7.W - 4 o D vX                                                                                                                                                  ",
"                                                                                                                                                                            fX7 Q ^ b.g.N.N.5X2X4X;XM.8.9.] t 4 # G vX                                                                                                                                                  ",
"                                                                                                                                                                            iX8 Q ) v.b.B.S.1X4X4X3XS.N.6.W t - 9 L cX                                                                                                                                                  ",
"                                                                                                                                                                            MX8 Q / b.b.C.D.4X4X4X3X8.L.j.4.q - 4 P cX                                                                                                                                                  ",
"                                                                                                                                                                            MX6 J ) v.v.G.K.4X4X4X;X7.6.| I r % # G cX                                                                                                                                                  ",
"                                                                                                                                                                            iX6 J ( Z.Z.G.J.4X4XgX;X%.W 4.] q - 4 G vX                                                                                                                                                  ",
"                                                                                                                                                                            zX6 V Y ).l.J.K.sX5XgX;XH.c.f.[ r 4 4 L cX                                                                                                                                                  ",
"                                                                                                                                                                            zX* B Q V.b.G.J.1X2X1X;XG.n.h.[ g 4 9 G cX                                                                                                                                                  ",
"                                                                                                                                                                            zX6 H U Z.v.C.K.4X4XsXQ.B.V.h.K D + - P cX                                                                                                                                                  ",
"                                                                                                                                                                            zX6 H ^ ).Z.C.K.<X1XsX>X&.K [ H t % 4 h cX                                                                                                                                                  ",
"                                                                                                                                                                            zX8 C U V.v.C..X<X4X1X<Xk.J _ K g % % G cX                                                                                                                                                  ",
"                                                                                                                                                                            xX6 B U Z.I.K.K.<X3X1X,Xv.m.i.' D - % I cX                                                                                                                                                  ",
"                                                                                                                                                                            nX6 C ^ I.v.C.K.3X3X4X<Xv.a.a.[ g % % P hX                                                                                                                                                  ",
"                                                                                                                                                                            zX6 C S A.I.C.K.:X3XsXtXZ.' _ [ r % - I                                                                                                                                                     ",
"                                                                                                                                                                            nX7 V ^ U.A.Y.K.3X3XsXsXB.) ' ' t % # W                                                                                                                                                     ",
"                                                                                                                                                                            zX6 Z ' Z.I.A.K.<X1X1XyXG.E.f.` r % - G                                                                                                                                                     ",
"                                                                                                                                                                            cX, J Z d.U.W.K.OX4X4XyXx.T K F a # - I                                                                                                                                                     ",
"                                                                                                                                                                            nX8 C ^ v.z.v.K.3X1X4XsXN.S G / t % % P                                                                                                                                                     ",
"                                                                                                                                                                            nX7 ~ Z g.d.x.N.@X3XsXsXl.&.s.*.r - % I                                                                                                                                                     ",
"                                                                                                                                                                            nX8 Q a.V.v.Z.B.<X<X4XgXB.-.z.Y g t - R                                                                                                                                                     ",
"                                                                                                                                                                            nX, V v.).I.C.B.OX2XgXjXH.Y V.L y t - P                                                                                                                                                     ",
"                                                                                                                                                                            nXv A U.A.Z.b.z.J.sXlXbX+Xf.[ K q - - R                                                                                                                                                     ",
"                                                                                                                                                                            nXw V I.d.Z.W.z.OXdXsXdXE.fX*.[ t q : R                                                                                                                                                     ",
"                                                                                                                                                                            nX2 V (.z.Y.zXW.+X>XfXvXE.U k.B r r o G                                                                                                                                                     ",
"                                                                                                                                                                            nXc m V.v.@XdXE.l.E T ` ` U 0 J t r o P                                                                                                                                                     ",
"                                                                                                                                                                            nXc A s.I.-.s.T :XdXuXdXV.^.^.a.g q - W                                                                                                                                                     ",
"                                                                                                                                                                            nX8 A Z a.g.A.k.Q.>XuXjX-.eXtX' D 9 o R                                                                                                                                                     ",
"                                                                                                                                                                            xX2 A Q I.V.C.B.K.<XdXfXk.+XU.a.g t % `                                                                                                                                                     ",
"                                                                                                                                                                            cX7 A i.v.V.B.B.OXuXgXsXx.Z.V.f.r q % &.                                                                                                                                                    ",
"                                                                                                                                                                            xXc m p.v.V.C.A.OX<XhXsXG.E.I.h.r r & 5.                                                                                                                                                    ",
"                                                                                                                                                                            xXc A Z I.Z.V.A.OX1XuX,XB./.I.f.D y $ j.                                                                                                                                                    ",
"                                                                                                                                                                            nX7 M ~ I.V.C.Z.OXsXhX:X5.=.f.i.L y o j.                                                                                                                                                    ",
"                                                                                                                                                                            xX2 M Z I.I.Z.Z.OXhXjX>XW ` h.n.L y - x.                                                                                                                                                    ",
"                                                                                                                                                                            nXx A c V.b.C.C.OXgXgX>XI G _ K L r q n.                                                                                                                                                    ",
"                                                                                                                                                                            nX1 A Z Z.I.C.C.;XgXgX>X` [ K L L t q B.                                                                                                                                                    ",
"                                                                                                                                                                            zX3 c c U.U.C.F.3XgXgXuXx.f.i.[ _ 9 L P                                                                                                                                                     ",
"                                                                                                                                                                            nX2 Z Z U.A.V.Y.>X4XgXuXG.s.a.' K e - j                                                                                                                                                     ",
"                                                                                                                                                                            nX@ Z c v.U.C.H.;XkXbXvX+Xz.a.) D e % l.                                                                                                                                                    ",
"                                                                                                                                                                            nX, c S ).I.U.J.L.BXSXVX^.d.s.a.e 9 # H.                                                                                                                                                    ",
"                                                                                                                                                                            nX, c S v.b./.R.;XkXkXGX^.d.s.a.e 8 % H.                                                                                                                                                    ",
"                                                                                                                                                                            nX7 M A d.U.(.L.2X4XgXyXG.s.s.' n 9 4 Y.                                                                                                                                                    ",
"                                                                                                                                                                            nXc A S ).d.R W 2XgXsXhXC.d.g.' n t - H.                                                                                                                                                    ",
"                                                                                                                                                                            nXc A A v.v.H.S.3XgX1X<XV.d.d.a.n t - V.                                                                                                                                                    ",
"                                                                                                                                                                            nXc A A ).v.M.L.2X2X,X:Xk.d.d.a.y 5 4 H.                                                                                                                                                    ",
"                                                                                                                                                                            nXc A A ).k.B.Q.2XuX3X,Xb.k.d.' n 4 + H.                                                                                                                                                    ",
"                                                                                                                                                                            nXA A A I.b.B.L.4X4X,X,Xb.m.a.' w 4 4 B.                                                                                                                                                    ",
"                                                                                                                                                                            nXc A A v.v.l.oX1XsX1XuXl.v.s._ D 5 4 n.                                                                                                                                                    ",
"                                                                                                                                                                            nXc A A ).v.j.OX1X4X2XyXb.d.d./ L 5 t M.                                                                                                                                                    ",
"                                                                                                                                                                            nXc M m n.b.c.~.4X1X<X,Xk.z.d./ H 9 4 n.                                                                      1X                                                                            ",
"                                                                                                                                                                            nXc A A ).v.c.;X1X1X,X,Xk.d.d.( D 9 + c.                                                                      <X                                                                            ",
"                                                                                                                                                                            nXM A V ).b.l.;XuX1X2X,Xb.v.g.! D 4 % m.                                                                                                                                                    ",
"                                                                                                                                                                            nXZ A Z n.n.k.oX4X1X1XyXn.g.g.! L 9 4 j.                                                                                                                                                    ",
"                                                                                                                                                                            nXc M M v.v.k.oX1X2X2XyXZ.d.d.Q L t 4 4.                                                                                                                                                    ",
"                                                                                                                                                                            nXM A A ).v.k.oXuX2X>X,Xb.d.d./ K r - 4.                                                                                                                                                    ",
"                                                                                                                                                                            nXM A V n.v.n.oX2X2X2X>XB.d.d./ D 4 4 4.                                                                                                                                                    ",
"                                                                                                                                                                            nXc m C ).n.n.].2X2X,X,XV.d.m.K H t 4 4.                                                                                                                                                    ",
"                                                                                                                                                                            JXc M ^ v.b.b.oXuX2X,XyXC.v.d.) J e 4 4.                                                                                                                                                    ",
"                                                                                                                                                                            ZXc c ^ I.v.x.oX2X3X3X>XC.k.v.^ K r 9 4.                                                                                                                                                    ",
"                                                                                                                                                                            nXc M ( ).n.n.:X2X,X<X<XC.z.v.s.K r 9 ]                                                                                                                                                     ",
"                                                                                                                                                                            nXc V ) n.n.>X:X3X2X,X1XC.d.v.a.L r t 4.                                                                                                                                                    ",
"                                                                                                                                                                            nXb Z p.v.k.j.L.2X2X2X,XG.d.v.*.D r t |                                                                                                                                                     ",
"                                                                                                                                                                            nXc Z p.m.f.R L.2X2X,X<XK.-.d.*.D a 9 =.                                                                                                                                                    ",
"                                                                                                                                                                            nXc Z p.b.h.j.~.,X2X2X>XF.d.d.*.S D t =.                                                                                                                                                    ",
"                                                                                                                                                                            ZXc V i.k.h.5.~.2X,X>X3XC.s.v.*.a B t 4.                                                                                                                                                    ",
"                                                                                                                                                                            nXc A ) m.m.4.;X2X2X<X<XA.-.v.` D N w |                                                                                                                                                     ",
"                                                                                                                                                                              c m ' v.k.4.oX2X2X<X<XK.d.Z.' D r r 4.                                                                                                                                                    ",
"                                                                                                                                                                              b M ' b.k.h.oX1X2X,X<XC.-.d.a.D N t =.                                                                                                                                                    ",
"                                                                                                                                                                              7 v ' n.k.5.;X,X2X2X>XC.s.v.) D N w |                                                                                                                                                     ",
"                                                                                                                                                                              v m ' v.k.z.oX2X3X2X,XG.*.v.` F n t =.                                                                                                                                                    ",
"                                                                                                                                                                              7 b ' v.g.z.oX,X2X3X>XG.*.v.' K r 9 ]                                                                                                                                                     ",
"                                                                                                                                                                              e e / v.v.5.oX2X2X<X:XG.s.v.' K y - [                                                                                                                                                     ",
"                                                                                                                                                                              8 s ^ v.z.j.OX3X2X2X<XK.d.v.[ K r t [                                                                                                                                                     ",
"                                                                                                                                                                              e 0 ^ v.d.-.OX4X2X<X2XG.s.l.' K t 4 W                                                                                                                                                     ",
"                                                                                                                                                                              0 Z ) v.d.5.;X5X2X2X<XG.=.v.) J t 9 R                                                                                                                                                     ",
"                                                                                                                                                                              e b ^ v.v.l.;X6X2X,X,XH.s.v.i.K r t R                                                                                                                                                     ",
"                                                                                                                                                                              e 8 *.v.d.k.;X1X2X2X,XH.a.v.i.{ t - I                                                                                                                                                     ",
"                                                                                                                                                                              e Z ^ v.d.d.yX4X2X2X<XG.-.m.i.{ 9 % G                                                                                                                                                     ",
"                                                                                                                                                                              e Z ^ ).d.v.+X1X2X2X2XG.-.k.[ H 4 # R                                                                                                                                                     ",
"                                                                                                                                                                              Z c ^ v.v.d.oXsXsX2X3XB.-.g.' D 4 - L                                                                                                                                                     ",
"                                                                                                                                                                              e b S d.s.6.!.sX3X2X<XN.*.a.) r - * G                                                                                                                                                     ",
"                                                                                                                                                                              e b H R.L.].;X1X<XoXOXl.T ' ^ B 6 9 G                                                                                                                                                     ",
"                                                                                                                                                                              8 B L H.S.y.r.c.8.N.7.&.U ( ! 7 9 - G                                                                                                                                                     ",
"                                                                                                                                                                              b B G S.M.].0.y.M.8.W -.) ( ~ t 9 o G                                                                                                                                                     ",
"                                                                                                                                                                              8 B Y G.S.'.0.0.0.8.c.b.v.m._ w 9 # G                                                                                                                                                     ",
"                                                                                                                                                                              8 e B c.9.0.0.0.0.9.8.c.n.n.] 9 4 o G                                                                                                                                                     ",
"                                                                                                                                                                              e B a c.8.0.y.0.w.2.8.c.n.n.| - 9 # I                                                                                                                                                     ",
"                                                                                                                                                                              c n I c.0.0.0.0.9.2.8.M.M.H.] - # X R                                                                                                                                                     ",
"                                                                                                                                                                              e e G c.9.0.0.M.9.| 9.S.S.H.[ % + o R                                                                                                                                                     ",
"                                                                                                                                                                              V e _ c.0.0.0.P.0.| 9.M.M.H.| 9 * @ R                                                                                                                                                     ",
"                                                                                                                                                                              Z B g 6.8.0.P.0.M.P 8.c.c.b._ # * o _                                                                                                                                                     ",
"                                                                                                                                                                              J t P 9.M.9.].0.c.W E 8.5.6.[ * * @ Y                                                                                                                                                     ",
"                                                                                                                                                                              m.wX>XM.c.L.3XP.| y E 6.W [ ] 9 * # E                                                                                                                                                     ",
"                                                                                                                                                                              g.^ s.U.k.P.gX~.| - g g r g [ 9 6 * `                                                                                                                                                     ",
"                                                                                                                                                                              d.^ p.^ S h.jXuXM.q - 9 - D a.6 # * _                                                                                                                                                     ",
"                                                                                                                                                                              s.p.p.d.) 6.gXuXc.t 9 9 6 D i.8 6 # _                                                                                                                                                     ",
"                                                                                                                                                                              s.A A v.] f.uX;X4.- o 9 e B ' 6 * * E                                                                                                                                                     ",
"                                                                                                                                                                              s.A p.m.s.f.uX2Xj.% $ 9 r B / 6 * o _                                                                                                                                                     ",
"                                                                                                                                                                              g.Q p.d.s.h.2X2X~.t % 9 r B F 9 * * [                                                                                                                                                     ",
"                                                                                                                                                                              a.~ p.d.i.f.,XyX>X6.% q r n J 0 * * _                                                                                                                                                     ",
"                                                                                                                                                                              i.m p.).m.k.pX>X].H.H.H.D Y _ e - # `                                                                                                                                                     ",
"                                                                                                                                                                              ' w p.).d.d.yX>X].P.H.c.B.k.G 0 # * _                                                                                                                                                     ",
"                                                                                                                                                                              _ n i.m.m.g.pX2X;XN.J.Q.c.V.F r * # R                                                                                                                                                     ",
"                                                                                                                                                                              [ w a.s.p.-.1X1X;XS.~.J.F.A.G F # # `                                                                                                                                                     ",
"                                                                                                                                                                              [ q / ' *.-.+X1X,Xc.L.J.G.b.G G # o _                                                                                                                                                     ",
"                                                                                                                                                                              [ e ( d.i.E J.~.;XS.J.H.H.b._ G * # _                                                                                                                                                     ",
"                                                                                                                                                                              ] e ( d.i.b.H.L.c.W j 7.G R Y s 9 # E                                                                                                                                                     ",
"                                                                                                                                                                              [ e ' m.i.F 4.9.} j l y q P ` F q # _                                                                                                                                                     ",
"                                                                                                                                                                              ' e i.d.s.| 4.>X>XP.c.M.J.E.V.G 0 * R                                                                                                                                                     ",
"                                                                                                                                                                              ( b p.d.i.L - c.H.j.: H.H.V.h.F 9 # R                                                                                                                                                     ",
"                                                                                                                                                                              _ b ( m.).T.| J.;XM.j H.5.[ h.D - * Y                                                                                                                                                     ",
"                                                                                                                                                                              ) M ^ ).I.aXc.].uX;XJ.~.R.4.k.G 4 # R                                                                                                                                                     ",
"                                                                                                                                                                              ) b p.v.m.m.].uXgX>X~.R.oX-.g.D 4 o Y                                                                                                                                                     ",
"                                                                                                                                                                              ) Z S d.A.z.OX2X2X:X:XC.@XU f.g # o G                                                                                                                                                     ",
"                                                                                                                                                                              K Z S ).U.OX@X2X2X:X>XB.C.a g.g # # K                                                                                                                                                     ",
"                                                                                                                                                                              K b S U.E.oX3XuX4XuXuXR.W.s.v.G * # F                                                                                                                                                     ",
"                                                                                                                                                                              J c a.U.Q.;X2XgX4XgXgXR.^.v.k.D + # g                                                                                                                                                     ",
"                                                                                                                                                                              D Z Z eXU.].gXgX4XgXuXM.V.z.h.D o % a                                                                                                                                                     ",
"                                                                                                                                                                              V V A I.U.].2XlXgX4X2XH.H.f.h.a $ * q                                                                                                                                                     ",
"                                                                                                                                                                              ! A i.v./.E.H.2X3X4XuXE.b.=.k.g # $ q                                                                                                                                                     ",
"                                                                                                                                                                              Q H ( ! G G ~.4X2X<X1XG.B.=.] r % 4 g                                                                                                                                                     ",
"                                                                                                                                                                              Q ~ ~ Q 9 g F.2X1X<X!.R.f.` _ L % - g                                                                                                                                                     ",
"                                                                                                                                                                              ( ~ V i.' Y H.1X4X1XE ` G G L L 4 t D                                                                                                                                                     ",
"                                                                                                                                                                              J N n i.( h.~.sX2X2XE g % ! | _ 9 - F                                                                                                                                                     ",
"                                                                                                                                                                              / m m m.( h.~.uX2X2XM.R h._.4.R 4 # G                                                                                                                                                     ",
"                                                                                                                                                                              J b n g.~ h./.pX2XuXc.K 4.k.k.{ - o I                                                                                                                                                     ",
"                                                                                                                                                                              C B D m.i.k./.gXtXsXb.4.V.| m.P % . Y                                                                                                                                                     ",
"                                                                                                                                                                              H b r g.i.h.>XpXuXgXY.c.f.[ 4.K # # Y                                                                                                                                                     ",
"                                                                                                                                                                              J V B f.h.h.tXgXgXjX~.x.C.5.h.L $ o Y                                                                                                                                                     ",
"                                                                                                                                                                              / r D [ ] h.aXgXhXkXJ.c.7.6.4.L o # G                                                                                                                                                     ",
"                                                                                                                                                                              J D g b.] h.].yX;X3XS.6.6.4.k.] # 9 I                                                                                                                                                     ",
"                                                                                                                                                                              J B D 7.R 5.oX;X=X=Xy.2.2.W y * # 0 D                                                                                                                                                     ",
"                                                                                                                                                                              ) _ j.B.8.+.L.L.=X].y.,.9.P G < o 9 6                                                                                                                                                     ",
"                                                                                                                                                                              Y I c.N.y.S.r.w.w.9.3.9.2.W N t # # $                                                                                                                                                     ",
"                                                                                                                                                                              Y ] j S.D.y.r.y.0.,.f } 6.2.] r < - *                                                                                                                                                     ",
"                                                                                                                                                                              r q q 8.D.y.r.y.y.u.0.9.9.h.| H 9 9 9                                                                                                                                                     ",
"                                                                                                                                                                              9 D a B.L.L.0.y.y.u.w.w.9.8.k.D 9 q 9                                                                                                                                                     ",
"                                                                                                                                                                              O n D !.B.P.r.y.y.0.w.w.2.6.| D 9 9 -                                                                                                                                                     ",
"                                                                                                                                                                              w D B H.H.K.D.y.P.y.9.9.9.2.6.N * 9 *                                                                                                                                                     ",
"                                                                                                                                                                              0 L D V.G.J.N.r.r.+.8.9.9.6.[ K # 9 r                                                                                                                                                     ",
"                                                                                                                                                                              e K N x.^.G.;X,XoX~.H.S.9.6.R { - t a                                                                                                                                                     ",
"                                                                                                                                                                              0 L g m.+XU.^.aXaXdX:XN.6.6.R L 4 9 D                                                                                                                                                     ",
"                                                                                                                                                                              0 P t 4.rXU.eXzXMX/.>XF.7.6.P G + 4 F                                                                                                                                                     ",
"                                                                                                                                                                              r L 9 m.rX^.rXcXMX/.+XK.8.6.P L 4 9 K                                                                                                                                                     ",
"                                                                                                                                                                              a F e s.rX@XiXnXzX^.+XOX7.5.W K 4 - K                                                                                                                                                     ",
"                                                                                                                                                                              s h 0 s.iXrXrXnXzXE.tX+XN.E Y F 4 4 R                                                                                                                                                     ",
"                                                                                                                                                                              s a s a.rXrXMXnXxX^.iXyXU.f.g.J 9 4 [                                                                                                                                                     ",
"                                                                                                                                                                              h j t ] pXrXxXxXrXeXpXiX@XU.k.) t - P                                                                                                                                                     ",
"                                                                                                                                                                              G g q / eXI.).p.Z /.fXfXrXW.f.) 9 4 [                                                                                                                                                     ",
"                                                                                                                                                                              T g g G _ F e Z e aXiXiXyX^.*.) * % ]                                                                                                                                                     ",
"                                                                                                                                                                              G g r ] Y.D 9 e 7 iXxXrXiX+X*.a.6 + 4.                                                                                                                                                    ",
"                                                                                                                                                                              _ F &.I.tXE.a B Z iXfXrXfX@Xa._ 9 % ]                                                                                                                                                     ",
"                                                                                                                                                                              h 9 B b.cX>X* s J rXiXrXfXeXa.' 4 % ]                                                                                                                                                     ",
"                                                                                                                                                                              j.W.pXyXiXOX0 e U aXiXrXfXrX-.g.6 - _                                                                                                                                                     ",
"                                                                                                                                                                              Y.Z.!.rXfXE.U Z B iXiXyXrXrXz.v.* 9 _                                                                                                                                                     ",
"                                                                                                                                                                              k.v.I.U.yX/.) d.^ fXiXiXrX@Xf._ # 9 K                                                                                                                                                     ",
"                                                                                                                                                                              mXvXdXcXvXdX^ / / zXdXdXrXeXg.' 9 0 L                                                                                                                                                     ",
"                                                                                                                                                                              C.v.` *.f.f.6 0 C xXfXxXfXrXs.*.@ # q                                                                                                                                                     ",
"                                                                                                                                                                              f.E U k.oXyXB C C xXxXfXrXeXa.' 6 9 9                                                                                                                                                     ",
"                                                                                                                                                                              f.j.W.@XhXcXU H ' zXzXfXrX+X/ *.9 9 q                                                                                                                                                     ",
"                                                                                                                                                                              +X>XtXiXdXjXa C s.zXfXfXyX+XZ ` * 9 9                                                                                                                                                     ",
"                                                                                                                                                                              =.+XfXhXjXvXT.W.dXcXfXyXrX@XC.` * 9 *                                                                                                                                                     ",
"                                                                                                                                                                              &.yXrXyX+XyX+XT.eXrX@XC.%.;.T a * r 6                                                                                                                                                     ",
"                                                                                                                                                                              G -.B.v.-.G a a 0 s ; = * ; * 6 a 9 0                                                                                                                                                     ",
"                                                                                                                                                                              B =.v.W.-.G.T G Y U F Y B B a B r r q                                                                                                                                                     ",
"                                                                                                                                                                              s a.v.k.k.6.T k A./.Y.k./ B _ Y r a r                                                                                                                                                     ",
"                                                                                                                                                                              s g.d.k.h >XjXsX@XuX,X>X!.g.F R e r a                                                                                                                                                     ",
"                                                                                                                                                                              B g.v.l.j.hXkXsX<XhXsXOXY.[ D F r r r                                                                                                                                                     ",
"                                                                                                                                                                              Z g.b.l.H.gXjXjXjXsXsXJ.B.E Y K r r r                                                                                                                                                     ",
"                                                                                                                                                                              0 k.v.l.j.dXjXlXhXsXsXK.7.` E R t r r                                                                                                                                                     ",
"                                                                                                                                                                              ; v.v.l.-.VXVXlXgX6X1X7.%.b.Y.k.r r r                                                                                                                                                     ",
"                                                                                                                                                                              * k.v.v.-.kXkXlXlX3X;.= = F a n t r t                                                                                                                                                     ",
"                                                                                                                                                                              8 v.v.d.l.jX4X3X5X3Xl.T s s r n r r t                                                                                                                                                     ",
"                                                                                                                                                                              * z.v.d.l.uX.XL.2X.XK.W.s 8 s B y t t                                                                                                                                                     ",
"                                                                                                                                                                              = v.v.d.*.uX3X=X.XD.@XA.a a 0 n w 9 r                                                                                                                                                     ",
"                                                                                                                                                                              8 d.v.l.T Q.;X;X.XF.OX7.T Z B b t t r                                                                                                                                                     ",
"                                                                                                                                                                              8 l.v.l.S sX3X.XOXK.OX7.U B a r 9 t r                                                                                                                                                     ",
"                                                                                                                                                                              6 k.v.v.) dX.X.X=XK.OX5.T H r r < 4 r                                                                                                                                                     ",
"                                                                                                                                                                              ; d.z.v.%.hX3X.X.XD.OXz.Y K e w < 4 r                                                                                                                                                     ",
"                                                                                                                                                                              s f.v.b.-.vX3XOX3XJ.OX5.T J w r t 9 r                                                                                                                                                     ",
"                                                                                                                                                                              0 f.g.f.` dX3X3XOXJ.OXf./ H B n w t r                                                                                                                                                     ",
"                                                                                                                                                                              a f.f.g.U yX<X3X.X7.F.-.K n B r t 9 r                                                                                                                                                     ",
"                                                                                                                                                                              B f.f.v.J +X3X2XL.N.F.5.J n J N < 4 r                                                                                                                                                     ",
"                                                                                                                                                                              a a.s.a.J +X:X3X.XN.F.5.U 9 Q N 6 # e                                                                                                                                                     ",
"                                                                                                                                                                              Z *.*.' H >X:X3XOXN.F.5.K w ! n 9 < r                                                                                                                                                     ",
"                                                                                                                                                                              a T k.T.s ,X;X;XL.S.G.5.Y w ! n < 4 r                                                                                                                                                     ",
"                                                                                                                                                                              a -.T.yXS sX2X=XL.N.F.5.^ 8 K n 9 6 a                                                                                                                                                     ",
"                                                                                                                                                                              s ` /.>XI kX6X3X.XD.c.z.T e g.D # # h                                                                                                                                                     ",
"                                                                                                                                                                              e / +X!.k kXlX3X=XOX8.C.U a ` r - # F                                                                                                                                                     ",
"                                                                                                                                                                              s U Y.Z.&.hXgX.X.XD.7.B.` C / B 9 - R                                                                                                                                                     ",
"                                                                                                                                                                              s T I.Z.z.VXOX.XOXD.j.N.G F D D 9 9 `                                                                                                                                                     ",
"                                                                                                                                                                              F T z.k.-.j.;.l 8.N.N.l.F K a L 9 9 `                                                                                                                                                     ",
"                                                                                                                                                                              T U -.-.) T s T ;.N.B.7.a a a 6 * * [                                                                                                                                                     ",
"                                                                                                                                                                              &.I =.` U F X T z.7.A.-.-.*.-.8 = . _                                                                                                                                                     ",
"                                                                                                                                                                              B.E [ ` ` U U d z.A.7.@XfXdXfXU.0 # `                                                                                                                                                     ",
"                                                                                                                                                                              G.h.R ` U U U S -.z.7.<XjXzX+Xs.X o =.                                                                                                                                                    ",
"                                                                                                                                                                              ` Y 0 a S U I a &.5.A.jXyXW.*.8 @ $ f.                                                                                                                                                    ",
"                                                                                                                                                                              e s b *.d.s.U h k R 8.F.7.T 9 < # o g.                                                                                                                                                    ",
"                                                                                                                                                                              s Z ) v.d.z.5.T 6.S.;X3X~.5.y t # o k.                                                                                                                                                    ",
"                                                                                                                                                                              s T S A.v.B.N.8.S.].0.S.M.c.u t # # k.                                                                                                                                                    ",
"                                                                                                                                                                              d S T d.z.x.S.0.'.'.y.'.0.0.: t % # k.                                                                                                                                                    ",
"                                                                                                                                                                              0 a S B.v.7.6.} | 0.'.'.0.0.% y 4 # x.                                                                                                                                                    ",
"                                                                                                                                                                              ; F Z k.W.x.P u u 9.`.'.'.0.u y # # k.                                                                                                                                                    ",
"                                                                                                                                                                              s Z a d.d.&.y t u }  .9. .} N 9 * # &.                                                                                                                                                    ",
"                                                                                                                                                                              e Z s *.s.T 0 % u y u } u u 9 @ # # [                                                                                                                                                     ",
"                                                                                                                                                                            +X6 Z 8 A.@Xz.s q g u u P P u t 9 # # &.                                                                                                                                                    ",
"                                                                                                                                                                            /.0 U 8 ).rX@XC.Y g t N y [ g : * # # `                                                                                                                                                     ",
"                                                                                                                                                                            +X8 F e A.iXxXfXZ.B y F I x.6.o % * # &.                                                                                                                                                    ",
"                                                                                                                                                                            +X9 S e v.fXfX@XK.d.k.N.B.F.[ - $ # o `                                                                                                                                                     ",
"                                                                                                                                                                            /.8 S 8 A.fXfX@XG.l.C.W.Q.G.B $ $ # # `                                                                                                                                                     ",
"                                                                                                                                                                            @X8 Z 8 Z.dXsX@X.Xz.A.C.W.G.a O < * * ]                                                                                                                                                     ",
"                                                                                                                                                                            +X8 S 8 Z.fXfXXX.Xt.A.A.C.b.a O < 9 # =.                                                                                                                                                    ",
"                                                                                                                                                                            /.8 s 8 I.vXgX@XA.7.A.N.Z.h.r . + 9 * 4.                                                                                                                                                    ",
"                                                                                                                                                                            @X; Z 8 d.@X@X.XA.l.N.x.l.&.t . # 9 # a.                                                                                                                                                    ",
"                                                                                                                                                                            ^.8 S 8 -.z.l.l.d.l.k.j.5./ q # # - 6 =.                                                                                                                                                    ",
"                                                                                                                                                                            T.8 Z 8 d.v.A.A.-.-.6.E &.G 9 # # * # =.                                                                                                                                                    ",
"                                                                                                                                                                          cXv.8 Z c *.;.;.-.;.T W E I G 9 # t 9 < 4.                                                                                                                                                    ",
"                                                                                                                                                                        b.@ S a S ^ a.-.7.7.T i E W [ L - + t 9 * 4.                                                                                                                                                    ",
"                                                                                                                                                                        tX= s e 8 Z ^ 7.A.W.3.T W 6.6.G 4 $ w 4 # 4.                                                                                                                                                    ",
"                                                                                                                                                                          s s e , S S S ;.OXt.N.F.8.5.R + # 9 4 # [                                                                                                                                                     ",
"                                                                                                                                                                          fXV.Z b *.d.*.z.fXA.N.7.7.-.W # $ 9 9 4 ]                                                                                                                                                     ",
"                                                                                                                                                                            yXa *.a.d.=.x.Y.l.j.5.5.=.G q 9 9 9 4 [                                                                                                                                                     ",
"                                                                                                                                                                            tX9 8 a a U j.j.&.&.j.4.] D 9 < 4 9 # ]                                                                                                                                                     ",
"                                                                                                                                                                            +X6 * C F Y ` ` 5.j.=.&.&.R D 9 # + # _                                                                                                                                                     ",
"                                                                                                                                                                            +X* K f.j.&.6.H.!.~.Q.J.B.k.G.^.] 4 # G                                                                                                                                                     ",
"                                                                                                                                                                            tX6 *.%.-.W 2.N.OX3X;X;XS.B.+X/.' + 4 g                                                                                                                                                     ",
"                                                                                                                                                                            fX8 ) *.&.T 7.sXkX4XsXsXOXB.C.V._ . 9 a                                                                                                                                                     ",
"                                                                                                                                                                            pXe *.*.&.E 7.uXkXkX:X:XK.%.Y r t # t D                                                                                                                                                     ",
"                                                                                                                                                                            iXs ` *.*._ x.2XuXjX1XF.N.R F _ B + r L                                                                                                                                                     ",
"                                                                                                                                                                            pX; T -.*.*.` &.6.L.K.N.5.=.Y F v 4 r D                                                                                                                                                     ",
"                                                                                                                                                                            uX= *.*.*.U R %.N..XL.N.&.=.Y ! r # r K                                                                                                                                                     ",
"                                                                                                                                                                            pX= *.*.` F I c.oXOXG.N.-.*.K ! n 4 9 L                                                                                                                                                     ",
"                                                                                                                                                                            yX0 -.*.*.Y I 2.OXW.C.N.=.*.Q K n + t F                                                                                                                                                     ",
"                                                                                                                                                                            yXg 5.&.=.*.s.z.OXOXB.b.=.' ! K n # < H                                                                                                                                                     ",
"                                                                                                                                                                            uXR j.[ s.=.-.N.OXK.C.N.*.i.Q K n + 9 D                                                                                                                                                     ",
"                                                                                                                                                                            !.G R &.-.-.-.l.OXOXK.N.*.*.! J H < 9 L                                                                                                                                                     ",
"                                                                                                                                                                            Z.s s ` s.f.-.z.!.Q.F.c.&.' Q J D + t D                                                                                                                                                     ",
"                                                                                                                                                                            z.Z q &.=.' [ j.OX!.J.j.` *.( ^ H < t D                                                                                                                                                     ",
"                                                                                                                                                                            f.6 e Y _ ' =.b.+XK.F.j.=.) / Q n + t D                                                                                                                                                     ",
"                                                                                                                                                                            d.* a k.h.=.K d.OXOXG.j.Y U ( J N w t D                                                                                                                                                     ",
"                                                                                                                                                                            f.* =.uXH.j.E z.W.Q.B.2.` C V V b w t t                                                                                                                                                     ",
"                                                                                                                                                                            k.= E W.@X<X-.N.+XOXN.W C Z Z B 7 9 t 9                                                                                                                                                     ",
"                                                                                                                                                                            Z.; x.kX@XA.l Q.;XOXQ.H.A.U.v.Z w w t D                                                                                                                                                     ",
"                                                                                                                                                                            C.0 5.sXK.C.T -.F.K.Q.J.W.A.v.v.< 9 9 q                                                                                                                                                     ",
"                                                                                                                                                                            V.s -.yXyXN.-.F.<X:XoX@XW.A.v.a.w t t r                                                                                                                                                     ",
"                                                                                                                                                                            C.* Y yXW.C.z.A.yX+XOXC.A.d.d.*.8 @ t g                                                                                                                                                     ",
"                                                                                                                                                                            I.# a *.A.A.;.d.W.OXA.*.s.s.*.^ 8 * t D                                                                                                                                                     ",
"                                                                                                                                                                            U.# 8 s z.l.*.%.C.W.C.j F D C e 0 < r L                                                                                                                                                     ",
"                                                                                                                                                                            Y.@ ; T Y.<X;.-.OX@XN.s r B n 7 9 < t G                                                                                                                                                     ",
"                                                                                                                                                                            E.# ; E @X:X;.-.@XOXK.s Z A m v N 5 t G                                                                                                                                                     ",
"                                                                                                                                                                            E.# 6 T yX@X;.l.OXD.N.%.' p.A w n + t D                                                                                                                                                     ",
"                                                                                                                                                                            +X6 8 %.<X@XN.A.@X@XoXG.` J V w 9 < 9 F                                                                                                                                                     ",
"                                                                                                                                                                            +X* 8 -.+X1XN.K.sX,X<XB._ ) J 6 t - 9 L                                                                                                                                                     ",
"                                                                                                                                                                            tX@ 8 T yX,XN.K.fX<X,XB.E *.S 7 e 4 # F                                                                                                                                                     ",
"                                                                                                                                                                            rX@ 8 U +XyXN.K.jX4X1XH.j.v.a.0 e 9 9 L                                                                                                                                                     ",
"                                                                                                                                                                            iX= 8 O.+X<Xz.K.hX<X2X~.c.b.*.8 a 6 9 G                                                                                                                                                     ",
"                                                                                                                                                                            iX6 8 *.<X<Xl.@XsX<X2XoXj.g.^ = 0 6 4 g                                                                                                                                                     ",
"                                                                                                                                                                            iX6 a E +XyXK.OX@X.X:XOXc.s.) q a # # g                                                                                                                                                     ",
"                                                                                                                              ;.r.r.                                        iX8 Z U C.7.-.-.B.O.2.-.h B a - q 4 - F                                                                                                                                                     ",
"                                                                                                                            ,X3.D.XX                                        yX7 m ^ T B U T -.8.%.E a s Z B D # 9 g                                                                                                                                                     ",
"                                                                                                                            <Xr.=X=X                                        iX3 Z ^ *.Z C -.OXA.N.j.Y / / J n < 9 D                                                                                                                                                     ",
"                                                                                                                            7.+.y.=X                                        aX6 M U d.U ) 7.W.K.N.j.T ) ) C m < 9 g                                                                                                                                                     ",
"                                                                                                                            -.f 3.y.=X=X-X                                  iX, Z U k.` *.z.C.N.7.5.T ) S a 6 6 - g                                                                                                                                                     ",
"                                                                                                                              F.y.y.|.=X-XP.                                eX, Z U l.*.-.l.K.K.F.A.z.*.) C 0 4 4 D                                                                                                                                                     ",
"                                                                                                                                      =X5X=Xr.                              rX, Z U b.*.l.W.@XOXOXF.z.s.d.g.B 4 t j                                                                                                                                                     ",
"                                                                                                                                        5XXX.X                              eX6 a T l.*.k.!.@XOXJ.G.f.-.) B 6 * - g                                                                                                                                                     ",
"                                                                                                                                          +X<X            y.XX              wX, b S k.*.k.K.OXOXL.J.7.C C * # - - g                                                                                                                                                     ",
"                                                                                                                                            vX         X{. X|.D.            eX, e T 5.E 5.K.OX;XJ.K.=.d.s.) r # - q                                                                                                                                                     ",
"                                                                                                                                                  &X&X*X X X}.XX            /., e U z.-.z.S.L.OXL.C.z.a.i._ r 4 - s                                                                                                                                                     ",
"                                                                                                                                              @X-X X X X-X-X#X@X            wX@ B Y l.*.-.A.L.N.F.A.s.) i./ r # ; q                                                                                                                                                     ",
"                                                                                                                      @.#.p ..                .X#X}.1. X|.#XAX@X            +XO B Y b.T 7.K.D.N.S.F.d.a.i./ r - - s                                                                                                                                                     ",
"                                                                                                    OXN.            A...$.:.XXrX              t.t.e.|.      <XyX            /.O B U l.E c.J.L.J.F.J.=.a.a._ 9 9 - 0                                                                                                                                                     ",
"                                                                                                    f f q.          #X..}.#X#XvX                                            wXO n Y b.-.G.K.OXOXL.G.d.a.( ' t 6 - q                                                                                                                                                     ",
"                                                                                                    r.XXXX          #X#.|.#X3XZX                                            /.O e ) l.&.N.F.K.N.J.J.f.) ^ / e 6 - 0                                                                                                                                                     ",
"                                                                                                    .X,.XX            o.-X                                                  wX> e ) l.&.B.K.K.S.N.G.-.S ^ B t # # ;                                   yX:X                                                                                                              ",
"                                                                                                    D.>.w.                                                                  (., 6 J f.s.+XOX:X+XOX!.b.` ' Q t < - ;                                   uXF.                                                                                                              ",
"                                                                                                    oX>.@.            3X        y.q.t.XX                      yX            ^.< n U s.f.Z.R.Q.OXOX!.B.) ' ( b 4 9 ;                                   uXG.                                                                                                              ",
"                                                                                                    3X>.q.VXVX    VXkXkX    lXy.o...X...                    fXfX            /.< F f.>XG.Q.L.OXK.C.F.z.T ) S t w 9 q                                   ,XF.                                                                                                              ",
"                                                                                                    XX>.t.4XlX      kX      NX|.1.#.o.1.NX                fX@XyX            rXw m.%.G.j.B.XX.X.XK.F.7.s s.*.9 9 9 q                                   :Xc.                                                                                                              ",
"                                                                                                    =X<.|.5XNXNX            NX|.1.,.1.1.|.                @XyX              +X6 8 h j.T N.K.XXS.D.K.%.T C.s.9 9 - y                                                                                                                                                     ",
"                                                                                                    |.=X|.e.-X-XNX          NX|.}.p o.1.%X                                  wX. * s l.k D.K.D.D.K..X7.T A.E q 9 - a                                                                                                                                                     ",
"                                                                                                    y.w.w.>.@.o.|.          lXe.X.d ..<.%X                                  /.> 6 -.j.;.K..X.XXX.X4XK.r.l.&.0 9 9 q                                                                                                                                                     ",
"                                                                                                    D.r.7.+.p q.XX            XXO.d p o.-X                                  /.O 6 &.j.6.XX.X3X=X.X@XN.j.l.W 0 9 9 0                                                                                                                                                     ",
"                                                                                                        sX<Xt.5XNX              i = i f                                     (.. 9 E 5.2.K.XXL.;XN.j.T U -.T a * * s VX                                                                                                                                                  ",
"                                                                                                          @XA.fXZXVX            F.j.F.                                      U.X e Y W %.D.r.y.S.8.s ; 8 U *.0 * # s 1X@X3X<X<X5X5X<X3XOX;X                                                                                                                              ",
"                                                                                                          OX.XD.D.sX                                                        E.. a F E 2.S.3.y.S.c.g # 0 g.^.B * ; = l.D.5X#X.XXXXXXX3X4X3X                                                                                                                              ",
"                                                                                                          .X@.$...A.                                                        E.@ K D R E 8.r.S.F.6.- . # [ g.B * ; d K.XX#X#X#XXX#XXX#XD.oX                                                                                                                              ",
"                                                                                                          XX:.$.:.D.bX                                                      U.. D 9 % y l W | l u $ . . $ ! a @ 8 @ %.<.XX}.}.XXXXXXXX3.S.                      OXR.                                                                                                    ",
"                                                                                                          D.$.$X}.q.                                                        V.. r & q 6.:XFXGXSX:X4 . + < n.g.. X X d :.|.e.$.e.e.y.XXf 7.                      3X;X                                                                                                    ",
"                                                                                                            $. X$XO.                                                        v.. G ; W DXIXIXIXIXLX$ + O N T.w $ , e A.t.t.}.:.}.}.OXD.= %.                                                                                                                              ",
"                                                                                                            $. X$XO.                                                      ZXC.@ K Y c.SXIXIXIXIXCXO + O v N 4 # @ < k.;.#X#X}.}.t.t.t.= E                                                                                                                               ",
"                                                                                                            $.}.}.$.                                                fXU.rX@X*.@ # . X h I T l j $ O O , 5 5 < 9 - o & X XXXX}.t.t.D.7.= `                                                                                                                               ",
"                                                                                                            ..$X$X@.      CX                                    fXfXxX^ -.S @ @ < . @ X & 8 a F w O < , 5 w 4 % 4 @ = = OXXX}.1.t.D.%.X /                                                                                                                               ",
"                                                                                                            ..$X$X:.    DXbX                                    U.rXrXeXd.p., @ @ X @ 8 8 e V Q w + < o 4 4 # 6 4 # = X XX}. X<.e.r.j X U                                                                                                                               ",
"                                                                                                            #.$.$X:.  VXbX3XA.O.p d                           -.s.rXrXrXd.S X X = X X T &.d.m.n.R a - & : i : 8 - X X = t.}.#X|.XX3Xj . F                                                                                                                               ",
"                                                                                                            ..$. X$X-XAX5Xt...$.d k                           s s @XrXrXv.;.d %.6.7.N.D.XX3X<X2X;XP.XXXX#X.Xz.:..Xh p :.XX}.}.#X=X7.a X F                                                                                                                               ",
"                                                                                                            #.$X X$.<.}.XXt.......A.                          s S @XxXrXrX@X@XA.D.D.XX=X5X6X6X6X6XXX#X-X#XA...;.:.s X t.#X}.}.:.XX-.9 . F                                                                                                                               ",
"                                                                                                              $. X$X<.}.}.#.$.$.$.                          eXU S @XfXfX@X@XK.r.@.+.,.u.=X=X-X7X=XXX=X-Xq.O.X T O.= = t.XXXX:.p k 0 + # G                                                                                                                               ",
"                                                                                                              XX#X#Xe.6X6X<.}.t.$X                          eX*.S @XzXdXsXjXfX3XD.3.=Xy.7X7X7X6X7X&X-X-Xp & $ = 8 * X d p d X * 6 # 9 X F                                                                                                                               ",
"                                                                                                                    7.5XNXNXHX                              eX^ S eXyXF.f i k W %.f y.=XqX0XHXqXqX'.].y.l q r 8 8 G 0 8 8 6 4 % 9 * 6 @ U                                                                                                                               ",
"                                                                                                                    .XlXNXNXNX                              +XZ c U.tXW : : y ~.~.r.'.=X7X[.u.0.} ,.} 0.L.G J 0 = 0 ; 6 w < 9 % 4 @ @ = B                                                                                                                               ",
"                                                                                                                    .X6X9XNXNX                              +XC ) ).@X%.o . : b.<X0.'.`.'.} } u P } u 9.~.G 0 @ @ X X @ # X . . . o X @ S                                                                                                                               ",
"                                                                                                                      <.}.9X#XA.                            iXv.iXiX+X-.z l h 2.8.,.w.}  .u u z } u u | u s 0 & . . s B.%.j 6.6.4.o X @ K                                                                                                                               ",
"                                                                                                                      p d ..d ..                            @X*.S l.A.r.,.l l 2.2.l 9.u  .P.9.| 9.| M.h.8.P a o . o 0 a s %.OXL.S.X X @ Y                                                                                                                               ",
"                                                                                                                      p ..$...A.                          xXeXs = s l.D.9.z } 2.} 8.2X].].M.} } |  .M.0.M.W q # * 9 a s z 3.r.3.k j o o Y                                                                                                                               ",
"                                                                                                                      O.#.#.$.A.<X                        rX@Xp.8 S fXD.,.} } ,.} 0.2X].`.2.z u |  .9.9.l j = X & 9 q s i +.y.e.3.h X $ q                                                                                                                               ",
"                                                                                                                      O...$.e.t.5X                        rXeXd.8 *.ZXXX,.,.}  .} y.6X]. .l l : } 9.].y.l j = X * a a s i @.t.q.@.: $ $ tX                                                                                                                              ",
"                                                                                                                      O.#.$.e.t.@X                        xX@Xs.e ] mXP. .0.} 2.z 0.=Xy.9.9.z l z 9.5Xr.l %.s X X = s d = q.t.,.2.k y j LX                                                                                                                              ",
"                                                                                                                      O.O.@.q.r.yX                        xXrX) 8 H bX8.,.9.} ,.z u.0.u.0.8.z | i D.P.S.f %.S = T -.) U s t.r.,.3.q % q R.                                                                                                                              ",
"                                                                                                                      +.p @.t.S.<X                          rX^ c 8 +X6.9.S.y.L.D.D.D.r.r.l R &.E 7.c.c.E G F 0 U ' ' ` h E 7.W W q # - G                                                                                                                               ",
"                                                                                          3.                          %...@.q.S.<X                          fX( Z @ G R 6.N.F.D.D.F.r.W %.g ` I a G G q 9 9 9 # @ * * @ . . . . o # # 9 -                                                                                                                               ",
"                                                                                          3.                          ;.X.#.t.t.2X                      iXfXiXN 8 $ + 4 * * 0 * & : @ . . . X o # # . . . + + + # # @ $ @ $ O . $ + + $ -                                                                                                                               ",
"                                                                                          r.                          q.....#.A.;X                          yXN + $ + + < * X # + + # $ O o . . . . $ + . $ + $ . $ o # $ . , O 3 + # 3 9 h                                                                                                                             ",
"                                                                                          t.                          t.#...:.t.3X                  c.E 5.5.| N . $ $ . . 0 g g R k.j.M.].V.h.c.6.6.| [ ~.P # $ @ @ @ X . . $ # * # r w # @ !.                                                                                                                          ",
"                                                                                          D.                          t.#...:.:.OX                5.j : q 6.H.(.9 c.4.I 4.>XgXuX,X;X;XlXhXuXpXsX1XgXgXkXbXcXR X 8 w X 6 G *.5.B.Y.x.l.' 9 # * J.L.+X                                                                                                                    ",
"                                                                                          1X                          D...d :.t.OX                ; - : z BXBXhXcXbXyX= h yXsX.X;XXX=XXX+.%.2.S.r.L.=X2X4X2XS.# ' T.s e a x.N.A.N.N.x.W.S X X * # 0 q                                                                                                                   ",
"                                                                                          uX                            @...}.:..X                4.4.o 6.GX].SXsXoXY.h E J.Q.N.w.z ,.z +.8.S.].XX;X=X=X3X;Xx.s U.V.*.*.%.7.N.;.7.7.A.z.s @ 6 @ $ # <                                                                                                                   ",
"                                                                                            sX@X                        O.d t.t..X                k h G ~.bX1XgXR.j.-.a h.h.R R j i +.r.y.K..XOXD.S.r.D.S.N.c.K v.b.' ` T 5.E E E T U a 0 @ 6 @ $ w e tX                                                                                                                ",
"                                                                                            .X@XXX                      O...}.t.K.                &.4.g g j i i i : * = q g D r # h c.3.@.T k i : i i s k I Y e H n r F r a * 0 e r 0 7 8 X . O O t B n.                                                                                                                ",
"                                                                                            s ;.d                       O...q.7.A.                ; ; * % : - - % y ; r F r g D R 4.7.3.7.l.z.7.Q.G s I G g 9 # < 9 e 4 4 9 6 < 7 w w t t 6 @ O + r y n.                                                                                                                ",
"                                                                                            = d =                       O...q.w.r.                x.q e n a ; g [ V.c.c.4.y r g # G j.7.7.7.-.f.>XY . 9 9 r r w n 2 w 5 w w < t < w n n w < O # + n r n.                                                                                                                ",
"                                                                                            d O.d D.                    X.p q.q.t.                A.s F B S h s 6.~.| k.[ t r w t y x.G I I I 4.pX` # =._ ! H O v 3 w < < 5 ~ H 9 < 7 3 < @ , # + t t m.                                                                                                                ",
"                                                                                            OX%.p                       X.i 3.<.3.                %.S a I Y h g 4.H.| x.L 9 H 5 5 N h.` W R h 4.G.G h h.a.] h.5 H 5 3 2 v 2 ~ n 6 @ @ 6 6 < # < @ t 9 h.                                                                                                                ",
"                                                                                              3.O.    fX                d d ;.q.q.                s 0 D K Y Y h &.c.R 4.r n _ H . q !.&.& : j : y o % j F r e # 5 < w 2 v b ! H n 6 # D / D B 9 # < 0 a.                                                                                                                ",
"                                                                                              %.D.sX  @X                : d #.$.q.lX              & - F K Y K s g q - q o y D H / a I 2.z 2..X8.8.9.M.2.2.h ] 7 5 ! 7 > 7 v / H K * r h F h [ 9 # # 9 =.                                                                                                                ",
"                                                                                              ,X1X5X5Xt.:.:.#X          q.;.#.<.}.6X              q D F G J D < # # . % q [ x.Y R h N.2.+.|.7X6X7X7X-X3.c.k k.9 m ] b , v 7 J J K q G G &.| E 9 O # 9 *.                                                                                                                ",
"                                                                                                  3X#X$.#.#...rX        XXq.X.$.e.|.<.+.S.      K.j a F F F B D J F - q 5.F.B.&.E : 2.,.XX|.-X8X%X-X7X3.O.T 5.e w a.D 7 Z 8 Z F I s I h.5.R ` 6 O # 6 `                                                                                                                 ",
"                                                                                                    #X}.$X....AX        OXp d 1.}.$.$.|.5X      D.q g g ` G F H / R a R J.Q.B.N.K.= i +.=X{.|.{.|.{.|.e.O.6.5.K < r 9 7 Z 8 0 a F a Y f.&.%.E # . # 9 Y                                                                                                                 ",
"                                                                                                    OX$X}.$...5X        @Xd d $.|. X$X%X6X      K.q r D / J K J _ ] g | ;X~.G.Q..X;.3.>.u.u.{.{.%X X|.>.3.%.E F . D 8 6 8 e a C a B Y / Y =.` # $ @ 9 ^                                                                                                                 ",
"                                                                                                      q. X$X..q.        OX;.#.#.}.}.}.XX        D.q q F K K K Y ` 5.R &.~.F.L.XXD.t.;.:.w.<.1.}.|.|.y.3.2.k &.D . D 0 6 6 a Z C v 7 e # w 0 e # # # 0 U                                                                                                                 ",
"                                                                                                      <.}. Xo.X.        sXD.@.X.}.}.}.#X        J.: 0 K F K F ` ` c.E I L.J.D.D.t.O.X.@.o.o.X.@.@.>.3.+.I E ` Y 6 D e < 6 w Z 7 7 $ 3 + O . O # 9 # 9 B                                                                                                                 ",
"                                                                                                      $.$X{. X@.          F.2.#.t.D.3X=X        L.- 0 K a G T T 5.f.E 4.J.D..XXXq.O...@.>.@...p +.%.%.2.6.&.&.U 0 Z Z @ < v b Z < 3 . O O $ O < B # r B                                                                                                                 ",
"                                                                                                      q.e.$X#X            D.,.f q.7.A.L.        L.- 9 G B U E &.-.&.` 6.J.P.XXD.t.@.O.@.#.@.@.O.%.6.7.8.c.-.&./ 6 a e 6 7 Z V V 2 O . + . O . < V # n B                                                                                                                 ",
"                                                                                                      N.t.q.              D.3.,..X<XE.&.        L.0 r F G C T %.;.N.G.c.OX.XXXy.q.;.O.f ..O.O.%.7.6.6.&.c.j.E ` 8 J e 6 w B Q V 7 O O O O . O , r @ e B                                                                                                                 ",
"                                                                                                      OXr..X              L.3.,.y.E.n.k       kX~.0 r F F a a s -.D.A.N.L.L.K.XX:.%.k O.k O.O.%.6.-.%.%.%.&.h 5.s ` / < 7 B V / w O O . O O . @ 6 # < F                                                                                                                 ",
"                                                                                                      uX,XyX              K.+.i k 5.k.6.        ;X: a a D Z E 7.3.;.2.%.N..XD.XX3.k E T k p k k 5.6.6.7.7.7.h -.Y k.F Z ! V C ( V O O O O @ 7 a.t # e a                                                                                                                 ",
"                                                                                                        @XQ.              L.w.= f [ 6.c.        ;X: e F H F *.;.N.N.r.r.N.=XXXXXN.;.E h j & d j %.6.7.8.N.N.%.-.G / K r D B V _ t O < O 6 J g.v.7 # 8 a                                                                                                                 ",
"                                                                                                        OXK.              3Xw.f 3.B.n.x.        3X- q F D J -.-.K.K.y.N.y.XXy..Xt.5.E L q : i k 2.&.%.3.L.L.k i a U F q e B Z 8 3 < < O @ C m.v.O # 6 a                                                                                                                 ",
"                                                                                                        @X<XhX            OXw.w.>.B.V.7.        3X: a B Z / a.7.A..XN.%.D..Xy.y.7.Y ] K g & j %.7.%.l 2.D.K.i & ; ` F 9 e Z 7 , < < 7 @ , C d.m.@ @ # a                                                                                                                 ",
"                                                                                    NXVX                  dXVXzXiX        oXr.e.X.%.-.z.fX      1X: 0 B F Y =.g.R.K.5.G E P.q.D.3.d r 0 q X T %.7.2.2.2.S.c.%.5.E ` a 9 e e b v 6 < O @ O A d.d.@ @ 6 a                                                                                                                 ",
"                                                                                    @X@XfX                  sXA.7.N.C.E.vX;XD.y.X.3.;.z.uX      4X; 0 D H ) *.v.Y.x.T f.5..Xr.t.3.i a 9 L 9 T W 8.%.3.2.N.B.7.V.j.a a 9 w v v b 2 @ < $ , A d.d., $ 6 e                                                                                                                 ",
"                                                                                  = %.= @XZX                  t.3.w.t.D.SX3Xy.y.X.;.:.z.sX      4Xi q B S T ) %.-.T &.f.6.OXy.XXr.: 6 e L q I W 7.7.8.8.8.5.G F a * e 6 w b b v < # # @ , S s.p.@ @ # 0                                                                                                                 ",
"                                                                                  = s S Z.OX                  r.<.1.1.y.NX=Xy.0.f ;.;.7.        2X: ; B ^ ) T S s d x.Z.5.;XN.y.3.: 9 r y j I W 5.%.7.W E E 6 ; 8 . 6 < v c Z e 2 > # @ 6 C a.( O # < 8                                                                                                                 ",
"                                                                                  i k & * =                   D.q.1.1. X7X&Xy.u.o.%.;.7.        2X& 0 B ` Y ) *.W.W.F.j.2.OXS.D.7.: o # # : j W c.6.c.E 5.k.Z 0 e Z w < w b m v 7 @ . # @ S s.A , < * 6                                                                                                                 ",
"                                                                                  O.;.= . X l.                XX<.1.1.1.&X'.y.0.,.;.;.r.        3X= * a / U T -.C.K.OXOXN.OXK.=XK.= ; 9 : t q ` j.7.j.&.6.k.U e Q v w 7 w c m e 6 + O @ 6 C a.A @ < # 6                                                                                                                 ",
"                                                                                  O..Xh = p                   OXq.$.<.<.|.=X'.y.2.6.%.7.        3X& ; q B T T *.K.U..X@XOXK.K..X.XC.*.d ; F s %.6.8.5.6.6.k.B 6 ~ v x w b 7 b 7 < @ # # 6 C ' V @ 6 # @                                                                                                                 ",
"                                                                                  i K.;.%.OX                  @X3.@.o.f >.D.P.D.2.4.E 3.        Q.o * 6 U U ) ;..X@X@X@XK.N..X@XOXOXY.A.K.N.B.H.7.c.j.c.V.>XV./ m.b w v b e e 8 < # # * 8 C ( V @ , @ X                                                                                                                 ",
"                                                                                  = = X ; G.                  ,X3.@.+.: } '.=XM.6.-.I &.gX      H.* * q U U *.-.U.OX.X@XK.K.OXOX@X.X.X.XOXOXQ.7.j.j.j.B.Z.V.Y . n w w w e 6 * 8 6 7 @ , 8 C ( n < < < @                                                                                                                 ",
"                                                                                  rX= X . Z.                  uX3.3.+.d 9.].].M.6.E h j : -     j.X 6 0 S O.*.-..X@XOXOX.X.XOX3XXX.XK..XOX.XK.A.l.x.x.F.Z.C.=.@ w 5 b b 9 * 9 b e e e 8 e C ( w # # # @                                                                                                                 ",
"                                                                                  %.= X @ s !.yXdX            fX7.3.+.k 8.3X3XP.6.j s : X Q.    5.o o 0 U T ) -.U.@XOXOXK.W.@X@XW.OXOXOX.X.X.XN.N.6.E &.f.l.` @ w v b v 7 6 8 b B V Q e e Z / t $ , # @                                                                                                                 ",
"                                                                                    cXz.= X * @ @ 6             N.:.:.+.0.lX2XP.8.j a : o yX    B.. 6 q G Y *.-.U.@XOX@X.XOX+XW.C.A.OX.XU..XK.N.l.%.%.z.k.f.*.@ e m 7 v b 8 6 b m m V Z a Z / 8 O # < @                                                                                                                 ",
"                                                                                      +X= o @ # @ . f.          K.:.:.f i D.1X3XS.s s 0 &       B.. o - U E ` d.W.@XC.OXA.C.@X;.S S T T A.OXC.A.l.j.%.=.5.z.F T J V M M M 7 c 7 b Z V e e Z ) w < + < #                                                                                                                 ",
"                                                                                    mXhXa = @ @ * X -.          K.@.>.k i 4XlX2XP.h F 0 *       b.. X ; F ` *.-.A.C.A.C.A.-.T ) s Z s Z Z.A.A.N.3.-.-.l.x.C.=.U Q C V m V 7 8 7 7 Z A Z e Z ) 7 + < + #                                                                                                                 ",
"                                                                                    ZXVX@X. * * * X *.          L.>.>.f u 4XqX2XP.j g 0 0       B.. $ ; U ` *.*.f.l.x.B.A.s.-.*./ ^ V s N.N.N.7.l.-.5.j.z.x.` *.) J V C C 7 8 , 8 m C V b Z ( w 3 + < @                                                                                                                 ",
"                                                                                  rX+XC.J.. * * = X k.          .Xw.<.f z 4XlX6XP.j D 6 ;       B.. @ 0 G E ` ` -.-.z.z.A.-.&.*.) C ^ s l.A.N.l.K.x.-.z.=.b.=.k.` Z C C A 7 8 , 6 Z C Z b V ( w < # # .                                                                                                                 ",
"                                                                                  v.@ X . . X N.OXs +XZX        OX<.<.#.f 6XlX7XL.j a s 0       G.. . e U U U T Z *.;.z.l.E ` *.^ J C a A.N.N.7.A.j.s.l.k.l.n.k.) Z Q V V b 7 e m B v e V Z V w + < < @                                                                                                                 ",
"                                                                                        j.. Z.jXOX=.            @X:.q.X.l 6XkX6XL.z a 0 ;       R.. O e / / ) ^ -.-.d.5.z._ ` ) ^ C Z C V.K.N.A.D.A.B.g.a.' ' i.( B A Z Z 7 < < 7 7 , 6 3 , b w < < , @ /.                                                                                                              ",
"                                                                                        <XX rXz.; =.            5Xq.q.f l 6XkXgX=Xy a - ;       J.. . t / ) ` -.d.A.d.z.f.Y E ) C B U a C.C.N.N.C.U X X # @ o @ , V C V Z 7 3 > O > O > 3 < b n 4 5 # . /.              ; @ *                                                                                           ",
"                                                                                      BXvX8 @Xa . d x.            q.@.i P 6XlXqXL.z s ; ;       b.X @ e / ' *.s.l.v.A.l.f.s K / a e 0 a W.K.N.A.W.%.X @ < # . @ 7 Q Z Q V w 3 O O + + O O < n N 5 < < . /.            R.X @ #                                                                                           ",
"                                                                                    yX    s fXC.= X ; q s         t.>..X2.4XkX6XP.j q 0 s       x.. . w J U ) U ;.d.d.7.f.s U U a a s Z z.C.N.N.C.Y X , 4 O . w 7 Q m V V v > O + + 3 < < < m n w < # . +X            k.# | G q                                                                                         ",
"                                                                                            LXfX; . * * * @       D.@.D.} =XNX6XP.i a * s       x.. # w U S T T *.d.-.=.5.s F U 6 a S a B.G.C.l.B.f.# < < + < w w C Z V V b 2 3 3 < 3 < 2 5 n n w < , . !.            k.g yX/.r                                                                                         ",
"                                                                                            VXrX; X # o @ @       A.O.= X D.NX7XP.i 0 & s bX    j.. # 6 Q U S S *.*.;.d.-.s T C S s e s V.W.G.!.B.h.w , + 5 + w w J Z V V b 7 7 7 < 7 6 2 7 Z V v < + . (.            W.S v.T =                                                                                         ",
"                                                                                        iX    cXT . < # 6 *       l.O.8 X N.6X6Xy.: # X X N.  hXs . o 6 U J Z s ^ O.s.-.f.s h 5.*.*.*.T b.W.C.Z.B.4.9 r { n w w w B V A m b b 8 7 7 7 2 2 8 Z V r < # . T.              S 8 8 8                                                                                         ",
"                                                                                                l.# # * 0 -.    5XO.= s = D.NX5X9.. o o o @ @ # . O @ a ^ *.U d ^ -.s.s.*.a -.:.%.T Y -.Z.K.C.K.F.j.c.4.4.m._.H B Z A J V B v 2 v m A A V Z ~ ^ N 4 < . T.              S fXrXnX                                                                                        ",
"                                                                                                s.* @ # * s     t.d X = X 3.NX6X%.X o # # , @ 9 9 , @ C -.s.*.S *.*.*.*.-.%.-.z.7.;.-.%.l.K.K.K.N.7.5.5.f.=.F D e b Z Z Z n b 8 v Z M A V m C / H < < O I.            cX@XOXA.@XU.                                                                                      ",
"                                                                                                ` @ $ - * ;     >.= s Z 0 7.HX4Xj . + # # @ < 9 < 0 B z.z.;.;.S S T U ^ F F ;.7.:.-.-.-.A.K.K.7.O.T -.-.&.*./ a B Z Z m b m w 7 w Z M V c b b C ! < + , V.          fX+XfXW.8 8 Z                                                                                       ",
"                                                                                                ' @ < # * =     q.d S / s I kXc.& X $ < < , , # r 5.%.l.l.d.-.S T T ) ` T T -.:.q.7.;.z.Z.N.t.;.T %.-.*.*.*.U Z D B B V Z b b , 7 v 7 7 c 7 v e _ v + @ v.      +XOXK.;.;.-.b x S                                                                                       ",
"                                                                            OX                  ( 0 # # 8 0     XX= p.eXe = tXI . X < < + O @ . %.N.%.-.7.;.%.= *.*.) ` Y h %.:.7.3.6.-.N.A.N.7.%.T *.*.*.` J H n H B V V b v 6 , 3 , , 6 3 7 6 ! r < . I.                  ) ^ rX                                                                                      ",
"                                                                            i i                 m.e e 0 0       .X. B ^ = X 0 6 @ O < + + @ 8 = T -.O.t.l.-.k s s.-.*.' F s %.:.t.7.O.k 7.N.A.l.*.%.T T ^ U C C b B n b v 7 , 6 7 , > > , , , 6 n w , + V.                  C S wX                                                                                      ",
"                                                                            : L.VX              iXT f.e ;       t.X Z ^ = 6 * 9 # 6 * * # # I 7.i +.%.;.N.l.%.T s.*.T U U k +.;.t.K.;.T %.-.-.z.-.T s U J C B e 8 9 6 w 7 6 @ , w 2 2 3 3 < 6 < e < , @ /                   8 8 U.                                                                                      ",
"                                                                            %.%.7.%.A.zX  vXVXVXZXZ 0 ; =     5X@X. *.vXs.@ 6 O e h.a # o X W 7.2.i ;.%.r.;.;.*.-.*.T U s T W O.t.j.N.%.k s h O.%.s ; a G F B e e w 7 t w 6 , w m v x 3 2 7 6 < e t # @ Z !.                = 8 U.                                                                                      ",
"                                                                          %.= = X d r..XO.T K.fXfX%.S 8 8     OXK.k %.    * < # F E F % o o G.j %.: T k O.k d E T %.T T s k k @.:.%.;.5.-.7.%.+.;.6.k E %.-.s.B w 7 B Y G g G e v v v v x 2 7 < n t # @ 6 * '               B @ U.                                                                                      ",
"                                                                          vXOXT = = ;.O.d d O.A.;.;.A.*.s U.A.k s h       0 < 0 Y W a o o * B.h I * a 6.7.;.;.%.%.*.T T s k %.;.l T O.k E &.k p +.+.l 2.6.-.%.0 # < H G h h D 6 v v v x 3 3 x 2 b e < @ @ 6 6               V . v.  vX                                                                                  ",
"                                                                              K.= = k h S T S h = s s 0 * 0 X . = S       F @ s R T * o o s &.%.k o S 7.XX:.;.;.%.E T h s k O.k f h k i G U s d i l z 3.2.E W s 6 @ r G h j L # w v v x x 3 5 x M w < 9 < b 8 7             V . U.    VXVX                                                                              ",
"                                                                              z.. d S d s 8 X = X 8 s * * % + . 6 s       Y @ * Y G & o $ t ; : X . s D.K.;.;.;.-.%.F h ; s j i i 7.&.Y G a : i 3.w.: z l +.E r 9 # D G I k g - w v 2 7 2 3 7 v v 2 4 6 @ m.V @             / O d.            t                                                                         ",
"                                                                                OXKXS 8 8 = -.= dXfXT 6 - 4 + 4 6 8 yX    G X 6 T S - 9 - - o = ; 8 s 6.3.;.:.;.;.&.I a ; i s s k 7.7.h B 0 ; k 8.L.f 9.2.%.W h e - g I I h g * 9 w c 7 2 < 2 2 v v 2 < @ f.G X   BX        Z.O W.zX    R.R./.e                                                                         ",
"                                                                                  .Xd -.U = d z.    v.9 9 4 - * * * 5.    s X ; F s ; ; o - ; X s H a T %.%.7.;.;.;.T G ; * h I T 7.7.s * 0 a j N.r.l ,.8.7.%.h 9 9 D G l k s * 6 w w 7 2 < < 2 v v w , X I W .   ZX          @ eX            B (                                                                       ",
"                                                                                  s d A.:.@X;.;.    v.8 - % o % o 0 %.    s X ; h s ; * - - ; j -.a T k %.+.;.7.;.%.&.F = h c.T T 2.%.a - 9 q i 2.9.z 2.9.7.&.G 9 9 D k k h j * 9 e v w 5 2 3 2 v M 7 , $ ; 4..             iX1 U.            B ( v                                                                     ",
"                                                                                  s %..X>.3X        V.* @ o . . ; i ;.GX  ; * 6 Y a * @ o & s ;.k = a k ;.%.q.S..X%.%.F & G I T k +.l i 0 - ; : l 9.i 2.2.&.2._ - 9 y 4.| E I h r n n w 2 4 < c M v 7 6 O ; j.G E.        CXxX, MX    *./.    r ! e                                                                     ",
"                                                                                s X -.8.f y.        H.& X # 6 B ` k jXGX  s * e ' G 0 . # o %.;.p X 0 k %.+.t.3Xr.k k 0 X - ; j k O.O.j : X ; i z 3.k +.5.j.&./ # 4 < # s a G F t w r e 9 6 < 2 x b 8 # . & !.J.j 0 G Y U.xXrX3 wX    I.eX    e n r h.                                                                  ",
"                                                                                      jX3XHXGX      L.d s # . b C %.@X7.OXOX6 9 g.` 0 9 9 a j.7.%.* 6 : k @.y.t.@.p z : X d i p k 7.3.;.%.p ;.3.%.3.2.N.N.7.5.K < < < w ' &.` r 9 w r 9 9 < 6 < w e 6 # # * x.>Xk - * # m A A c s.^./.I.v.    8 r # k.                                                                  ",
"                                                                                        lX6X5X5X  5XN.@X-.@ @ ~ Q 0 s i q # 6 r / E ; @ # s k k s & 0 * k 3.D.q.o.,.o.,.i u.e.q.p 3.O.+.O.d l +.,.3.l %.2.W ` r , # # e =.-.` g 9 # * 0 9 < , 8 7 e 8 < < O r q h s e 0 Z I.d.M T.k.' B B =.Y o 0 # g.CX                                                                ",
"                                                                                        ].@.d t.3.d ;.K.z.8 @ Q 3 @ * o + r r 9 R I : 0 . = ; : : & 0 q T D.3.O.y.9X8X0X%X-X9X5X= p k k %.i O.k ;.2.k k R I F 0 @ O $ - T %.T ; & # - 0 * * * 6 7 e 9 < 7 6 0 ; & & ; 0 B / ! m F h F / / G r 9 e o K ] 5.h.h._ #                                                       ",
"                                                                                        #.;.= = X X h -.h 8 2 , + + # t # r r q F I X * * q X ; : d E i k N.2.f y.-X9X8X8X1.u.w.z s q s = X ; +.3.;.j s a ; g # O . o o s %.l s ; i I s * 6 6 , 6 0 e < w 9 q z 3.+.i i s a H e - o q y D R g r - % g g h j h h a q                                                     ",
"                                                                                      N.i j X X o o J.=.s 8 O # $ + 4 + < 2 r * I I : 6 6 q s E l k B.; i k %.z } o.-X9X%X&XX.X +.k s ; : X s 7.8.j s h s ; ; 9 o + q q W +.;.k h k z s ; ; 8 * * B g o 6 6 ; p w.3.X.k j g g o o o o t q N 9 r q % : & : q j g ; o 0 *                                                 ",
"                                                                                      @XT d . I s k VXl.b.* < o + 3 5 5 5 3 e 0 -.W s q q &.s h j k ;.s X i : : i f 7X0X{.-Xu.X +.T O.h j i 6.OX6.k ; h I k k T I I R I i T O.k h k %.k ; * ; s k h s < < < * & +.;.X.k : & % q j G y q q e 0 * - - j q o & : j o I k : l                                               ",
"                                                                                      A.O.8 = W.i d %.T a q # e H { { m 5 5 9 q %.%.& * 0 T i - : & i d = i i i z o.#X7X|.-Xe.f +.%.k k k i c.c.%.h G R %.k z +.%.g W I %.T I k & i %.T ; @ @ U -.h i i i * X X k +.O.W s 0 a I h j.L 0 - & * & & & z z i f k j : W R W l f +.                                          ",
"                                                                                      K.;.= d jXi k l.F 4 4 9 9 { i.~ w 4 5 4 G : i : & ` s & X d d ..$X1.,.1.X.p 1. X&X8X|.,.$XX.i f :.%.; h I i o G 4.s k O.l f & j = h z k k : i %.G , X X s T q : O.;.l ; # F -.i 0 8 8 9 0 q g y t @ & & = : -X=X|.>.|.O.i - ; ; g q X o i                                         ",
"                                                                  `                   jXW.s s jXk %.-.* o 9 9 + 5 v 5 + + 5 N 5.&.k R s T 0 s q.}.-X8X*X8X8X8X8X8X-X&X{.{. Xo.$X=X&X6X6Xd ; s i g o j j j k 3.7.r.7.-.%.s k R k s z B.a @ @ @ @ 7 . d 3.>.3.d . 0 U 0 ; 6 * * 0 ; q 9 # * = i t.<.u.&X{.u.,.= i k = : k c.4.4 g                                         ",
"                                                                3 _.mX            eXaX^.(.K -.Y.F s I q 9 9 - + + + + < 9 9 _ b.k.&.a E -.X k HX0X0X*X*X*X%X*X*X8X|.{.$X%X*X*X*X9X0X%X$.X.= h & i k 2.k L l r.N.3.8.%.E j g I R q j &.r 6 6 6 @ 8 . & q.3.2.k . X 0 @ e s = i k z : : o z w.XX&Xu.1.-X%X&X{.{.u.1.<.|.-X#Xd.X a g                                       ",
"                                                              5 > < % O @ . . . @ O > O < 9 8 6 * s s q . o % + $ O + + 9 + r r s s 0 d = = X. X*X*X*X*X%X&X*X%X*X X{.%X*X*X*X*X8X8X%X-X}.& : O.& y.9.j y I j.8.2.7.%.G X t Y G e r q 9 # 6 6 , , 7 s T +.k & X @ @ @ * s 7.D.r.f i l i y.#X=X-X{.f {.*X*X%X|.{.%X-X-X-X}.@.. j |                                       ",
"                                                            O 3 3 + $ < , , @ < # < < # < < 6 < X ; g Y # . . $ 9 # 9 q + . t q 9 ; ; X X X $.%X&X&X*X*X*X*X*X%X%X X X X%X%X%X%X%X*X*X*X-X>.f 1.,.{.y.o < - L H g G 4.t . 9 G r 6 9 6 $ # < @ 6 < w B 0 ; < # # @ @ . & 3.}.y.e.e.,.u.e.-X|.1.,.f ,.1.u.{.{.1.u.|.&X|.|.|.}.X.>.6X                                      ",
"                                                          + + + + > O + > # < O + o # # + + 3 $ * a n.E X o o : z i : o # % D R D - - & d >.-X8X&X&X%X*X*X*X&X%X*X|. X%X X{.&X*X*X&X{.{.-X8X|.-X-X|.=Xo % + + 4 9 K h.5 . t [ # , $ * o - & X # < 7 b t w 7 3 < < @ X X XXy.|.|.&X{.|.|.&X,.f o.|.{.{.{.u.u.{.=Xu.u.u.{.|.|.e.|.6X=X                                    ",
"                                                        < + $ O + + @ + + < + $ $ $ $ + 5 5 t t e 0 5.h q & r.y.y.=X=Xc.o % r F g s l t.-X9X0X0X*X*X*X*X*X*X*X0X%X X%X X{.&X%X*X0X*X&X{.%X-Xu.}.|.|.3X% o % % # + { i.+ + D [ + @ : k 7.9.j & # 9 6 0 9 5 4 4 4 6 , @ X +.e.1.|.|.{.{.o.= ; 1.|.|.{.1.1.1.|.&X-X,.o.<.X.$.<.1.e.y.+.k                                   ",
"                                                      . 9 O O @ + + + + + + + o o $ $ $ $ . # # - * - q & r.XX=X=X7X3X0.% - $ 9 ; ; q.|.8X0X0X0X0X0X0X0X0X0X*X*X{.|.8X9X8XHX{.{.*X*X8X&X%X{.X.f f ,.>.z % % o - t _._.+ r K y . . z w.<.,.2.i % # 9 9 5 t 9 9 9 6 8 @ X k #.,. X{.u.u.|.o.|.|.&X|.<.o.e.e. Xw.|.,.f f d #.....X.f p i                                   ",
"                                                    w . $ O + + $ . + + + + $ X $ $ $ $ $ # j.b.I & g - : D.-X=X-X=X-XL.. % # $ 8 k 3X-X8X%X&X&X%X*X*X0X0X*X*X*X{.{.1.,.1.,.X.o.{.8X*X1.1.w.i i f >.w.7.o @ X & % % y 9 L j.j $ . r.|.u.|.y.f . # # 4 % 4 $ 9 0 9 a * X d q.|.}.#X{.{.u.>.|.|.>...X.#.#.@.f X.f X.y.,.@.d = p #X1.#X<.$.                                ",
"                                                @ 3 O O . O . o $ . + $ . $ q j z j j % . j E i k z & o : .X-X7X-X7X=X2X: - g ; i i @.<.1.<.u.u.u.&X*X0X0X0X0X*X8X1.X.X.#.1.&X1.%X0X9X<.X.+.i i z y.XXD.i @ @ X o : 4 % P hXj : X 1.&X&X{.>.: X @ $ $ . $ $ g h * < X * h }.-Xe.o.{.%X1.u. X#.X.O.O.X.O.p X i f XX7Xo.X.%.;.;.-Xo.$.q.t.O.d                             ",
"                                            O @ . O O O . X J.8.% o $ . . 2..XD.|.0.3.j : s f #.>.3.i : z =X7X=X-X7X=X>X$ $ j j & i & : d X f +.1.1.{.8X8X%X{.&X{.w.: d f o.1.,.o.&X{.1.i i X = f w.y.c.o . $ % % % 4 $ K Q.2.w.,.,.{.&X|.w.z ; $ > O 9 P c.sX+X* < @ O s t.}.q.X.1.|.{.|.o.o.@.X.d O.}.#.X & f u.1.X.X.q.N.k d X p O.@.p @ =                           ",
"                                          $ O . O O . O $ h ;XP.z . + O . 3.5X|.<.o.f i h 8.7.w.y.D.2.l 2.5X7X-X&X=Xy.y.2.1XsXF.D.XXD.=XD.X.f f f ,.|.-X*X{.%X*X&XX.= = f e.}.f = 1.u.1.,.y.f f f e.|.+.& : : & & & : % ; j +.|.%X{.&X-X-X9.j g 4 3 g.tX1X<XAXjXh # < # : :.@.f l o.e.&X|.}.X.X.i d @.XX<.f O.w.&Xy.XX+.N.k : = s ;.;.:.O.X d k p                       ",
"                                        O O O . $ < $ O $ : ;XP.0.: + $ X r.=X|.u.r.8.S.N.7.8.>.w.D.+.7.P.=X-X=X=X&X'.=Xy.2.z f ,.w.y.7X-Xy.w.k & f |.9X*X&X%X*X%X|.X.p |.-X|.X.f %X8X-Xe.XXO.f o. X|.e.#.w.|.r.3.r.3.X = p y.7X-Xu.+.w.2.z s D t > v.^.fX.X@X@Xe $ 4 4 - %.k p z f w.|. Xy.f p = = = O.@.+.o.u.=X,.f & j i i s T -.v.S d X U @ 0 k q.                  ",
"                                    O O O O $ . 6 < . o . o P.w.9.j O < . G.D.y.3.W l & i h k +.,.& i i w.=X7X7X7X7X7X-X#Xy.f @.>.,.>.|.|.w.9.z & f }.8X9X{.%X{.$X#.p d w.#X{.X.,.|.&X<.f @.>.@.1.#X|.&X-Xu.}.1.1.}.<.f 3.e.-X8X&Xi X & : & q B 5 w b I.A.A.@Xz.; # $ + # s d j : i @.<.e.3.f : = * d j f #.X.1.1.p i : : i * 9 s S s d 8 6 e 7 @ d %.y.                ",
"                                  + $ . + . . $ h.9 . . o o W l l j o + % c.W k : $ + $ . # X . . . X = y.=X&X=X=X&X&X=X|.y.X.l z i l y.=X,.z u h O.O.e.}.1.1.X.#.X.#.X.t.e.,.#.,.1.$Xo.d d O.#.$.e.1.#X%X$X1.$X1.e.|.}.<.1. X X1.z ,.3.i s a # # X # # X s X ; X * # + * 4 # * q ; s 3.f i o . . X # & k X.$.o.o.X.q.@.f i * 0 6 * * * 6 < $ 6 @ ; %..Xf               ",
"                              O + O + O $ . $ # n.r $ . . o # & o % # # # 9 & 9 9 . $ + + # # . . O X ; .X=X=X=X&Xy.=X|.|.w.X.f i : z z j j ; t & T p p d p X.p @.@.:.O.+.@.o.X.X.<.o.XXX.= k @.O.#.<. X|. Xe.1.u.}.X.<. X X X%X{.|.|.3X: * @ O . # @ # @ B * 6 # * * o # . 6 # 6 # s : o $ @ . O o $ . X O.$.o.1.o.<.:.O.i i # 6 , < + 6 < + @ # o D j : l             ",
"                            + O O O $ O . O . q n.9 . O o . X . . # < 4 * # # $ 9 + + < + # + + # O . ; .XD.y.y.0.w.w.y.D.r.z & z 9.| z % $ + + 0 i i p = ..:.p d p %.p s s i z O.#.+.+.O.= = = d i %.7X1.@.+.f f i = p  X{.{.&X{.|.|.K.& . @ O O , @ @ e B O # # * * # o * # * * * * R o * o # X $ O + s O.#.X.q.#.q.@.O.O.%.X @ 9 # 9 4 + < < + 5 + . : } W           ",
"                        . $ . $ $ + O + + + . G B.t + . + r g g g K L y q # $ 9 n.% + . $ + o . $ 4 $ o 2.,.>.,.>.9.r.%.9.z u $ u : u u u % 4 + # o i d = d d = = X = & & = * & & & & i & X X X & & & f i : : : & ; X @.>.u.|.&X|.y.t.l & X @ , @ @ , * 6 a @ o # # $ * o o X X o . X * o * X o . O $ O o +.;.+.@.X.O.O.k d & - + + < 4 # + . O + 5 5 . % j i l         ",
"                    # . . $ . . . . O . . . . % 9 < . $ - & & % % % $ $ $ $ $ y y . + $ $ $ $ $ : P % : W z l l l z l l j : % : u } } } } u u u o $ 9.8.q.w.3.+.f : o X . . . o & o o # & . $ o % : : : o % o % : z q 9.N.=X>.l : & : 4 O . e 9 # X * * ; * . X . . . . . . . o X . . o o o * o o . $ $ ; k k i ; i : i j ; : 4 t + % # # # + - # 9 9 < 9 t 4 9 -       ",
"                  uXyXyXyXyXyX>X>X/.]./.(.H.=.g G | k.c.H.~.~.~.R.R.H.~.~.~.~.>XE.| | _.h.h.M.H.H.R.~.P.P.J.L.P.P.S.M.| 4.W % u  .0.`.`.`.[.`.P % : j S..X;X=X;XL.A.yXdX              ].~.G.R.R.E.].].E.>XtXuXpXuX2XL.| u : $ o $ $ 4 + . T.DX                                              bXvXpX>X% $ % - & # $ o o o # # % + y 9 y t y D P { { _ { P { ! L _ { [     ",
"                uXuX                        :XC.tXfX                                                                        t u  .[.[.`.[.`. . .u $ . . . X X . X . >X                                                E c.S.j $ $ $ $ 4 $ yX                                                          R.G.j.Y G Y K L D q 0 a F [ T.mXmX                                ",
"              uX                                                                                                            h.u  .`.`.`.`.`.`.`. .: @ X , @ $ $ @ * tX                                                ~.        H.[ P N #                                                             ` =.&.E ` ] f.a.h.k.Y.n./._ Y.                                    ",
"                                                                                                                            pXu M. .`.`.`.'.`.`.u $ - 9 - - q t t 4 h.                                                J.                                                                                  Y Y / [ =.=.a.a.s.l.=.                                        ",
"                                                                                                                              u | `.`.`.`.`.`.`. .k.+Xk.h.[ R D t #                                                   Q.                                    2.6.6.7.S.                                                                                                  ",
"                                                                                                                              y | `.`.`.[.`.`.`.} ].                                                                E.6.,X                                s i i i i ; G                                                                                                 ",
"                                                                                                                              n._.P | `.`.'.`.'.} >X                                                                M.j R.                              XXd d i : z z z                                                                                                 ",
"                                                                                                                                N 5 4 N P _.].].j uX                                                                x.: k                               #Xd q.}.y.e.e.3.                                                                                                ",
"                                                                                                                                  { ~ i.5 N 5 | -                                                                   c.. : I                               }.|.#X=X-X                                                                                                    ",
"                                                                                                                                                                                                                    D.& l 7.                            5X#X}.#X#X                                                                                                      ",
"                                                                                                                                                                                                                    S.2.2.c.                        NX9X8X#X#X#X5X                                                                                                      ",
"                                                                                                                                                                                                                      R W             k ..:.}.}.$.$...........;.t..X  N.                                                                                                ",
"                                                                                                                                                                                                                                      h p p #.o...$.$...$.$.$X:.;.K.F.                                                                                                  ",
"                                                                                                                                                                                                                                      %.%.O.3.:.$.#.$.O.@.O.:.7.;.O.i                                                                                                   ",
"                                                                                                                                                                                                                                                                                                                                                                        "
};
