/* XPM */
static char *out[] = {
/* columns rows colors chars-per-pixel */
"102 271 256 2 ",
"   c None",
".  c #030303",
"X  c #0B0303",
"o  c #040A03",
"O  c #0B0B04",
"+  c #03040C",
"@  c #0A060A",
"#  c #040A0C",
"$  c #0B0B0C",
"%  c #130303",
"&  c #1B0202",
"*  c #120C0C",
"=  c #170907",
"-  c #0D120C",
";  c #081505",
":  c #13130D",
">  c #171707",
",  c #030413",
"<  c #050A13",
"1  c #0B0B13",
"2  c #03041B",
"3  c #050B1A",
"4  c #0B0C1B",
"5  c #090616",
"6  c #130D12",
"7  c #0C1314",
"8  c #0D131B",
"9  c #081817",
"0  c #131314",
"q  c #1B1B14",
"w  c #13141B",
"e  c #141A1B",
"r  c #1B1B1C",
"t  c #171714",
"y  c #270404",
"u  c #360303",
"i  c #25180A",
"p  c #241B18",
"a  c #341610",
"s  c #192505",
"d  c #082618",
"f  c #19241A",
"g  c #073716",
"h  c #10320B",
"j  c #262807",
"k  c #293705",
"l  c #27271A",
"z  c #293618",
"x  c #37361A",
"c  c #35310F",
"v  c #070A24",
"b  c #0C1524",
"n  c #1B1D22",
"m  c #141A26",
"M  c #131632",
"N  c #1A2626",
"B  c #1A3527",
"V  c #132C29",
"C  c #232424",
"Z  c #2B2C2C",
"A  c #262927",
"S  c #352A26",
"D  c #27362A",
"F  c #373728",
"G  c #272B33",
"H  c #2A3735",
"J  c #363937",
"K  c #322E33",
"L  c #291C23",
"P  c #460405",
"I  c #52110F",
"U  c #700D0D",
"Y  c #493016",
"T  c #473929",
"R  c #4E352F",
"E  c #6C342A",
"W  c #70251D",
"Q  c #0E4D15",
"!  c #384707",
"~  c #394617",
"^  c #314F0C",
"/  c #156918",
"(  c #2F6B15",
")  c #174E26",
"_  c #394628",
"`  c #2B4435",
"'  c #2B4737",
"]  c #374639",
"[  c #2D4F2F",
"{  c #306F2B",
"}  c #1B6B24",
"|  c #465707",
" . c #4A5617",
".. c #4C4F15",
"X. c #546A11",
"o. c #687712",
"O. c #474729",
"+. c #495628",
"@. c #57582A",
"#. c #474838",
"$. c #574838",
"%. c #4A5638",
"&. c #575839",
"*. c #56472B",
"=. c #665839",
"-. c #6B4E35",
";. c #586727",
":. c #586639",
">. c #516F32",
",. c #677828",
"<. c #676838",
"1. c #6A7639",
"2. c #76793A",
"3. c #6D6C2F",
"4. c #68541D",
"5. c #383B43",
"6. c #2B3343",
"7. c #141642",
"8. c #3A4545",
"9. c #395244",
"0. c #3B6349",
"q. c #454946",
"w. c #4A5547",
"e. c #565947",
"r. c #555955",
"t. c #4F4F4E",
"y. c #685947",
"u. c #6E544A",
"i. c #5A6548",
"p. c #5B6457",
"a. c #567349",
"s. c #676847",
"d. c #756948",
"f. c #697649",
"g. c #77774A",
"h. c #666956",
"j. c #756A56",
"k. c #697657",
"l. c #777857",
"z. c #666A65",
"x. c #6A7466",
"c. c #777966",
"v. c #737774",
"b. c #5A6466",
"n. c #4A3C43",
"m. c #930B0D",
"M. c #AD0F0E",
"N. c #94342D",
"B. c #AD302C",
"V. c #A72317",
"C. c #CF2E14",
"Z. c #D3332A",
"A. c #E8382A",
"S. c #CF1916",
"D. c #B24935",
"F. c #8E6535",
"G. c #D34C32",
"H. c #FA5538",
"J. c #ED4D30",
"K. c #FB6836",
"L. c #F67132",
"P. c #DD581B",
"I. c #857B57",
"U. c #8B724E",
"Y. c #88796B",
"T. c #A76155",
"R. c #F35747",
"E. c #F8704E",
"W. c #D76F5D",
"Q. c #358B2A",
"!. c #2C851D",
"~. c #728D12",
"^. c #4B9232",
"/. c #728A2F",
"(. c #53A735",
"). c #6BAC39",
"_. c #6D960C",
"`. c #529048",
"'. c #788559",
"]. c #738A4C",
"[. c #71B44A",
"{. c #7A8565",
"}. c #778675",
"|. c #5EAA4C",
" X c #76C351",
".X c #3A8241",
"XX c #849817",
"oX c #8BA817",
"OX c #88932F",
"+X c #91AC30",
"@X c #A4AE2F",
"#X c #F68B36",
"$X c #CE8730",
"%X c #ACC732",
"&X c #858649",
"*X c #878658",
"=X c #919155",
"-X c #92B14C",
";X c #868868",
":X c #8A9569",
">X c #979769",
",X c #878979",
"<X c #979877",
"1X c #918F71",
"2X c #A99570",
"3X c #97A572",
"4X c #ADA976",
"5X c #A8A156",
"6X c #FB8E4A",
"7X c #F4AF53",
"8X c #F88F6F",
"9X c #FDAE70",
"0X c #D09661",
"qX c #8FCB57",
"wX c #AFC850",
"eX c #A3D168",
"rX c #FDD16F",
"tX c #FCEB74",
"yX c #D8D364",
"uX c #C8DB3B",
"iX c #7B7A88",
"pX c #7C8784",
"aX c #868A87",
"sX c #91978C",
"dX c #AA998C",
"fX c #99A790",
"gX c #A8A787",
"hX c #B6B797",
"jX c #AFAD90",
"kX c #AFB5AB",
"lX c #98A2A2",
"zX c #CBB294",
"xX c #F4AD8D",
"cX c #C7BAAE",
"vX c #E2A59A",
"bX c #BBC6B3",
"nX c #B4C88F",
"mX c #CAC899",
"MX c #F9F78F",
"NX c #CFCEB1",
"BX c #EBD3B4",
"VX c #F6F4B2",
"CX c #E8DB9B",
"ZX c #D0D5CB",
"AX c #EAD9CA",
"SX c #D9E6CF",
"DX c #E7E6C8",
"FX c #E9E9D7",
"GX c #FBF9D9",
"HX c #F4F2D1",
"JX c #F8F7E7",
"KX c #F8F6F6",
"LX c #ECEFE8",
"PX c #D4DCE0",
"IX c #BDC3C2",
"UX c #837C89",
/* pixels */
"                                                                                                                                                                                                            ",
"                                                                                                              3X .3X                                                                                        ",
"                                                                                            aXiXv.v.        i.h h ^  .                                                                                      ",
"                                                                                d o - # # 9 w 6 t t f f   sXh s ; h ^ X.                                                                                    ",
"                                                                            ZXB ; O - - 7 f > ; > > ; ; a.}.^ Q ^ ^ ( _.4XeX                                                                                ",
"                                                                    fXfX,XlXPXZXhX+._ [ _ [ +.f.]./.k ! ( ^.>.^ ( ).%XwXyXeX*X                                                                              ",
"                                                                  >.>.1.`.}.SXFXVXNXnXQ h ^ >./././.! ).wX/.( ^ ( _.+XqXqXyXwX1.                                                                            ",
"                                                                '.^ ( X.^ a.SXSXeX-X>.^ h _ -X_._._.^ oXwXX.~ k X.eX[._.^ OX-X,.                                                                            ",
"                                                                3X>.( o.^ ,.HXVXqX+XX.[ s +.qX~._._.~.oXwX! k ; h ^ ( ~ s ^ /.1.'.                                                                          ",
"                                                              bX]./.~.~.( ;.VXCX%X_.;.[ > s  .~._.oX@X_.! s k o ; h ^ >.~ z ~ { ].nX                                                                        ",
"                                                =X          f./.-X~.^.X.( /.MXyX-XX.~ l f O k X._._.XXo.X./.-Xk h h >.{ s ; k >.=XeXeX        /.].].:X-XnX;.^ h ^ 1.                                        ",
"                                              ;././.&X      -X+XeX/.,.X.| ~.[.eXnXk _ f f > k X.+X%X%X@X_.+X/.! h ^ X.].z . ; ^ -X+X-X  -X=X~.~.~._.o.~.OX/.X.^ ^ ~                                         ",
"                                            ; ^ ^ o.XXwX  ~.| X.| | ).X.X.-X/.].>.; : l f z k /.+XwXoXoXXXoXo.X.k ( /.;.> . ; ^ ].wX-X).+X/.+X+X)._._.oX_.~.X.X.^ X.nXnX                                    ",
"                                            h ^ _.).oX%XXXX.X.o.! ! o.-Xo.o.! ~ s o o j l j k OX+X_.oX%XoXXX~.o.~ >.3X! j ~ ~ ~ ! X./.,.^ ! ).oXXXoXoXoXoXwXX.,.X.-X3XmXnX                                  ",
"                                          3XX.OX@XoX_.@X%XoXoX@X@X@Xo.OX/.;...; > ; o ; j 1. .eX_.oXoX%XoXoX+X+X,.:.k ~ ;.4X-XmX:.s ; s O s /./.oXoXXXoX+X%XX.X.X.+X).wX].Q >                               ",
"                                          `.| -X%X@XX._.%X%XoXoXoXoXXX| o. .k +.1.&X@.j ;.X./.@X~.oXuX%XoXoX~.o.| j o j X.-XX.! k j i i O s /.+X~.oX~.oX_./.; ^ _.X.X.( X.^ j s >                           ",
"                                            /.=X-X+XXXo.~.~.OXXX~.~.~.~.k ^ X.,.,.,.=X-X+X-X+X~.o.@X%XuX@XXXoX4.| ..c ! | X.| X.Y s s j j | -XwXoXoXoXXX_.^ | )._.!._._.qX/.:.> h aX                        ",
"                                            3X]./.~.+XOX/.OXOX~.OX).~.X.k ^ X.X.^ X.~.+X+X+X+X~._.XX@XoX%Xo.OX| ....OXo.OX@XyXwX5X3.k .. .X.+XoX_.oX%X%XwXeX@X+X_._._._.+Xo.h ; ; kXbX                      ",
"              r.r.w.#._ F A l > t t q > f > s s ; s ^ =X2.,.o.o.| X.( ^ k s h  .! ~ ~  .k ^ | o.yXwX@X+XwXo.X.j k ! | XXXXoX%XuXuX5XwXyXyXwX%X@XoX_.oX+XwX/.)._.XXoXoX_._.Q ; d ` SXSXbXfX  kX              ",
"          w.. 1 # O ; O ; : o * $ O : : : : * : O > c mX5X,.OXyXtXCXMXCX5Xk h ~ 4X].; o ; s | OX~.o.^ ~.OX,.;.k @.| F.XX4.XX%XuXuXuX@X@XwX%X%X+X%X+XoXwX&X! X.)._.oX+X+X+X,.; ; h a.}.A o o ;               ",
"        kX8.< < $ 0 o O * t 6 L L t p t r e 0 t * > ~ =X~.F.oXyXMXCXCXMXeX4.s :.nX~ s ! 3.| +XMX+X~.o.o.! ; s ; s X.OXOXY X.%XtXuXwXF.o.o.~.~.%X%XoXwX+X+.s ;  ._._._.( | h ; # o O o - o - N IX            ",
"        bX8.+ + C S l C p w p p 6 @ % * O O O p ; h ^ X.~.XX@XtXMXVXVXeXyXOXs 1./.| ,./.OX@XwXwX-X+X-XOX/.;.=X| k ,.+XXXj k uXuXOXXXX.| | X.~._.oX_._./.o . . h X._._././.z s - O - - - O ; _ bX            ",
"        PX6.# @ PXLXFXFXFXPXZXdXY.z.Y.u.a i >X4XX.yX5Xo.o.XXoXrXMX4XCXX.| ! | | OX5XOXOXXXXXXXXXo.~.OX,.;./.OX| | +X%XOXs ! wXOXc ; j ..@.X.~.oX_.oX+X^ o . > :XqX-X| /.].s 0 - - q q : o ; ] bX{.          ",
"    PXIXPX8.w J LXFXLXLXJXFXJXGXJXAXAXNXkX& 2.eXMXMXX.| o.~.XXXXo.| o.^./.~.F.F.OX@XXXXXXXo.o.~.o.| Y s ! ,./.o.o.+X+Xo.s 4.o.o.| 1.&X4.j | ~.+XoXoX+X-X; c ..-X+X-X! ; > O ; 0 $ O - o ; %.h k s _         ",
"  p.8.pXb.M 8.b.FXSXNXNXFXFXBXAXNXzXBXBXl.O k | eXwX! X.X._.oXo.| o.5XwX=XX.OXo.o.~.XX~.~.o.o.o.X.X.| ! ! ,.,.~.o.XXoXXXF.~./.~.X./.c j j 1./.oX~.oX/. .j x @.].;.^ o . j O > O O O - o ; s > O ;           ",
"  N # 2 b 3 pXpXNXgXl.c.1X2X=.1X2X1XhXmX{.@.3XX.X.+X( | _.~.+Xo.XXo.~.~.+X! o.o.| X.o.o.o.o.X.X.! X.X.~ s ;.X.~.~.o.XXXX~.o./.OX~./.4.j > ;./.~.~.o.! s % o s k s k > s :Xs ~ s o - - o d fXgXsX            ",
"  t.# . G 9 ZX}.jX=X-.U.-.Y O.*X1X2XmXY.%.z +.~ ; o.o.( _.+XwX~.yXyXXXF.+X,.o.X.....X.,.o.o.X.| | X.,.;.s | o.o.o.~.o.X.o.X./.~.o.| 4.Y . k.X.OX-XX.o O . X . _ >.;.;.X././.].1.o - . o ; ,X:X              ",
"  b.1 . G f SXmX5XF.4.&X=X*.hXjXI.I.>Xx i o z <.j k /.X.X./.mXF.VXVX5XOX,.2.4X&X@.@.1.3.3.3.F.,.| .. .;.~ ..c X.o.o.X.k | ^ | ;.,././.<.. ~ ^ /.-X=Xo $ O O . j :.! ;.1./.].^.h O $ . : s &.f.              ",
"  v.$ + r Z ZX>X3.F.4.4.F.E zX>X4.I.gXY #.t s _ +.j ;.+. .| Y +.mXHXyX=X@.f.BXDXNXDXBXDXVXHXBXBXBXBXSXDXmX>X..X.! X.| s ! k !  . .X.1.<.. z ~ +.~ x . . O O o s.f.s > ; ; ; O o O $ @ 0 - ; :.              ",
"  }.$ # r > hXgXc U.4X5X-.Y F.4.c -.2X*.F l j x j X j > c c O f i.BXNXmXj 1XHXHXBXAXDXVXDXDXDXAXHXHXHXFXHXNX4X2./.mX&X| ;.k ; s !  .,.;.o %.~ ; = > > #.k.+.! 1.'.> O @ . @ $ O @ 0 1 1 O o O.              ",
"  aX# + w : 1X#.T mXmXU.Y a U.U.F.=X2X@.T q.e.<.4Xi c a &.NXp p #.DXBXHXj AXHXHXFXAXBXDXDXDXAXDXAXHXFXAXNX& T $.3X].3.Y *...s ; k 1.;.... %. .k ..s ; :X1.;.;./.f.; 0 o $ $ 0 $ # $ + 1 O o F               ",
"  aX< + r f gXx *.BX0X*Xa i F.0XT.2XT.U.R z.gXl.*.= i l HXJXS C &.DXjXGXzXGXJXHXHXAXNXdXY.d.T T a = = X X X ZXJXGXGXHXmX<.c s ; x <...j j ! o.].=X! o x X.X.^.,.>.h q . . 0 r 1 @ # 1 1 1 . _               ",
"  sX# + r l jX=.=.CX0XU.c 4.F.4X5X0X=X1XY.r.> = % K sXNXAXHXu.R NXGXNXBXNXcXt.= X X X X X X X X % X X % X p GXGXAXcXvX2XT.y X > ~ ..j > ;.! /.+X,.; o +.^ /.X.,._ s t . O 0 e 1 @ + # 1 $ . l i.;           ",
"  sX# # r * ;X&XU.4X5XU.Y -.Y 5XU.=XU.U.y p NXr.X ZXLXKXFXcX-.HXJXGXBXdXa X X % X @ X X . . X . . X X * 6 u.AXBXAXAXAXAXvX1XX > <.&X*.j 3.| OXOX,.s ; ~ X./.( +.z f : O @ $ 1 @ . @ 1 r 0 1 . d .           ",
"  sX+ + e X I.=X5X2X>X3.4.d.4.g.2.&X3.=.X S KXC IXlXKXKXHXzXI HXJXHXy.= X . X X X X X + X . X X % @ X @ X * % % Y j.dXdXY.U.X . @.k s ~ <.! | ;.;.s s +.;. .k . o - $ $ 6 X $ . @ . w f 7 e - : .           ",
"  sX. 1 n C jXmX4X3X>Xd.*.@.k @.4X4XU.=.. jXkXp LXkXkXKXJXdXu dXBXF X X X . X X X % X X X X X X X % @ X @ @ X X X % y p Y.R i O g.;.g.;.c ; > +.1.k k ;.,.! s ; o t 0 O O w $ @ # o - o : - O l aX          ",
"  sX< < n q.NXNXzXhX2X*XgX4X<XnXHX&X@.I.F . # $ KXPXF LXGX4X= p = . . X X X X X @ @ % % % % & & & = 5 = @ @ @ X . X o X y % > *X2X../.=Xc O O O.g.....>.,.;./.>.h {.s ; w.l 7 + # D _ +.i.j > J ZX          ",
"  aX7 8 n #.NXhXNXNXNXNXmXNXhXBXGXmX-.mXl . . b.LXKXt c.AX$.t X X . . @ X % & y y & u u u u u u u y y 6 = % = 6 % X . + @ * s.CX..U.5X'.x = O i *.c k ..;.! ^ ;.( >.z f ` %.$ + o f %.~ j > s S bX          ",
"  aX0 $ G A NX>XBXDXBXDXNXNXmXSXAXzXU.BXO . kXZXGXJXF J 6 & X . . . X X & y u P U U U m.m.U U U U P u L y = & 6 = = X 6 O i 1X<XjXCXzX>Xi = X = > . O O.;.! s k s z f s h #.@ . 1 l ^ _ ..z j z kX          ",
"  aX6 r G A mX>XDXDXNXVXCX4XNXNXkXT zXAX* + FXSXDXKXF R % @ X @ . X @ & u P W U U m.m.m.M.m.m.m.m.m.m.I u u u u y u & i % O i O.=XjXnX<X= 6 X X % O j @.X...; z D z l f : D $ , . o ; +.+.j k z bX          ",
"  aX6 t r l mX4XDXHXNXVXNX5XCXnXe.q h.NXt C KXLXAXLXy & = X X X X X y W W W B.m.m.m.m.m.M.M.M.M.Z.S.M.m.U U U I U P I I 6 5 % % = hXzXgXX X X % T <.].&X| c > > f t 0 O . o . @ + o s ~ ! s k s             ",
"  aX6 r L S CXhXHXBXNXVX4X>XCXNXF O = cXt A LXJXAXLXL & X X X X % & L W N.m.M.M.Z.R.Z.J.Z.E.xXA.Z.R.Z.m.m.V.m.m.m.U U I P 6 X . . i s.i.X X X > c X.,.o.^ ! k o - q 6 t @ . @ @ 7 . > :.~ j j s             ",
"  sX0 A r T mX4XDXjXjXCXhX4XCXNX;Xy u T.C A LXLXJXAX= % X @ @ @ = L P W N.M.Z.S.E.E.Z.A.P.H.9XP.A.A.Z.M.M.B.m.M.V.m.U N.U P y X . O O.<.i . . c k | X.| X.^ z o : K J 6 1 @ @ . X o s :...k s h }.          ",
"  lX0 Z r O.zXg.1XNXmXmXmXmXNXmX<Xd.I 2XR q.AXLXLXcX@ @ @ % & y u I I U m.m.S.S.Z.A.A.R.M.6X8XC.A.A.A.M.M.M.M.M.m.m.U U N.I a = O > BXNXc X O F c ..^ ! k s j O : C 1 @ $ @ @ $ X o > &.~ k j k :.          ",
"  fXw A e F cX..x hX=.@...=.<.5Xc y U F.jXe.i u.sXX % X @ 6 L I U m.U I U m.S.S.Z.A.C.J.S.xXxXL.S.A.A.M.M.A.R.S.M.m.U m.U I a 5 X > i i X o > +.! ~ ! ! s s ; > ; O X * $ X @ . $ o > O.z k j z +.          ",
"  lX- C f #.NXs.> 1XU.c j Y 4XzXY 4.T.BXHXGX& % % X X X % y u W m.m.N.m.B.R.Z.A.A.R.S.C.C.E.V.P.J.C.A.S.R.E.S.M.m.m.m.V.U I u y & i $.&...! ..>.~ ! k z h s ; O $ * . . O $ . @ X o o _ k k k ~ +.          ",
"  lXt N q ] AX;Xx 2X=XF.=X0X5X2XI F.Y CXVXDX& % % % . % = u U M.M.m.N.D.B.B.S.Z.S.A.A.A.6XM.M.S.S.C.A.C.A.J.S.M.M.M.m.V.U I u y % t i *X4XyX/.^ ^ z z h ! ^ j q f . : A * $ O X @ $ . z k ~ k ! X.          ",
"  lXt C q ` BXI.=.&XF...F.>X-.i P 0X4.AXBXHXy p & X % @ & u B.m.m.B.B.D.W.T.m.M.M.R.R.V.E.P.V.J.K.C.C.C.C.S.M.M.m.m.m.m.m.U U u y & = Y =X,.| ! s ! ~ k ~ +.x O : l l p #.: O @ @ @ . z ! +.j k | ,.<.      ",
"  lXp l t l NX<.=.U.&XF.U.i & X 0XCXHXGXBXAXy p = % @ y P I B.M.B.D.G.$X$XT.HXBXxXBXW.8XW.VXxXVXVX$X7XP.P.#XP.C.P.Z.G.G.Z.m.m.I u & % = *...! k k ! ~ !  .>.z o > q l F F = o . . o . z  .;.s c X.o.4.1.    ",
"  lXt q n F cX&.-.*XT.=XF.a X = u zXHXVXBXdX& = = = y u U m.U W.E.P.W.$X7X5XGXJXJXJXFXGXHXGXGXGXVXVXMXrX6XrXL.C.J.P.L.C.B.Z.V.W P y = y a R j c !  .^ ! X.,.k ; > F &.#.q.O X . . . o s  .~ k ! ,.o... .<.  ",
"  lXt f r l hX*XO.j.*X=.@.a X % % -.0XF.2X& & X 6 6 P U m.M.m.R.8XP.$X7XyX&XJXKXKXKXJXJXJXJXKXKXJXVXVXtX$X7X9XL.L.L.P.C.C.V.D.V.U P & % y & y ..4.X.s !  .;.s ; ; F F x A o . . . + o _ _ O.j i c ..4.4...  ",
"  kXe r l l <Xl.o $.I.*.Y.;X= X = & W BXBXy % 6 @ y I m.S.S.Z.A.J.L.$X#X7XOXGXKXKXKXKXKXKXKXKXKXKXHX0X$XP.P.P.P.6X6X6XP.V.M.U U N.U y & & y I W 4...s k ! x s ; > D l > : o . . . $ o A F c > j > c a Y Y   ",
"  kXr f C F jX2Xj I.>X .=X1Xa @ @ u I vXvXy % 6 X y I M.S.Z.A.A.G.P.L.$X7XOXGXJXKXKXKXKXKXKXKXKXJXVX7X7X$XP.P.P.P.P.E.6XL.V.V.m.V.U y & & u W W E Y i k j j > O q l s l l 1 o X . 1 0 e.F l > > j 4.F.T.    ",
"  lXf f t A hXgXs.I.*X4.=X=Xi 5 = y U W.W.y & = = y m.S.S.R.A.A.J.P.#X7X7XXXGXGXKXKXKXKXKXKXLXKXJXVXMXrXtX7X9X6X6XJ.P.C.C.m.P.D.m.U y X & u I W U Y = X O i p = > F j q t $ O . + $ r f l p q >             ",
"  kXf r C K gX>XY 4XU.F.2XU.y 5 6 u N.W.Y y X X = u m.S.A.R.A.H.P.P.#X$X7XXXHXKXKXLXKXKXKXLXKXJXGXVXMXMXtXrXrX7X6X6XE.#XL.7Xm.m.U U y % % a I U I c & O = = t i i l l q t O $ X @ 1 0 6 p = > l             ",
"  kXN w r S gXU.4.4X2XF.5XU.y = 6 y N.8XI & % @ = u V.S.R.A.A.A.P.P.P.#X7XF.HXLXLXKXKXKXKXKXJXHXHXVXMXtXrX7X9X9X6X8X6X#X6X#XV.G.m.U u & & u I U U I & X * 6 t p p S l f w X O @ @ @ X % i = = a             ",
"  kXf e w Z gX:XF.zXCX2X5XU.y = 5 u m.m.L 6 @ % & u V.S.J.J.J.J.P.P.#X#XuX$XMXGXLXKXKXKXLXKXJXJXGXVXMXtXtX7XtXrX6X#X#X#X6X6XE.J.B.U u y y I U W I I & @ X . X * > l A l q $ O @ @ X X dXdX& y >             ",
"  kXN t t A hXzXY.=XI.*.E F.= 6 @ u B.8XI Y.% = y P S.S.K.K.L.K.L.L.L.#X7XoXHXGXLXKXKXKXLXKXJXJXHXVXMXtXtXtXrX7X7X#X6X6XL.P.L.E.W.m.u y @ I I U U I & $ X @ @ 6 l F x l q X X @ @ X S   dX& & i             ",
"  kXN q t A hXdX=.-.y.2XF.d.i = = u M.W.y R @ % = P B.S.H.K.K.K.K.L.#X#X7X$XVXJXKXKXKXKXKXLXKXJXVXVXMXMXtXtXuX7X6X#X6X6XL.P.P.K.G.m.P y y Y U U W I y 1 @ @ 6 t t x S A 0 @ @ $ $ O 1X  Y.& y i             ",
"  kXN t q l ;XY.I.I.j.1XI.U.i * 5 L B.W.y m @ @ % P Z.S.H.K.L.L.L.P.L.P.7XOXHXJXKXLXKXKXKXLXLXJXVXVXMXtXtX7XrX7X#X#X#X#X#XP.L.J.J.m.u y & I W W W I y 6 6 6 * t t S l x 0 $ @ 6 $ O     -.% i a             ",
"  kXN 0 e l p.h.x $.j *.d.U.& = $ y B.T.y * @ % & P B.S.H.E.K.L.L.L.L.L.7XF.GXJXKXKXKXKXKXJXJXGXHXVXMXtXtX7X7X7X#X#X6X#XL.P.#XP.J.U u y y W W m.U U i O 6 6 @ t > S c l : $ @ 6 $ >     p X a               ",
"  kXA w w K ;X,XsXh.$.u.-.U.i $ 1 u V.D.y @ % = & P V.A.H.K.K.K.L.L.E.6X9X0XGXGXJXKXKXKXJXJXGXGXVXMXMXtXtX7X7X7X6X#X7X#X#XP.L.L.J.U u y & Y I U W I & O @ 6 X 6 t A S S t X $ * O i     % X y               ",
"  kXG w 6 T gXzXY.-.y.$.d.u.i $ 5 u U D.y X = = & y B.S.H.H.K.K.K.K.J.L.6XF.HXGXJXJXJXGXJXGXHXVXVXMXMXtXtX7XrX7X7X#X#X#X#XL.L.P.G.U u y y I U W U I y $ * * * : * l x l p $ @ O % j   =.% X a               ",
"    Z e 6 F >X2X2X2XI.u.d.U.i * 5 6 U vXI X = y = u V.Z.J.K.K.L.K.K.L.L.6XV.VXHXJXGXGXGXGXHXVXVXMXMXtXtXtXrXrX7X7X6X#X#X#XL.L.K.Z.U u u u I U U U I & . @ @ $ * : S S z q X @ * % c 2XY & X a               ",
"    D e 0 F I.>X2XY.Y.j.U.u.p 6 * y U xXu = 6 = y u m.Z.J.K.K.L.K.L.6XL.E.D.HXGXGXHXVXVXVXVXVXVXMXMXMXtXrX7XrX6X6X6X6X6X6XL.#XP.V.U u y u I U U U I & . X * @ * * S z l p O O * O &.CX0X*.y                 ",
"    H r 6 K gXzXcXjXY.u.U.u.a 0 * u W 8Xu y y = & u I Z.A.H.K.K.L.L.K.K.#XD.VXVXVXVXVXVXVXMXMXMXMXMXtXtXtXrX7X#X#X6X6X#X6XK.E.J.B.U u y u I I U W P & O 6 t = 6 * l S c q % $ = % I.2X=X3.a                 ",
"    H m 9 F jXbXBXjXc.u.d.=.R y = a m.vXW.u y & % u P G.C.H.K.K.L.K.K.K.P.D.CXVXVXVXMXMXMXMXtXMXtXtXtXtXrXCX9XL.K.K.K.K.K.P.J.J.B.P P y y I P 0XV.E y X @ @ $ n : l z F f O X $ > $.@.Y i S S y.y.j.        ",
"    J b 1 J gXmXNXhXj.u.d.=.R i & I W xXxXP y y = y P B.S.H.H.K.K.L.K.K.L.6XCXVXMXMXMXMXMXMXMXMXMXtXtXrX7X9X8XL.P.J.J.K.J.J.J.C.m.P u & zXBXy T.-.E & X @ @ $ q * l l S p $ $ O - F T c t f > O.O.*.-.      ",
"    H 8 1 J gX4XhXjXj.d.d.<.*.i % y P BXxXW y 6 @ y u N.Z.H.J.H.H.K.H.L.K.E.$XVXMXMXtXtXrXMXMXMXrXrX9X9X6X8XK.A.S.A.E.P.C.J.J.Z.U P u y zXCXdXY.Y a & . @ @ $ $ $ t l l p O $ $ t e.F i o O j ;X<X>XU.-.    ",
"    H e 8 F 3X4XdXdXu.j.d.d.$.= % y a W.9XHXu y & % u T.G.S.J.H.H.H.H.H.J.K.G.xXxXMXrXCXrX6XCXrXrX9X9X6XG.R.J.C.S.H.J.S.A.J.H.V.P P y y BX*.c = t X . . X $ @ @ O : l S q $ @ $ $ l l * O ; l l.2X>X-.-.    ",
"    J 9 8 J gX>X2XdXj.d.d.d.&.i = & y y y vXR y % & y I W.B.A.H.H.H.H.H.J.J.W.9X7X6X0X7X8X$X8X0X6X8X8X8XR.R.A.A.A.R.H.J.P.J.J.M.U u & i S > = * @ X @ @ 6 1 $ $ . . p l r $ $ 6 * Z ; . 0 ; f '.U.U.F.-.    ",
"    J 7 7 J 4X4X2XjXj.l.g.s.=.O.i p jXI u Y E u % X X u P D.G.H.H.H.H.H.H.E.E.E.6X9X9X9X9X8XxX9X8X8X8X8XE.R.R.R.R.H.H.R.H.H.J.m.P W y = y % o o . + @ $ : $ $ @ . . t l q = $ 6 $ C o ; - f l *Xd.F.F.-.    ",
"    J e 7 _ 2X4XzXjXU.Y.I.d.<.$.l S 2XAXI JXvXa X * X & y N.W.G.A.R.J.E.R.J.E.8XR.xXxXxXxXxXxXxX9X6X8XE.E.E.R.H.H.H.H.R.R.R.R.B.U W.Y p y * @ X @ @ . $ $ @ $ @ X . t p q * O 6 @ n t q ; q z ;X4.F.4.      ",
"    H 9 9 F ;XI.Y.I.d.I.g.s.s.&.T Y Y zX-.AXa & X = % % % y E B.R.A.A.A.J.H.E.9X8X8XE.8X8XE.E.W.E.6XE.E.E.R.R.R.R.J.J.J.G.V.U U D.vX-.= L Y = 6 @ @ + @ # @ @ . # @ 6 C t $ @ $ @ w q f l l > d.E           ",
"    H e 9 O.y.-.T R e.;Xl.d.s.y.$.x R Y T HXdXvXY.E @ & X X y P D.G.Z.Z.G.G.W.8XxXxX8X8XE.E.8XE.E.8XE.8XE.E.R.H.A.R.J.G.B.U P y I T.y S dXzX= 6 @ @ 6 0 w $ . $ $ + * p 0 $ . $ . t G J q.] = c Y -.        ",
"    H e 0 F j.d.;XdXs.;Xl.l.f.s.&.S R S = i Y.Y.W.cXy L % % & y W G.A.Z.A.R.G.8XBXW.vX8XE.xXE.E.E.E.E.E.6XR.R.R.Z.R.G.N.U I R y y -.y Y.u.S = @ X X $ r 0 0 . # 6 r A p * $ $ $ . O J w._ f t R y.          ",
"    H m 7 F l.Y.2X,Xe.;Xl.g.j.d.e.S i R X = p a K T.P E AXR Y.P I N.W.R.Z.R.A.8XxXxXE.xX8X8XE.E.8X8X6XE.8XE.E.W.D.N.W W I dXvXP u U.T.Y.L y $ X @ @ C 7 $ # @ + 7 1 t F l @ . # o v.gX                      ",
"    5.m 0 J j.d.$.$.T ;Xl.j.l.s.y.x a $.$.a 6 y y Y.I dXBXI BXAXa I B.Z.Z.B.R.8XE.xXW.8X8X8XxXxX8X8X8X8X8X8XR.T.W P u y P vXvXT.y R R I & 5 @ o @ 6 0 1 . . O . r t R q.t O O X o ,X                        ",
"    5.b 7 J I.d.-.$.x ;Xl.l.d.s.y.x i $.-.Y a y % = $.cXUXu AXvXI U E B.B.Z.R.W.8X8X8X8X8X8X8XxXxXxXxX0XvXvXF.u y y I N.E I I W u y 6 y @ + X $ @ # 1 # $ 1 w w K r #.h.* O o X .                           ",
"    5.m 7 F I.U.d.$.F I.l.j.k.s.s.O.O *.R T x S p 6 = y u u L vXn.I W W B.B.G.T.T.T.W.W.2XW.T.T.F.N.E a P a P u y u E N.N.E W n.S y 6 5 + @ o O o $ $ 1 w 1 7 n n 6 ;Xc.> . X o o                           ",
"    H e 7 F d.U.y.&.T c.l.k.k.d.s.&.l F &.$.R T S l = = X & 2XAXN.u I & a P u y y & & & = & y y = i a y a u u P U B.N.m.N.T.T.R = % @ @ $ @ . O $ $ 1 w n w + A n $ sXl.> O o O O                           ",
"    H e 1 F g.g.=.y.#.I.l.d.d.d.s.y.+.O.F $.-.T F T C L . p vXvXW T.a y y a = = = y = = y = & y y y y y y u E T.N.V.D.N.N.T.u i 6 @ @ @ @ $ $ $ $ 1 $ r r r $ A C $ y.#.* . $ o o #.f.1.:.<.;               ",
"    G b 0 F j.U.=.*.O.h.j.d.d.s.s.d.d.&.O.T T $.S T S T p L W.W I U I W E U P I I P I P I I I I I U W W N.N.U N.D.N.T.U.R & % + 5 @ b 6 1 @ 7 $ @ @ 0 r t p t S l X R J l 1 X o o z _ _ ~ ~ ; '.            ",
"    H e $ J d.U.=.=.j.sX<Xl.I.g.U.I.I.;Xd.&.#.x F l T F S R u u T.T.U T.vXT.N.B.N.D.N.B.N.B.N.D.D.D.N.D.D.N.N.N.D.Y.d.= = * $ < 5 5 C J r w 0 0 0 q K F Z F J Z J = q.z.5.o $ $ O F >.a.a.].h a.[ >.        ",
"    5.4 e S g.g.U.hX4Xg.<.=.2.d.I.I.>X>XY.I.j.&.c S p i R t.R I dXN.Y T.T.G.D.D.D.D.D.D.D.D.D.N.D.D.D.T.W.W.F.F.a y p = o O $ C w G C Z n @ r r r f A K D F F D h.r l p q @ $ # o J a.a.>.'.Q a.h [ ~ '.    ",
"    J 8 N l g.<.g.zXgXmXgX2X2X*Xg.g.;X*XI.U.d.I.y.O.t t C p L S R Y y -.T.0XW.G.W.W.T.W.6XW.8XD.T.W.W.W.W.2XR a @ @ t t * $ $ 0 1 w n A f t r r : o - t ; > s D J q p q l $ . @ . _ i.:.>.|.g a.h D F       ",
"    G < w l d.g.l.NXjXj.2X4X&XU.d.d.g.I.U.g.d.j.g.I.*.l S r $ q S i = i 0X2XT.D.W.8X9X8XxXW.8XT.W.W.W.dXT.a % O . . 6 6 0 $ @ 6 O w t A r e f q : ; f s s F _ _ w.D l S n.6 @ . o #.s.].>.].[ >.k _ {.      ",
"    B < N F j.Y.y.h.t.a gX4X=X>Xd.=.I.*X*XI.I.*XU.j.y.S S p : r t O % % y P U.F.2XvXdXzXzXF.T.T.2XT.T.W y % o - . @ 6 6 6 6 L r : 0 7 6 t C : t q t l x F _ #.O.%.F x #.q.t . 1 + F '.*Xa.:XQ [ Q %.        ",
"    N - N F y.s.#.T K l jXjX=X=X=.-.*XU.I.g.U.;XI.I.d.$.S : : r - O = t : y % & y a S 2Xj.& $.i a = O X X X @ 7 * @ $ O X t p 6 $ 6 $ $ Z Z l f f l _ O.+.+.&.+.&.F O.e.r.t . . . F ].].`.'.>.%.%.          ",
"    f # e A $.w.l l r.> >X2XU.2XF.<.*XU.U.U.U.=X&XI.<.*.$.. O : t q t r n 6 1 # 1 y p = % = X . o o o . @ @ . $ @ X @ = p R R F p p : q #.Z S l f x @.&.:.&.:.+.:.%.e.p.h.L . + o f 1.].].nXnX              ",
"    A # n r w.O.&.c.;X&.4XjX=X2X<.@.U.3.&Xg.g.=X=Xg.d.i x *.e.#.l q t 0 6 - r C K , . . . . o . . . # # X 1 r S S 6 * i Y E R E p p l D ] F D z z _ &.<.f.1.f.&.e.%.q.8.n.L + @ . ; ;.X.;.                  ",
"    G < w 0 F $.y.,X2X<X2X4X5X=XU.g.*X<.&X&X&X2X2X*Xd.c =.j.s.$.F x q : 0 0 e t w O 7 # . : 0 - < f e t f C F J F Z p 6 S E E R S l N J ] [ z D D _ %.%.&.:.%.#.l A f r m , + @ + > >.;.>.                  ",
"    H 7 0 q l r.y.l.{.2X>X=X=Xd.<.d.*X@.*X*X4X4X*XI.d.Y j.I.j.y.&.$.s.#.X l C Z A 7 J F f F D f S Z F F q K F F S S t y R R R R S D D D J D D f f z f l l Z l t ; # # < , 5 @ 5 + s 1.].,.                  ",
"    5.9 # $ t > x O.&.s.g.<.j.l.h.h.s.y.d.&.l.Y.I.l.s.$.s.d.d.d.s.j.y.#.> C D J ] J ] ] J F l l _ H D J Z F J T F Z C t L p p q q q l t : t f ; - 0 7 $ = t C * @ . # < 4 @ + + + f ^.]./.                  ",
"    t.v < 6 = = = O = > = > q p S S x S F x S Y S F x l l p l S S S S p C l q - $ $ O o ; $ 0 t e f q r e $ e w w t t 6 a p $ 1 w w N 0 - - - - 0 f w @ r t q.0 . . w w w 5 + 1 . s ^.-X:X                  ",
"    r.m 4 5 6 6 * $ 6 * 0 t t p q p : t r p q t t i p p p : t = : = = * * : = X . . O o o O * = : > = : : O 0 : * 6 6 6 6 5 + 1 w $ - # - 7 : : : - O . : t A t 1 . 6 n w , . o o ; >.'.                    ",
"    r.m , 1 1 = @ = 6 = 6 4 @ r : = X $ X O = : * : * : = i i i i i i l S Y T Y T Y T R R R *.T Y x a c i i = = = = O - # 1 $ @ 1 5 $ # - o - q > ; o o > > l : + . + 1 1 @ . . o [ :XnX                    ",
"    8.b 5 J K S S S F R R R #.F $.h.q.T S S S J l S #.T #.$.j.$.$.u.R $.e.y.y.y.d.-.y.-.-.=.-.-.-.=.y.u.u.u.y.h.j.c.r.w.K J S r p C C Z F J #.#.&.#.#.e.i.h.c.9 . + = * p X . . s hXnX3X                    ",
"    N e 1 sX;Xj.;XdXjXhXzX4XdX*X*XjX<Xd.2XmXjX2Xs.T T Y u.U.I.*.Y T Y i i i j = % O > i p p q : = = O = = O X = i S S #.q.y.y.h.s.y.s.l.l.j.I.c.;XI.U.Y.Y.;Xj.F @ S n.u.u.n.X . z hXnX                      ",
"    N 8 G sXc.$.1X4X4X2X;X2X3Xd.:.4X<X3XhXzXzXl.j.O.y y.;X2XU.y.d.U.;XO.x T A C N C A C n p q q t t w 6 1 : t p T S c F e.$.$.#.T O.T T O.O._ ~ c O.*.*.*.O.*.l @ 6 I R Y a . X i.NXnX                      ",
"    7 e D aX;Xh.s.2X*X;Xd.j.g.s.&.Y.:X1XgX1Xj.Y.s.t.p Y.y.j.s.&.$.=.$.T F R 8.q.8.J J K J F K F F J J n.w.p.#.i.y.Y.T s.c.$.O.O.F j s s > s z x x #.$.e.y.e.j.$.6 u.u.E u.R . o F hXc.                      ",
"    - Z Z v.x.$.$.I.<.g.*Xg.&.> j T O.O.x O.j &.T S i r.#.T T Y *.&.y.l F J T 5.J S J J q.q.e.t.t.#.#.#.F z f l $.O.> F ,X&.s.s.f.s.s.k.s.i._ z _ ] #.e.$.y.j.u.S j.E -.-.R . $ - t :                       ",
"    0 w l aXl.c x &.x Y *.U.l.*.&.s.*X>X>X4X-.U.R R i Y y.$.$.d.=.cXjXdXdXhXNXNXNXNXNXZXZXNXNXAXAXSXSXSXNXNX,Xk.sXh.0 l c.O.&.s.s.d.&.y.+.O.F F f j T R q.u.j.u.K u.y.E -.E X : : $ l                       ",
"    . r A sX1X$.d.4XjX>Xd.;X1Xd.U.*X3X=XU.=X-.-.*.U.$.R R R y.$.;XGXHXJXLXFXLXJXLXLXJXFXJXFXFXFXFXHXFXHXFXHXSXNXc.h.e : l = T O.&.s.d.l.I.l.j.y.&.&.u.j.u.u.j.r.F t.E E u.R . $ 1 @ t.                      ",
"    7 l C sX1X*X;XjXhX=XU.2X5X*XU.&XU.F.OX0XF.4.E d.I.R L L S T R BXJXLXJXJXFXLXLXLXLXJXJXJXJXHXHXLXFXDXDXSXHXNX1XR p X X X S t.&.y.&.y.y.d.y.=.$.*.d.-.-.u.u.u.L t.E E -.R X . @ . r.                      ",
"    r r t fX;X:X4XmX>XU.&X4X2XCX0X5X5X5X=X0X5X2X*.U.u.S a & R <X,XsXKXLXKXKXKXKXKXKXKXKXKXKXKXKXKXJXJXLXLXJXLXLXZXR v.L R p K Y.h.j.l.Y.j.d.-.=.@.=.d.-.d.-.u.$.a R R E -.S X . + . r.                      ",
"    e r t jX;X:X=X4X*X@.<.&XU.2X5X3.3.OX3.U.2.U.I.-.e.T R Y.NXZXAXdXr.T z.x.z.b.t.t.5.Z n C e 7 1 7 $ < ; 9 9 b.dXL 6.6 5.aXUXR S A T t.j.u.y.<.3.d.I.U.U.d.d.=.= t.a E u.R X + , . x.                      ",
"    A p r lX1X>X&X=Xd...d.*XI.4X4X=XU.2.4.<.4.I.*.h.dX<XdXNXSXDXDXSXkXC 8 7 < # + + 5 5 5 1 , , , < , < 9 3 9 V PXKXUXIXIXUXaXn.0 O p R Y.t.*.=.@.I.4XU.<.<.=.y.= R R E n.S X + X . x.                      ",
"    r e e fX<Xd.2.4...f.g.].g.&X4X5X=XU.<.d.sXY.@ r.LXAXNXgXDXLXSXJXZXC + < , , , , , , 5 5 5 2 , , , , < < + , lXlXPXKXkXPXcXz.$ . C dXu.Z p l *.U.U.<.3.-.=.=.l R Y.u.$.L . @ @ . z.                      ",
"    r C f aX>X3.2.@.! >X>X=X3.=X=X3.P -.u.Y.u.S n ZXLXZXJXHXhXNXZXkX5.b + 4 b 5 , 5 5 5 2 5 , 2 2 , + , + + < + UXKXKXLXKXKXKXPXZ . w aXS @ X = $.;X<.2.=.3.=.@.i $.-.u.u.C X @ @ X x.                      ",
"    t e 0 }.*X2.OXg.3.>X>X=X&X5X2XjXL u.R Y.n.h.LXFX1XFXGXSXZXx.q.7 3 2 , 2 2 , , , , 2 , 2 , 5 , , + + + + + , b kXlXM b.lXZXAXAXL kXL 6 = @ p #.&.&.<.d.d.d.y.x R R R $.p X @ X X v.                      ",
"    w e N {.<X2.&Xg.g.5X=X>X=X=X2.j.R n.S n.R dXAXAXp JXLXbXlXH . + 5 2 2 , , , , + , , , , , , , , + + + + # + + + < , 3 8 R kXK n.R y = y 6 S J T &.y.s.s.&.s.F c R e.R p . X O . ,X                      ",
"    0 n r ,XjX3.=XI.2.=XU.=X&X,.! <.h.$.L n.dXAXNXu.T PXlXr.A 3 # , 2 2 , , + , + + , , + , , , , + + . + + . + + . . + + + + n z.AXdXE R L L L p 6 S S l S T $.R T S R n.S @ @ o o ,X                      ",
"    r n e x.3X3X*X2X3.U.=X=X&X/...&.R y.S R FXHXzXkXkXIXL @ < 2 3 , , 2 , + + + + + + , , + + , , + + + + . + + @ . + + + , 2 b.KXLXcXdXE L a n.L 6 6 = = q S F $.e.u.u.u.u.X + o .                         ",
"    N r e e.<X<.<.>Xg.@.;.U.&XX.;.<.y.x I cXHXcXdXcXkXC , + + , , , , , + + + , , + + + + + + + + , + + + + + + + + + + + + + lXLXKXcXvX2XW % r.L 6 L R #.w.T F #.$.u.u.Y.u.X . X o                         ",
"    N r e z.jX<.1.=X*X*X2.@./.4...2XNX$.c AXAXJXKXIXC , + + + , + + + + , , + + + + , , + , , + + + + + + + + + + + + + , , 5 pXAXAX4XxXvXdX& K L 6 L R #.T T R t.u.T.U.T.u.X X $ O                         ",
"    A n e h.jX:.<.>X].].=XOXOX4Xs.gXc.z.R u.kXIXIXb 5 + + + , + + + + , + + + , , + + + + , , + + + + + + + + + + + + + + , , . q.dXvXxX0XE = 6 6 = S S S R e.R n.Y.Y.T.U.u.X @ $ O                         ",
"    K n w r.jX@.'.*X<.2.| U.OX&X..T Z NXY.lXkXb.N , + , , , + + , , + + + , + + + + , + + + + + , + + + + + + + + + + + , + , + . h.BXBXBXvXE R 6 % L S R $.y.$.u.u.U.Y.Y.u.X @ $ X                         ",
"    J C r w.fXO.O.<.g.2.2.&X]...*.j.FXKXY.ZXPX2 . . + , , , + , , , , + + + , + + , + + + + + + + + + + + + + + + + + , + , + + . . j.UXu.R I n.S 6 r @ R u.u.R u.u.N.u.u.y.. $ = $                         ",
"    8.w w t.gXs.O.y...;.&X1.@.:.x kXJXJX,XdXPXb . . + , , + , , , + + + , + , + + , + + + + + + + + + . + + + + + + + + + + + + + + 4 7.n.n.I I a p n 5 R u.t.E u.E -.u.u.R . * $ O                         ",
"    q.e w r.gXj.O.l.*X3...;Xz #.p.ZXLXLXBXdXIXz.5 + + , + , , , , , + + + , + + + + + + + + + + + + + + + + + + + + + , + + , + , + , , L K y.Y.dXa L 6 R t.E $.E u.E u.u.R . * $ %                         ",
"    9.8 N r.gXs.*.l.I.&X<.+.O + N t.LXGXGXHXZXsX. , + , , , , + , + + , + , + , , + + + + + + + + + . + + + + + + + + + , + + , , , , 5 6 t ZXLXAXR p 6 J R R R $.-.u.n.y.R X $ $ $                         ",
"    q.b 9 q.gXg.@.l.=X'.=X=Xf + , V FXJXLXFXZXz.. + + , + , + , , + , + + + + + + + , , , , , + + + + . + + + + + + , + + , + , , , + + X aXLXJXAXR * 1 6 t a u.E $.E u.y.$.X $ $ .                         ",
"    q.8 9 q.<Xg.O.g.1.2.=Xg.O . 3 b.LXJXe.o . . . , , , , , , , 5 , , + + , 1 < , , , 5 , , , 5 , 5 1 3 8 8 8 5 + , , , , + 2 + , 2 3 + O ZXFXFXcXl 1 6 . 6 L n.n.E u.u.u.t.@ 1 7 o                         ",
"    8.b 8 q.<X'.+.d.g./.2.<.O . , b.JXJXf . + + + + + , , , + , + , , 5 + , 5 3 4 8 3 8 b 8 b m 4 8 8 b m N N N b , < 2 < , , 2 2 , 2 < . ZXJXDXsXx $ L 5 $ t T R $.u.u.y.t.+ 1 $ o                         ",
"    q.8 9 w.<Xf.*.1.OX/.&X].; + < r.LXLXH < b 5 + , , , , + , , + , 5 , , , 4 5 5 3 b 4 4 b m b 8 3 < 8 b m b 3 5 3 , 2 2 2 , 2 2 , 3 , 2 ZXJXNX<Xl @ m 1 1 * % R -.u.E y.R . 1 # .                         ",
"    t.9 7 ] ;Xl.+.<./.,.&X<.o o # b.SXSXA , 2 2 , + , , , , , , 5 , , , , , 5 3 3 3 3 b v b b b b 4 4 5 < 5 4 v 2 v v v 3 2 2 2 2 , , + , r.aXF gX#.w G 1 1 = X R y.u.y.u.q.@ @ # .                         ",
"    t.b 8 ] <X].@.d.U././.d.o . # x.SXSXm , , , , , , , , 2 , , 2 , , , , , , < 3 < 9 b 3 9 m b b b b m b b 2 3 v 3 3 3 2 2 2 , , 2 , , + < o sXbX1X1 n , 1 X X J R E y.e.R X 1 7 .                         ",
"    t.8 m 0.3X'.k =.<.d.g.s.o O # pXSXFX8 2 , , , + , , , , , 2 2 , < , , < b N V b V d V V 9 b 9 b d b m b b m 3 3 2 3 3 2 2 2 2 , 2 5 < 8 + r.bX,X, w , 1 . . S R -.R t.#.. $ # .                         ",
"    t.8 9 ' 3X{...4X>XOXU.<.. . o }.SXSX+ + + + , , , , , , < , < , + # # 2 G B H 6.8.8.6.' 9.9.' 8.H B V B 9 b b 3 4 v b v 2 2 2 2 , , + 4 . b.kXsX, 5 + , @ . S q.u.R R R . # $ .                         ",
"    t.8 7 ` 3X'.x =.&X=X*Xg.X O # lXZXSX# + + , , , , , + , 2 , < 2 < < < 9 H 8.8.` ' ' ' 9.' ' ' ` ' ' ' ' ` V V 9 < 7 , , 3 2 2 , 5 3 5 + < q.ZXv.1 5 , @ @ $ S t.u.R $.T X $ $ .                         ",
"    t.8 1 ] :X=X:.=.U.].&X=.O * o kXSXSX# , , , , , , + , , , < < < b 8 # b H H H ` ' ' ' 9.' ' ' ' ' ' ' 9.` H D V < < < + 3 2 2 + < 5 2 + # J kXaX1 @ , 1 @ @ 6 t.q.R F J o $ @ .                         ",
"    t.8 7 ] <X>X<.O.2.2.g.&.= $ o bXZXSX+ + , , , , , , , + < 7 8 < 7 n 7 n H ] ' ` ` ' 9.9.' ' ' ' ' 9.[ 0.9.9.9.8.N N N e m m 3 , < 5 1 + @ K kXUX1 , , 1 . $ @ R q.q.J J O . # .                         ",
"    t.8 7 ] :X:Xs.@.I.&Xg.@.> $ o sXbXbX+ + , 2 , , , + + , 4 8 8 + < 9 7 N H ] 8.` ' ' ' ' 9.' ' ' ' [ 9.9.9.0.0.` N B G N b m 8 + < 1 < + + D ZX,X0 , 1 @ 1 1 @ J S S R J X O $ .                         ",
"    9.b 3 ` :X3X+.*.3.g.l.i.O 7 ; kXSXSX. + , , , + , 5 + + < 7 # 9 9 7 9 N H ' B H H ` ' 9.' ' 9.' ) 9.9.' 0.[ ' ' H D B N m N m < @ + + + < R kX,X6 + 1 1 $ + * K = S J J . @ $ .                         ",
"    8.b 9 9.:X>Xs.+.<.<.<.&.o # ; pXbXZX+ + , , , , , , 2 + 7 7 7 e e f e f V H B B B B H ' ' ` B 8.B ` ' 8.0.9.9.' B V V V N e N < + @ + # < 8.NXv.0 , 1 5 @ $ @ J q.8.J S . $ o .                         ",
"    q.8 < ] 3X3Xl.+.<.<.s.&.: - ; }.bXbX# # , , , , , , , + 7 7 # 9 f N V D ` ' ' ` D H ' ` ' ` B 8.' B 6.' ' 9.' ' ) V V V N e A 5 @ @ + # . p.kXx.6 , $ 1 @ + 1 5.n.8.J S . $ $ .                         ",
"    8.8 9 ] :X:Xs...&.f.f.%.; < d lXSXIX# < + + , + , , , + # e f 9 f B D ` ` ' ' [ ' ' ' ' ' 9.9.' B H ` ' ' ' ' ' V V V ` d b N 1 + . # . . v.kXr.# + + + + . 6 q.q.5.J K . @ o .                         ",
"    8.m 7 ] :X3Xs.x @.@.:.%.$ < o }.PXZX. . + + + + + , , < 9 N e t d B B ` H ' ` ` ' ` ' 9.] ] ' ' ` ' ) 9.9.9.9.9.B V ` H V N m 9 . + # . . kXkX] 1 < 5 , @ + r 5.R 8.q.Z . @ # .                         ",
"    5.b 7 #.:X3Xl.@.<.f.g.f.O < o B fX}.. . . X + + + , + + 8 r t d f N B H ` ` ` ` ` ` ' [ ] ' ' ' ` B ' ' [ 9.9.9.' ` ' V V V N 9 $ . , . . kXjXC < 5 , < < . n q.8.5.R Z . . $ .                         ",
"    8.m 7 w.{.3Xl.@.s.<.].f.A 7 9 lXFXLXNX. . + + + + , < # 9 e 9 e t V D H ` ` ` ) D D ' [ ' [ ` ` ` D ' ' [ 0.9.9.` 8.H D V N 7 n 1 1 1 $ : NXlXf + , < , 5 + M q.n.] 8.Z . @ o .                         ",
"    8.m n e.3XgX>X<.s.g.f.s._ ; ; g nXSXZXv.. . + + + + + < 8 8 9 f 9 f B H ` B B B B ) ` ' ` [ ) ` B H B ' [ 9.9.9.B H V N 9 9 e n 0 @ @ Z sXkX}.+ @ , , 5 , , m 8.5.5.8.Z . @ @ .                         ",
"    6.V f v.3X4X2Xs.g.].f.s.%.> ; 9 bXNXZXJX* + + . + + < < 7 e 9 9 9 B H H ` D B D ` ` ' [ ' ] ` ` B ) ) ' 0.9.0.' ` V B D G 8.H f w . }.ZXkXsXaXv , N m m 2 < m 5.J n.8.K . @ $ .                         ",
"    5.V 8 k.gXgXNXl.l.'.f.s.%.F ; ; w.] z dX* . . . . + < 7 7 e 9 9 e B H H ` ' [ D ` ` ' ] ' ' ` ` B ` H [ ] 9.' ' V H H H H ' V < w + fXjXbXJ G v., m M b 4 4 M 8.5.J q.K . . $ .                         ",
"    5.m n z.:X3XjXg.l.g.f.:.%.+.F ] sXfXp.K 1 . + . . + < 9 8 b 8 7 9 N H H ` ` ' ` ` ' [ ] [ ] ' ' D H ` ` ] 0.0.D B D H H ' J f 9 o l kXbXF + 3 N M 6.v 2 v 5 M 8.J J q.K . @ # .                         ",
"    H V V k.<X3XjXg.f.f.f.>.i.#.] ] x.{.l : + + @ @ + 4 7 w 1 e 7 8 7 V D D D ' ' H ` ' ] ] 9.' ] ' D ) [ ] ] 9.' ` D B N H H G 7 7 O NXNXaX@ + 2 2 v v v 2 5 2 V 6.5.5.q.K . @ $ .                         ",
"    6.V e x.>X>X4Xg.1.:X].k.l.i.i._ &.h.c.,Xf , . + < 4 < e 7 7 9 9 # 9 f B B ` ` ' ' ' ' ] ' ' ' ' B ` ' ] 0.9.' B B b f 9 9 9 < o s NXNX] . @ 2 v M v v v v v b 6.5.J 5.K . + $ .                         ",
"    6.V N k.fX3X4X].f.3X'.f.l.:.e._ F F <XNXNXR w 1 + # # 7 0 8 0 7 7 9 e N B D D B ` ` ' ' ' ' ' ` ` H ` ] ] [ ' D B 9 8 9 r e o q fXNXDXA . , 5 b 7.7.v v 2 4 N H J 5.q.Z . @ # .                         ",
"    6.m V x.fX3X3X*X].>X3X'.k.i.a.i.F z D jXSXNXhXc.% . X 1 w w t 9 9 e 9 d N f B B B ` ` ` ' ` ' ` ` H ' ' ' ' ` D B t 9 e 8 9 d kXsXNXSXh.. , 5 v 7.M v v v 2 m K 5.5.8.A . + $ .                         ",
"    H V N x.<X3X>X'.f.'.3X:Xk.k.w.i.i.F l #.:XgXhXcXJ . X 6 6 w q d e 9 t f d f f B f B g B B B B D B D ` 9.' ' ` B N t $ 8 B B D ZXLXaXlXq.+ , 5 v 7.7.v v 5 2 m 6.J n.n.C . @ 1 .                         ",
"    H b D p.{.k.f.:.+.i.i.i.%.i.&.i.e.#.l f f l ] }.,Xr.A S + t e e f f d e V f d s d d d d 9 d f B B V B H H D ` B t - 0 p.bXpXB J LXD o + + , 5 v v v 5 v v 4 L 6.J 5.5.r # o $ .                         ",
"    6.V N p.;X'.:X'.a.'.sX;X{.'.k.h.%.w.F A t # # N ] p.v.lXX @ w 0 r m r f N B N d f f B f B A B A B V B D B N V e # o e.kXZXbXA + v.N . + + 5 4 5 v v v 6 v v m 6.J ] n.r $ . - .                         ",
"    6.M N b.;X:X:X*X{.:X:X:X{.'.k.k.i.w.] F N n H J J J K T X = # # e t e f f B B f B B D D D B D B B N f V Z f m 7 + H e.i.SXSXw + , 5 + , + 5 4 5 v M M v v v M K J 5.5.t o @ $ . pX                      ",
"    V V m p.;X1Xg.l.f.'.:X:X'.'.f.].i.i.] J K q.t.t.T J i c = S 0 # 9 9 f N N D f V B D D B B N B D N f d t e : 9 8 z.ZXkX] bXSXz.G n K 5 5 2 5 5 v v K M M v v b K H J 5.t @ . $ . }.                      ",
"    G b V b.x.l.l.s.s.f.;X:X;X'.'.l.k.e.i.#.n p #.$.T s.Y.cXhXNXNXt 9 9 9 N d N B f D N A N A N 9 0 $ # O o . o : e kXbXsXi.b.$ w + 5 v M b 2 2 v v M 7.M M M M v H H J J 0 @ $ $ . aX                      ",
"    G V N r.;X<X;X{.s.k.'.{.k.i.i.i.h.i.k.h.t t l r.;XkXNXcXgXgXdXfXo # # < < - - - - : - $ # - $ 7 X o . . o Z ,Xw.NXSXZXSXkX1 + + 6 M 7.6.2 5 v 6.v 7.L M 6 M M H 5.5.n.6 @ + # + aX                      ",
"    G V V 8.c.'.l.j.&.k.,X1X;XsX{.<X:X1Xk.h.J t t p y.fXjX,X;XsXjXkXr.+ + # # . # . . X o @ @ $ $ $ . . o > #.kXkXD O fXZXkX1 $ . + < m 7.M + b t.6.M G 7.M M 4 M 6.J J n.t , $ 1 . lX                      ",
"    V b b 9.k.c.l.i.+.;XgX;X:X<Xl.{.:X<Xl.*Xr.l p * * o o t p i r Z @ n l * o . . . . . o O . $ $ : K h.sXkXhXNXcX> . r.r.7 @ + + + 5 4 v 2 4 K 6.G M M L M w M N 5.J J 5.0 @ . . . lX                      ",
"    7.M m w.l.;X'.k.l.<XmX:X:X3Xl.g.'.l.f.e.p.q.A 7 o . * $ 6 t t * . p.ZXcXhXfXfXdXjXkXhXkXfXdXsX,XsXfXjXbXhXkXfX. . 4 1 . + + + # < 5 4 M L 7.6.7.M C n M M L N H J ] q.6 $ . - 8.cX                      ",
"    M V b 8.{.:Xa.:.+.l.4X:Xl.:Xg.f.'.*X'.f.%.t.H e < $ 1 $ $ @ , + X z.jXsX,X1X,XsXsXsXfXdXfXkXdXfXfXjXjXhXjXfXx.0 + w 1 5 4 1 5 5 < , b m M 6.n m n G Z m G 5.D J J H R q O . r.NXhX                      ",
"    6.b b 0.v.{.f.f.s.s.'.<.&.s.<.f.l.'.].l.k.w.9.V . # - - - $ 1 $ $ K ,Xh.r.r.q.w.e.#.#.] J q r o - - o o . ; o 1 1 w 4 w w 4 8 8 8 8 m b v m m H 8.q.5.5 C M Z H w.e.q.p O o J l.1.f.                    ",
"    G m b 9.k.k.a.i.+.i.:X<X3X3X;Xf.s.;X:X'.w.i.] J H J A f - t 0 # - o . + $ # o O $ X O - $ # - - - O - o . < # < 1 4 , 3 1 5 4 3 < < < G G H J 8.t.p.t.w 5 G K w.i.#.e.Z . O $ j ~ ! +.<.                ",
"    6.M b H k.{.'.k.1Xa.{.{.{.{.'.i.:.:X3X'.h.i.%.w.] F _ J ] e.h.q.C n w r 0 r n r r w 0 w w 6 0 w 7 7 : $ $ 0 6 1 1 5 @ , 1 1 0 w N J Z H 5.H q.q.p.p.H r K 6.K w.%.&.h.C $ 6 o z .. .|  .*X              ",
"    H M M 8.p.i.k.i.e.{.}.{.{.fX<X'.'.NXjX;Xk.h.k.p.e.w.#.] ] p.w.] #.F N Z 5.K A C n N n n e n n e w w 0 7 7 7 7 0 1 $ w w G K J J J q.] J J J w.r.p.h.J f 5.5.A q.%.&.e.l . 1 . l .. .!  .>.              ",
"    6.M b J z.x.j.O.. e.e.c.,XgX<X'.k.>XgX'.l.{.k.l.w.h.] #.p.h.e.#.] J N C K C n n n n n r n w r n r t w w 1 1 0 w N K C Z J 5.t.q.q.t.t.q.D J z.r.p.z.q.G n.6.w t.&.e.w.q + @ . F ~  . .|  .f.            ",
"    5.v b n T t.e.O.l F i.s.fXgX1X{.l.{.:X{.c.,XsXsXh.x.e.p.x.v.k.p.q.5.A K G n n n n r n w r e e e r r e e r C K q.q.q.q 5.J q.r.q.b.r.t.r.] t z.r.p.z.r.5.5.6.w r.r.e.h.C + w - F .. . .! | ;.            ",
"    t.v m M G q.#.l = h.c.,X<X<X<X<X}.;XaX<XaXfXsXsXv.,X,X,X,X,Xj.z.r.J A C A n w m r n r n r n n e e w w w w n J J q.J K J q.q.q.q.r.r.t.t.] K t.t.t.r.t.5.n.6.A 8.J K C @ + 6 7 l O. . . . . .            ",
"    t.b 6.5.r p q q q q D F F F D x F F Z l l l l p l p t > : > O f t : w r r w w n w r n w n n n r t w w w n K 5.J K G J K A A C N C A e f C A C n v L G L 5.L L C 6 5 O @ . + O f .. .~ ! ^  .'.          ",
"    t.7.5 L 4 5 @ X $ O o o O O o X O X * $ : * = O X $ X $ X X o * O $ $ $ $ 1 6 7 0 6 6 7 7 1 1 1 6 e C K J r.5., + + 1 1 1 $ @ + 1 w 1 1 1 5 6 @ 5 6 1 1 r m 4 w 1 5 + @ + @ . > @.;.! c | ;.'.          ",
"    r.M 5 @ 6 6 1 $ O $ O O O O O O O X X @ X . X @ X X O X X $ X O $ : 0 $ $ 6 w 0 1 1 0 6 0 0 t n A K q.r.q.t.q.C @ 1 6 C n n n C G Z K G n 6 1 1 5 5 $ 1 w 5 @ + @ , , $ + @ o q ;.;...k | ,.*X          ",
"    5.7.5 5 @ * X % * t : t t > O O O O X * @ . X $ . O X . o O . X X $ : : * 0 t t p p q l p l r l p t : O 7 t w 6 1 L : * $ $ $ 0 6 6 6 6 6 0 r $ 0 6 0 6 1 7 @ + X 1 @ $ . . = >  .3.k ^ o.=X:X          ",
"    5.M v dXlXY.T h.c.c.,X,X<X<X,X<X,X;Xv.Y.Y.,XaXY.v.c.c.x.c.j.c.h.h.e.q.t.#.#.q.#.q.#.#.q.q.#.#.#.T J F A q > : O X 0 O > O . O = O * > > p q A S F z z l l l q : t O O . X . . z ..;.k | /./.:X          ",
"    G m 5 sXdX1XO.j.k.s.c.{.l.l.l.k.l.k.j.k.x.l.c.j.f.j.s.i.s.s.s.:.e.%.w.%.#.#.#.%.#.#.#._ #.#.#.#.+.#.O.#.&.e.s.s.#.s.i.:.a.k.%.a.k.k.;X{.'.k.s.;X;X{.:X:X{.;Xk.;Xl.j.x.p * f : x  .4.X.X.,.OX            ",
"    G w n lXkX1X%.l.s.l.l.{.*Xl.f.s.l.j.h.l.l.j.f.s.i.s.d.s.s.f.<.f.&.#._ O.O.F F x _ F O._ T #.#.%.%.%.&.&.+.:.e.e.%.&.~ ^ ^ ~ ^ ~ +.>.f.f.i.&.l.f.1.:.<.:.@.;.+.:.:.s.s.l > S O c ..X.o.X.o.2.            ",
"    H b 4 sXcX1X&.g.l.l.{.l.l.l.s.h.h.l.l.;X;Xl.h.i.e.s.e.i.&.i.i.#._ z z F _ _ _ _ O.O.%.$.#.+.O.#.F x z ~ _ w.i.z _ #.] z [ %.i.>.%.a.f.i.:.&.:.:.1.1.].f.<.:.+.:.f.s.h.A 6 r r c ..X.X.o.,.,.            ",
"    G b 4 lXzXY.<.&.f.c.c.k.l.k.F %.i.s.l.c.c.k.s.e._ %.#._ #.#.e.i.jXNXDXFXFXFXFXFXFXFXFXFXFXFXFXFXFXSXSXDXhX] f ; [ h _ ^ >.{ a.[ i.k.f.i.:.:.&.:.<.f.f.f.f.%.%.+.s.s.i.S $ w 0 j ..X.o.,.,.].            ",
"    G w 1 aXgXl.s.@.k.l.k.h.e.#.z #.#.%.%.e.%._ _ z ; d h l D S t.u.FXHXFXDXDXDXDXDXSXVXVXSXSXSXSXDXDXSXDXDXSX* . . ; o _ [ _ [ [ e._ %.:.:.>.%.[ +.:.:.:.:.i.e._ &.i.<.r.S X * : c X.o.o.,.2.              ",
"    G m 4 aX<Xd.&.O.:.s.s.+.e.s.%.x.h.k.k.*X:X:Xa.k.k.}.x.h.v.: z.F ZXGXHXDXSXSXSXDXSXSXSXHXVXSXVXDXDXFXDXDXDXFXl 0 _ z a.k [ #.[ { :X%.%.a.w.%.+.%._ [ ] %.%._ z i.a.&.h.q $ $ > z  .o.3./.                ",
"    N 8 5 pX1Xd.&.~ c %.{.;Xs.f._ :XnXnXeX>X&X&Xf.l.:X:X:X;Xs.#.jX;XNXDXSXHXSXSXSXSXSXDXFXSXFXFXFXFXLXHXGXJXJXGXZX% D a._ [ ] { ) _ fX>.] a.i.:.:.%.:.e.a.:.a.+.h i.i.s.h.l O 0 O l | ,.=X                  ",
"    G w 4 r.;Xg.@.+.f.1.g.l.@.g.~ <.@.f.=X=X=X2Xg.:XhXnX<X;X<.:.mXgX! {.:XfXfXfXpX}.{.`.a.9.{ [ ) ) z z z ) ] bXdXZXJXSXkXi.h a.h d ,Xa.z i.a.:.:.:.:.s.a.s.k.%.; %.e.s.h.l * 6 : c ;.2.                    ",
"    G 8 m t.c.g.O.+.d.].g.<. .*X2.<.;.1.2.2.3.>XY.c.z.R d.*XgXHXVXCXNXnXo < ; # d ; # # ; 9 # ; o # 9 9 # < N n kXKXLXZXH pXQ h _ o { sX) > >.+.>.+.%.:.%.+.%.w.z #.&.e.h.l $ : $ c ;.2.                    ",
"    N 8 v 8.l.d.~ +.g.I.f.<.1.3X3X:Xf.f.g.<.c &.R L p dXAXJXVXHX&XNXGXGX9 G 9.G 9 9 , 2 3 3 3 4 < , 3 4 3 M 8 + LXKXLXb.8.PXFX> t . z ] a.; z %.{.'.&.<.%.%.%.i.%.%.&.&.e.> X 0 - h.*X                      ",
"    G w m G h.d.O._ <.<.:.+.@.<.<.g.:.<.s.;Xy.Y.Y.jXu.FXGXDXGXGXFX> LXZX# < , < , 5 v b b b v v b v b v v v v M KXLXPXv m KXt.HXJXbX_ ] f + 9 i.x.k.:X*X:Xl.}.h.i.s.i.i.e.l X @ $ l :.                      ",
"    N 4 b J d.l.i.~ l.f.g.f.d.s.<.@.+.j f.<Xq.e.R Y.FXu.JXSXcXPXKXA e < , 2 , , 3 2 2 2 2 2 2 2 2 2 2 2 2 v 2 v r.lXpXv v m O kXGX;Xl l w < e 9.r.p.&.<X:.O.%.F #.%.s.h.h.Z X $ O l                         ",
"    G m b 8.l.g.<.@.:.1.=X].2.;...<.&XT Y.aXL q kXBXGXDXDXKXiX6.iXv v + v 2 2 2 2 2 2 2 v v 2 2 2 2 2 2 v 2 2 , + . . 1 + 1 J KXKXF 6 + 2 5 6 C K J O F l.&.e.t.w.#.&.e.s.Z - $ $ J                         ",
"    N b 9 K l.].:.<.3.1.&X&X1.2.2.;.&XO.t.C t J JXGXHXFX4XAXv v v 2 2 5 2 2 2 2 2 2 2 2 2 2 2 2 2 v + 2 2 2 2 5 + + + + 1 1 lXKXFXLXLXt.m 4 n n e f F c.,Xl.r.h.h.O.e.i.h.F $ $ : l J F O                   ",
"    G b b K l.g.;.;.2./.].3.3.3.3.2.&X<.T c 6 cXJXJXJXFXr.+ 2 2 2 2 2 2 2 2 2 , 5 2 2 2 2 2 2 2 2 2 , 2 2 2 5 5 , , , 2 5 0 #.FXNXJXPXt.+ 1 6 @ G r l.<X1X*Xs.;X,Xh.j.h.h.J : # 0 C K A f                   ",
"    G m m S l.g.3.3.=X&X&X2.&X/.OX=XF.<.s.NXsXp ZXJXJXKXz.+ 2 2 v 2 2 2 2 2 2 2 2 5 5 , 2 , 2 5 2 , , , , , 2 2 , , , 5 4 w r bXPXKXI.j.aXA 7 < q.w.1XhXl.'.c.1X<X,Xc.k.z.#.# $ O e f C C                   ",
"    H m m Z l.g.<.1.=Xg.2.].d.OXOX&X3...3XNXSXw.ZXkXPXe 5 2 2 v v 2 2 2 2 2 2 2 2 2 5 2 2 3 2 5 2 2 , 2 2 2 , , , + , 4 4 3 $ f kXk.j bXGX[ 7 7 w J 1XmXs.s.k.j.c.h.k.h.h.] @ 1 + 0 t p A                   ",
"    H m N Z l.].3.;.3.1.3.<.3.X.....@.*XnXbXKXLXkXw e , 2 2 2 v v 2 2 2 2 2 2 3 2 5 2 5 5 5 3 5 < 5 , , , , , , # + # 4 4 2 < 7 . a.jXHXZXnXo 1 , @ k.mXT F e.e.i.e.i.p.h.#.@ # . C p L S                   ",
"    H m m A I.'.<.;./.F.2.3.,.,.| @.y.kX}.x.LXKXZX, 5 2 v v v 2 2 2 2 2 3 3 < , < < 4 b < 3 + < , , # 2 3 , 5 2 , + + < 4 3 4 , . F a.bXbXsXf r 6 . . O.F ;Xk.e.&.e.s.p.z.J O @ . v.Y.A *                   ",
"    8.m N A '.I.:.1.&X2.,.2.F.,.,.3.=.cXIXpXKXKXPX2 2 2 v v v v b 4 < 9 8 b 3 9 3 < + < < 9 # # # 9 < 9 < 3 < < < # < 1 2 v 5 3 o ; }.pX'.] f . $ $ * lXq.w.$.%.i.k.h.k.x.J . $ $ r.jXsXA                   ",
"    9.m G N l.g.<.3./.3.3.2.2.2.2.3.*XAXFXkXZXPXv 2 v v v v v 2 2 + # # < 9 # # < 9 d g d d d g g d g g d d 9 9 9 # < < 3 3 2 2 # . A H o . ; B 9 - Z 8.D _ #.F ] +.e.p.h.D $ . . q.kX                      ",
"    9.m G C k.I.<.;.2.2./.OXOX,.;.3.=XBXJXZXlXL v 2 2 v v v v 2 , < < < # # ; d d d g g g g Q Q g g g Q d d d 9 d 9 < 3 3 9 5 < # # e e ; kXSXSX- 0 A }.A f ] p.e.h.e.s.h.Z $ 1 . q.kX                      ",
"    t.b G N c.l.s.;.2.1.;.1.4...>.i.1XbXAXPXkX4 2 2 v v v v v v 4 5 3 9 b V d d g g g Q Q Q Q / } Q ) Q Q g g d d 9 < < 9 b 3 < # 1 + < pXPXSXpXf 0 q t.F t $ ] %.k.h.p.p.A $ # @ ] kX                      ",
"    t.9 G l l.I.<.<.1.;.3. .~ l.%.%.,XZXcXLXIXM 2 v v v v M v v 4 8 b 9 d d d g g d Q Q Q Q / Q / / Q Q Q Q g d g d < 9 9 d < 7 < # < # 8.PXFXv.8.e 7 f x.O $ - w.{.h.e.h.C O # $ 5.kX                      ",
"    r.3 H N k.*X<.;.1.;././.@ p t f aXFXlXIXZXG 2 2 v v v b v 9 b b b b b d g ) Q ) Q Q / } !.!.} / Q / Q Q g g g d 9 # b b b 9 7 < # 9 t SXLXkXt.H # # - # q f #.<Xh.e.p.w o $ o K kX                      ",
"    t.9 H r j.*X<.<.:.;.X.1.j r m D ZXSX5.iXPXC 2 2 v v v 2 3 9 b d 9 9 d d g ) Q Q } / / !.!.!.Q.} / / } Q Q Q g g d o d d d < < < < - - SXLXZXF e.8 1 # . - > D s.w.e.t.t . 0 O A bX                      ",
"    r.< 6.A y.;X1.:.;.;.,.;.s r b B SXSX6 5 5 5 2 , M v 2 < 9 b b d d d g V ) ) ) / } !.Q.Q.Q.!.Q.!.!.} / ) ) Q g g d ; 9 d d 3 7 , 9 < ; KXSXD N f . . # 7 A aXc.F #.#.q.$ . $ $ A kX                      ",
"    r., 6.N p.;X<.3.;.,.^.1.O 6 f f SXZXZ M b 4 , , b b , 3 9 9 d b d V V Q ) / } / } !.!.!.!.!.!.!./ } / } Q Q g g d d ; 9 9 V 9 7 7 o ; LXx.; kXD # + < @ 0 ,Xx.i.%.e.w.e . # # Z                         ",
"    r.< 6.C y.;Xf.;.X.>.Q.>.o * N N SXNXA v b 4 3 3 b 3 3 v V d d V V V ) ) ) } / / / Q.(. X X(.(.!./ !./ Q Q Q Q Q h d d 9 d V 9 , # . # f . b.kXr.# # < . . o s h.e.w.e.0 + O + N                         ",
"    r.< 6.N h.:X1.;././.OX-XO 6 n D SXNXw 5 4 4 9 9 3 < 3 V b d V g V Q ) ) } } { !.Q. X X X X X X(.(.`.Q./ h Q Q Q g h h d H d 9 < + 1 - 7 . IXsXz.< + # @ . # w p.w.w.t.0 . # . f                         ",
"    t.3 5.n h.*X,.5XeXwX-X3X; w N H ZXZX7 + 3 3 3 < 3 3 9 b d b V ) Q ) Q Q Q.Q.Q.(. X XqXqXqXqX X|. XqX XqX XqXqXqX} g h d V f m $ 7 1 # 1 . ZXpXb.+ + # + + + 7 t.q.w.t.t . $ . e                         ",
"    t.2 K C i.*X,.wXyXwX%X1.O w d ) ZXZX< # < 5 5 3 < 3 b d d d d V g ) Q } } Q.(.|. X XqXeXqXqX X[.).[. X[.qXqXqX-X|.a.g g V m A 1 7 1 o ; . bXiXb.< , < # < + 8 t.q.#.w.w + $ o 0                         ",
"    t.2 G C s.].o.wXwX%X-X;.O t m H NXZX< , , 5 5 , 3 < 9 b V V V g 0.} Q / !.^.(.|.). X XqXeXeXqX).).eXqXqXqXqXeXeXQ.[ Q B V V H 9 7 $ # # # IX}.b.3 , , # , # 7 t.] #.t.r . # . 7                         ",
"    t., G D &.*X;.-XwXqX-X .O w N H ZXbX- < , < < 1 3 3 9 9 d V ) g Q / / } Q.(.|.|.). XqXqXqXeXqX).).qXqX X).qXeXeX^ { g [ d V 6.N e - o # o IXpXb.< < < # , 1 8 t.] q.t.C @ # . -                         ",
"    8.2 G A :.]./.+X+XwX-X>.> r m ] bXIX9 . 5 , < < 3 1 3 d d ) g g Q / { Q.(.(.(.).[.[.qXqXqXeXqX).).qXqXqX(. XeX X{ { ) ` g V H V N . o # . ZXpXx., < # , 1 1 8 q.8.q.t.A @ $ o <                         ",
"    8.< N A :.1.]./.~.)./.~ ; r e ' ZXNX9 + < 5 5 < 5 5 < 9 V g V Q Q } !.Q.^.(.(.(.[. XqXqX%XqXqX).).qXqX-X(.qXeX X( { [ [ B V 8.G e o # # + PXaXz.< + < < 5 4 7 q.9.t.t.G + # + ;                         ",
"    5.1 A D %.:.1.>.( ^ ^ _ 7 N w ] bXIXV + < < 5 5 < < < ; V g g Q !.Q.(.(.(.(.(.(.[.qX XqX+XqXqX)./.qXeX[.). XeX|.( [ [ ) D B 6.H 9 o $ # # ZXaXb.< , + < + 1 3 q.q.w.q.Z + < o #                         ",
"    5.1 N K e.f.>.].>.a.) w.1 C 7 J bXIXN # 5 < < 5 2 < < 9 g d Q } ( (.(.!.(.(.(.|.[.[.[.qXqXqX-X(.^.qX X).(.-X3X>.{ h h h B N H G 7 # 7 O 9 IXsXr.< , < , 1 + 8 8.] J J Z . $ # #                         ",
"    6.8 N D e.:.^ ~ z f ; e e 7 7 ] bXbX8.< < , 5 5 4 8 9 d g Q ) { / !.!.(.(.Q.Q.(.|.|.-XqXqX X[.^.^.).[.^.^.].`.Q h o h g B f N N 1 - 7 o 7 bXlX8.7 , 1 1 1 , n 8.H J J G + # O #                         ",
"    K n m H p.k.{.%.> s l s q 0 t 8.bXbXv., + 1 5 5 3 8 # d ) Q } { / / !.!.(.Q.Q.Q.(.(.). X X X[.^.( |.|.).>.^.`.} >.) { [ f B d N # # 7 . : bXkX] < < , , 1 1 7 H ` 8.K C @ 1 # #                         ",
"    G e N J k.'.f.].%.'.'.&.z t 0 ] ZXbXlX. , 1 5 1 5 8 9 d [ ) } } Q Q Q / Q.(.^.Q.(.(.). X X X[.^.>.|.[.|.`.`.nXfXa.{ [ [ [ B f B < 1 < # g kXfX` # 2 < < 5 1 < H D D K C + @ $ #                         ",
"    G w A K k.'.'.].1.].].>.Z 0 w < pX}.aX. @ < , 1 5 4 f ; g Q Q { } Q.Q.Q.Q.Q.!.Q.^.(.).).). X[.(.^. X[.:X]. XQ.( ^ ( { [ [ ) f D 9 n < 9 B fXfXd . , < + + + 9 H Z A 5.C + $ # .                         ",
"    G e N G k.l.'.].>.].].>.%.8 e n bXlXkXz.7 1 , 5 5 e d d B ) } ) { `.Q.Q.Q.!.^.!.^.(. X[. X X[.Q.!.^.[.[.'.( Q ^ { >.{ [ ) z f B A 9 # H bXx.fXB # 3 5 < , + m H d Z G N + # # +                         ",
"    G 4 N B k.{.'.'.:.f.>.>._ t # . o N jXkXN $ 1 < 2 9 b 9 d g B g g ) ^.^./ / !.!.^.(.). X).).).!.( ^.`.^.^.^ Q { +.( { ( [ h ) p.N # # kXkXJ lX' # 8 , 5 w 1 9 D 8.D K C + @ $ .                         ",
"    G 8 N A x.{.l.'.:.f.>.>.] f 9 p.kX] bXbXz.. , 1 4 e e 9 9 e d 9 ; { a.Q.Q.} } !.Q.Q.(.[.(.(.(.Q.Q { ( ^.^.^ ( { ( { { 0.>.) ] }.; O }.ZX8.# x.t.+ 4 , 1 , 1 r H H J G A + @ # .                         ",
"    N 7 N A x.l.l.{.:.f.>.:.:._ B ` IXkXx.NXsX+ @ 5 , 8 9 < < 7 # o ; d Q ) Q.{ !.!.Q.Q.(.[.[.).(.( Q { >.].`.( ( ^ { { >.{ [ g ) D ; ] NXx.7 + , 1 + b , 3 , 1 9 H ` K H G + , # .                         ",
"    N w N C x.x.'.*X%.k.a.>.i._ ] 7 [ }.p.fXv.o . + # 7 7 7 < 9 d f B o ; g { } !.} !.Q.(. X[.(.(.Q.) { |.`.|.( Q ^ { { { { { ] ` d f LXPXD . + < 5 2 2 2 2 3 + m H H H 6.N + # # .                         ",
"    n 8 B N k.'.'.'._ a.>.>._ f t - q.}.p.fXfX}.N + # # 7 9 b 9 d ) h g d g ) } } / / } Q.Q.Q.Q.Q./ } } Q.`.{ Q Q ( { >.[ { a.' f < J SXFX#.. 1 1 2 v 2 v 2 2 + 9 H K G J A . + + .                         ",
"    r 7 N N k.'.g.'.z f.>.>._ d D f w + . ,XsXjXlXe # # < 8 < 9 ' ' } ) g d Q / !.} / / / { !.Q.{ Q.} `.`.{ ) Q Q `.`.^.{ a.w.B < + 9 ZXZXZXt o # < b M v v v 2 b H H H J N + + + .                         ",
"    7 7 N l k.f.f.'.~ a.>.>.i.] x.t.w w # t {.<XsXo # # < 8 < < 9 ` 9.0.{ ) a.|.`.Q Q .X`.|.^.Q.^.{ Q ) ) ( ) ( ^.`.`.`.>.{ 9.d < + A c.hXFXkX. # e 6.t.M v 2 2 9 H K K K G + # # .                         ",
"    0 $ Z f k.k.f.'.~ a.>.>.w.[ h.p.e 4 w $ i.kXsXpX< 8 < < < < < d ` d ; ; V ) Q h g } { ^.`.`.^.{ } ) { } Q } { { ( ^ [ [ D 9 + 8 JX<Xo N + # < v 6.7.v 2 v 8 m G G Z K N + + . .                         ",
"    7 $ A t '.a.].'.%.].>.a.%.z J t.K 4 n w lXsXh.aXz.+ . q.e 8 3 2 b ) B 9 d 9 d d h Q Q / } } } } ) Q ) Q Q Q { >.[ Q h f o # 9 x.LXZX. + # # < v M v 2 4 b 3 e H H J 6.A + # + .                         ",
"    7 - A s {.k.].:X:.].>.>.>.z D F b.n N w $ . lXb.z.+ z FXr.< + < 8.pX0.) ' V V g Q ) Q Q Q Q g ) B g ) ) } } } { [ h z [ s jXfXlXbX' # 3 < , 3 v v v v v v 2 w J H H 6.G + $ . .                         ",
"    # $ N 9 k.`.].].[ >.{ >._ f F f J B J N 1 $ . r aXo NXfXw.. @ + V 9.9.g V d d V ) Q Q ) ) ) Q Q g d Q Q Q ) ) [ h ; '.bX+.SXLXkX) 9 < b 3 3 9 v v v v b v 2 9 5.H 8.5.G + + + .                         ",
"    o 7 Z s x.'.a.].+.>.;.>.+.h F l p.w.+ 1 0 7 t z.v.fXbXhXc.. + + , H 6.) ) ' ) ) { ) ) ) ) g g g g h Q [ [ ) [ ) d a.4XnX>XmXc.9 < 3 v b b b b v v b v 2 5 b b J H B 8.G # + . .                         ",
"    o 7 A 9 `.a.'.'.:.].a.].].%.p.q.l ] f e e 0 @ = sXNX{.bX,Xo @ , < 3 b b V V V d ` ` ' ) H ) ) D ) B B ) 9.B ' d j DXmX=Xa.<Xd < 3 b M b v b v v v v b 5 2 m n H D H 8.G # + + .                         ",
"    . 7 N s {.a.].].[ %.%.+.a.] A D _ D x.t 0 0 0 X ] fX}.fXkXv.O + . . < < # < < < 7 < # # # < . # # o # 7 t ; N > x NXVX4Xa.s # 5 b M M v 3 4 b v M M 9 b G G m G H 5.H G + # + .                         ",
"    . $ l 9 {.a.a.k._ %.i._ a.p.] %.i.c.w.C 7 w r 1 : 1 - z.v.aXkXkXq.X . . . . . + + + @ $ $ - $ . X O o o * S bX$.&.NXnXfXf 8 8 N b M M M M M v M m 4 , G 6.A e H ' ] 6.H + + . .                         ",
"    # 7 G : }.k.a.'.i.{.k.h.i.p.a.a.k.w.%.p.1 w t 6 X @ X @ 0 K aXkXbXbXnXgX,Xc.i._ T z l l > > l l $.e.1XhXmXmXmXmXO.bX,Xd o 9 b m m M V b m 4 M b 3 , G ] A D # G G Z G G , # + .                         ",
"    . 7 B ; '.a.].k.z z F w.#.w.D z _ :.s.w.0 5 w 6 * @ 1 @ 1 @ 7 7 e.l.,XfXgXgXgXjXjXhXhXhXbXhXjXjXjX3XgXjX4XnXnXjXz p.e # 9 9 b b V b b b 5 3 8 , 9 5.H N l 0 . C C Z K 5.+ + . .                         ",
"    . 8 A ; ].k.'.].h l : t C #.%.i.:X{.%.p.t.N w 0 $ # < < 2 4 . . . . #.h.{.<XfXjXjXnXhXhXhXnXhXjXnXjXgXgXgX<X'._ : < # 8 b b 9 v < 0 8 1 1 $ 8 N J Z H ] #.p.e N K K K 6.@ @ + .                         ",
"    . 5 G O '.]./.].v.J A R h.fX] ~ k.s.%.i.N t.8.Z J H G G N n N K A w C f q ; ; > s s j z z z s s s s s ; ; ; ; ; o 1 < 4 m v < , 7 # + < o O A G H Z ] F ] w.7 A K K J K @ 5 . .                         ",
"    + w G - }.`.].'.h.f 7 z.h.}.s.] a.i.i.k.J 8.J m 9 N N N N D 6.r.r.J G D H H ] ' ` J H F l f ; d : - t : 0 0 6 7 1 1 5 1 4 m 8 # 5 0 < + 7 t # N A A K C l A + G K K K 5.6 + + .                         ",
"  kX+ 7 N - {.'.].'.h.> F r.F c.h.%.:.&.i.p.r.5.8.8.N 8 # d f V ` D b 8 9 # o # # 9 - < - 9 # # - 0 1 1 0 7 w w w 6 # < $ $ 7 1 # 8 + < < < 0 f e Z D J J D #.z.e A F A 5.5.1 @ @ .                         ",
"  lX. e p O c.'.].].i.> l D f ] w.%.%.%.k.i.w.B ' r.9.9.9.D f d d # . < < # < # # < # # < # # # # 7 1 1 1 1 1 1 1 8 + + + + N N G w 1 < < < Z J K K J J J _ w.e.Z K F J J q.6 5 + .                         ",
"  kX. n n 0 i.].=X].f.f r q._ k.k.%._ w.i.i.p.D 9.w.w.0.9.] w.w.f N m b + < 1 1 < 1 1 1 , 1 1 < 1 + + + 5 < 1 , 1 1 + + + + n 1 + + 7 < 8 e Z J ] J T ] J #.#.r.F Z #.w.q.z.4 @ @ .                         ",
"  kX. 7 7 ; w.{.].].i.z ] t.%.z.p.] _ i.i.k.p.` D w.w.0.9.#.r.] z D G m 3 < < < 5 < 5 5 1 5 3 < < , + < + + 1 1 1 w 1 7 + 4 w 8 8 w 1 , G A K q.q.] 8.q.q.w.] p.A ] t.t.z.aXL @ . .                         ",
"  lX# r 1 : [ {.].].f.j ] w.0.x.k.%._ p.a.k.a.D 0.a.w.w.w.w.i.] D D B N 9 < 7 3 7 1 7 3 < 1 1 8 8 8 e w 8 9 m m m N w 7 1 4 A A C N n + m 5.J q.q.q.] q.w.w.a.b.f ] q.5.5.b.6.5 @ .                         ",
"bXsX< m 1 : z {.]./.].~ ] %.p.k.k.] i.a.k.k.k.` [ p.w.i.i.9.i.0.] ` G V b e N V N N V G V N M N N m N m d m N N G N 8 n + N G G G n n + n n.t.t.q.8.q.w.r.r.x.}.H G G 5.5.m 5 @ X .                         ",
"  v.+ e @ : 0 k.{.].:._ #.#.x.a.a.e.[ e.i.a.k.' ` i.w.w.r.%.r.w.%.w.H G D H G V G V H H G V N V V V N V N m V G G N m n < N m A G G G m 5.q.t.t.t.t.9.t.b.b.x.}.r.H M 3 2 , + + z.O                         ",
"  pX+ t.+ + 1 #.a.%.F F A F 9.t.q.#._ ] ' ] ] J ] 8.9.9.q.] q.q.9.8.H 8.H H G G V G G V G V N N V b m b m m m e b 8 8 8 1 b m C C m m C 6.K K A G C M N n e 0 0 9 9 5 < , + + r.LXv.                        ",
"    pXZX. 1 # 0 - # . # $ 1 - 7 0 0 1 7 1 # $ $ # - - - 0 7 7 6 9 t < 8 9 b m b b b b 8 b M m 9 4 8 4 5 < < , < < 7 + 7 5 + , 5 , + , + 5 5 , , + , 3 w 7 5 1 , < , + + # # . IXz.A                         ",
"      PXz., + $ . . . @ . $ @ $ @ * @ $ @ . @ $ - # 7 1 $ $ 1 6 1 $ 1 + + , 5 5 3 , + + , , 5 , , 2 5 5 4 4 5 5 < < < + < < + 6 8 + + $ + @ + + . 1 $ @ 1 1 4 1 1 # @ . 1 # r.PXZX                          ",
"        x.. # < . + . X X $ . X O O @ @ . $ @ * 0 $ . @ @ @ 6 0 t 0 0 # $ , e m m v 4 b w 5 , , , < , , , + + + + 1 + + # + + + + + # $ # r n n J C w n r @ @ + @ . 1 . $ . x.kX                            ",
"          + $ @ + @ . . o t F t.r.t.q.#.J Z A A Z Z F q @ $ * r aXsXaXr.. . 5 w 4 5 5 1 , @ @ + + + 5 , , , + 1 + + + + + # G r.r.r.z.z.h.q.A 0 @ @ 7 r q.pXsXsXJ $ $ # # . x.                              ",
"            kXq.+ . . . p.                            p.o O * * v.,XsXz.. + @ @ 5 + 5 @ , + + + + + + + 5 @ @ 5 $ $ . + @ $                                     IXkXp.C r J                                 ",
"                . $ o ;                               x.o X : o h.,XsXx.o o 1 1 6 5 5 4 5 5 , , , , 5 1 6 1 + . + . + + $ 0                                                                                 ",
"                O : * Z                               v.0 $ 0 o h.}.aXx.o $ 1 b b 5 v 4 4 5 5 < 5 5 @ 1 5 5 . 1 0 . + + 7 A                                                                                 ",
"                t : ; #.                              }.0 $ $ o z.}.sXx.. 7 w w b v b v v 4 2 , 5 , + 5 , 5 8 r r.t., . 7 J                                                                                 ",
"                l t O r.                              }.r $ : O z.}.sXx.+ 1 w b b b b v b 4 5 2 5 , 5 1 < 1 N e aXpX, , 8 t.                                                                                ",
"                f q : e.                              v.- . 7 - x.}.sXz.o < 8 m 8 b m m b 5 5 5 5 5 , 3 1 1 n b lXpX+ # < b.                                                                                ",
"                o O o r.                              x.0 ; t 9 x.}.aXz.o # w e m M m m b < 2 5 5 5 1 4 5 8 n 9 lXlX+ 1 1                                                                                   ",
"                O > ; p.                              v.9 0 n V x.pXsXa.. 9 N m N N A N 8 2 , , 5 + 5 , , 8 m 5 aXlX+ 7 0                                                                                   ",
"                f ; : p.                              x.9 9 < ` b.pXaXp.o - G G m 8 8 8 < + , , , 5 1 1 1 8 9 3 pXlX+ 1 7                                                                                   ",
"                A ; ; p.                              x.# t.b.8.r.pXsXp.# V q.H G N m A n m w 4 5 5 , 1 1 4 w < b.kX2 # 1                                                                                   ",
"                  > > h.                              z.V pXlXpX9.sX}.i.. f G A N G G G G n n 4 @ + , 1 1 1 7 # 8.lX+ < $                                                                                   ",
"                  t 0                                   r.      t.pX}.w.o t D A A G A G A A n w w n t 1 7 1 # + A iX. e                                                                                     ",
"                  aX,X                                  pX      z.x.,Xw.o 0 N C C A A A C C n n r n 6 1 7 N + 7 H lX                                                                                        ",
"                                                                  p.aXD # 0 C A A A Z A G A C C n r t w e n 7 N                                                                                             ",
"                                                                    sX- 0 0 A Z G K K K Z A L A C n n 1 n N r.}.                                                                                            ",
"                                                                        f - K Z A K K K K Z Z Z A L r r n w aX                                                                                              ",
"                                                                            r.A K K J J K K K A C C r r z.N w                                                                                               ",
"                                                                              f K K K K S A K L L C t C lX}.K                                                                                               ",
"                                                                              q C L Z K K Z G A C C r t.                                                                                                    ",
"                                                                              C C C C n r r r C n r w                                                                                                       ",
"                                                                              A A r 6 t t t p r n r A                                                                                                       ",
"                                                                              J $ : t t 4 6 6 @ t * r.                                                                                                      ",
"                                                                                  J n.#.t.b.t.K A R                                                                                                         ",
"                                                                                                                                                                                                            "
};
