/* XPM */
static char *out[] = {
/* columns rows colors chars-per-pixel */
"135 338 256 2 ",
"   c None",
".  c #020303",
"X  c #040A03",
"o  c #0A0B04",
"O  c #03040B",
"+  c #0A040B",
"@  c #050A0B",
"#  c #0A0C0C",
"$  c #0A0305",
"%  c #15060B",
"&  c #0C120C",
"*  c #091506",
"=  c #12140C",
"-  c #141A09",
";  c #020313",
":  c #050A13",
">  c #0B0C13",
",  c #0A0C1A",
"<  c #060618",
"1  c #150B13",
"2  c #0C1214",
"3  c #0C131B",
"4  c #091817",
"5  c #131414",
"6  c #141B13",
"7  c #12151B",
"8  c #141B1B",
"9  c #1A1C1C",
"0  c #1A1B14",
"q  c #27050B",
"w  c #2A0A14",
"e  c #380B15",
"r  c #310F11",
"t  c #192507",
"y  c #0C241B",
"u  c #1C231C",
"i  c #182518",
"p  c #172F09",
"a  c #283707",
"s  c #23281A",
"d  c #293619",
"f  c #333A1A",
"g  c #282D0A",
"h  c #080B24",
"j  c #0C1424",
"k  c #141C22",
"l  c #161A26",
"z  c #141733",
"x  c #1B2424",
"c  c #1C2B24",
"v  c #1C2C2B",
"b  c #172526",
"n  c #1C3B2C",
"m  c #1A3428",
"M  c #1B2C30",
"N  c #242B24",
"B  c #232C2C",
"V  c #272926",
"C  c #2B3424",
"Z  c #24332C",
"A  c #2C342B",
"S  c #293928",
"D  c #333B2C",
"F  c #353928",
"G  c #242C33",
"H  c #243333",
"J  c #2B3433",
"K  c #2C3B33",
"L  c #283A37",
"P  c #333B33",
"I  c #363B37",
"U  c #342A28",
"Y  c #261D27",
"T  c #480C17",
"R  c #530D18",
"E  c #49121B",
"W  c #57131C",
"Q  c #45060C",
"!  c #5A1722",
"~  c #4C1421",
"^  c #651B23",
"/  c #701E25",
"(  c #46382F",
")  c #6D252A",
"_  c #5E1A1D",
"`  c #384719",
"'  c #344C09",
"]  c #1C432D",
"[  c #1E4431",
"{  c #28432B",
"}  c #394529",
"|  c #284535",
" . c #344333",
".. c #3B4434",
"X. c #34433B",
"o. c #3C433B",
"O. c #3D4A3B",
"+. c #374B37",
"@. c #3A5338",
"#. c #36542D",
"$. c #2A5611",
"%. c #465714",
"&. c #516E10",
"*. c #43492B",
"=. c #475729",
"-. c #444C34",
";. c #434C3C",
":. c #454738",
">. c #44533C",
",. c #4B543C",
"<. c #495736",
"1. c #545C3C",
"2. c #555839",
"3. c #53542F",
"4. c #4A6428",
"5. c #556829",
"6. c #586639",
"7. c #546F33",
"8. c #646A3B",
"9. c #667638",
"0. c #6A732F",
"q. c #64662A",
"w. c #2F3843",
"e. c #1B1B43",
"r. c #3A4843",
"t. c #3A5446",
"y. c #354A4D",
"u. c #444C43",
"i. c #474B46",
"p. c #445343",
"a. c #4B5443",
"s. c #4C5A44",
"d. c #4C544B",
"f. c #49584A",
"g. c #535B44",
"h. c #535C4B",
"j. c #565847",
"k. c #4B5853",
"l. c #565B54",
"z. c #4E4C4C",
"x. c #625C4D",
"c. c #5B6444",
"v. c #5B634C",
"b. c #576648",
"n. c #5B6454",
"m. c #5A6757",
"M. c #52694D",
"N. c #656A48",
"B. c #697548",
"V. c #747849",
"C. c #636C54",
"Z. c #646C5B",
"A. c #676958",
"S. c #6B735C",
"D. c #697556",
"F. c #757A59",
"G. c #746C53",
"H. c #596964",
"J. c #676C64",
"K. c #6C7463",
"L. c #6A7668",
"P. c #727464",
"I. c #737A65",
"U. c #757C6B",
"Y. c #787B69",
"T. c #697874",
"R. c #767B74",
"E. c #6F6E6E",
"W. c #535664",
"Q. c #403A43",
"!. c #837D65",
"~. c #877952",
"^. c #85793B",
"/. c #6E8E12",
"(. c #728D30",
"). c #739A1E",
"_. c #798558",
"`. c #758B4D",
"'. c #7B826C",
"]. c #788567",
"[. c #7A8675",
"{. c #768E6F",
"}. c #5E8C4F",
"|. c #8BAD18",
" X c #8EAE31",
".X c #88A22E",
"XX c #AACA35",
"oX c #9EC22E",
"OX c #85885A",
"+X c #889554",
"@X c #92AD4F",
"#X c #868868",
"$X c #899568",
"%X c #959769",
"&X c #868A76",
"*X c #899578",
"=X c #969976",
"-X c #928D6D",
";X c #A49A79",
":X c #98A478",
">X c #93A76B",
",X c #A7AE76",
"<X c #A5AF51",
"1X c #AFCC51",
"2X c #ADCB68",
"3X c #CDE966",
"4X c #707785",
"5X c #7B8D85",
"6X c #7E9FA8",
"7X c #858B84",
"8X c #8B9887",
"9X c #939B89",
"0X c #8D9A93",
"qX c #939D94",
"wX c #979B97",
"eX c #8E8C90",
"rX c #99A588",
"tX c #99A496",
"yX c #8FA792",
"uX c #A6A988",
"iX c #A5AA98",
"pX c #ABB498",
"aX c #B5B898",
"sX c #ADB28B",
"dX c #99A8A6",
"fX c #A6ACA7",
"gX c #ABB4A6",
"hX c #B5BAA8",
"jX c #B7BCB5",
"kX c #ACB3B2",
"lX c #9F9A92",
"zX c #C4BBA1",
"xX c #BBC4A8",
"cX c #BBC5B7",
"vX c #B6D2BA",
"bX c #B6C88F",
"nX c #C5C9B8",
"mX c #CCCFB1",
"MX c #DCE3A1",
"NX c #BCC7C3",
"BX c #C6CCC5",
"VX c #CBD4C7",
"CX c #D5DAC9",
"ZX c #D7DBD4",
"AX c #CCD5D3",
"SX c #DCE3D7",
"DX c #D9E4CD",
"FX c #E5E7D9",
"GX c #EDEDD3",
"HX c #E9EAE4",
"JX c #ECF2E6",
"KX c #F5F6E9",
"LX c #F8FCF7",
"PX c #EFF0EF",
"IX c #DEE1DB",
"UX c #B4BCC4",
/* pixels */
"                                                                                                                $X]._.                                                                                                                                                        ",
"                                                                                                                d 1.d ].                                                                                                                                                      ",
"                                                                                                              9XX C - Z.                                                                                                                                                      ",
"                                                                                                              '.* d >.*X                                                                                                                                                      ",
"                                                                                                              9X- S L.xX                                                                                                                                                      ",
"                                                                                                              rX- d L.cX  9X                                                                                                                                                  ",
"                                                                                                              9X6 S L.xX  *X                                                                                                                                                  ",
"                                                                                                            ].pXu  .K.iX  *X                                                                                                                                                  ",
"                                                                                          >X                s C X s ,.#X:.9X                                                                                                                                                  ",
"                                                                                      `.(.`.              '.X o . s v.N.L.                                                                                                                                                    ",
"                                                                                      >X`.@X              I.s s s Y.=XD.yXcXcXjX                                                                                                                                              ",
"                                                                                        @X`.bXbX:XrX      I.- = o j.F.1.gXBXBXcX                                                                                                                                              ",
"                                                                                        +X@X2X>X4.}.      b.* o X F -.+.vXAXvXvXmX                                                                                                                                            ",
"                                                                      _.+X@X(.`.&X      (.).).`.4.(.:X    b.- o X i } #.dXvX{.F.D.9X9X. # < 5 9 # a.                                                                                                                          ",
"                                                      4.&.4.4.}.:X  >X/.(.(.(.(.bXmX    @X)./.2X>X>XsXbX  M.i * - p 7.` 7.4.p * * } d # # 9 V 9 5 o.m.-                                                                                                                       ",
"                                                    `.&.p $.$.(.{.2X`.).)./.' &.sXbX2X<X X X$.2X`.`.2XsX>XM.a * a N.(.$.`.bX`.' ' ` F 0 # 9 6 6 6 N & t t i                                                                                                                   ",
"                            8XB.`.>X                `.%.a 4.&.}.5.+X,X@X2X@X$./.bXbX2XoX). Xp 0.).@X2XbX2X$.p * 4.7.5.' 5.2X3X`.(.%.` S s s s.S.} i - i & t                                                                                                                   ",
"                            _.=.(.(.(.}.`.`.:X:X*X>X`.(.$.2X`.(.&.<X1X1XMX@X@X$./.).). X/.).$..X).).@X@X>X(.}.4.`.&.&.a '  X2X).&.4.' i X C @.<.S.i * = - i                                                                                                                   ",
"                            _.=.(.).).(.&.(.`.$X+X+X`..X/.XX3X1X/. X).1XoX X1X&./.&././././././.).@X@X1X1X X/./.). X@X).&.(.)./.&.' t * i ,._.>X#.p * s i d d                                                                                                                 ",
"                            *X7.`. X)././.(.@X>X@X@X<X X X1X3X3X.X X/./././.).).).).1X3XXXoXXXXX1XMX3X1X1X1XoX).oX X X@X(./.4.#.%.%.=.v.2.I._.{ f } F d { s P f.                                                                                                              ",
"                            *X7.@X<X.X/.&..X+X@X X.X@X)./.1X2X/.' $././.|.XX)./.).).).oXXXXXXXXX).1X1X1XXXXX1X).).XX&.&.' ' * ' >X`.` -.F d } - X * X * d X & i 6                                                                                                             ",
"                            *XN.`.2X/.|./..X<X1X3X|. X).).oX3XoX&.XX|.|./.).oXoXoX3X3X1XXXXXXXXX).1XoXXX1XXX X/.)..X&.%.#.a X * * * t a - * t X - d -.S.s X o @ 2 # X                                                                                                         ",
"                            8X6.(.@X/.|.1X3XMXMX3X3X|.|.oX1X3XXX/.|.oX|./.oX X)./.1XXX).|.XXXXXX1X1XXXXX1XXX.X/.(.&.' a a ' d * X * ' ` * t =.t - 1._.6.} * X # @ . O X 0                                                                                                     ",
"                            {.#.(.@X/.|.XX3XMX3X3X3XoX|.|.|./.&./.|.|.oXoX1X X' a /.|.).|.|.XX3X3X X.X/.&.&.0.).%.' ' $.a a 5.$.X ' =.' t `.,Xf t ` B.OXD.g # @ # X X X C S.6.                                                                                                ",
"                            [.<.`./.). X|. X1X3X3X1X1X|.|././.&./.).|.XXXX).&.p t g /.|.|.|.XX1XoX&.a p ' ' 0.0.' ' 5.' ' (.(.0.' (.}.(.9.,X+X4.* 3.B._.V.Z.X # # @ # . ;.F.1.1.d D                                                     cXcX                                  ",
"                          tX8XB.`.' (.).(./.&.&.).). X).)././.&./.|.|.|.oX/.' p * t .X X/.|.|./.&.' %.9.4.' %.(.a (.(.&.&.&.&.(.7./.' &.`.B.D.%.t d $XB.-.C . # # & = X a.].1.<.P A R.8X                    7X[.[.[.U.T.J.m.m.k.u.o.K A A N x J.                              ",
"                      9XC 8Xh.rX1.%.5.(.(.%.' ' ).`.)./.).).)./.|.|.).|.).).(.* - g 1X|.&./././.' a ' d ' ` ` ' ' (.%.' ' $.&.&.5.%.' 9.` <.<.o * S.} S.D 0 = & = = 5 o ,.v.D - 6 2 X . o o o o . X # # # X o # # # # & # # # o # # # @ + . . I                               ",
"                      ].t v.i -.=.%.` %.=.%.t ` }.`.). X)././././.).).|.).).5.* * t 1X/././.$.' t t t t t X ' a &././.(.' %.4.4.' %.t <.t t o - 0 C 0 * 0 X > 5 5 & = X = i 0 # # # . # 1 # 1 # # 5 5 5 1 0 0 1 o # 1 5 # 5 5 5 = 5 5 0 5 7 $ U                               ",
"                      rXl.o.- f 7.5.' %.%.f * g $.(./.XX|.|././.|. XoX1X).(.' a t %.<X|.oX|./.%.X d F *.d g 0./..X/./.%.p #.' ` a t t t t - o 1 # $ + # # O . O . $ % % $ o # . o # # . 1 , + $ # % 1 1 0 5 1 9 = & 5 l 0 9 0 0 & o X . . . $ n.VX                            ",
"                      Z.T.P  .6.+X@X+X0.,Xq.g ) a $.1XXX|.XX|.&.&./.|.&././.4.*.a OX(.).XXoX X.Xg N.,.s o * +X)..X.X0.a X * p - * - t R.K.D ( h.u.i.r.i.d.l.l.J.E.R.[.7X7XE.l.R.E.eX7X7XR.!.7X7XeXqXlXlXfXkXhXhXjXcXCXZXZXZXZXZXnXnXfXtXA.l.u jXdXR.                          ",
"                      c M v C _.+X.X(.<X@X&.%.f g ' &.1XoXXX X&.&.|./.%.&.' - t - a a a |.|. X.X%.OXs % o t &.0.(.(.9.f s * = 6 6 = F [.gXnXnXBXVXCXBXVXnXVXVXCXCXVXCXCXCXZXZXDXFXFXFXFXHXIXFXSXDXDXDXFXCXCXCXCXCXVXDXCXCXZXCXCXcXnXVXVXVXVX&X= N u .                         ",
"                      r.L H.} ,X&.oX3X3X X%.' f * 5.<X|./.|./.).&..X<X/.(.5.. o - t - %.&..X.X.X9.*.= # # o ` 0.q.5.g g 0 # > # P & s P.sXhXnXhXnXzXnXnXnXnXnXnXCXmXCXDXCXGXIXDXDXFXDXFXFXFXSXDXFXFXDXCXCXCXCXDXDXDXFXDXZXDXSXSXBXnXCXDXCXnXgX. & > O                         ",
"                  9X8Xr.y H.#.GX^./.|.&.&.@X2X).(.<X2XXX/./.%.&.&..X.X&..Xq.- - * ` (.(.(.(.(.&.6.g . @ = 0 a.~.2.g - $ % o o # u u F [.=XpXpXhXnXcXnXnXnXnXnXnXnXnXnXnXCXnXnXmXCXCXmXDXVXCXCXDXCXCXCXCXDXCXCXDXDXDXFXFXSXSXGXGXCXvXDXDXGXIXCX% = Y .                         ",
"                gXgXpXF dXf.f bX2XoX|..X).).)./.(..X X.X X.X/.&.|.&.XX&.OXg - o * `.@XXX' %.' X f t X # # # 0 0 * - 0 % % X @ X 6 d } D.g.g.-.a.:.-.D *.:.D d F F *.j.rXuXhXI.9XiXuXiXpXpXaXaXhXxXxXaXhXxXaXhXhXiXxXnXnXmXDXxXnX].>.*XsXmXCXnXU # 0 .                         ",
"          sXxXxXyX9Xa.. T.f.}.,X1XoX/..X).(.&.bXMX' &.%.0. X X/.|..X X&.' * o - * #..X).%.t p 5.(.4.s # $ # = % % - A.s 0 > o * - s s.b.} s - t s g g 0 t g d t g g F c.'.C.d f d f *.} } 3.*.*.` ` 3.=.=.*.<.` C *.1.D.b.N.F *.} d } uXOXmXCXlX$ = $                         ",
"          _.d =XS {.j.X :.n.MX>X<X.X(.(.' $.a * a ' a a a .X|.|.|.|.0.&.' X - o * ` .X X&.%.&./.5.%.g X = = 0 C t G.( 0 5 s 0 X g } C._.#X].I.'.S.F.Y.Y.&X&X'.'.P.Y.C.#X#X'.-XG.F.#X_.$X$XF.F._._._.{.OXOX_.=Xc.c.F.:X$X*X_.t *.B._.8.=XOX=XaXnX$ 0 0 F U :.A A.              ",
"          B.- t i X.iXhXvXDXDX@X9.(.5.` `.=.d f t f a %.a <X.X X X).%.p 0.' d X p (.(././.)..X).(.(.=.* - s I U o % % g s s s d d } F._.].].Y.Y.I.F.F.].Y.F.C.C.C.I.F.F.#X$X$XN._.#X%X$X#X$X$X].$X$X$X{.$X$XOXB.b.F.$X_._.N.t ,.N.B.8.~.~.~.G.uXA.fXx.$ o s # -               ",
"        rX{.} @.* l.CXgXSXJXDX`.9.a ` ' a p s d g a V.%.p %.(..X X)././. X>Xp X 9.0.(.' &.(.). X(.4.<.g 0 N i s t g 2.1.F t - d *.f 1.C.F.S.S.S.P.S.S.S.D.C.C.#X&XI.F.].$X]._.2.c.#X$X$X$X#X].].$X$X>X{._._.V.B.N.N._.V.N.c.- ,.8.N.q.0.^.^.-Xx.cXZXCX% o s % u               ",
"      yXrX*X].* . V CXeXHXFXvX' $.' #.' ` S S d f ` :X*.a %.%.(. X X1X X).&.(.5.' ` ` a ' 4.&.5.4.` s A s s D v.1.3.3.6.,.o = F d X d M.Z.m.A.K.Y.#X&XY.Z.v.,.j.v.-.N.I.]._._.3.c.*X*X$X$X_.V._.*X>X$X+X-X=XOX#X} _.B.F.V.N.- ,.8.N.q.V.~.~.mXsXiXZXCXw % s = g               ",
"          rX*Xs & z.jXnXFX8X:X` 4.{.`.5.d d C f ` a ` a g a p %.%.)./.&.)./.(.(.' g a d a a t - * p - s 0 s ,.F.=.f %._.:.0 s P.-.s m.9XpXrX&X&X&X#XG.,.d } -.C.A.F ,.D.D.D.c.f K.-X_.D.B.F.F C._.D._._.F.OX%XF.g.Y._._.F.N.s ,.G.N.3.^.~.~.sXmXG.CXmXd o U = 0               ",
"            *X#.8 d.nXmXHXS d B.%.4.=.` { d d D 4.>X' a * g - t 0.1X%.&.).(.(.p t * g s s 0 s 0 - 0 0 0 i u F F g - ` <.s = U z.s s a.[.9X&XS.S.!.-X9X&X].'.'.#XF.D.1.F.<.,.<.g.G.I.#X#XV.F.F.N.].$X:XrXuX;X$X_.S.Y.D._.].C.. C *.*.3.V.~.~.~.~.x.mXmX( - t = 0               ",
"            8X@.6 h.nXnXSXS.a %.4.7.4.$.` }  .-.6.a +X+Xt ..F.%..X(.' &. X X%.t * * u - s F 0 0 % w s 0 s d F D S f <.N.s 0 = 0 o o o t F i 0 2.P.-X=X#X].'.$X&X&X].c.*X=X*X&X#X=X:X:X:X]._.Y.#X*X$X{.>X%X%X#X#XC.N.3.=.N.3.. C v.D.V.~.~.q.~.~.2.mXCX( % 0 = 0               ",
"            *Xt.6 m.nXgXBX{ -.=.&.7.4.#.#.} F } f t /.GXa ` `.0.0.' ' ).&.).%.g * t - 6 F s % 0 1 % = C } *.*.-.<.3.N.B.d - 0 $ # X X i F ..v.A.Y.#X#XF._.#X#X{.$X].N.D.b.1.} 6.N._._.B.B.1.1.=.6.B._.`.$X$X%X$XN.I.].F.].N.o :.S.F.G.~.^.^.~.~.2.mXmX:.- 0 = s               ",
"            8Xs.- d.cXiXHXdX<.4.7.5.4.%.=.#.d d d a `.GX3.` %.%.' p 1X Xp bX&.5.p g * d d g t 0 0 0 C *.F :.-.-.2.6.9.c.- - * o s d ;.:.>.h.S.A.F.!.F.F.F.].#X*X*X:X#X].$X$X=X*X:XuX:X$X_._._._.$X$X>XyXuX:X%X#XN.D.#X-X#XA.o -.G.F.G.~.~.^.^.%Xx.mXCX( % 0 0 s               ",
"            8XM.* m.cXiXPXxX<.<.7.7.4.#.#.` d #.#.d +X+Xf ` g - p p &.' X =.' a d p d f f } *.=.3.*.g } a.j.j.G.9.9.V.N.d F - t -.<.g.C.Z.Z.J.P.K.F.F.D.B.Y.#X#X*X*XY.#X=X#X$X:X=X$X$X$X_.$X$XOX*X$X$X*X>X>X=X=XN.#X=X%X=XS.( N.'.OX~.~.~.^.~.^.G.zXmXj.= 9 6 C               ",
"            *XM.6 J.nXgXJXL.<.6.7.4.7.4.#.` #.@.1.{ =.' g 2.- g ' &..X0.X g g f f g a g g ' %.3.3.4.3.f -.g.2.G.-XOX#XG.-.C.T.A.A.A.F.I.U.U.P.G.P.].#X#X#X&X&X&X7XA.*.-X%X$X>X:X:X:X%X$X$X$X%X$X$X]._.F._.F.V.%XV.#X$X-X-XG.*.1.F.OXOX~.~.^.8.) q.zXmX) o u 5 U               ",
"            8XM.- m.cXcXHX{.<.4.7.7.4.@.4.t.4.M.<.4.5.3.a 8.3.%.(.&.|.).' =.V.,X` ' 8.4.4.5.5.5.4.=.` 5.8.3.( G.#X2.2.3.:.( F F ( ( *.( ( *.( ( ( ( U g r f 0 U i.0 s !.#X$X>X%X:X%X%X$X%X=X>X=X:X$X$X+X%X%X%XOX-X*X&X-X&XA.,.j.F._.OXOX-X^.8.3.8.mXzX2.= 9 5 V               ",
"            *XM.4 m.jXcXSXtX@.7.7.4.@.#.7.7.@.7.4.=.5.q.0.q.q.g (.). X).a t a %.9.OX>X,X+X+XV.6.p ` =.%.*.( 3.!.~.3.x.P.!.lXiXfXhXzXnXnXzXhXaXlXlXlX!.P.P.G.2.( o 0 w iX-X%X:X,X:X>X=X%X-X%X=X=X:X%X$X$XOX%X%X;X#X-X-X-X-XP.2.N.F.V.V.OX~.V.~.G.G.zXnXx.= 9 0 V               ",
"            *Xm.6 m.hXcXSXAXb.4.7.7.=.#.<.6.4.6.=.5.q.3Xq./.^.%.&.@X)./.a % g f d c.3.3.` g p g - a <.B.*.:.sXKXKXGXKXKXKXKXKXKXKXLXKXKXKXKXKXKXGXGXGXGXaXuX-XE.$ 1 ( 9XA.!.].OX-X=X=XsXuXsX:X*X{.].{.OXOX{.+X$X=X=X;X,XsX-X-X;X%X%X^.+X<X%X;X~.~.zXzX^.o 9 0 P               ",
"            8XM.i J.cXvXSXDX*.=.4.7.4.4.7.`.B.9.5.5.,X3.&.MX3XMX&./.(.(.' - f f d *.} } - g t d g m.V.2.g ( mXKXGXKXKXKXPXKXLXPXKXKXKXKXGXKXKXGXKXGXGXGXmXmX=XlX0 U ( F % 0 g f } N.g.=X:X=X=X_.V.D._._.#X-X=X%X$XsXsX,X,X~.OX%X>X%X%X+X<X;X<X,X;XzXzXx.= u = D               ",
"          yX*Xm.u Z.gXxXFXSX<.=.5.(.4.7.7.+X`.(.%.q.%.g bXGXMXMX&.&.(.&.%.a U *.} *.f j.=.2.8.%XuX*.2.U ) :.CXGXFXHXKXKXHXPXPXPXPXJXJXHXKXJXKXKXKXGXGXGXmXmX].C.g M.U - s s 9 9 A I :.:.Y.pXuXV.b.$X_.#X%X%X;X,X~.bXbXbXsXOX0.%X,X%X+X%X<X<XzXMXuXzXzXx.% u 5 A               ",
"          8X*XM.i J.gXgXJXFX1.7.7.9.7.4.0.+X+X9.5..X3.g zX<XGX<X.X%.&.7.#.=.g f F d t } f a a *.g $ - 2.x.) mXCXGXGXHXKXLXLXLXLXLXLXLXLXKXLXKXKXKXKXGXGXGXKX*XiX{.gXpXnXCXiX9 > J VXnX&X*XaXuX%X:XsX,X=X=X=X,X,X=XzXzXbX,XOX+X%X,X,X,X+X^.<XzXzX;XzXlX~.o u = P               ",
"          9X{.h.y Z.fXxXLXLX6.4.(.B.7.5.0.+X(.5.q.0.q.%.- - g %.0.%.' ` ` } F d g 0 - f g r f g.j.:.G.G.3.MXGXMXGXCXlXUXfXdXeXeX4XE.W.W.z.Q.w.w.*.I I t.T.ZXSXVXmXmXxXCXnXjX( + 1 wXhXA.#XuX$X+X>XrX=X$X%X$X%X=XsXsX,X;X-XN.*.8.N.V.F.~.^.%XMXGXzXuXzXx.q w = (               ",
"          yX*Xs.i Z.gXcXLXKXb.9.}.9.7.1.q.+X0.5.%.&.%.f - - - %.&.&.7.` } C -.*.- - - ( E x.CXGXFXGXDXmXGXCX;XMXGX!.. . ; ; ; h ; ; < < < ; < O O O : ; : dXVXdXxXgXxXpX-Xx.= . . u ( s A.c.*.V._.%XOXV._.V.`._.#X%X%X%X;X!.x.G.D.F.#X#X-XG.~.#X~.zXzXx.+ 0 = D               ",
"          9X{.,.i J.gXcXKXKX6.5.9.}.7.<.6.`.&.&.%.(.&.%.g ( g 3.(.%.=.` d s ( *.g % t CXMX;XCXKXGXDXGXDXMXlXzXmXKX( . O O ; ; O O . . O O O O O . . O ; O k.eXk.ZXZXAXBXnXjXJ.w 1 1 1 l 1 . N.%XOX%X%X%X#XOX#XOX%X%X%X+X%X-X%X%X=X%X~.%X%X8.~.-X~.sXzXx.% 0 = I               ",
"        yX8X{.,.i m.gXxXLXKX>.7.7.}.7.4.N.V.#.&.&.&.5.a f 3.3.0.&.%.` a g - t t s t r !.x.~.KXGXGXGXDXmXzXGXGXzX&X% . O O O O . . . O . . O . . . . + O O O y.AXLXLXPXJXHXHXZXkXI 9 z.1 O $ A.=X6.OXOXOXOXOX%X%X%X,X,X;X:X-XOXV.OX#XOX-X~.8.8.^.!.sXzXx.o 0 = P               ",
"        rX8X{.} i C.gXxXKXLX<.7.7.`.}.B._._.%.(.(.&.4.` ` *.a 0.(.%.' g t o t - U s j.CXe E GXKXGXFXIXhXJ.j.. . . . . . O O . . . . . . . . . . . . . . . O ; BXAXk.W.cXIXPXHXFXnXlXE.+ ; 9 P.=X8.OX~.9.OX,X%XOX+X%X%XOX-X~.G.V.#XV.OXOX~.8.0.OX%XuXzXj.% 0 & o.              ",
"        9X9X{.} t m.iXxXLXJX<.7.5.}.7.9.D.`.7.0./.&.5.` -.-.f 7.&.%.p d p - g f hXeXfXLXU lXKXKXFXGXhXs 9 = . . . . . . . . . . . . . . . . . . . . . . + O O ; : < @ O < G W.A.E.W.% 1 1 9 j.aXG.6.OX%XV.OXV.`.OX-X-XOXOXG.B.F._.F.OXOX~.V.^.+X%X;XzXx.= 0 o (               ",
"      rX8XyX{.S t Z.pXgXKXLX1.7.}.(.9.c.F.:X`.(.(.5.7.g -.t - 9.&.' a ` =.f d :.A l 1 NXY PXPXKXGXCXs + $ $ . . . . . . . . . . . . . . . . . . . . . . . . . . . O . > < Q.ZXKXHXBXBXdXY 7 Y I s - *.F.$XOX8.8.V.OXOXN.G.*.2.N.B.V.OXOXG.` q.~.-X;XzXx.= 0 = ..              ",
"      rX8X8X{.d 6 m.iXgXKXJX,.7.4./.9.V.$XOX(.9.0./.7.p d * - `.(.&.' } *.*.- Y w 7 % W.Q.LXPXHXFX( # + + O + . . . . . . . . . . . . . . . . . . . . . . . . . O . . + ; + LXLXPXIXHXZX7X1 # % . X s &X].F.8.B.OX_.V.8.N.3.8.B._.OXOXV.G.f 3.OX-XsXzXj.= = 1 I               ",
"      9X8X*X{.m t Z.rXrXLXKXf 6.%.(.5.9.B.7.&.4.&.&.4.p a g p @X.X&.' 3.t - = 0 Y U ; 4XlXLXHXHXlX. . . O . + O O . . + . . . . . . . . . + + . . . . . . . . . . . . $ $ % ZXFXkXkXZXx.!.. . % o o - iX_.F.V.OX+X%X%XOX~.8.N.V.V.OX_.B.N.%.q.%X%X,XzXx.* = = :.              ",
"        yX*X].d s Z.8XiXJXDXd 5.4.(.0.5.7.4.%.$.&.(.7.#.%X7.a (.).0.' 3.f - 0 Q.PXHXIXLXeXZXKXcX1 + . O O + O O + + + . + . . . + . . O + $ . + $ . . . . . . . . . . . . $ = I 1 ZXU $ iX,.- $ 1 o & C.B.2.9.OXOX+X+XOXV.8.B.V.B.`.8.6.8.a 5.OX%X;XzX3.- 5 o :.              ",
"        8X8X].d i C.rXhXnXDXD.`.+X(.`.+X_.B.9.(.&.5.&.` a g * %./.&.' *.<.0 s HXLXLXLXPXiXIXKX= . . O + + O O O O O O . . . . $ O . + O + $ $ $ + + $ + O + . . $ + . $ . $ o . l kX+ J.pXF $ % 0 # * s -.B.$X<X+X+X+XV._.B.B.D._._._.6.N.q.q.OXOX;XzX3.* = # u.              ",
"        8X7X].d d C.iXxXcXrX_.5.(.`.B.{.`.B.7.(.&.(.5.a } F.g %.&.' a 6.b.s 9 U LXPXFXHX9XHX7X. + + O O O + O O + . + + $ + $ . + . + $ + $ % + . . + + $ . O + O O . . $ . . . . G z.KXCXuXzXjX5 # # o * c.V.%XOX~._.`.F.V.C.F._.]._.V.N.8.q.OXOX;XzX3.= = = r.              ",
"        8X8X].d d b.F.<.{.]._.>X`.@X`.9.V.9.+X(.`.(.` t t p t 5.(.&.a g.tXs = . J.PXKXIXa.CX$ . . + O + O O + O + O + + . + + . $ + + % + % % + % % < + + + + ; O O + . . $ . . : , AXW.CXKXmXlX1 O O . o c.OX>X=XOXOX8.8.G.2.3.B.V.6.=.8.8.3.OXOX;XzX) * - = (               ",
"        9X*XL.d d b.8XxXmXxX`.`.(.`.+X>XOX,X+X.X+X(.' * F } ` 8.5.p t <.>.s . $ A.KXPXx.= eX. . . + O + O + . O + + + . . + $ . + + + + % % % % < % + + + + O + + > + O . . . + O : 0 V P.CXmXlXD > + O # F rX%X%X=XV.#Xx.2.3.( c.V.V.q.~.8.8.-X;X;XzX3.= - = ;.              ",
"        9X8X].p f <.{.xXVXxXB.`.`.>X>X+Xq..X+X+X(.(.5.a =.} g 3.` * f 2.D = = ZXHXLXHX. . . . . O + O O + O + + O ; + . + + . + + + % % % % % % 1 % % < + + ; < ; > O O O + . . . O + # + FXsX~.&X. # $ o = 0 t t g c.j.F.8.3.3.~.OXOXq.~.8.3.-X;X,XzX( * = * I               ",
"        8X7X}.s d #.}.pXmXbXB.{.sX2X<X+X0.&.+X@X(.`.9.5.f } X a %.a *.-XS.D z.LXLXLX!.. . # . + + O O + O O + O + O + O + O $ + % + % % % % % % % % % % ; + + + + % ; O O O O + . . + O $ CXmX~.9X*.= $ 0 # X 6 S.rX_.N.B.G.2.V.OX%X+X^.^.V.3.V.-X,XsX*.o = o :.              ",
"        8X8XI.d } *.$XxXvXpX`.{.2XbX2X>X,X4.>X`.`.`.4.} *.F - %.%.g ` -.s.[.CXLXLXPXz.. . O . . . . + O O . O + O . + + O + + + + + + % % % % % + + 1 % + $ ; + + + + ; + < + O : # # # . CXmX;XzX( $ $ # @ 2 m.].>XOX_.8.B.6.B.+X%X%XOXV.N.3.G.sXsXsX*.= # + I               ",
"        9X*XF.{ F h.*XxXpXpXB.>X:XbXyX>X`.}.{.4.t p g g f *.g *.5.a f F m.8XwXLXLXKXU . . # X . . > + . . + O O O O + O + + + + < + % % % q % % % % 1 + + + + + % < < % + ; < ; > > O + + wXlXMX( -X$ $ O # # # {.D._.V.8.N.b._.OX%X>XOX~.~.2.G.-XuX;X) = & X u.              ",
"        rX8XI.F -.-.L._.{.=X{._.{.{.}.M.D.4.<.` * t - - F -.- *.` * g S [.AXW.LXKXFX9 $ . @ . . 1 . . . O + O + + + O + $ O + + % + % % w w q q q 1 % + + $ + % % + + + + < ; + + + + + + U -XmX$ lX0 . @ : > $ . X * C.V.N.N.F.OX%XOXV.3.c.2.N.OXV.-Xf * # X :.              ",
"        8X8X].} ..-.D.iXxXnX:X*X{.>X5X:X>X@.<.{.9.B.B.N.6.3.- *.} p C  .gXAXH.LXKXHX1 o O + O + + + . + . . O . + . O + % + $ % % % 1 w e e E e e w q % % + + + + + % < < + + ; + O O + 1 w zXKX% lXJ.& > > < % + . X o.Y.V.N.c.V.OXB.3.3.2.2.N.-X;X;X( = & O :.              ",
"        tX8X].-.-.a.hXDXmXDX{.}.:XsXsXuX>X%.}.`.`.`.(.C.b.*.t 3.} * i o.BXAXfXz.FXnX. . . O . . O + + . . . + + + O + $ + % % % w e ~ ~ ~ ~ T T T T w 1 w % < % 1 % 1 1 % < < % + . + O > + FX9X( w l.o @ O < + O # & >.B.N.1.8.OX`.V.V.~.N.2.N.-X;X-X( = o X o.              ",
"        rX8XI.} -.h.yXnXSXGX_.D.,XbXbX2X$X$.5.`.(.(.`.}.b.#.g =.d i u o.AXSXNX. iXA.. . . O . . + O + O O + O . O O O $ 1 w e w e T T T W R R R T ~ e q 1 1 1 1 1 1 1 1 1 % < < $ . $ $ + + o $ x.iXxX. O > % + O X @ n.c.2.*.B.V.+X`.OX8.G.8.N.-X%X-X( = # X :.              ",
"        9X8XY.} ..a.rXZXDXmXC.B.}.>X,X<X+Xa (.`.(.`.`.`.C.*.} =.d s x k.AXHXNX. . . . . . . . . . + . + . O . 7 + > O % e T T T ~ T ~ T R Q T R R ~ T q w w w 1 % 1 1 < 1 h + + + + + $ . + + . mXmXhXo $ + < < ; + u m.<.2.` 8.+X+X+X0.8.8.2.x.-X;X%X( o = . o.              ",
"        rX8X'.} -.a.'.gXnXvXD.}.{.@X2X(.`.' }.`.`.(.`.`.D.} } ,.f s u l.SXPXAX. . $ . O . . . . + + O . + $ 1 $ . , $ $ w e ~ T T R T R R R R R R R E e e w % % q w 1 1 w w + > + + + + $ > @ o pXzXnXo # + > < > 5 c Z.1.V.3._.<X,X+X9.8.N.8.N.OX%X;X( * # X o.              ",
"        rX8X].+.....'.cXcXDXD.B.2XMXMX2X@X' (.@X+X`._._.D.-.*.<.F s x E.IXHXBXO . . O . . O . . O O + O + + + 1 + > % % e ~ T T T T R ~ W R T R R R R ~ ~ T e w w e w w % % % + + $ + + + @ # # gXhXjX% O > + ; < > 0 h.1._.V.$X;X<X+X+Xq.V.N.N.-X-X;X3.$ $ . o.              ",
"        rX8X{.}  .:.8XnXSXGXC.B.>XbXMXoX@X$.}.@X(.(.V._.D.-.*.3.s 0 N 7XIXHXNXO . . O . . . . O + O + O 1 + $ $ + + $ % e ~ T T R T T R W ~ W R R ^ ! ! ! ~ T e e w w w % q % = 1 $ . O # + # X pXhXxX5 + + > ; ; > 0 d.c.6.V.V.%X~.+XV.V.V.c.1.-X-X-X3.o o . u.              ",
"        9X8X{.+.+.O.9XnXSXSX'._.yX@X3X).`.4.`.>X+X0.B.F.A.,.<.*.C s l eXIXHXkX. . O . . . . . O O + $ $ $ $ + % % % % q ~ ~ ~ ~ R R R R R R R R R W R W R T ~ ~ e w w w % = % % 1 % $ $ $ @ @ o aXhXjX9 @ # > > : , > ;.,.1.} 1.N.V.V.5.3.B.b.1.-X-X;Xq.o o X o.              ",
"          8X{.} +.O.8XnXpXCX=XrX2X@X2X`.(.p 7.`.`.9.8.F.N.,.3.*.C 9 k wXHXIXkXO . . . O O . . O + + O + $ 1 % % % % % e E ~ R R R ~ R ! W R R T R ! ^ ^ ) ! ^ ! q w e e % % $ % w 1 $ . + + o . gXhXnXN O > O > ; , > I >.;.} } *.-.<.c.6.b.b.g.OX;X;X) o # X r.              ",
"          9X{.} o.D 8XnXnXLXgXN.}.}.5.' } *.<.B.7.(.7.`.B.3.3.=.F s 6 fXHXHXfXO O . . O O . . . + $ . $ w Y e e e ~ ~ ~ ~ ! ! T ! ! R ! ! ^ ^ ! ~ ) ) ^ ) / ^ W w w E w % % % r q 1 + + # + # . hXhXnXV + + > ; > , 7 w.>.+.D D { <.b.M.M.1.b.c.!.;X;Xj.o X . :.              ",
"          8X{...P :.9XCXFXLXCXG.7.}.B.9.6.} h.b.7.$.}.`.}.5.=.*.C V 8 jXIXHXfXO . O . . . . O . O % $ % % w e q T ~ ~ ~ R ! T W R R ! ! ! R R W E ! ) ) ) / / _ e e w % % % % q w % + + + $ $ o gXhXnXV @ # + ; ; , 7 :.p.+.K | } >.M.M.b.b.g.1.-X;X;X2.o @ . r.              ",
"          8X{.} D O.qXZXFXLXcXc.`.>X@X_.F.} M.M.7.7.7._.8.5.6.=.F s 4 NXIXHXdXO O . O . . O . + $ + $ $ % w e T e T T T T ! R R ! ! ! ^ W W W R T R W ^ _ ) _ R E q % 1 # % w q e w + O + o # . pXgXnXU + > O > < , , I O.@.{ | +.>.6.M.b.b.b.,.-X;X;X2.o o X o.              ",
"        rX8X{.+.D t.qXSXFXLXhX].$X>X$X+X_.b.6.B.}.7.9.+XN.2.V.6.} N 2 NXIXIXfX; . . O . . O . . + $ $ $ % % e ~ T ~ R T ~ ! ! ! R R W ! ^ ! W R W R W ^ _ ) / _ ~ w w w 1 w r r e w % $ + + $ o pXgXVXU @ @ > ; < < < J O.+. .+.@.>.b.b.D.D.C.c.-X;XuX2.o @ . r.              ",
"        rX8X{.} P ;.wXSXIXLXhX].{.>X+X`.6.a *.B.`.`.}.+X9.8.B.2.F 0 @ jXIXZXfX. . . . . . . O . + + % + $ q e ~ T ~ R R R ! ! ! ^ R W ^ W W W R _ R _ ^ ) ) ) _ ~ e w e w Y r r Q q % + + + $ o gXhXnXP # O + + < : > V X.o.+.| { #.-.,.v.C.D.6.-X;XuXx.o . X I               ",
"        yX8X{.} D :.iXZXIXKXcX].{.`.$X`.B.N._.%X$X`.`.$XV.B.B.1.F V & NXIXIXjX. . . . . . . . . + . % % % q e T T ~ ! R R ! R ! ! ! R ^ ^ W W R E R W _ / ) ) / ! Q w w q w r e e q % % + # + o gXzXVX( O + : ; < 3 3 9 N S K  .+.@.@.-.,.3.1.,.;X;X;Xx.o O . o.              ",
"        9X8X{.D P u.iXAXHXJXhXB.`.>X>X_.F.G.C.].`.}.B.$X`.B.B.c.*.V 1 AXPXAXjX. . . . . . . . . $ + % % % w T ~ ~ R R ~ R ! ! ^ W ^ W ^ ! ! W R W R W _ _ _ _ / ! e w w q w q e q r 1 % + % # o gXhXVX( # O + < , j 3 6 A K K +.s.s.b.6.N.c.x.2.;X;X;Xx.o . O I               ",
"        9X8X'.D F i.iXZXSXPXhXv.{.>X>X_.N.*.} 6.B.6.6.$XF.N.B.1.*.A l UXPXAXBX. . . . . . . . . O 1 w w 1 e e ~ ~ ~ R R ! ! ! ! ^ W R ^ ^ W W R E W W ^ _ _ / / W E r q w e e Q q q w % + # + o iXhXmXD . > + ; < j 2 9 Z D Z +.s.M.b.b.x.2.2.3.!.;X;Xx.o @ @ I               ",
"        9X*X{.{ D u.wXVXZXPXhXB.`.$X:X$X_.c.C.v.N.N.N._.#X8.G.1.:.s u fXSXVXBX$ O . . . . + . $ + . $ % w ~ w ~ T ! ^ ! ~ ! ! ^ W R ^ W W R R R W R W R R ) / / _ R r r q e Q Q Q q w 1 % # + o hXhXmXF + < < < j l @ 6 A K c X.m.M.M.s.<.,.<.-.-X;XuX) # 1 . P               ",
"        9X8X{.F I u.lXCXHXKXhXC.{.$X:X:X#XN.N.B.V.V.N.#X-XB.B.b.2.F P fXCXNXcX. $ O . . O 9 + . $ + $ + % w w e T ~ ) ! ^ ^ ^ ) / ^ ^ ^ ^ ^ ^ W _ W R _ Q _ / / W R e r T R R R Q q w q + # # o aXhXmXF + ; < < j G @ # A  .i { f.>.>.>.,.1.h.<.-X;XuX2.o > . P               ",
"        8X8X].S I :.wXCXHXKXhXC.`.>X,X>X_.1.c.V.V._.V.#X%XV.F.C.j.-. .Z T.jXnX# . + . . . 9 . . + $ % w w w q T ~ ~ ! W ! ^ ^ ) / / ^ ^ ^ ^ ^ ! / _ ^ 3.) ) ) / _ R T r q T Q Q r q q q % + # o hXxXnXC + > < < , , 7 5 Z c * i S S d D -.v.j.,.-XlX;Xx.o > . P               ",
"        yX*X{.F F :.wXBXFXPXhXc.`.+X,XOXOX1.b.V.V.V.V.OX=XV.D.C.C.;.P 8 & fXjX:.$ @ O . . # $ . $ + + % w e q e T ~ ! ! ! ! ^ ) ) ) / ^ ^ / W ^ _ _ _ ) ) ) ) ) / _ T q q T R Q Q q q % % > # o aXxXhXV # < < < < G x u N A Z  .p.O.p.O...;.,.:.!.;X;Xx.o = # P               ",
"        8X8X{.d C :.wXVXFXKXhXc.$X_.>X>X_.3.B._.V.9.8.9.sXV.D.D.C.;.P 3 Y UXgXgXX . . . O o . o $ + 1 w w w w w e ~ E ! ! ^ ^ ) / / / _ / / ^ ^ _ R _ ) ) ) / / / _ R e Q T R R Q e r r 1 1 O 9 BXxXdXy : < < ; z I 7 u N P P O.<.s.,.,.g.,.s...!.;XuX2.. 5 + U               ",
"        8X8X{.S C o.tXCXFXJXhXD.>X$X>X:X_.5.B.V.`.OX`.$XsX_.V.D.G.:.i.d.z.fX7XzX. . O . . + o . . % 9 1 q w e e e e T ~ R W W ^ / / _ / / ^ ^ _ _ E _ _ / _ / ^ ^ ^ ) e Q Q R R T Q e r % % # A AXtX[.j < ; ; h z w.B x s S D O.>.1.1.1.,.,.>.-.!.lX;Xx.o 5 O P               ",
"        8X*X{.C F :.tXCXFXJXpXF.$X$X>X:X#XN.F._._.+X$X:XaX_.D.D.Z.a.d.R.Y k.lXjXj.$ o . $ X . . . $ 1 w % e w w w e T E R R R ^ _ _ _ _ ^ ^ _ _ _ E _ _ _ _ W W T ! ~ e Q R R R R Q q q % w 9 D T.2 O ; > < , < < G B G x A d F -.<.<.<.-.<.-.} !.;XuXj.$ 5 # A               ",
"        8X8X{.F C :.tXVXSXGXpX].:X:X%XrX$XN._.].$X#X$XaXaX#XD.D.S.d.l.i.7 + $ jXJXCXnX. . @ X X . $ % % % w w q q e e T E R T ! W R R R R _ R _ _ E _ ( _ _ W W R ! R e q R R R Q Q q % r CXcXp.b . : 1 % < < h < B P A V D C } <.1.,.1.,.<.s.} !.;XuX2.o 5 O U               ",
"        8X8X{.} V o.iXCXFXJXhX#X:X:X:X:X:X-X#X:XrX,XrXxXmXF.D.D.C.h.A.H.7 > . hXHXA.o . + + . . . . % 1 % q w w w e e ~ ~ T T R R W W R ^ W W W W W T E E E r Q Q T ! T q ~ Q R R Q r % t mXJXm.@ O 3 : + < ; < < V I I N P S } 1.1.<.,.1.-.s.} ].uXuXj.o = + A               ",
"        8X8X{.D F ;.fXVXSXFXgX=XrXsXsXpXuXrXrXsXrXpXaXbXmXF.V.N.C.l.l.H.l.Q.9 BXkXz.. . + O + . . . + % % w w % q w e ~ ~ ~ ~ R W _ _ W ^ ! ! W ! W W T _ e r E ! / T Q q T Q T R e q r 9XaXFXL.4 : : ; O : < > 7 x I J x D F ` 1.1.=.1.<.<.,.F F.;XlX2.. 5 . V               ",
"        9X8X[.} V i.gXCXFXJXhXrXrXsXsXsXsXrX=XrXuXrXrXmXbXD.F.N.C.l.l.n.J.w.0 o 9XhXz.. O + + O . # = + % w w q w w e ~ T T T R _ W W R ! _ _ ! W W Q e ~ e r R ^ W ^ ^ R T T T T q % U - 8XDXDXr.. : > O O > 7 l x I B 6 D } *.2.1.1.<.<.<.,.} P.;X;X3.o 5 + V               ",
"        8X8X[. .A a.gXVXDXHXpX-X,XsXsXaXaX:X:XrX:XsXuXbXaXF.F.B.C.A.z.A.J.V = s - mXBX$ O O X O @ # 1 % q w w w w w w e T T T T E W W W ) ! _ _ W E T T _ T T R ^ ^ W R T T T T r q ( sXK L gXgX0X@ O @ O O , 7 x V G A & N >.=.,.2.<.2.1.,.<.} G.;XlX( . 2 + V               ",
"        rX8X{.D U u.fXCXZXJXxX=XrXaXsXaXaXrX:XrXrXsXpXbXbX_.F.N.C.A.n.J.l.s o = - IXFXfX9 . . . + 5 5 % 1 1 w w w w e e ~ ~ ~ ! E _ W Q W _ ^ ! E ! T T ! ! E W W _ ^ ^ Q Q r r q ( KXKXVXU , V 4 ; : : O O l G k 5 4 c & S o.C *.o.:.a.a.;.i.F F.;X9X( $ = # s               ",
"        8X8X'. .A u.gXZXFXKXpX*XpXbXbXaXbXsX,XsXrXsXpXbXaXF.#XF.Z.n.n.m.n.V % = U FXCXBXl.. . . % 0 1 1 1 w w w e w w ~ ~ e ~ ~ E W E E W E E E E _ ! T ! ! _ T R _ / W R q q % % 3.mXIXfXG O ; : ; < , ; ; l x x J J Z c i i i A D C C I F :.C J.-X=X( $ 0 + N               ",
"        8X8X[. .P i.jXCXIXJXgX=XsXaXbXxXaXsXrXuXsXsXbXxXsXV.F.D.v.h.l.l.J.Q.5 9 U o 8XBXBXz.. . + 1 1 % % 0 w w Y e w e e T ~ R R W W _ W W W _ E _ W T ! ! E q e T ^ W W Q q % t 3.sXCXR.4 ; ; ; < , , : : l k J w.I I X.A u  .....P ;.:.D u.C G.-X&X( o # $ 9               ",
"        yX8X[...D i.gXZXFXGXgX*XuXpXpXaXaXsX=XuXsXpXpXxXsXB.B.v.g.a.h.A.R.A.0 U i.o o :.BXiX. . $ # % $ = w w w w w w e w e T ~ W W _ ! W W ! ! ! ! W r E Q r r T T Q Q Q q q q DXmX9XnXeX< < O : j < ; ; 7 > l G u.o.K P P A +.i.d.a.j.n.d.u.C G.#X-XF o = # s               ",
"        0X8X[.D i.:.kXCXZXGXgX=XrXpXsXsXaXiX#X*X{.$X:XmXsX8.B.G.n.v.l.A.R.E.# A V $ o . gXgX&X. . 9 1 $ % $ w 1 w w w w r E E T E E E ! E W E W ~ ~ T r Q e Q E ! W T Q Q q q q hX*X6 x 8 ; < h j j j h k k 2 l J r.I o.o.I P X.O.;.O.;.;.u.u.D G.!.#X( $ # o 9               ",
"        8X8X].S I J jXCXFXFXpX9XuXsXiXsXsX9XD._.{.*X:XmXsXN.].].C.Z.n.K.U.P.1 U $ = # . 0 nXNXnX$ l.. . . $ % 1 w w q w r r Q r E W E ~ ~ E E E W U T Q r Q r E R q e q E E lX( 8XtX# . : ; < w.z G G G l j : M P w.r.r.z.p.t.a.k.f.s.a.p.i.;.A S.!.-XF o = # u               ",
"        9X8X[.S u V jXCXSXFXiXZ.].=XrX:X=X-X*X=X:X:XuXmXsX8._.I.C.Z.h.J.U.R.A V 5 I + X X iXCX9XX o.. X # x # . 1 w w r r e e E E E T e E E E E E Q Q T Q T r Q Q Q Q Q %XsXmXmXdX5X3 O O 3 O w.J l G z M l j G J r.i.i.u.i.u.d.k.h.f.f.p.d.u.D A.#X&XF o # # u               ",
"        8X8X].S U A jXVXSXGXtXg.Y.rXsXaXpX=X].=X:XsXuXmXuX2.6.,.<.h.j.J.U.E.z.( J.m.d.i.X . V ZXu.2 G O 7XwXu.. 1 1 q w e e e E e e r e r r r e r r r r Q Q Q r Q _ ^.<X,X,X-XaXNX4Xj < ; l z h G M M M M G z G I i.w.i.p.f.p.l.M.k.s.s.>.p.p.P J.#X-XF o # o u               ",
"        9X8XU.K P I jXZXFXSXiXC.rXsXpXxXaX_.*XsXsXpXpXmXrX3.D.v.Z.n.h.'.R.Y.z.z.z.h.l.n.Z.9 X nXAX@ J.4 5X5XeXl.% 1 w e r r e e r e e e E e E e W R R Q E Q r f zXGX;XQ mXxXh.. : ; < < < < j < h G b G M w.M w.I o.:...i.p.k.k.M.k.f.s.f.p.u.:.G.P.#XF . & o x               ",
"        yX8X].Z P o.nXZXSXHXtXO.C.F.F.*X*XF.rXpXbXmXxXmX=X<.*.b.M.n.h.L.7X9X&XJ.P V A I P a.A wXHX3 AXT.yXdXdXdX+ w w r r r r r r r r r e e r E T Q Q Q r Q W ~.3._.GXGXVXVXK . : < < h h < < 3 z l b G G w.e.L J ;.;.:.a.;.f.k.f.f.t.p.u.i.O.I A.Y.#X( X & o s               ",
"      yXyX8X].A F ( cXZXFXDXtXC._.[.rXuXuXrX*XuXsXrX{.rXC.1.'.Z.m.b.s.L.8XwXP.:.I j.a.a.p...i = 7Xt.dX0X5X0XdXkX1 o 1 0 q q q q - q 0 r q q q e q q e q r R 3.zX9XVX7XfXAXc ; + < 1 < l z l j G G l M G e.G G J I r.:.P ,. .m S i N S D s x 9 F G.Y.#X( X o @ s               ",
"      9X8X8X[.A A o.nXCXZXJX8X,.v.rXsXrX9X'.B.*X8X&XD.....C -.s.s.h.O.v.K.&XU.a.d.j.a.p.o. .o.- X @ H M | y.i.&XV . $ % $ $ $ $ $ o q 0 s ~ ( ( G.~.;XsXzXmXzXuXd.@ : O y.3 < ; 1 1 < z G G l M G b M M M G M y.K u.a.g.Z.m.} p.m.l.a.d.z.V 0 I I.F.&XI X # # x               ",
"      9X9X8X{.m D I nXCXIXHX[.O.v.'.].D.h.v.D.&X&XD.1.h.,.C p.a.s.h.s.M.Y.9X].F h.v.h.p.>.;.h.+.6 4 4 5 2 4 5 5 kXVXnXhXhXzXnXmXmXmXmXmXBXnXhXhXiXuXiXuX9X9X9X[.dXO O . : ; : < ; + l , Y z 7 G w.H H H M M j L r.O.;.,.n.v.-.a.h.h.n.p.z.V 0 ( Y.!.#X:.X # . N               ",
"      qX9X8X[.N A :.nXAXZXFX&Xn.'.*X*X&X#X'.I.D...g.C.C.;.C :.p.s.s.1.m.I.'.A.*.D.v.h.h.v.....N & & . . . X . . 7XjXjXzXzXkXhXhXhXzXaXgXaXgXpXaXsXtXpXgXfXiXwXl.UXw.O . , , ; O + > 7 , , : G L y.w.H H M M H L I t.O.v.v.v.,.h.v.s.v.a.:.V 7 ( F.!.!.( X # @ N               ",
"      rX9X8X{.N V I jXVXFXZXU.h.[.[.].I.I.].'.S.d g.c.g...;.a.a.h.b.h.Z.'.'.G.<.S.m.v.v.a.<.;.} i 4 4 7 5 # % o U R.E.R.E.R.!.[.7X7X&X7X[.[.L.m.l.;.P 9 o 2 # @ 8 : . > l w., < O # > > : ; x G y.y.L L L H M y.r.f.s.c.c.g.1.v.s.s.b.,.:.C 2 I P.!.#X:.o > @ V               ",
"        rX8X{.u ;.I nXCXFXFXC.h.S.U.Y.'.'.K.I.C...C.v.v.n.h.g.h.h.n.v.K.S.$X'.c.F.F.m.h.s.....>.| * 6 6 5 = # # 9 9 1 # w , 7 > = # > # @ * @ @ > # > > 1 7 > + @ . # > , h + + > 5 O O O @ J k.H L n | y.r.t.t.O. .@.m.1.g.=.c.<.c.C.<.:.s = D F.Y.#X( o & @ N               ",
"        qX8X[.u D P nXZXFXSXZ.;.h.Z.D.K.].].L.M.Z.p.v.n.m.A.Z.n.m.l.n.8X*X*X*X#X#X].N.v.,.>.O.P O.a.O.:.P A I ( l.J > 7 9 l 9 0 5 5 = > : # > 2 + ; 1 > 1 + > + > O + O 1 + > # 5 7 l l 3 > r.r.r.m.k.O.t.p.M.h.@...} F.<.<.c.c.N.b.N.;.a.F = -.F.!.!.:.o # # x               ",
"        yX8X{.u A A jXCXFXFXI.;.Z.L.n.m.m.S.Z.L.Z.S.Z.P.K.K.K.J.J.E.A.K.P.*XY.A.c.C.n.c.v.C.Z.S.M.s.>.-.:.D I i.( I > l Y B Y l 5 7 > > # 4 2 > > < , + < < > > + + > 1 l V x 8 x l k 9 N 5 s o.r.f.n.p.f.M.v.m.C.*XF.C.iX_.C.c.b.C.N.,.a.U % :.I.!.-X:.# # > V               ",
"        9X8X[.s o.A jXCXFXFXU.p.M.M.M.M.M.M.m.Z.m.K.Z.C.Z.Z.Z.C.n.j.a.j.C.S.P.S.U.&X*XY.F.A.x.N.h.j.h.i.;.I i.i.I P 9 G G z l k 7 7 , 5 + , 1 > > > > 1 ; % > 1 > + > J i.o.V V N B A P P u  .l.n.n.m.v.h.v.b.v.C.C.C.v.F.m.v.;.1.b.N.1.1.U - :.!.!.#X:.o # # s               ",
"        yXrX[.i A V hXDXFXHXJ.d.m.Z.D.M.D.D.S.L.K.I.D.C.C.C.C.C.D.G.F.P.S.S.9XU.j.C.j.A.C.G.N.N.j.j.j.d.( I ( ( V J 9 l B l l 7 8 7 7 7 9 9 7 9 9 Y 9 l 7 7 > 5 > > > V I O.Z N Z A A A A s ..a.h.s.-.>.>.s.>.,.} >.1.;.v.h.h.h.>.b.g.3.g.C o *.P.!.#X:.o $ # N               ",
"        9XyX[.c D D gXZXIXFXY.Z.m.Z.Z.s.>. .s.&X=X-X#XF.F.]._.F.].#X#X].#X&X*X-.D n.l.j.N.G.N.N.N.v.x.j.F F j.F A N 7 Y Y l l l l u u u u x x u 9 9 0 7 7 9 9 l V P # P o.;.A S K D K D S d p.m.b.b.b.-.,.,.<.,.,.,.,.v.:.*XI - ..g.v.g.2.( # ( F.F.!.:.o # # 9               ",
"        9X9X[.u C D fXCXSXFXY.;.s.h.O.+.C i +.8X=XuX=X-X-X-X=X-X-X$X$X-X-X].#X;.C A.&Xx.D.S.G.D.F.G.C.N.;.-.v.;.U N B G w.w.I I A U G Z N B N c N N N 9 5 8 9 s 9 V = V ..+. .D  . ...+.} i b.K.C.D.D.C.C.C.C.C.C.C.n.n.Z.A.j.* i >...D a.l.= I Y.!.!.:.o # # 9               ",
"        yX9X*Xu I P tXSXDXHXR.D ;.I I V 6 6 :.hXhXsXsXpXsXsXpXsXuXuX=X*X8X#XK.N.. Y.Y.,.I.F._.F.Y.F.G.C.h.s.h.a.A N V j V l l k N B V V B V V H G A V U V V V V F A V D D K  .D  .o.X.+.;.C m.Z.F.D.D.D.D.N.C.S.C.C.v.S.I.F.D.t u C C ;.i.I 5 :.F.!.!.:.X # # 0               ",
"          9X[.i P D tXSXSXFX&X= o = 1 5 # 1 0 s s F *.:.*.F U d U F D P ( a.a.F s l.j.-.,.}  .F d C d C d u i i 0 9 5 7 7 7 5 5 & - 4 & & & & & = & 5 5 5 s P P P A P P S C C A P P P P O.} Z.n.D.B.D.D.C.j.,.a.i.;.-.:.F -.:.s u 8 = # . $ # ( Y.!.!.:.. @ & 9               ",
"          8X[.i ;.A qXDXFXFX&X6 X = 1 # # # # . $ $ . o o . o . o . $ . o o $ o o o $ o . X o o $ o o o = # = V o.;.( u.I o.:.:.:.;.:.:.:.( ( :.P F P P U s 0 0 9 1 9 9 5 0 5 5 5 7 5 0 = 5 5 5 & o X * X o . # o o o 1 o o X # # & # . # = = I F.!.!.:.$ + # 9               ",
"          0X[.u d.V qXDXFXFXR.= $ # 2 1 # # 1 + # o # % = = 5 % # = 1 1 0 1 1 # 5 5 = # 5 0 9 9 Y V l Y 9 5 > 0 V V V U F D F d C d f s s s V s s Y 9 s V s s N 9 7 > > > + O 1 > # = # = 1 + > # > 1 > 1 > # # # 1 # # + # O > 2 > 6 # # 5 > ( F.!.#X( + # & 9               ",
"          0X[.i P - 0XSXFXFXR.o $ 5 5 > > 5 5 5 = 5 5 0 5 1 0 % % % 0 7 9 Y Y Y V V V 9 0 7 1 1 % 5 # > 1 + > 1 U V 9 0 1 o o o = $ % o = $ o $ + o . + $ % # + > 7 l l 7 l l 7 9 0 # o 5 1 > 1 > > 1 1 1 5 1 1 # # # # # 5 5 # 5 = & X $ % o :.P.~.!.:.o # & 9               ",
"          9X].i C & 9XDXSXSX9XV P I Q.:.d.z.l.l.n.A.J.P.J.J.J.J.P.l.l.x.x.W.x.x.I ( u.i.I ( I I I I ( i.i.U Q.i.z.( I V V U U C s s s C s Y s s s 9 s V 9 9 0 1 1 > + + + + $ 1 = # 1 0 0 5 5 0 5 0 0 0 0 9 s V ( A U F :.( :.u.P :.D ( i.Y = :.!.G.&Xi.# # 5 9               ",
"          8X{.i - & 9XFXFXZXwXI j.l.Z.A.Y.R.7X9XlXlXlX9XlXiXiXlX9X9XlXiXiXiXwX9X*X&XY.Y.R.!.&X&X7X!.R.P.P.l.x.j.x.A.G.:.j.,.:.D F D ( ( F ( ( U *.F D ..F F P I z.U 9 A I ( :.P F F A = 1 V *.*.3.2.j.x.C.A.G.A.F.G.G.G.C.N.G.N.C.x.N.x.:.:.0 :.!.!.!.j.# @ & 9               ",
"          8XR.i P - tXFXCXDXwXA :.i.F *.s F :.;.:.*.D -.*.*.:.:.j.g.j.N.A.N.N.g.a.F d F :.d I f :.2.a.*.( :.x.A.G.N.S.j.x.:.*.( ( ( F F ( *.F P ( } ( ( ( :.:.*.a.f - j.h.a.p.h.j.-.;.= o j.#X#XF.F.F.!.#X#X#X-X&X#X=X=X-X#X#X#XF.c.G.2.( ( % ( !.!.-Xl.# # 2 u               ",
"          9X[.i N i 9XFXCXDXiXP i.j.i.:.C *.A.Z.C.K.S.G.n.a.S.S.S.G.D.S.G.S.D.D.K.n.i N.} ,.:.C.A.A.v.S.1.h.j.N.<.2.g.N.x.3.*.F } F F F ..F ( ( *.} *.*.<.2.2.,.F.F.g 6.c.c.c.6.C.*.= 5 . C F a F d - t t t t g t g g f *.` f ` g } *.o F s $ ( F.!.&Xx.= # > V               ",
"          0X[.s o.C wXFXCXIXiXA j.j.j.i.o.:.Z.S.A.A.S.Y.g.j.F.S.S.Z.C.S.S.S.S.D.C.C.F Y.S.S.C.N.G.A.N.G.C.C.2.G.N.2.2.g.2.:.-.I :.:.:.,.:.2.x.x.j.j.j.c.g.g.2.3.6.2.f 5.` ` ` ` f ` g 0 - F -.1.x.N.N.N.j.j.1.1.2.2.6.6.B.G.N.D.V.B.N.B.x.:.1 j.!.!.-Xh.# + > P               ",
"          8X[.D l.p.tXFXCXIXgX( l.n.l.a.i.h.P.A.Y.K.K.I.C.h.Y.P.S.S.S.K.L.S.K.J.C.C.-.I.A.G.v.C.v.N.G.D.G.N.x.N.G.N.S.j.x.i.i.Q.:.( Q.( ! w.U Y s U 0 s g f 3.%.=.%._.q.0.9.0.6.0.V.1.<.,.c.=.*.*.3.<.2.3.*.=.3.=.3.3.N.N.B.B.8.B.N.B.N.,.:.0 2.!.!.-Xx.+ @ 5 o.              ",
"          9X7X| r.d.tXFXDXFXgX( h.l.l.a.d.d.E.K.P.P.P.P.Z.S.Y.Z.A.Z.K.I.U.U.'.].m.n.d C.A.C.g.c.N.C.C.G.G.3.2.G.F.G.h.j.z.z.x.J.E.Y.!.R.E.!.4X!.R.P.G.x.3.%.5.V.%.3.q.4.9.(.(.(.8.8.3.<.} 6.} #.=.` =.=.} f } =.%.5.=.7.B.F.N.6.N.V.V.6.3.3.U 3.!.#X-Xx.# @ 2 o.              ",
"          8X[.K P z.iXCXCXZXgX..l.l.j.l.d.n.U.U.R.U.Y.'.P.S.I.h.n.U.I.U.'.'.'.&Xn.v.Z.K.Z.F.<.c.1.G.N.N.G.x.x.j.x.FXPXFXHXFXPXHXHXKXPXHXHXHXHXHXHXHXHXKXGXMX,X,Xa B.&.q.0.0.q.9.9.8.3.6.} <.} *.*.} *.` } f *.=.=.3.6.6.V.B.V.1.D.V.B.8.3.2.f j.!.!.-Xj.# @ 2 r.              ",
"          9X7X .J d.wXCXCXCXgX:.n.A.x.n.l.A.U.P.Y.U.I.I.P.J.A.g.p.K.Z.S.J.K.U.U.m.J.K.S.F.S.N.3.<.<.c.N.8.( U x.~.GXHXHXIXIXHXIXHXHXHXHXFXHXGXHXFXHXGXGXGXzX+X%Xf 3.5.5.5.9.9.8.6.8.=.<.<.<.} #.<.` @.g F } =.=.<.2.1.c.c.C.B.6.V.V.8.6.8.N.( x.~.!.-Xj.O @ @ i.              ",
"          0X*XK P l.0XZXCXZXhX:.A.J.h.A.:.m.L.I.Y.[.Y.R.Y.P.A.Z.P.Y.'.L.K.P.I.P.P.J.P.S.Y.&XF.].N.N.G.F.2.U zXmXzXMXGXIXIXIXIXIXIXCXZXIXZXIXIXCXIXHXZXCXVX-XN.*.F.V.6.=.6.8.6.2.3.3.<.3.1.#.} =.} ` } ` -.=.=.-.1.<.1.c.6.N.B.3.6.`.N.7.6.N.*.x.F.!.!.x.$ < @ z.              ",
"          8X7XK J k.eXCXCXCXhX( n.Z.Z.Z.m.J.P.'.Y.Y.Y.#X[.Y.K.P.U.U.I.I.P.I.U.U.P.P.P.F.[.#XD.&X1.j.A.G.( !.CXCXGXuXHXPXHXHXHXHXHXHXHXPXHXHXHXFXHXJXHXPXHXgX:.CXCXS.d g g ( d g s g f } 1.<.-.=.<.<.,.<.<.<.<.3.N.<.6.c.N.D.V.N.6.c.6.b.6.1.f 2.~.!.-Xj.$ > @ f.              ",
"          8X8XS Z k.eXCXCXDXzX,.Z.K.S.Z.L.K.U.[.R.[.#XR.Y.U.P.U.U.I.K.I.P.L.U.U.P.J.S.P.P.C.S.&Xi F s A.zXGXGXGXGX*.KXLXPXKXLXLXLXLXLXLXLXLXPXLXLXPXJXJXT.HXJXHXFXZXI # $ - 0 o o = F d =.=.=.6.7.<.3.,.1.=.3.<.B.1.6.c.c.N.N.1.1.c.6.6.1.-.f 2.~.!.!.z.+ @ @ i.              ",
"          8X8XK x k.8XZXCXCXhXh.'.Z.U.S.K.I.U.'.#XR.[.Y.&XY.Y.'.'.K.K.K.S.S.K.P.S.x.A.K.Y.Y.v.g.s 9XG.K.FXGXGXGXKX. nXcXjXfX7XE.W.Q.w.U G V Y w 4 * : @ # PXLXHXZXnX&XZ.V C = - * u I.<.1.<.=.=.=.<.1.4.6.1.3.6.N.6.6.c.N.6.c.6.1.c.6.1.2.3.( 2.!.~.!.j.@ # @ z.              ",
"          8X&XZ i i.7XCXCXDXhXj.Z.Z.Z.Z.L.I.'.U.U.'.'.&X&X'.I.Y.'.K.K.I.S.S.I.I.J.G.*X!.wXN.E sXmXGXCX..GXGXGXHXZX. . . . . . O . O O O . O . O O O : 3 e.PXPXHXIXZXAXjXP.cXxXt t - -.6.<.=.7.=.=.=.6.c.6.6.c.6.N.6.N.N.B.j.c.6.,.<.1.6.6.1.F 2.!.-X!.j.@ > @ i.              ",
"          8X[.K x i.5XAXCXCXnX,.n.Z.S.Z.S.I.U.U.Y.'.'.'.'.'.I.Y.U.I.K.I.n.C.I.I.N.S.=XA.- o mXaXmXmXxX} IXHXGXKX7XO ; O . . O O O O O O O O O O ; ; < : O dXPXPXIXLXIXHXSXhXxXrXrX8X=X_.=.6.6.4.=.<.6.6.6.6.6.6.1.6.1.8.N.6.N.c.1.-.} 3.1.1.( 2.!.!.-Xj.o @ @ i.              ",
"          8X7XS c o.7XVXCXCXcX;.n.K.C.v.h.S.P.K.Y.'.'.'.Y.Y.Y.Y.I.K.I.I.v.I.S.'.[.m.V = zXmXG.3.zXMXmX#XwXkXkX$ + . ; O O O O O O O O O O O O O ; ; < ; ; O O , W.j < . fXjX9XY.&X*XM.- o F b.9.8.5.6.6.6.6.6.1.<.1.6.c.6.2.N.N.c.,.g.1.8.j.( 3.!.!.#Xj.# @ @ u.              ",
"          8X7XS u I 5XCXDXCXxX,.'.I.8XZ.n.I.Y.[.Y.'.'.Y.].I.I.'.K.S.K.K.K.g.n.[.tXi.o - CXmXMX%XmXmXDXCX. 7 O + O ; O ; O ; O ; O O O O ; O O ; O ; ; O O ; O O < h ; j AXHXCXpXxXxX7X& . * X <.6.6.6.8.6.6.<.3.3.1.N.6.1.3.N.N.g.<.1.2.c.j.*.2.!.!.!.j.o @ . i.              ",
"          8X7XS i K 7XVXDXVXcX,.I.I.'.C.S.K.U.U.I.Y.I.'.Y.I.U.I.F.D.F.m.L.n.n.5Xk.ZX0 CXmXMXCXaXHXpXSXNX< ; O O ; O O ; ; ; ; ; ; ; ; ; ; ; ; < ; ; ; ; ; ; ; ; ; < < O dXHXBXiX9XiXM.X + + o * F.D.B.6.8.3.=.3.6.6.6.1.2.3.N.B.c.} <.2.c.x.3.,.!.!.!.x.o @ @ u.              ",
"          8X*XZ x I 5XVXZXCXnX:.m.Z.L.m.Z.S.P.U.Y.Y.'.'.Y.I.Y.I.I.I.].I.K.L.F A ; E.Y CXmXmXmXsXPXAXIX4X; ; ; ; ; ; ; ; ; ; ; ; ; ; ; ; ; ; ; ; ; < ; < ; ; ; ; ; ; < j PXPXAXR.qXqXM.cXE.$ 1 s C c.B.8.6.6.2.=.6.c.N.1.3.<.N.C.c.} <.2.2.2.( 2.F.!.!.j.@ # O ;.              ",
"          0X*XS u P 7XVXCXCXnX( m.Z.U.S.S.I.'.'.'.R.'.Y.Y.Y.I.I.L.U.K.I.&X&XmXU + U 9 ZXmXnXmXtXAXdX5X< ; ; ; ; ; ; ; ; ; ; ; ; ; < ; ; ; ; ; ; < < ; ; ; ; ; ; ; < h h 4XkXz z 6X6XM AXvXs + J.5 i ,.6.6.6.6.6.6.N.c.1.3.<.b.N.c.*.1.2.2.x.( 2.!.!.!.z.X > O u.              ",
"          8X5XS c X.7XAXCXVXnX-.S.Z.U.K.J.L.'.Y.[.'.#X'.Y.I.U.U.U.U.D.I.'.*X..f Y ( z.CXnXjXDXdXUXh h ; < ; < ; ; ; ; ; < ; ; ; < < ; < ; ; ; ; < ; ; ; ; ; ; O ; ; ; < h < < < e.z y.AXnX8Xu N 9 6 - -.6.8.6.6.N.N.N.1.c.3.6.6.1.1.2.2.8.2.f 2.!.!.!.x.# # . r.              ",
"          9X8XZ u X.7XAXZXAXxXj.[.K.K.D.S.S.[.'.#X'.'.[.[.Y.R.'.Y.U.C.rXZ.D F h.CXDXGXCXkXUXPX[ < < ; O ; O O ; ; ; ; O ; ; ; ; ; ; ; ; ; ; ; ; ; ; ; ; ; ; ; ; ; ; ; ; < < ; 0X6Xy.wXeXZXhXv.u u u 7 5 F 1.6.6.1.6.c.6.c.2.1.1.3.1.8.3.q.N.2.2.-X!.!.x.+ + O o.              ",
"          8X[.A K r.0XAXCXCXnXa.D.v.C.h.S.S.I.S.'.R.'.Y.'.Y.U.U.Y.R.S.=XxX>.= hXCXDXDXVX4 4XW.h < ; ; ; ; ; ; ; ; ; ; ; ; ; ; ; ; ; ; ; O ; ; ; ; O ; ; ; ; ; ; O ; ; ; ; ; ; ; W.AXPXV pX-X_.} 0 A k 7 o ,.B.N.2.c.N.N.N.2.6.6.B.V.V.9.8.N.3.8.&X-X7Xx.+ + . o.              ",
"          9X5XD K r.0XVXZXBXjXA.Z.Z.I.S.S.S.[.&XY.Y.'.Y.U.Y.U.U.U.S.A.R.m.# . ZXGXDXSXVXz h z < ; ; ; ; O ; ; O ; O ; ; ; O ; ; ; ; ; ; ; ; ; O O ; ; ; < ; ; < ; ; ; ; < ; ; ; h IXPX1 lX;XF.c.X N 3 : # I #XV.5.N.8.B.8.3.8.N.OXV.V.8.8.q.` x.-X-X7XA.# # . o.              ",
"          9X{.K o.a.wXVXZXnXnXF.'.S.I.K.K.K.'.'.[.[.[.[.'.[.I.'.U.K.n.D 5Xi.7 JXGXDXIXIXw.h < < ; < < O ; O O ; ; ; ; ; ; ; ; ; ; ; ; ; ; O O ; O ; ; ; ; ; ; ; ; ; ; ; ; ; ; < < UXAXe.GXzXG.#Xs A l.l l F g =.*.8.8.8.N.8.8.B.%XV.V.9.8.G.*.2.!.&X-Xx.. # . I               ",
"          9X[. .z.i.0XAXAXcXnXU.'.I.K.K.].U.'.'.R.[.[.'.R.'.Y.[.R.J.J.5X9 . . [.DXGXAXG ; < ; < ; < ; ; ; ; ; ; ; ; ; ; ; ; ; ; ; ; ; ; ; ; ; ; ; ; ; ; O O < < ; ; ; ; ; ; ; ; < z 4XE.SXxXL.L.s kX9 9 9 5 . 2.6.B.9.B.8.8.V.V.OXN.6.N.2.6.` j.&X-X7Xx.# @ + I               ",
"          qX[. .u.r.yXAXZXBXnXP.&XK.I.].'.'.'.[.&X'.'.'.[.P.&X[.Y.a.m.&X# l . AXnX9XIXj < ; ; < ; ; ; ; ; O O ; ; ; ; O O O ; O ; ; ; ; ; ; > < ; ; O ; < ; : < ; ; ; ; ; ; ; ; < h y.4XwX9Xm.tXk k 8 2 7 9 9 s _.8.B.V.B.8.9.B.B.2.5.6.2.8.F ,.-X&X-XA.o @ O I               ",
"          8X[. .K X.qXAXIXnXnXY.'.S.K.K.I.I.U.U.I.U.Y.'.[.Y.K.K.U.s :.E.. i.0XHXHXfX: ; ; ; ; ; ; < < ; ; ; O ; ; ; ; ; ; ; ; ; O ; ; O ; < , < : : < : : : < ; ; ; ; ; ; ; ; ; ; ; h e.h G u 2 9 9 O : > x G V D.B.8.6.B.8.N.8.N.} *.6.8.B.F j.&X-X&Xx.$ # . P               ",
"          9X[.P I i.qXAXZXcXmXS.'.C.L.b.v.C.S.I.P.I.U.U.'.U.U.K.J.A I l.. V ZXHXVXR.. O ; ; ; O ; ; ; ; ; ; ; ; ; ; ; ; < ; : : > < < < > > > < : : < > , : : ; < ; ; ; ; ; ; O ; ; z h h 0XgXhX&Xu.k 3 j Y G 3 t N.B.V.B.B.N.B.N.=.5.6.0.V.*.,.-X&X&XA.. # O P               ",
"          8X&XX.O.d.tXAXSXBXnXC.].J.L.C.L.U.].F.I.I.'.U.'.U.R.m.m.P V wXfXfXPXHXHXBX. O ; ; ; ; ; ; ; ; ; ; ; ; ; ; ; ; < ; ; : ; < > : : < , : : 2 : 7 , , O : ; ; ; ; ; ; O ; : ; h h ; qXaX,X$XF.i @ , l G M u >.F.9.9.B.N.G.b.<.6.B.8.V.} g.&X-X&Xx.& @ o A               ",
"          0X[.O.t.i.0XAXZXNXnXv.].L.].L.].].].].'.'.U.'.U.U.U.m.k.i.7 jXAXAXAXAXPXSX@ @ O ; ; ; ; ; ; < O ; O ; ; ; ; ; < : @ ; O : > : 7 , > @ k , 2 : 7 3 O ; < < ; ; O ; O O O ; h z O rX,X>X`.8.d 4 2 j j j k S B.B.9.V.B.B.B.6.N.8.5.8.f ,.-X&X&XA.@ @ @ A               ",
"          8X&X+.o.u.yXVXDXnXxXM.].Z.].L.L.U.L.L.F.K.L.L.U.K.Y.d.z.i.9 BXZXPXIXl.IXIXO O ; ; < ; ; ; ; ; ; ; O ; < ; ; < ; @ : ; : O : : l > : : l : 7 l l 7 ; : ; ; ; ; ; O ; O ; ; < h @ tXbXsX_.B.#.* O ; : , 8 C D.9.9.B.B.B.B.6.6.8.q.8.f ,.&X-X9XG.o # @ A               ",
"          0X[.X.P o.tXAXAXnXcXv.].L.D.Z.U.].].].L.P.I.I.P.J.U.i.d.u.G AXIXHXkX; wXdXO O ; ; ; < ; < ; ; ; @ ; ; ; < < ; ; : O @ O ; : : 3 ; O : k , > l < < O : ; ; O O ; ; ; ; ; ; < < 4 cXDXmX>X>X{.L k j l b r.s.G.V.9.0.B.B.V.c.B.8.q.8.f :.-X!.&XA.o > # N               ",
"          qX[.O.P O.qXCXAXxXcX1.'.L.S.L.'.[.&X'.U.U.U.U.U.L.R.;.d.o.V IXIXPXkX. O O O O ; ; ; ; ; ; < ; ; ; O ; ; ; O O O : O O @ : , > 8 4 3 3 3 > : 3 : , 2 : ; : : ; O O ; O ; ; < , 8 & u.} :X{.{.[ : < 7 Q.T.n.v.B.B.B.9.V.B.6.B.8.q.V.f 3.&X#X=XA.% # # V               ",
"          8X[.o.P r.0XAXVXcXcX,.&XF.U.I.'.[.{.'.U.'.].U.U.L.'.i.i.i.B IXIXHXkX. O O ; ; ; ; ; ; ; ; ; ; ; O O ; : O ; : : > 3 2 x b 4 b b 8 4 4 : : @ 2 2 : : O O @ @ ; O ; ; ; ; ; O < : O . X :X{.yX#.: < ; , l J } C.9.9.B.V.B.B.8.9.5.9.f <.-X-X&XE.# @ + N               ",
"          9X[.O. .r.0XVXVXnXxX1.{.S.'.U.'.[.U.].'.'.U.U.U.L.R.;.:.z.z IXIXHXdXO ; ; ; ; ; ; ; ; ; ; ; ; ; ; ; x O ; 2 j @ : B L H H J m H v H m y y c y i v b 4 2 2 3 : : O ; O ; O ; : ; O O X *X{.{.+.X : : : > 4 i v.6.B.B.B.`.7.B.9.q.9.` <.&X&X-XP.@ > # V               ",
"          9X[.o.P t.0XVXVXcXhXh.&XZ.].L.L.&X*X8X&X{.U.U.P.P.R.u.I k.x IXZXHXwXO ; ; ; ; ; ; ; ; ; ; ; < ; , : 3 : 2 3 @ @ @ v c Z | S m y * y y b m m M H m b x u k 8 3 , : ; ; O O ; ; ; : ; O yX{.8X| @ O ; : h l x f.C.B.N.C.B.N.8.B.0.B.f -.!.!.!.P.o @ > N               ",
"          8X[.X. .o.8XZXCXjXhX,.'.L.'.K.[.9X*XyXyX'.U.[.U.P.R.o.P k.9 HXZXFXdX. ; ; ; < ; ; ; ; ; O ; ; ; : O > @ , # O : @ m H { y.X.| | | | { n m m n v m L c 8 3 7 < > > ; ; < < < < : < : . yX{.{.+.O + > , z G G r.d.-.d b.b.6.6.N.6.N.} -.!.!.eXP.. @ # V               ",
"          0X[. .X.u.7XAXCXxXhX,.].S.{.L.[.9X8XyXtX[.'.U.L.L.U. .P z.9 ZXSXFXwX. ; ; ; ; ; ; ; ; ; O > : O O + ; O : b b c B m H | | +.X.| { | | | n m M y y y y u 4 4 3 > < O ; , h < < ; O @ . 8X{.5X+.. O O < h z j G o.o.X k.D.v.=.f ` 2.d d !.7X&XE.# # > N               ",
"          0X[.X.X.r.5XZXVXnXgX:.'.L.'.U.[.9X*X8XrX[.'.L.P.L.L.P P i.6 ZXZXSXqXO ; < ; < < ; ; ; ; ; < > O O O O 2 v H L | L n n n m { | | | +.| @.| t.| t.H b b 2 8 2 2 > > O : < < h ; O O ; . 8X{.5X+.. O O : h h h l r.u.c k.J.s.D } F } = V 7X!.&XP.o 2 & 9               ",
"          8X[.K P r.[.SXAXnXaX:.'.].{.L.[.9X[.8X&X&X[.U.U.L.K.J P u.6 ZXZXSXeX. ; ; ; ; ; ; ; ; ; : < : O > ; @ M H L L n H b m L n m { +.+.| { | t.@.+.+.r.H M 8 y 8 3 @ < ; ; 1 h < < O O : . {.{.8XX.. O + ; h h h z r.d.A f.M.f.h.n.v.K.U P !.!.&XP.X 5 > 9               ",
"          qX[.K X.r.7XZXCXnXgX2.I.].[.L.[.9X[.8XL.'.L.'.U.L.J.K J z.0 VXFXSXwXO ; ; ; ; ; ; ; ; O + ; O O O 3 8 L H H | | n n | | | Z | | @.+.| @.t.#.| +.+.| H c c x 8 k 8 , : < h l < + + : . yX{.yXX.. O O : h h h M r.l.x t.f.s.k.n.C.I.C V Y.&X!.E.o 2 > 9               ",
"          8X5XP  .r.5XSXZXnXhX,.].F.&XL.[.[.[.5XM.K.[.].K.J.J.A G z.9 BXSXDXfXO ; ; ; ; ; ; ; ; ; ; > O @ 2 v v L n n H Z n L | | | Z | | +.@.t.@.@.@.@.+.| H | J b u x 8 3 > : , h z < ; O O . 8X{.yX| . . O ; < < h z r.l.Z f.k.f.f.b.6.g.- s !.&X-XE.$ 2 1 8               ",
"          9X[.K r.r.[.ZXZXnXgX2.I.I.[.[.7XtX9XiX0XL.I.'.U.K.J.J J l.C jXFXSXjXO O ; ; ; ; ; ; O ; + O O 3 G H m | H v v m c L { | | S S | | +.+.#.t.t.@.@.@.+.@.| c b x 8 k : : h h j h ; O : . 8X{.yX{ . O O O < < h z w.l.L k.M.h.p.f.c.F.U P !.&X!.E.. 5 > 8               ",
"          qX[.P X.r.[.SXCXBXpXj.].I.{.[.7X0X8XyX&Xm.U.L.L.Z.J.K P d.I wXCXCXjX; ; ; ; ; ; ; ; ; O > @ O 2 b L m H L Z m L n { | r.+.| | @.+.| +.| | @.@.+.@.@.>. .c Z B 8 8 3 3 , , 1 < : : O . *X{.8Xm . O O O ; < h h y.m.L p.k.M.p.h.c.D.g s eX&X&XE.o 5 = 9               ",
"          rX[.| I i.4XSXZXVXpXx.I.L.[.].[.8X8XyX[.m.m.Z.m.Z.m.H U z.o.o.ZXVXAXO ; ; ; ; ; ; O ; ; + > . x H v c J | | H K | y.t.t.+.m S t.| n m | | | p.+.@.@.@.O.Z J m x 3 3 : < > < > + O # . 8X{.rXi O < ; < ; < h h w.H.I f.M.k.O.M.v.N.C ( !.!.-XE.$ = # 9               ",
"          0X[.K X.p.5XIXDXnXiXN.I.].[.R.7X8X8XtX[.m.J.K.Z.J.l.B s l.A = ZXAXAXO ; ; ; ; ; < ; O O < 7 3 3 x b b m K K L n Z +.+.+.| m c | X.m b | y.m | @.@.t.t.X.Z H Z b k 3 2 , ; > O + O O . 8X{.8Xi O % ; < ; ; < < L H.X.f.M.M.s.b.n.P.x.F !.!.&XP.o > > u               ",
"          8X[. .K i.[.IXCXmXaXg.I.I.[.[.qXtXyXtX&XJ.K.L.L.L.m.J A l.F o cXBXNX@ ; ; ; ; ; O ; ; O G x O > k 2 c Z X.| n S m { r.| y.| H m n n m | r.m | S | +.+.X.L Z G b k 3 3 7 $ 1 # O O @ X yX*X9X0 ; % ; + ; < : < L H.t.k.m.h.+.-...D V V !.!.7XE.o & # 9               ",
"          8X[.| X.f.T.HXAXVXpXj.].I.8XtXtXtXtXiX7XJ.L.U.L.L.m.I I d.P X u jXcX: O < ; ; ; ; O O @ l B 3 # 8 : i L I X.b n b | | r.| | | r.r.r.n | | n t.m.+.| +.X.K Z m v l 8 > 3 # 7 9 9 # o . rX*XyX& ; < + ; @ : : 3 L k.X.+.r.p.@.O.d.z.0 U !.7X!.E.o > # 9               ",
"          9X[. .X.k.T.HXnXCXaX1.].].yXtX8XyX9XyX9X[.].L.L.L.H.I ..j.9 & X gXfXJ : ; ; ; < ; O , , 7 b 8 . @ B y Z m J 4 n n | +.| | | +.t.t.@.Z { | +.t.k.@.{ {  .Z v v v k 4 7 k > 0 Y # 1 # o rX{.8XO O O ; + O O O : L k.r.J f.s.{ C :.i.1 s !.!.&XP.o # # 8               ",
"          8X[.K I k.R.HXVXCXpXj.Z.C.m.L.L.H.L.l.[.[.U.L.Z.L.m.X...( ;.0 i.VXeXJ.> ; ; O Y ; O ; @ : l x O 7 B b . y c n m b m | t.t.+.+.t.| +.| { +.@.t.f.@.K { | J H v G b 7 k k 5 0 9 o d F - K.M.T.: O O . + 2 8 3 3 H i.r.c p.f.O. .u.z.5 V E.#X&XJ.o # # 8               ",
"          yX[. .X.d.R.HXVXCXpXj.F.s.f.k.k.Z.m.M.7X[.U.L.T.L.m.i.,.,.U.6 . tX7XBX, ; ; : l > + ; O O : 3 O b M b X v H | S | ] S | r.| Z K | | S | r.t.+.t.@.{ K J J J H H G 7 x 7 5 # D F.:X&X& X . . @ O O 7 G B L H H B I J x p.k.O.D i.j.9 9 Y.&X&XA.# = > 9               ",
"          8X[.{ K k.E.FXVXCXaXj.].h.h.s.k.J.L.L.[.L.L.[.U.J.m.o.a.h.j.= o CXE.T.@ , : < , : O O . O @ 3 @ c y 4 @ y n +.X.| K n | | n b c Z Z | { +.+.@.t.f.S Z m J Z G B v 3 k 5 . * C.N.sXuX* O O : @ O O : B B H v H B V N P k.k.u. .:.d.0 0 !.&X&XA.o # # 8               ",
"          qX[.K K k.E.IXCXCXiXj.L.M.h.p.h.T.J.L.[.J.L.U.U.L.m.A -.1.;.- & o R.dX[.. O O , < > ; O > 7 x b v y 8 y m i | +.+.| m L | L S n K L J v Z S X.o.K Z c 2 H v b J x 8 k 3 @ +.b.8.uXuX= . : > > O , > B G J G B x A P A >.p.t.+.:.A.9 9 R.!.7XE.o # & 6               ",
"          yX[. .I k.E.HXVXCXsXx.L.v.a.>.p.L.L.L.R.Z.T.K.J.U.m...a.,...6 & 5 . iXwXo.# ; > , , , O O 7 B M M M | c m c K | | | m | X.X.| y.r.| m c J K X.t.K P b 2 Z G B G b k k 3 * C.M.V.=XrX- # > < O . O + l V G B B v 9 r.K O.p.p.D :.n.J V R.!.&XP.# # 2 8               ",
"          9X[.K I k.H.HXVXCXpXc.D.M.#.O.a.m.H.H.L.m.J.J.Z.T.J.p.-.1.;.- & 6 . ;.hXjXfX0 O < , 7 + 7 I l 4 4 b m * @ 4 n | X.S m | t.t.+.+.| n i y L | t.X.X.v b y v Z B B x x 3 : B L.$X=XOX&XP > k O O O O > l k B B v v Z d.i.u.;.u. .D z.N 0 Y.Y.&XJ.& @ # 7               ",
"          yX[.K | k.H.HXBXCXsXj.D.M.@.s.b.H.L.m.J.Z.Z.J.Z.K.A.D -.;.o.N 5 8 # & & 9XjX# > , + < : G k ; : M H b : 4 c m  .| m n | +.+.y.r.+.X.n Z X.X.O.t.X.B i B B G c B k b : 3 J [.U.sX!.*X9X2 k : O : O > l l l B x b V i.i.i.r.o.d.P z.A 0 P.Y.&XJ.# # 2 8               ",
"          0X[.C P k.J.IXVXVXiXa.D.M.@.>.f.m.M.k.t.n.m.m.J.n.d.s -.-.P P V 0 > & . &XhXfX7 O O O : V v k v G M l 8 y H v K K m K t.t.t.r.+.L | y m X.| t.K I Z c L b x v b 4 Z : 8 J 4 X ..I P.U O O O O ; : > G l G G J J x i.u.P A A & V i.J 0 Y.Y.[.K.@ @ > 8               ",
"          yX[.S J k.J.ZXBXCXuX,.D.M.>.s.h.C.m.m.l.H.J.Z.m.Z.g.i <.;.D A I 9 5 E.eX0 s SXjX1 < ; 7 G B b b B b x k b b v B m m Z | X.r.X.r.| L y u m K P J K c v H b x b k b I c V 5XH.X a.= J I O O O O O : > G 7 J J J L I . & # $ # $ # d.P s '.Y.!.E.@ # 5 8               ",
"          yX[.c L k.J.ZXjXCXlX3.M.M.@.>.1.S.D.Z.n.l.E.J.Z.C.g.} 1.b.-...I k V E.9Xo . o l.. O O < x 8 3 k k k 3 3 3 3 u v v Z v L Z Z v Z H v y u v Z c i H c B B 8 x b x b r.J Z.nXNXP pXwXQ.$ O O O O O : : l 7 V B B V J . @ O # % 1 > l.P C P.R.R.J.o 2 2 8               ",
"          yX{.c J d.H.ZXcXCX9X,.{.M.C.>.<.m.C.m.l.H.L.J.m.Z.h.<.c.c.-.} ( V A a.:.. = ZXcXnXi.+ > k 4 3 2 3 2 # @ 3 > > 8 k B v b y b b 9 G x x y c i u y N 2 c x 3 8 x 8 x r.Z b.$Xv.;.P.i.9 > O O O O O : @ k l G B B B J X . O @ > 5 9 k.U C P.&X#XJ.@ # 2 8               ",
"          qX[.Z K f.H.ZXnXCX9X,.L.M.M.+.1.].S.D.m.J.J.J.J.Z.>.} 2.<.*.-.D I V F s 0 C.nX&X( 7X9 9 b 2 > & 1 > 2 2 : 4 4 2 b k 3 4 4 8 u b b v c i c 4 y b x x x v x 9 4 : 4 M m } ,.. hXE.2 > ; , , > > , > O 7 l J Y x L I P k.i.r.P u.J ( V o.U.'.[.A.@ # # 6               ",
"          yX[.Z K i.J.AXjXSX9X,.M.M.>.#.<.C.D.M.m.J.L.J.K.S.s.` g.6.-.-.D U 5 9 V C A gXs :.iXhXk.8 : O @ = 5 O 2 , > , , 4 2 7 k 8 b x v v v v c m c v J x b B , 8 X & b y k.L.8Xj.. a.5 + , 7 7 7 + , @ < 3 l 9 G x G J J I k.l.u.i.d.A F :.A.P.'.R.K.X > & 8               ",
"          tX[.Z Z i.J.ZXjXSX9X,.M.M.s.#.1.M.D.b.b.m.K.J.m.Z.b.} 1.1.*.} I C D V V s 0 0 s s 9XrXiXu > # @ # = . 2 7 k l x H G B H G G H v B H M H H Z H L w.G k 1 F i gXBXcXeXu i.2 > @ > > + k k 7 l 7 2 7 x B k B x G H X.J k.d.r.d.d.C I 7Xh.P.Y.U.J.@ & # 6               ",
"          yX[.N B i.H.ZXjXDX*Xb.C.B.-.c.c.v.C.S.m.J.Z.m.Z.C.,.} ,.1.-.<.F s V V 9 I 9 = = o l.gX9XtXV A 0 = o $ . < x x G J J H H B B G x v v B Z v G G H I x & eXVXcXxXcXcX7Xl < O # @ > > l l , 7 8 8 8 G l V l 8 x x J I I d.f.i.d.j.s 0 = 0 &X&XR.Z.# > 2 9               ",
"          tX[.Z S r.J.SXNXZX&Xa.M.6.#.#.} O...h.l.n.l.n.D.Z.a.} ,.g.*.-.F s F A 9 N A V s 9 s U.J.U.9X8XxXnXhXjXJ + 8 3 b l 8 7 7 5 3 2 # O O O O . @ : # 4 @ X VXmXaXiXlXJ.U l , 3 < l l G G 8 : : x v x B B G G J I b J I J z.f.i.l.z.6 X . s R.&XR.J.@ # # u               ",
"          tX5XS K i.T.SXcXSX*X,.1.b.+.-.F d d O...p.a.a.n.m.>.+.<.g.-.;.C s I F :.# V V V 9 # X * 6 - C.-XmXDXFX7 # @ > : 2 : # @ + @ # O O # > # 2 & @ X 2 4 s CXhX3.Y.:.9 , : : l k 3 l l k 3 # 3 b u x B L I G w.I G J I J k.d.a.h.f.A @ 0 I Y.!.R.A.X # # u               ",
"          tX*Xn S r.T.AXkXCX&X:.b.b.M.C.<.} @.1.,.m.C.v.b.D.b.>.a.v.-.-.C F D F :.C 9 9 5 > 7 + @ & 6 i C mXDXFXX @ O > @ , > > > # O O + : @ $ . . X X X 6 s O.mXhXg 8XV , < 3 B 4 : 4 2 3 3 : 2 2 8 b b Z K r.J I Q.B I I I k.h.i.o.h.l.V I l.R.Y.Y.l.@ # # 9               ",
"          tX5XS B o.T.AXgXBX&X,.M.M.M.m.b.1.=.6.b.F.D.6.c.b.>.} ,.v.,.;.*.:.F F D :.F N V 9 9 l 2 2 i.0 } DXpXsX& # & u 6 s u u s N A D ..( i.i.h.l.S.&XtXxXnXxX*X&X&X&X2 , M w.l x 3 : l 8 j 8 8 y c 4 B H I r.G r.i.G w.I J l.d.p.;.A.l.s V l.E.E.!.l.X @ # u               ",
"          tX7XS c X.T.AXhXZX#X,.D.M.M.<.c.<.6.1.B.D.B.b.c.B.b.<.>.C.g.;.:.;.F d D ..;.;.I V 9 9 0 V P ;.i.pX'.rXCXmXmXmXxXaXxXxXmXmXmXmXmXmXmXmXhXzXbXzXaXxXtXI.U l.wXB B 7 G j b J j 3 k j k l b y b u c K J X.B P i.L I z.X.k.d.d.h.l.k.V s h.Y.P.!.l.+ O 5 9               ",
"          tX5XS m r.L.AXjXZXY.<.M.6.4.B.b.C.V.B.D.B.D.B.v.}.c.<.g.D.C.g.,.,.F d f ..:...D I s 9 % = # # & o C rXxXhXxXxXxXxXmXbXxXxXbXxXmXxXaXxXxXbXxXxXmXxX&X .> J J 3 > : j j l G l 3 k 3 k x x x x x B I J K S A w.J I w.o.l.p.l.d.l.z.A 9 j.P.P.R.l.O + & u               ",
"          tX8XZ B o.J.BXjXDX#Xc.M.6.6.6.B.b._.#X_.D.F.]._.D.b.@.,.c.C.a.,.g.-.} F ,.;.g.( ..:...0 . + O . . . X i K a.f.n.m.Z.K.U.].'.[.{.*X&X[.'.U.K.,.].s & # O O @ @ O > ; < l l l 3 3 3 l G b B B B H K J D x Z P B L X.I i.d.h.h.h.p.A 0 d.A.G.R.l.X @ 5 u               ",
"          tX5XS x r.E.VXxXCX'.<.1.7.6.6.b.b.I.Y.n.1.a.n.L.C.M.6.1.c.D.,.,.j.a.,.} ;.v.v.-.F F a.;.= + . 1 O # O X @ @ @ @ . X X X X X X X X X . X X X X @ @ O > ; 3 : O O : j j 7 b k 3 : 3 b G x G B B H J K K y c J J L r.r.u.p.f.n.h.:.A 0 j.A.J.!.z.. @ 2 9               ",
"          tX7XK c r.T.NXcXmX'.<.<.6.<.<.@.C l.I . 5 1 0 s Z.N.v.g.b.v. .D F D ....A j.p.;.;.g.A.u.:.N 4 7 > > > @ > > > O O O @ O O # @ O @ + O O O O + + O O ; : : : O : > B G 7 7 7 3 2 3 b x b B B B J K o.X.A Z t.J J X.o.r.u.s.l.s.h...& d.A.P.E.z.. @ 1 u               ",
"          yX8XS V r.T.BXjXCX].1.@.<.b.>.f.S a.l.5 Y l l 7 [.Z.B.<.1.v.} F s D V D C a.n.a.j.j.n.a.h.A # > > > > # # # O + : : > O > < > > > > > # + : < : < < O : O ; < , 7 B 2 x 8 8 2 2 k v x B B B B J J r.r.K u K X.J I X.u.O.d.h.s.c...X z.P.P.P.x.. # & 9               ",
"          tX5XK c P T.BXjXCXS.-.-.b.s.M.;.N ;.d.i.:.9 9 2 P.v.g.*.*.1.,.,.:.I :.:.U h.h.;.a.,.g.,.M.s.J 2 2 > 7 # 9 I > O < > > > , > < > > ; + : < < < < : : > O ; : , , G J 2 > & > 2 2 4 9 B x G Z J J N J o.A N I J J P r.o.p.n.v.v.v.} - h.P.E.Y.l.. # 2 N               ",
"            8XK c A T.BXxXZXF.} <.M.m.1.;.o.a.l.l.( V 9 5 d.Z.h.D.3.1.g.I.C.2.,.a.:.l.l.j.a.g.v.<.g.s.u.8 8 8 k P I z.9 > # + < > > > > O ; O ; > ; < ; ; : : O : : 7 j j B B V A J B V 6 9 v B B J J B B i Z O.X.u J J B I A P u.n.n.M.b.>.8 o.J.G.Y.l.. # 5 N               ",
"            8XZ Z K T.VXhXGXG.-.-.c.b.,.s.C i.n.a.A P 5 9 l.S.N.D.8.B.N.S.A.:.,.j.2.j.j.A.,.j.C.,.b.b.,.s F d.;.i.( x 5 9 # 1 # > > > 5 k 7 > 7 > : > 7 B 3 , j k l O @ x b A B X.o.o.o.O.x B B V J J P J u Z P K D o...A o.P O.u.h.h.h.j.P . s A.P.P.l.. # # N               ",
"            8XH Z X.T.vXhXDXF.#.b.6.b.>.:.6 p.A.d.d.h.P = A.v.A.F.D.D.S.F.G.2.g.N.j.g.G.x.*.x.N.C.G.S.v.}  .+.s J V = # 9 5 # 5 9 9 9 l 9 8 Y V V 7 B P A V V I P D P P J P o.A K p.h.p. .c P J I r.o. .;.d.-.o.O.u.u.u.r.i.O.p.a.:.>.;.u.i.A I x.E.E.x.X # # V               ",
"            8XJ K w.T.BXjXDXD.g.<.c.b.g.s.o.h.l.u.p.A.d.s K.A.N.F.'.].#X].S.N.G.S.x.C.S.S.*.A.A.!.I.S.j.A.j.C.u.o.:...;.*.P A o.;.o.I P P U I I I A I D o.:.P u.i.:.i.;.p.m.l.A ..d.S.S.h.O.A J i.;.o.o.p.l.n.g.u.p.u.d.d.d.i.a.d.a.z.i.o.i.I P A.K.P.m.X # # V               ",
"            8XZ I X.[.nXhXmX].-.g.a.h.h.a.d.I k.d.i.l.z.i.E.J.A.C.P.Y.'.#XP.J.S.K.J.S.P.P.*.J.x.Y.S.Y.A.K.n.n.n.;.p.:.u.i.i.h.i.:.;.i.p.i.i.o.:.i.:.p.;.p.l.h.h.p.d.f.k.l.m.J.u.o.a.n.n.J.h.9 A I I r.;.a.a.d.d.i.u.u.i.a.a.r.o.I I P I J J l 7 J.J.P.n.. > @ A               ",
"            8Xm w.r.R.cXxXnXI.a.o.:.I D I P P J I w.i.o.i.l.m.l.l.l.l.l.A.J.J.A.A.l.l.l.l.z.h.l.l.l.k.l.k.d.d.t.i.u.u.r.d.k.d.d.k.z.d.u.f.i.u.p.i.i.p.p.f.f.t.i.k.f.t.k.k.k.k.i.r.I I I I I l Y Y l G V P G V V V N 9 l 9 9 7 1 2 # , @ + # : # J.P.P.l.. 5 X V               ",
"            5Xc H y.T.cXhXCX..- # > 2 1 1 # > > : : 7 # 5 7 9 6 9 9 5 8 > 1 > 2 7 0 # 5 1 1 9 l 1 5 9 9 6 8 u 6 8 8 9 9 8 u 9 N 9 k x V x x x x c B v G B B B B B B G L M v v B x Y V k 7 7 < , ; O @ # + > # # > > > 1 > > > O @ > # O O @ @ # A.P.P.l.. # O V               ",
"            [.i r.k.J.cXgXVX+.# X > > 2 5 > # > : O > o # # # # 5 # @ O + > > 1 1 1 # 5 # 1 1 0 5 7 V 7 6 8 0 5 9 9 6 5 7 9 7 9 9 9 9 0 l 9 0 8 8 7 7 3 3 3 > 5 > , > > 2 2 , 4 > + O # < ; < ; ; O . + + . O . . + $ + O O O $ + + + O O + $ > A.E.P.l.X 5 . V               ",
"            [.4 b X.H.nXxXcXA.2 # 5 5 5 5 = # # 3 X & * & - 5 6 5 5 5 8 # # 5 2 5 5 # o o 5 = 1 1 1 9 $ = = = o o & 5 9 5 5 5 5 1 0 7 0 5 5 1 # # 1 > 5 > 5 & = & = & 6 9 8 0 N V 7 & Y 5 1 Y , > 7 7 l P P I I P I V P P ( r.J I J J Y P i.V V E.P.U.n.. # . A               ",
"            [.4 8 b f.vXjXhXA.P u.:.w.:.u.a.l.A.m.L.[.Z.S.L.v.;.l.m.m.l.m.J.f.h.S.j.I a.h.;.:.:.:.z.:.F U U 0 s s u i i u = - 6 9 u s 9 9 s u s V C F P ..D ;.C ..>.-.v.,.:.;.;.:.F -.;.:.a.u.J B ( V D ;.j.j.h.C.j.j.,.,.j.A.h.a.l.h.;.I Q.9 D x.E.A.z.. # @ V               ",
"            [.4 2 4 k.BXhXiXn.P I I i.;.;.u.a.m.L.].I.'.Z.].m.{ p.l.l.m.l.M.s.b.n.C.j.C.Z.D.S.Y.J.P.j.U.j.-.,.-.p.n.m.s... .;.i.;.P D I u.i.o.o.:.:...F F } #.-.,.1.-.1.3.*.-.3.-.-.<.3.2.g.( P V :.V I :.D ,.g.g.1.g.-.2.1.j.1.j.j.j.C V F = V P.R.P.Z.X > X V               ",
"            [.y k H k.VXiXfXJ.I P P r... .O.p.Z.L.S.Z.m.m.I.s.s K  .A P O.>.d i d d t { } @.@.@.,.v.b.Z.;.0 D F - * - - - 6 i * 4 * X @ # & # # 6 s 5 i F <.<.@.1.2.3.<.f *.} *.:.2.,.-.1.-.F F N o.C D F -.,.,.<.:.;.f :.g.g.,.1.j.j.N U D # F Y.Y.Y.A.. # . V               ",
"            [.8 b H l.nXgXgXU.A A P ..I +.>.;.h.S.L.'.{.D.m.s.N u u i S ..>.+.@.@.,.#.1.M.B.<.>.<.b._.S a.C S i - i i S m s C u u u x u u 6 0 0 5 - u u -.-.<.=.<.2.,.3.*.*.*.3.j.c.1.2.1.-.*.:.s o.A F P D a.j.;.:.-.:.:.j.a.a.g.g.:.N P I = I P.Y.R.l.. > @ V               ",
"            [.y 8 H l.cXhXgXY.A J A Z K  . .O.O.>.>.>.O.p.h.s.D O.O.O.o.p.a.s.1.<.1.1.M.B.D.D.#.B.B.N.b.b.C p m.s O.h.n.n.n.n.n.P.J.E.K.P.E.P.J.j.C 9 s d } >.<.3.2.3.3.} f *.3.j.j.j.2.g.2.,.;.A o.P s P I :.a.,.:.D D i.j.a.:.g.g.:.s J I = o.U.P.Y.l.. # X V               ",
"            5X8 3 H f.BXhXgXR.U P  .D +.O.+...+.+...+.>.p.p.t... .o.K D O.>.>.s.>.>.@.b.b.M.F.<._.3.D._.Z.C wXHXJXJXKXKXLXKXKXLXKXKXKXKXLXKXKXKXKXPXiXN F ,.#.-.-.D -.,.F F F F I h.,.<.,.;.:.:.F P o.N P P i.h.i.j.a.( ;.j.j.:.C.N.:.P ( i.u :.U.P.R.n.. @ X V               ",
"            [.b b G t.NXhXgXY.A K K K  .O.+.+. .p.O.p.s.s.p.f.p.+. .S  .+.p.p.s.-.} } >.M.,.].m.S @.'.m.rX& f.JXLXKXJXKXGXHXJXGXJXJXKXJXKXKXKXJXJXKXHXx d } ' ` t C s 6 # s o s V A P :.:.-.:.:.A D P A P P A d.;.P P u I i.u...v.v.P :.i.:.N :.Y.Y.Y.x.O # . V               ",
"            [.b 3 J m.cXhXgXE.P P +.O.O.;.O.>.>.p.s.p.p.s.p.s.@.o.O.s.p.>.s.,.s.>...} s.L.m.].S D U.K.+.8X2 { JXJXJXJXHXKXKXJXJXGXJXJXJXGXJXKXJXPXPXJXE.A.DXmXrX0 0 N N 0 0 5 s ..I s D F I P D F V ..V A :.s :.I I :.I I i.;...j.h...:.u.z.V ;.P.E.!.W.. @ . A               ",
"            [.y B r.H.vXhXxX7XU O.X.o.;.;.p.p.p.s.s.f.f.s.M.f.@.p.+.>.t.f.s.s.s.g.F -.f.H.J.R.J tXJX[.y H.yX8XKXZXHXFXHXIXHXHXHXHXJXJXPXJXKXJXKXLXLXLXIXLXKXKXKXrXN { i - = s f <.} 0 o.I I ( I I V ;.V s :.C i.i.:.u.D P :.u.;.p.,.a.i.j.a.P i.E.P.E.A.+ # @ V               ",
"            T.y J J k.NXhXhX&XA r.+.{ O.;.;.>.>.p.s.s.h.s.f.h.f.k.f.f.h.s.s.>.s.g.s ..d.A r.E.J.LXkXZ X dXvXHXJXd.5XHXLXLXLXPXHXHXIXSXSXZXAXBXjXkXfXT.y.JXLXJXJXtXv.}.].N.-.F F.].<.f C i.:.u.:.i.V i.V 0 :.C ..:.d.l.p.D l.h.j.a.a.a.a.a.d...;.P.P.R.x.. > X V               ",
"            [.y l x f.NXgXfXP.P +.K C  .>.>.p.p.p.s.s.f.s.s.f.f.h.t.t.s.s.s.>.s.s.F z.R.V dXi.T.cXxX7X& VXSXJXLX7XO O O . O . O . . . . . . . O O O ; . BXSXnXnXF.*.7.}.@.a *.F.OXG.3.F *.:.I :.;.C ;.C i :.P >.;.a.a.j.;.h.h.v.j.C.n.j.j.a.:.i.P.P.P.A.. # & N               ",
"            [.y b G l.cXgXgX7XP  .| } O.O.;.>.>.s.s.s.s.h.s.s.f.h.s.s.t.s.s.p.s.a.V 0 1 < ZXjXt.JXSXPXgXJXDXJXLXHX< , : ; ; : ; ; ; < ; ; < : : ; ; @ . yXLXSXJXGXmXvXvXyX- - N.G.j.-.*.*.I *.+.I N I C C -.} :.;.j.n.j.g.h.a.j.v.C.C.h.a.a.-.:.J.P.P.A.. # # x               ",
"            [.y M H k.cXiXjX&XI  . .{ ..:.>.>.>.>.p.f.s.s.s.s.h.s.t.>.f.>.b.>.M.v.P V < . IX0Xo SXLXKXnXPXSXSXPXAX; < ; ; ; ; ; < ; ; ; < ; ; ; ; ; ; O B PXLXJXSXgXvXAXvXrX` t C  .C C { C  .S A D P -.:.,.;.;.,.;.,.;.a.,.,.;.1.v.C.v.g.g.,.-.P.P.E.A.. X @ u               ",
"            [.y B J W.vXfXnX&XC K  . ...O.;.p.@.s.s.s.s.M.s.s.s.t.s.@.s.>.s.>.s.U.U.E.eX; PXJXh.CXHXFX0XPXZXVX7X; ; ; < < < < < ; ; < ; < ; ; ; ; ; O O . . # . 4 4 gXSXVXrXxXc t S t 4 * K  . .D :.F a.;.a.,.v.g.,.j.a.a.j.,.2.,.g.c.g.g.a.;.:.P.P.P.J.. O # u               ",
"            [.y B H l.cXgXjXR.D f.@. .O.O.;.s.p.s.s.f.M.f.s.f.s.>.>.@.p.} >.@.C.A.pXw.i.r.IXZXY.NXAXSXk.AXM O O ; ; ; ; < ; ; ; < < < < < < < ; ; ; : O + + + ; X . @ cX8XnXrX{.t & * 4 6 J.f.p...v.D a.,.j.g.v.g.g.g.,.,.g.a.g.,.c.b.a.,.a.,.( P.E.P.A.. o @ u               ",
"            [.6 B H k.cXfXhXU.A D |  ...O.p.s.s.s.h.s.M.f.s.s.s.>.@.@.<.#.+.#._.s :.. l fXBXVXgXVXdXyXj 4 ; O O ; ; < ; < < < < < < ; ; ; < < < < ; : O + ; < ; O @ : kXfXFX9X8X{.C u 6 Z o.L.:.D a.C g.a.g.,.g.b.a.,.,.,.,.,.a.a.g.j.,.:.,.:.:.P.P.P.A.. # @ u               ",
"            5X4 v H l.cXtXhXL.V S K }  .O.p.f.p.s.s.s.s.s.s.s.>.s.@.>.>.@.s.}.&X0 X # i.IXvXAXcXdXj , ; ; ; < ; ; < < < < < < < < < < < < < < < ; ; < ; ; ; ; ; : : h 0XfXhX9X=X$XD.d * C V I o.I ;.F ,.a.g.g.g.g.g.,.a.,.,.a.2.g.a.,.,.,.,.a.( G.P.P.A.. . # 9               ",
"            5Xy v J k.cXfXcXR.F A +.C +.O.p.f.@.t.s.s.<.s.s.s.s.s.s.<.>.,.1.M.Z.- @ i.UXIXkXkX5Xw.; ; ; ; ; < ; < < < < < ; < < ; h h ; < ; h < < ; < ; ; ; ; ; O < < 3 NXJXDXDXMXzXaX{.u 9 V u N D D a.a.a.a.g.j.g.a.,.,.,.j.g.j.g.g.a.g.a.a.:.P.P.E.A.. o o u               ",
"            [.y m J H.cXfXgXP.S K +.{ ;.>.p.s.>.s.s.s.s.s.s.s.s.s.s.M.b.6.h.d.p.t.5XBXNXIXNXdX: ; ; ; ; ; ; < ; < < < ; < < < < < < h < < h h ; < < < < ; < ; ; < ; j : . 6 D.F.$X$XF.OXg.= 5 = V V ..a.j.g.g.j.a.g.j.s.a.a.j.j.j.j.j.a.d.g.p.( E.!.!.A.. @ o 9               ",
"            5Xy b H H.kXfXhXJ.A { +. .>.>.p.t.t.s.s.s.s.s.s.<.s.<.@.-.} b.g.p.o.VXjXZXjXAXAXz.: O ; ; ; ; ; ; < < < < < < < < ; < < ; < < ; < < < ; ; ; < ; ; ; O : O O ; @ X rXmXMXsX$XY.D 6 5 s V s i.a.i.p.a.f.h.h.j.a.a.d.d.j.j.a.,.:.j.a.U G.P.E.A.. # X u               ",
"            7Xy v L J.kXfXhXK.A +.+.+.O.p.;.p.p.s.s.s.s.M.s.s.s.M.b.6.>.N.*Xj.9XnXBXCXnXNXNX: O ; ; ; < < ; ; < ; < < < < < < < < < < < < < < < ; < < ; ; < ; ; ; ; ; ; < ; X f.pXmXvXsX*XP.I # 9 > 6 6 A o.;.z.;.a.a.a.z.p.a.a.a.a.p.d.a.a.a.P P.P.P.J.$ $ X 9               ",
"            5Xb H L H.jXdXjXK.C K @.S >.>.p.>.t.>.s.s.s.s.s.>.M.M.<.>.C.( CXF GXnXmXnXnXdXO @ : ; < < < ; ; < ; < < < < < < < ; ; < < < < ; < ; ; ; ; ; ; < < < < < ; : < : : # xXnXvXCXiX8XJ.O 9 9 > # & u P :.h.d.a.a.j.a.a.p.a.i.p.h.a.z.d.D P.G.P.J.X # @ u               ",
"            5Xi v L H.gXfXgXL.S K +. .@.>.t.p.p.p.s.s.s.>.s.s.s.f. .i Z 9 iX( CXmXmXxXhXr.. O ; ; < ; ; ; ; ; ; < < ; < < < < < ; ; ; ; ; < ; ; ; ; ; < < < < < < ; < < < < < ; # V - - N 9 9 9 I G > O . # 5 9 A o.u.o.u.;.u.u.u.;.u.a.a.p.p.P J.P.U.A.X # X u               ",
"            [.c H L L.cXfXhXZ.S C  .} O.;.>.>.t.@.>.s.s.s.<.s.@.h.- & 6 7 j.pXzXnXxXgXtXK O : : ; ; ; ; ; ; ; ; < < < ; ; ; < ; ; < ; ; < ; < ; ; ; ; ; ; < ; < ; ; < ; < < < j : 7 # J V U I P J l 3 @ O # > s U ;.;.....o.o...P o.;.o.u.p.p.F P.P.Y.A.X . X 9               ",
"            5Xm L r.J.kXiXcXm.D S @.O.:.p.p.s.s.s.s.s.s.s.s.1.b.s.+.V V 9 iXCXnXnXkXgX@ : O O < ; ; ; ; ; ; ; ; ; ; ; ; ; ; ; ; ; ; ; ; ; : ; : < ; ; ; ; < < : : < ; < ; < < < ; : > - ;.3.:.= B 3 : : : + > 4 A l.u.d.i.u.o.O.+.:.X.r.t.p.O.C P.P.Y.E.X @ # 9               ",
"            5XZ X.w.J.kXtXcXK.} @.<.>.>.p.,.,.a.s.f.M.f.s.s.>.s.b.>.U ( Y ZXCXhXBX0X4Xl O ; O ; ; ; ; ; ; ; ; ; ; ; ; ; ; ; ; ; O ; ; ; ; ; O O O : < O ; ; ; ; < < < < ; < < < < < : D GXGXGXA.B G 2 O + > > # l.o.P  .r.u.u.u.F P t.r.O.;.@.S K.P.P.P.o # o u               ",
"            [.m L r.L.gXfXxXL.+.@.<.>.>.>.>.s.>.h.s.s.s.s.s.>.>.s.} r s z.ZXmXiXNX, > O O ; ; O ; ; ; ; O ; ; ; ; ; ; : ; ; O O ; O @ : : > H v b 4 > O : < < < ; : < ; < < < < : : @ X bXMXbX} P k.k.: O > + + 5 l.l.i.d.a.p.u.x P  .t.p.p.O.F S.P.Y.E.o $ # i               ",
"            [.B K | T.fXfXcXU.+.<.D.} -.>.s.,.s.<.t.s.s.s.s.>.>.} C t 0 9XZXgXgXwX. @ ; ; ; ; ; O O ; ; ; ; ; ; ; ; ; ; O O : @ : 3 2 @ 4 @ 4 m m @ : > O ; < : ; ; ; : < < < : < : O X =.GXDXo I R.i.2 > + O : . k.m.f.l.h.a.f.u c L p.k.i.O...S.P.Y.P.o X # u               ",
"          dX[.v L y.T.gXgXxXU.+.<.M.#.} >.p.s.s.s.>.s.s.s.s.<.>.*.h.:.J.vXHXH.SXl.O . : + ; < ; ; O ; O ; ; O ; ; O O ; , : 4 @ 4 m 8 y 8 4 4 m m y 4 4 4 : < , < 3 , ; ; : : : : : : : t xXGX&Xu.R.T.X O O O O O x d.p.h.h.f.p.4 B c N A P ( :.J.P.P.P.. # X 9               ",
"          yX[.v r.r.T.gXgXcXZ.S <.M.} -.p.,.,.a.h.s.s.f.s.s.M.s.} D F iXVXJXt.PXJ O O : ; ; ; ; ; ; < ; : : : < O ; 3 3 2 : 8 : 4 y y b y y y y 4 4 4 4 : ; : 4 : 3 : : : < : : : < < : @ X * O.m.R.R.@ # > > > @ 7 d.i.h.h.h.d.u u 6 i F :.z.( A.Y.P.K.X # # u               ",
"          dX[.m r.w.T.gXgXcXm.O.M.v.>.,.p.s.,.s.f.s.>.s.>.>.s.a.F s u NXVXSXM y.O O O ; ; ; ; + O ; O O , < < : O O , O j 4 4 4 j b y y y y y 4 y y 4 4 4 y b y 3 4 : 4 : : : : : < < : @ 4 X vXm.U.5XX . + O ; j B d.a.g.a.a.d.s U ( U ,.3.x.z.S.I.Y.P.X # @ 9               ",
"        0X0X[.b L K R.iXgXcXZ.D p.>...;.>.a.s.s.s.<.>.>.s.>.,.<.D s 4 AXAXSX: , O ; ; O ; O ; ; ; ; ; ; O O ; O O : : O : : 4 4 y j y y 4 y y m y y m y j y 4 4 4 2 : 2 : @ : : : < : : : 4 @ vXM.L.8XX O > + : , l l.;.a.h.l.a.a.2.2.x.x.2.j.3.G.U.'.P.X & o u               ",
"        tX0X[.y Z L L.fXhXxXH.S +.} -.-.p.s.,.a.<.s.} +.} +.} D N 9 6 AXBXZX: ; : ; ; O ; ; + ; ; O O < O ; ; 3 : : 4 : 4 4 4 * y y n y y y ] ] y y n y y y y y b m 4 4 : : : : : : : < : j 4 0XH.L.eXX O @ ; + : 7 r.i.h.n.x.j.a.2.2.q.q.) 8.) P.Y.#XP.. @ # u               ",
"        qXyX[.y Z L L.fXgXhXZ.C S <.#.-.-.s.s.6.1.s.<.@.} C { F A N x IXBXAX: ; < ; ; ; + ; < ; : < G ; ; 3 O 4 : 4 b y y m m m ] ] m ] ] y ] [ n M y M y y n y y y 4 y 4 : : : : ; < : : j > J.L.L.5X@ @ O + > @ , k i.l.n.j.j.x.3.( x.q.q.x.2.F.I.R.U.X @ @ x               ",
"        0X0X[.y H L T.tXgXcXJ.C +.M.<.} <.,.1.s.s.>.>.h.>.O.S  .P 9 y IXnXBX: ; < ; ; ; + ; + ; ; < 7 , : , O : @ 4 b b y M n n ] ] p ] ] ] ] ] [ n m y 4 y y y y m y y b 4 : O : : : < < z O k.R.T.5X@ O O + O ; > : I l.l.z.:.z.U 3.3.x.) G.8.S.I.!.Y.. @ X N               ",
"        0XdX5X4 H K L.tXgXhXJ.d @.D.<.#.>.s.,.,.@.O. .M.p.O.+. .P x m HXBXBX; : < ; : O ; ; < ; ; ; < O : 3 O : 4 y m M n n [ n ] ] ] ] ] ] [ #.[ [ [ [ y y m y 4 M j y 4 4 : : : : < < ; l . k.[.[.8XO @ + > + O @ 2 r.i.d.u...u.( 2.3.3.( U j.S.Y.[.Y.X o @ V               ",
"        qXyX[.y B L T.tXtXkXL.s @.L.@.g @.Z.h.s.>.K i | o. .+. .D 9 v IXBXBX: < < ; + ; ; + ; + ; O ; O ; 3 3 @ M m M n n n ] ] ] ] [ [ $.[ [ [ [ $.[ t.[ [ t.] 4 y 4 4 m y : : : 3 j k < M O p.[.[.5X@ @ O + + O : x r.r.I X.X.X.p.O.j.F - 0 i.P.S.[.P.X @ + J               ",
"        yXtX5Xy G L R.tXgXxX].s @.D.>.} F g.M.>.+.A t >.O. .P P D 9 m SXBXBX: < ; ; < ; ; ; ; + ; ; ; ; 3 b j j y b n L m n n n ] ] ] [ [ [ [ #.[ t.[ [ [ [ [ t.n y y y 8 4 4 : O : j z < z . i.5X[.5X@ @ O > O > 3 7 w.r.t.t.t.O.O.;.n.j.U s l.S.S.Y.K.X @ . P               ",
"        0XqX5Xy Z X.[.tXgXhXT.i | M.` -...s.M.>.D C c O.O.+. .S J 9 c HXBXBX, ; ; < ; ; + ; ; ; O : ; : : b j b b M n n n n ] ] [ [ [ [ [ [ [ [ [ [ $.[ t.[ #.t.t.t.[ y y : @ @ ; : : < j j . f.[.[.[.O O + + : : 3 2 J | y.t.y.t.t.f.m.j.A N g.F.S.'.K.X X . I               ",
"tX      0X0X5Xy Z w.R.tXiXhXJ.p #.{.D.=.a M.<.#.#.d C } } +.;.D D 9 B IXBXBX: ; ; ; ; ; < < + < : ; : : : 3 y b m n n n n [ [ ] [ [ @.| [ t.[ [ [ [ t.[ [ #.#.t.t.] t.y i i 4 : O : < , j 3 O k.[.T.R.O @ @ + + O > 7 L y.t.y.t.t.O.t.Z.z.U s a.S.S.U.K.o . . I               ",
"qX      0XyX[.b J I R.iXgXhXP.d b.:X7.' 4.}.7.M.<.@.#.} @.} >.F ..b b SXVXBX3 ; ; < ; ; O ; O ; O : : : : 4 M M n n n n [ [ [ [ [ [ [ [ [ [ [ [ [ [ #.[ | [ t.t.f.| | c m x y 2 , : < : , , O l.5XT.T.X @ + + + > > 3 L y.t.t.y.t.t.r.m.j.A s h.A.S.Y.K.@ X X r.              ",
"wX      0X0X[.b J w.R.fXiXfX9X*.{.+X4.#.M.7.4.7.7.6.#.<.=...O.D P u y SXBXBX8 O ; ; ; ; ; ; ; ; O ; : k 4 j M n M M n n [ [ [ ] ] #.[ #.[ #.[ [ [ [ [ [ { | M.t.t.t.| m b y 4 b l , , > > < . H.[.[.R.. @ O > O + , 2 L X.t.y.+.y.t.i.A.z.V u h.A.K.Y.A.o . X u.              ",
"tX      0X0X[.c J I &XlXiXiX9Xj.}.}.6.4.4.#.7.@.<.4.<.#.#.} S S J u i SXnXBXx : < < ; ; ; ; O ; : : : 4 4 y M n n n n n [ [ [ ] [ [ [ [ #.[ [ [ [ [ [ [ m { H.t.t.t.X.v m v y B B , > > # > . L.[.T.T.X : + + + > < 2 G r.t.t.| y.t.a.l.h.U s z.A.J.Y.A.X . X i.              ",
"qX      0X0X[.c J I 7XlXiXhX9X:.b.@.@.{ { | #.t.1.<.@.#.{ } S J A u i SXNXCXG , ; < ; ; ; O ; O : : : : 4 j y M n n n n [ [ [ ] [ [ [ [ [ [ [ [ ] [ [ #.] ] t.t.| t.| m v v v v G 7 > > > > X R.T.L.L.. O + < + < > : G | r.y.| X.X.i.h.z.V s d.n.S.U.A.X X @ d.              ",
"qXqXqXqX0XdX[.b J I [.qXiXpX7XF F { S C S { O.@.#.#.#.} { { K  .Z x i VXvXDXH , < , : < : ; @ : : : 2 4 4 4 y m n n n | n | ] ] m ] [ [ | [ ] ] n | X.X. .m r.t.| t.| m v n B H G 7 7 > 5 # . [.T.].L.X O O ; ; + , < G r.r.+.| y.X.f.n.h.F s j.S.S.Y.A.. X . d.              ",
"qXqXwXyX0XqX[.b I I 7XtXiXiX&XA D K K D  .+.s.s.M.,.-.{  .{ |  .B x 6 dXNXSXG 3 < h ; ; ; ; : : : k 4 v b y y m n m m m n n n ] m p ] | [ | n [ y n { J Z m | | | | | H v v m H G 3 7 O # @ . R.L.T.m.. : : ; + ; > @ B r.r.y.| | | a.h.h.( 9 l.A.A.Y.A.o O . l.              ",
"qXqXqX0X0XyX[.y J J 7X9XfXiX7XF  .{ A C d >.9.#.d d } D S K K K H B b b t.5XG j ; M ; ; < < : 4 @ y 4 b y b m m m m m m m n n m ] p m ] ] { [ ] [ n X.n m m | | n y.| m v m M Z B 5 7 # # > @ [.{.{.m.O + + + < < > : G r.| r.| +.X.f.j.a.F s h.J.Z.Y.l.X @ X l.              ",
"qXqXqXqX0X0XT.y A P 7XtXiXiX&XD | S S K S c.7.9.<.=.,.@.i i v v v v 8 8 4 k z M M k.; O , < : 4 4 b k y M m n n n m b n ] [ [ [ ] ] m ] | { ] | { | | [ m y m | | H m b m H b H B & u G . @ @ [.{.T.k.. : < < + > 7 > J y.r.y.| | +.h.f.i.V s l.A.A.P.A.X @ . l.              ",
"qXqX0XqXqXqXT.y x A 7XwXrXiX&XC {  .+.+.<.7.7.0.7.7.7.,.m N v | L r.k 9 9 l l z k.y.@ : : < : , : 8 j 4 y y m m n | ] n n m { ] ] ] ] ] ] ] { ] [ n { | n m | t.| | M m b n J m B 6 P 0 # & 5 [.m.k.K O ; ; ; + : : 2 v r.L | X.[ | s.M.p.N s d.l.A.S.A.. . . J.              ",
"qXqXqXqX0XyXT.8 V A 7X9XtXiX&XC  .|  . .} =.4.7.7.4.<.=.S Z v X.m.X.O > 1 % l i.dXcXi . : , < 4 : 3 4 4 b y y n ] ] m n m m [ [ m n ] ] ] { ] | | { L n K | | r.t.y.L m v K L Z Z u i 6 9XA 7 5XW.y.L : + > + : O 3 O v w.r.L | n y.f.f.d.A V a.A.G.P.A.o # O E.              ",
"9XwXqXqX0X0XT.6 x P 8X9XiXiX*XS +. .+.} } <.4.7.5.%.` } s m y X.S.n.# + 7 , < A xXCXxX* # > : : 4 : 4 4 4 4 y y ] m y y m m [ ] p y ] ] [ ] ] ] m m m | n ] S | | r.H m M | K X.v u * =XCXx.N H.M 3 < 1 : + O : 3 k : M X.| X.r.| X.t.k.d.P U i.l.A.P.A.@ # O E.              ",
"qX0XqXtX8X0XL.4 x P 7X9XwXuX&XC #.+.#. .} 1.7.7.4.=.=.#.i N c p.].v.P Y 1 < ; V vXDXnX+.@ # : 4 j , : : 4 y y y y y y m m ] [ ] ] m y ] ] [ m m m n n | f.| k.+.[ y.L v v L H X.c 4 s aXmX_.S 9 : ; + O O O @ @ 4 4 3 L r.w.L X.| y.t.k.d.P V z.x.A.K.A.X # X J.              ",
"qXqXqXqXqX0XT.: i P &X9XiXiX&XF +.} #...@.<.7.5.4.#.=.} c C i | <.N.b.d.s + , E.JXDXVXtX@ 4 j y j j 3 : 2 8 y m m y y m n [ n n ] ] ] [ [ ] m ] ] n m n m y { +.n | H b M H m J v @ X D.mXpXy @ O < + > , @ @ @ : 2 : 2 8 9 9 V 8 y G I X.I V d.A.A.P.x.% # X                 ",
"wXeXwX9XqXqXT.* b K 7XqXiXiX[.d { { { @.+.<.4.4.%.%.` } s m u { { { d d C 5 : dXvXyX8XcX2 j j z h j h : : 4 b m b y y n n ] ] [ ] ] ] [ [ ] ] [ m n | +.| y m | y.| y.m H M i Z c . X yX_.:Xs X : O O O O 2 @ @ . : @ , > 1 # 5 7 3 3 1 x V s z.l.A.J.x.1 O X                 ",
"wXqXqXqX0XyXT.* u P 7X8XtXrX].d { ` #.} } 4.5.4.4.` =.` d m m } p ` ` >.Z.;.2 : * @ . . 4 h j z h j 7 < , : k m b m m n n m m ] ] ] [ [ [ [ [ [ ] n m | | y m +.| r.r.M L M y Z c O # JXs.v.pX@ O r.> < : : 4 z 3 : 8 B 7 # + B I < ; 9 r.J s h.A.A.J.z.= 5 &                 ",
"eXqXqXqX0X0XL.* 8 P 7X9XiXtX{.S S { { } } <.4.4.#.=.#.} N N N | S #.#.s.f.c 8 2 3 : . X : j M z j 7 , , 3 4 : m [ L n y ] n m ] ] ] [ [ [ [ [ [ ] { { { S n S | n y.n v y M m J J X : tXR.U.tXZ . > 7 7 < : M M k M w.I B 5 @ B y.M V w.Q.I V j.A.A.A.l.# & o i               ",
"qXqXqXqXqXqXT.* 6 ..7X9XiXtX'.S { { ` ` } 4.4.4.%.=.}  .A V Z O.+.-.<.>.c 2 X : y.0XfXgXyXy y j , j 3 : @ : : 4 H m 4 y m n m ] ] ] ] ] ] [ [ [ L ] { | m i ] @.m S m Z c Z K p.A s @.J.k.cXE.> O : > b , 3 G M b b G L x 3 : r.p.v B i.z.P N ;.C.G.C.d.# & * * p p * * .     ",
"qXqXyXqXqX0XH.* 0 I 8XtXiXuX[.` { { { { ` =.4.4.=.#.<.} Z N Z u.;.} } :.J @ X X 8 8 yXxXgX{.* 4 . > @ : : : : 2 4 y 4 y m n n [ m ] [ ] [ [ [ | [ n m ] n m +.X.m y.m v b & X m f ,.{.{.o G < ; O : , k b 3 b b b G J w.v 2 : z.y.c v r.r.P V d.A.Z.K.l.# 5 t } ] ] p m *     ",
"qXqXqXqXqX0XL.* 6 :.7X9XtXpX'.d { { { ` } #.4.4.#.4.#.} Z B K d.s.S } } o., @ O > O # :.pXrX{ M.i 4 O : : : 2 2 b m : * y n n [ [ [ [ [ m n m n m n m L t.y n | H w.H b 3 2 * <.`.{.:X{.4 O O O ; : : 7 b < @ : j k M L M , 3 y.r.y b Z I I U l.J.P.K.n.4 i i 7.4.}.}.:XY.t   ",
"qXqXqXqXtX0XL.@ - r.7X9XtXpX{.S { #.{ } ` #.4.4.%.#.-.} s V K f.s.C }  .r.x > # > O > X d {.D.yXvXH.: < , , , , G w.4 X : m n M m m n [ n n m n | n n n L i b H G w.k c u i * }.2XbX{.}.: ; O O : ; O j l : : 4 3 k 3 w.J b b y.I 4 8 N K I A l.L.P.U.m.* y p t.#.#.' f <.u   ",
"wX      yX0XH.@ & u.8X9XiXfX].d { { { { d =.=.4.#.=.=.} Z c A M.M.d { #.u.x : O + > 1 + # A NXdX6XyX1 e.h h ; < H k.b @ X c | L m M m J H L n m H K L J L K K L G L 4 K $X{.}.a `.>X].u @ O < : < : , j < 4 j y l b x w.L 3 k H 8 i i y N C N h.J.K.S.h.# * p }.}.}.p X X X   ",
"qX      qXyXL.* & z.8X8XyXpXS.d { ` #.} { =.=.4.4.=.=.} s Z S d.1.d @.+.r.B : O , 7 1 + % l BXyXk.4Xl w.eXG O O 3 L u # @ 2 & 4 m M K J Z J Z Z B c i c x 8 8 > , w.6 {.`.`.}.&.5.$.X . O : , 3 3 7 j 3 : h y j k b H y.k.X.X.u.Z Z N A  .D S s.Z.K.P.l.= c s.5X}.}.$.m 6 X   ",
"        qXtXH.* & h.8X9XiXpX].d d { { { } <.#.=.%.=.=.} Z N S s.#.#.+.@.o.B < : z z.z.Y h < k.w.| H., R.BXE.O ; O 8 # @ X X O X & @ @ # @ # . . @ @ # 5 @ . 1 O > x > U.}.`.`.}._.6.8 ; : z : k 7 l k j 4 h k k 3 b v i.k...+.b.d.p.O.p.>.+.S b.S.P.P.l.X c #.D.#.#.s s & 0   ",
"          yXm.@ * l.8X9XtXpXC.{ m { d } *.} #.=.#.%.} } s N Z S #.@.@.O.u.J : j L J.l.z.z.< G h < M ; m.9Xi.T.h : L J 8 2 & X . . O X O . O . O + # X $ o # o X # o s C {.>X`.`.{.k.5 i.j w.: j b k j j 4 j j j l M H i.h.+.,.m.M.m.b.s.>.} F v.S.P.U.m.X X X * * * * i - s   ",
"          qXm.* & m.8X9XpXtX..u d S F d } +.} #.#.} } ..u N s S s.M.M.;.i.J O b i.l.v.d.h.B y.< ; z y.HX7X7XwXT.@ v k.2 * X . . @ # $ . # O + + o . o $ o X X X t s &Xg.N.K.s s = O ; ; < , : 4 l k l b z b l b k v v p.h.O.b.Z.M.k.M.k.f.X.C f.Z.K.K.k.@ @ & i ] ] m { s S   ",
"            p.@ 2 m.eX9XtX8XD C D { C C A  .} @.` } ..D x N u } <.m.b.a.d.I 3 I d.k.>...O.N v < j W.0X0X7XqX0XqXt.v c i - * X X X o o o o - 0 s i i s ,.D.*X:XuXrX:XF.3.s 6 @ : ; , , , , < , : j l M z M l b k j M H k.p.K  .p. .t.K L K Z u ;.n.C.A.a.. # 6 @.#.[ ] { i K   ",
"            i.X # i.8XqXtX&X- i u A D C S  .} S p d D S N S d <.`.>X_.S.S.P.P H.l.a. ...S J H z z dXUXUXfXdXkXdXdXT.{.D.D.N.b.C.F.#X=XrX:X=X=X=X:X%X>X$X$X>X+X>X>X>XD.d f.@ . O l , < : : : h j l b l G M b b k 3 M H L J : X 6 u y 4 2 4 7 9 a.A.S.K.d.@ 8 | f.#.t.{ +.t K   ",
"             .X 4 J 7X8XwX8XP u  .O.O.-.D :.p.} s.>.+.D u u i 6.9.,X_.V.F.S.c c J |  .{ u X.b j j 4 j k 6 8 y b 3 @ D.pXrX>X=X=X=X:X:X:X:X>X$X{.{.$X$X+X>X$X$X@X+X>X1.S [.L O O : ; : : O : 4 j j z b z z b y y k v H x p.u J f.f.m.r.r.r.J G l.E.P.P.l.. u t.M.#.#.#.+.p C   ",
"            L O X # 7XeX9X8Xu.C ..@.-.<.F ,.M.b...@.F C N i i N.`.>X`.B.B.M.Z i * d F m S f.H O < ; O O @ # @ + O . 6 9XiXrX=XrXrXsXsXrXsXrXsX,XrX:XrXrXsXrX:X*X}.]...;.k.H O O ; < > > : : 3 z M M M z M y j 4 j m M K r.i +.M.M.M.p.t.p.K B M.K.U.P.d.$ 0 t.L.#.@.#.@.p {   ",
"            K X X 4 [.8XqX8Xp.C -.s.g.1.#.b.D.C.d d C Z u s d b._._.}.}.4.7.a y X * d s O.p.w., O : # . + . O O + > 7 Z.a.-.#...} @.#.#.} F S m p i p * o * * * 2 & = 8 v 4 ; < , h < , : ; l l M M M M M b y b M M v  .d.} b.Z.M.D.f.t.r.J Z h.J.U.R.m.# l n ].@.s.#.#.a {   ",
"            K . . 6 7X8X9X7XC S ..h.,.} -.g.b.4.d d d u u u c #.b.6.7.D.M.7.{ c i @.<.d @...x . . . > , > > > > > 1 1 @ + + X X X X @ X X @ X . @ X * @ # + + + ; O > O O O : 7 O 7 l , h k z M M M M M M M M M b M Z X.v.@.C.B.}.Z.h.f.O.K s d.K.U.U.h.@ 8 L m.>.>.>.d s {   ",
"            A X . u 7X8X8X&Xd N D s.,.} ..-.b.<.} a d u 9 x i s d p m #.4.<.d i s } b.` ,.D D u 8 4 # & # & # # 5 1 3 , : : ; @ ; < , , : , > < 3 , 3 , , 7 > < l j O < > > O 2 O < < , b z L G M G G M M b m H G H v X.m.>.D.F.D.m.b.p. .A A n.U.'.R.l.# k 6 i i i d t p S   ",
"            P . X v 0XqX9X8X{ C  .p.p.A O.,.<.<.*.F F u N 9 8 N { } u * -.C s N m S @.d } -.F C I S C d i m F P I P B > ; < h h < < h h h h h j j h h < , h < ; h h < < + + @ ; > + : < j j w.G H H M v M b m H w.M m r.m.s.Z._.M.m.M.X.P C s n.Y.U.R.l.# 8 @ 5 d.d.S N u     ",
"            d.X . B 8X0X9X*XD c  .O. .Z  ...} -.} } ..C V 6 2 i  .S } p.6 * N u i i d * t F -.*...{ d { } } F -. .J B , < h h h < h h h < h < , h < < < ; < < h z e.< < + : @ : 7 , , , 7 b L L H H G H m k M M y.L H r.m.m.M.m.M.m.m.O.C i C m.'.&X7Xk.2 3 O 0X              ",
"              X . I qXtXyXqXd u C O...P +.+.>.h.<.,.C V N 9 & & i s { d.i @ P x @ @ p t g N.*. .d ..` ` } F F F D S c 3 h z e.h h < h h h h h h h j l z j z z z z z h h ; : 3 9 J J M z h G J L w.H M M v m v H H M m r.k.f. . .d d S u 0 u s C.].#X&Xi.@ > O                 ",
"              X O k.qXdXiX8Xu s C ,.@.D F i i s i s N u N N y X X p F +.L O B 8 > & d b.f 1.*.} ` } { p d ` F f C C N j j e.e.z z z z z e.e.e.G l l j h h j l j h h < h ; , x H v G G G j x w.J L L H M v H b v y v H X.f.i X t m y & u N i C C.I.[.'.;.# 8 :                 ",
"              8 X 8XfXfXkXiXu.C v.b.<...{ d s i * - u - 6 V V . - ] #.1.J < 7 < . # F $X` 2.` *.f d } t a D F S i D D : k j z h h h , h h 7 j j l j h < < < < h h h h j ; j L H | L L w.G w.r.J J L H m M v M v M L M | H.p.i >.@.@.i o s 6 C Z.S.K.P.J # 3 ,                 ",
"              Z O dXdXwXtX9X .S @.6.<.=.} } -.-...C V A 5 A a.t p <.4.@.I @ + + > o t _.%.=.a d } g #.a } @.d i d S K & : : h < < ; < : < < h h h j j l j z z l j j z z h M w.H L H L y.G J r.K J L H H M M M M M H H J l.+.} s.@.+.C & u i d m.Z.U.U.G @ 7 >                 ",
"              c @ dXwXqXyX8XC u d @.} *.-.} ;...P o.P A u I s F #.4.M.#.- 9 1 # + X g 9.&.' p - - X X X { }.s.* C P A 2 : 3 3 k j j l l l l j z z l l z z j j z j j l j j l M L M H H L G J r.L L I w.H M M G M M G L P o.d +.>.@.S N i i u D m.P J w.l O 2 2 B               ",
"              K X 5X0XqX5X{.- i s ,.} >.<.;.a.p.;. .U V P h.i t #.#.4.} C t $ % . X p 7.9.9.4.` ... N C } <.@.i d  .K * > , 3 j j j 7 j 7 l j , < < h , , , , 3 j j z k 3 z b G v X.y.y.H H r.K L w.X.H v v M M v H v r. .u ..<.} C d i - C s D V : 5 7 O , 3 6               ",
"              r.. X y.y.y y * X * s C S D D I P U U I 0 s 9 * * $.` #.p ` } N.F . X =.7.&.}.B.p i X X N p <.} ` { P A 2 @ : : : , @ @ @ @ @ @ # > > # 4 2 # X @ : : @ : , 8 l L b H b 4 l G r.+.r.r.t.| K m m M m J > B P * d <.>.*.} } { <.d N V J i.2 @ 2 > X               ",
"                . X H.5X5XyXL.h.k.D i - 4 @ 6 i N A U s U U u * a #.4.p a 7.4.` X y <.%.7.7.M.p * 8 8 v i { { } } ..D 8 @ 4 4 2 6 8 i c c m Z Z P J D P D {  .+.X.X.I r.r.X.X.r.L B X.w., G l.i.r.r.f.k.r.X.r.| r.V B J P - l.&X*XD.F.b.F.].S.9X0X&XT.y . > @                 ",
"                . * cXtXyXtX*X{.'.S.-.A.s * - i i F t 5 6 9 5 - p <.7.t a =.$.` X 0 *.} 6.b.i X # 7 8 x 6 i S @.-.:.:.P O.f.f.t.M.k.M.M.k.M.f.M.f.p.p.p.s.s.s.f.p.p.p.f.u.p.a.p.i u X.4 O x k.f.f.r.t.X.X.r.r. .K X.H.P a.P 1.{.b.`.B.B.B.B.].&XU.qX&X# O E.                  ",
"                E.5X].,.b.{.*X*XF.F.N.].C.D.I.S. .4 * u a.:.I -.7.{.D.* t ` %.$.- 0 } ,.h.6 O . 1 5 # . X 2 O.<.:.:.;. .f.m.M.M.M.M.M.H.M.m.M.m.Z.m.M.m.m.M.C.D.M.h.b.m.v.M.n.s.K 4 S b . k w.r.K m i S K S S Z Z H c c 6 = * s.c.b.M.}.}.].'.'.s 9 4 # 2                     ",
"                u X X . * n.rX=XS.I.F.].].D.C.c.| p.L.D j.a.g.<.(.}.7.* a $.4.&.t - s *.+ O O O 0 A.*.3.d c._.c.-.,.j.A M.H.D.m.H.m.m.m.C.m.m.D.m.m.m.m.m.M.M.M.n.m.m.M.m.l.s.p. ...o.l.: 3 X. . .S +.o.O. . .}  .t.r.X.A = X D } } <.D.{.D.'.T.k O . 8 .                     ",
"                tX5Xx > x V 8XI.Y.&X'.'.].I.D.C.J.J.7Xn.;.1.b.7.}.(.4.* p #.&.$.p - s D % + + 1 ,.Y.G.V.8.6.D.B.-.a.a.d k.{.L.C.L.L.J.K.J.Z.Z.H.J.H.D.Z.L.D.Z.Z.Z.S.Z.m.m.m.f.p.p.t.O.f.2 c P o.>.s.m.v.s.b.b.k.M.k.H.k.o.i u C C C  .@.m * 6 8 3 O @ 8 X                     ",
"                          u i ;.A.8X[.&X'.Y.I.P.J.m.i.:.v.+.M.b.}.(.#.t a #.4.4.` t i s . . & P.b.OXOX_.V.B.B.6.2.,.>.Z m.[.T.J.T.U.R.R.R.R.[.[.[.[.[.[.[.].T.R.L.L.J.J.m.m.n.d.d.k.k.f.B I d.p.n.n.S.].K.m.n.m.M.H.L.M.r.o O.u s  .{ {.{.C 5 > @ @ 2 8                       ",
"                            . o = s V u 0 t - - 2 4 * i a.D ,.C.7.@.{ t p =.4.4.} * * 6 o # I C.#X].#X_.`.B._.b.1.s.p.c # @ 6 & 6 = @ X @ o X @ @ # # # @ * & * & o * X 6 c N u A J K b 6 P f.+.>.;.+.n.M.Z.m.b.f.M.H.y.o.2 p.N P  .[ L.[.[.V # . @ 4                         ",
"                              5 . & & & & & X @ # X . & u u s s 6 0 - 6 * @.%.4.F = . . + . X o 6 i i i i t 6 i +.i.O.N . @ @ # + . + @ . . X # . . o X . . . . . . . X @ Z * @ @ @ , # @ 4 4 * & 5 # 5 - x 6 u c Z 6 x V N X.A D } S t.I v 9 2 J r.                          ",
"                              X O . . . . . . O @ . O J.f.u * t 6 C F 9 * S a a * $ . # o O @ # # 2 : 2 3 : x V I u.r.J > O O . . $ . O @ @ O # O O O # + $ . O o . . u L.dXl.. @ : : 8 k w.4 j 5 1 > # @ & 6 u 0 - 4 9 7 9 u N K K Z N 6 5 2 N                               ",
"                              u w.m.l.z.I x + . 2 @ A 8X*XS.}.{.$X_.C.o X t a a o . , P H.E.R.7X        NXNXBXdXV i.r.J 7 > > 2 , : l j O O O O . . . . . . . . . O . 7X    4X. @ @ t.5X5XdXL G 8 > > 5 X X X * s S y y > G A Z v | i c S y 4 P                               ",
"                                    jXNXUXNX5X4 x 4 P 7X]._.7.4.4.#.p X X m.D._.- $ ( UXjX                  fX[.C o.A G @ # > 7 7 7 H.H.W.W.y.L J P J A 9 l x V l x c qX      . y * H.dX  dXy.w.x 5 9     J.H.L.{.5XZ.t.. I d.K X.S i i r.J.2 6                               ",
"                                            l.x B x p.{.{._.B.7.7.4.{ * X t =.4.N 5 V fX                      T.P o.X.x > > 2 6 3 k k.T.H.4XH.T.T.H.H.n y M [ w.y.r.i.yX      O j 4 y.      y.H B 5 x             yX{.f.@ r.m.c t.i # @ * = & X                               ",
"                                            m.c c x O.7X{.}.M.7.4.M.n 4 X S 7.7.t . #                         [...:.P x 2 > > 4 8 3 y.T.4XT.5XH.5XH.W.M j b L | y.t.H.          y.          L H I 8 P               {.f.# t.Z.y Z c @ * X X o &                               ",
"                                            H.Z c c p.8X].D.9.7.7.M.] 4 X i %.4.p # N                           o.O.L u # > > 2 8 : y.T.5XT.T.T.H.H.y.[ : m L y.r.k.k.                      H H G x P               {.m.X p.M.y H b @ y kX                                    ",
"                                            H.J S c k.9X].V.B.9.7.M.m y X t 4.5.s u 7X                          :.o.K 9 O > 2 # 2 > G T.T.T.H.T.H.H.y.M @ b m b m y y                       8 b B u f.              *Xm.. y.k.y Z i 4 c                                       ",
"                                            L.r.J b k.rX{.B.B.7.7.7.C 8 @ p 4.4.p {                             O.O.K 3 @ > 2 > 4 7 x W.H.H.H.H.H.k.y.4 4 : 2 @ @ O X                       H v Z u J.              *XS.X X.k.b { c & X.                                      ",
"                                            H.| J v l.tXF.6.N.7.M.M.c 9 o g 5.5.d +.                            u.O.K 4 @ > 2 > > 8 4 7 4 y b b H L | : 4 4 : 4 3 : X                       v m J u T.          +.h.vXtX@ L H.n X.c 4 i.                                      ",
"                                            m.| L B [.gXm.b.b.B.}.M.N s o p 5.7.} s.                            a.O.K 2 # 2 2 & 5 2 7 4 4 4 y y y 4 4 3 7 4 2 2 8 2 *                       H m v 9 T.          4 * d y X y.H.L X.x * k.                                      ",
"                                            L.r.K H qXcXgX          s u . t N.7.#.Z.                            l.t.O.4 X X @ X 5 > 2 @ : 4 b b b H x x 8 8 7 4 4 @ 4                       y v B 8 [.          m * * i 4 W.H.n K u # f.                                      ",
"                                            T.t.X.V 0X                cXD t Z.b.s.[.                            L.t.f.t.K I L K V 9 4 # 3 x v c G M B I J 9 1 7 x B o.                      m m Z 2 0X          K @ X u.l.  5Xy.r.u & k.                                      ",
"                                            T.+.K N 8X                jX+.* L.H.m.yX                            [.f.M.k.p.l.l.k.W.7 # @ 2 8 3 3 2 x x B l > > 5 y H                         M H Z 8 wX          r.X *  .9X    k.p.m & m.                                      ",
"                                            [. .K c eX                kXh.6.{.{.C.                              8Xk.H.H.z.J.J.J.m.z.O O # 2 > > 2 3 # # O > > + I                           k.y.J 8   cX        l.o * u       [.k.D @ f.                                      ",
"                                              K  .u 0X                  }.}.{.`.}.                              0Xm.J.L.J.U.K.h.P W.> @ # > # # : 8 7 k O 5 1 2 I         X X @ X X X 4 y.L y | H i             7XX .         H.f.J * l.                                      ",
"                                              J P u                     {.D.{.{.'.                              yXL.J.T.p.&X[.[.    9 # # 5 # # 7 8 3 9 & # # > H.        X @ 8 2 | t.5X5XH.* t.L 6               wX          8X8Xf.* f.                                      ",
"                                              A O.c                     [.`.@X{.].                                ].J.A.i * &X      V > # 4 2 & 2 8 8 x 4 4 6 @           . 6 8 v 5X      dX4 H.X.6                           | | m y @.                                      ",
"                                              Z r.Z                     *X}.+X+X].                                [.Y.F.C * *X      I 7 : j 4 j 4 v v L b 4 4 @           @ . : y         yXy H.I 2                           4 4 - * :.                                      ",
"                                              Z o.N                     *X`.`.`._.                                8X#X!.,.- -X      i.7 3 b j y b H w.r.r.4 8 3                           5X* f.X.&                           # i t 0 D                                       ",
"                                              c O.c                     yX`.`.+X>X                                &Xc.( s 0         J.4 j G H L L w.r.k.l.H x B                           5Xy k.r.4 kX                        6 s s i s                                       ",
"                                              * Z                       rX`.>X$X>X                                                  [.Y r.i.y.t.r.r.y.f.W.t.B r.                          0Xc i.u.i cX                      & y u i - -                                       ",
"                                              4 N                       :X}.`.`.B.b.                                            9X  R.:.I A C A P P r.i.k.i.o.m.                          f.@ u i &                         2 4 i t & *                                       ",
"                                                                          6.4.4.<.d                                             7X    . . . . . . . . X . X #                             k.X 6                             y 6 8 * - 6                                       ",
"                                                                          -.=.<.=.d                                             &X      T.J.l.d.f.i.i.d.u.u.u.                                                              8 9 i 8 6 6                                       ",
"                                                                          =.=.<.<.d                                             &X                                                                                          u i u 6 & 6                                       ",
"                                                                          #.D.<.<. .                                                                                                                                        6 2 4 8 2 i                                       ",
"                                                                            +.}  . .                                                                                                                                        S y & i i                                         ",
"                                                                                                                                                                                                                            +.b c m.b.                                        ",
"                                                                                                                                                                                                                            t.m | @.8X                                        ",
"                                                                                                                                                                                                                            | y | i *X                                        ",
"                                                                                                                                                                                                                            ] y +.* rX                                        ",
"                                                                                                                                                                                                                            m m t.X yX                                        ",
"                                                                                                                                                                                                                            i n @.X                                           ",
"                                                                                                                                                                                                                            y { +.X                                           ",
"                                                                                                                                                                                                                            y +.+.X                                           ",
"                                                                                                                                                                                                                            * m m X                                           ",
"                                                                                                                                                                                                                                                                              "
};
