/* XPM */
static char *out[] = {
/* columns rows colors chars-per-pixel */
"152 700 256 2 ",
"   c None",
".  c #020403",
"X  c #040A04",
"o  c #0A0B05",
"O  c #03040C",
"+  c #0A060C",
"@  c #050A0B",
"#  c #0A0C0C",
"$  c #0A0505",
"%  c #110D0A",
"&  c #0C1303",
"*  c #0C120D",
"=  c #081606",
"-  c #12140D",
";  c #141B0C",
":  c #161906",
">  c #040513",
",  c #090613",
"<  c #060A13",
"1  c #0B0C13",
"2  c #0B0D1A",
"3  c #06081A",
"4  c #110E15",
"5  c #0D1213",
"6  c #0D121A",
"7  c #0C1816",
"8  c #121414",
"9  c #141A14",
"0  c #1A1C14",
"q  c #13151B",
"w  c #151B1B",
"e  c #1A1C1C",
"r  c #191517",
"t  c #231C17",
"y  c #261B0C",
"u  c #192507",
"i  c #1C2314",
"p  c #1C231C",
"a  c #192619",
"s  c #162F09",
"d  c #242909",
"f  c #293707",
"g  c #22241C",
"h  c #242B1C",
"j  c #272917",
"k  c #2A3519",
"l  c #35391A",
"z  c #343012",
"x  c #0D1423",
"c  c #151B23",
"v  c #1B1D22",
"b  c #151725",
"n  c #0C0E25",
"m  c #1C2323",
"M  c #1C232A",
"N  c #1A2825",
"B  c #1C292F",
"V  c #222523",
"C  c #242B24",
"Z  c #2A2C24",
"A  c #22242A",
"S  c #242B2B",
"D  c #2A2D2B",
"F  c #292525",
"G  c #2C3324",
"H  c #2C332C",
"J  c #283628",
"K  c #333424",
"L  c #32342C",
"P  c #343B2C",
"I  c #383A27",
"U  c #272C33",
"Y  c #2C3332",
"T  c #2B3737",
"R  c #323533",
"E  c #343B34",
"W  c #3A3D34",
"Q  c #343B3A",
"!  c #3A3D3B",
"~  c #343539",
"^  c #332C28",
"/  c #211E25",
"(  c #46381A",
")  c #453B2E",
"_  c #6A3626",
"`  c #374806",
"'  c #384618",
"]  c #334E0F",
"[  c #3B432C",
"{  c #394628",
"}  c #3C4334",
"|  c #3C433B",
" . c #394737",
".. c #364E2B",
"X. c #396420",
"o. c #465809",
"O. c #45491A",
"+. c #485819",
"@. c #4E5414",
"#. c #4B6516",
"$. c #56681A",
"%. c #53700F",
"&. c #657818",
"*. c #454829",
"=. c #495728",
"-. c #545929",
";. c #434B34",
":. c #42443C",
">. c #434B3C",
",. c #484937",
"<. c #4B5434",
"1. c #4B533C",
"2. c #485737",
"3. c #555937",
"4. c #554B33",
"5. c #6B5334",
"6. c #586728",
"7. c #5B7528",
"8. c #586638",
"9. c #4F6B32",
"0. c #667828",
"q. c #656938",
"w. c #687738",
"e. c #747A3A",
"r. c #6B6A2E",
"t. c #6D5A1C",
"y. c #373C44",
"u. c #2C3744",
"i. c #15274C",
"p. c #3C4442",
"a. c #3C4846",
"s. c #394C4B",
"d. c #385065",
"f. c #424643",
"g. c #444B43",
"h. c #4A4C43",
"j. c #454C4A",
"k. c #494B4A",
"l. c #4C5344",
"z. c #4C534B",
"x. c #495747",
"c. c #535B44",
"v. c #52554B",
"b. c #545B4B",
"n. c #575847",
"m. c #4C5453",
"M. c #4B5755",
"N. c #545B53",
"B. c #5A5C53",
"V. c #555957",
"C. c #4C4C4D",
"Z. c #645B4B",
"A. c #5B634C",
"S. c #586647",
"D. c #5C6354",
"F. c #5C635B",
"G. c #5A6757",
"H. c #566F49",
"J. c #656949",
"K. c #697647",
"L. c #757A48",
"P. c #636B54",
"I. c #646C5C",
"U. c #666858",
"Y. c #697458",
"T. c #757959",
"R. c #756B4E",
"E. c #525B64",
"W. c #5C6563",
"Q. c #576870",
"!. c #666B65",
"~. c #6C7363",
"^. c #6B7668",
"/. c #757A67",
"(. c #6B7573",
"). c #757A75",
"_. c #6E6D6B",
"`. c #403F44",
"'. c #896E38",
"]. c #877650",
"[. c #857C68",
"{. c #6E8B17",
"}. c #6A8538",
"|. c #768739",
" X c #738E2C",
".X c #5B8822",
"XX c #788748",
"oX c #798658",
"OX c #728C4C",
"+X c #7A8569",
"@X c #7B8576",
"#X c #799069",
"$X c #69964B",
"%X c #849631",
"&X c #90AB31",
"*X c #8AA51E",
"=X c #879749",
"-X c #858959",
";X c #889558",
":X c #8C914F",
">X c #93A851",
",X c #A9B453",
"<X c #858869",
"1X c #899668",
"2X c #949A68",
"3X c #858A78",
"4X c #8A9578",
"5X c #959978",
"6X c #948A6D",
"7X c #98A569",
"8X c #9AA677",
"9X c #8FA86C",
"0X c #A4AA79",
"qX c #AAB371",
"wX c #A7956D",
"eX c #B2C661",
"rX c #B1C94E",
"tX c #747D87",
"yX c #7C8784",
"uX c #868B85",
"iX c #8A9487",
"pX c #959A87",
"aX c #959B94",
"sX c #8B9493",
"dX c #9AA588",
"fX c #9BA498",
"gX c #93AA8D",
"hX c #A5A888",
"jX c #AAB587",
"kX c #B5BA88",
"lX c #A5A997",
"zX c #ABB598",
"xX c #B6BA97",
"cX c #B2AC8A",
"vX c #9BA6A4",
"bX c #AAB5A7",
"nX c #B5BAA6",
"mX c #ACB2AE",
"MX c #969B9C",
"NX c #B9C597",
"BX c #B7C68C",
"VX c #BAC5A9",
"CX c #BBC6B6",
"ZX c #C5C999",
"AX c #CAD093",
"SX c #C5CAA7",
"DX c #CAD5B8",
"FX c #CDD4B0",
"GX c #D8E3B5",
"HX c #E4EBAE",
"JX c #BBCAC7",
"KX c #CFD7C9",
"LX c #D9E4CF",
"PX c #E5ECD2",
"IX c #E4F0E8",
"UX c #C1BB95",
/* pixels */
"                                                                                                                                                                                                                                                                                                                ",
"                                                                                                                                                                                                                                                                                                                ",
"                                                                                                                                                                                                                                                                                                                ",
"                                                                                                                                                                                                                                                                                                                ",
"                                                                                                                                                                                                                                                                                                                ",
"                                                                                                                                                                                                                                                                                                                ",
"                                                                                                                                                                                                                                                                                                                ",
"                                                                                                                                                                                                                                                                                                                ",
"                                                                                                                                                                                                                                                                                                                ",
"                                                                                                                                                                                                                                                                                                                ",
"                                                                                                                                                                                                                                                                                                                ",
"                                                                                                                                                                                                                                                                                                                ",
"                                                                                                                                                                                                                                                                                                                ",
"                                                                                                                                                                                                                                                                                                                ",
"                                                                                                                                                                                                                                                                                                                ",
"                                                                                                                                                                                                                                                                                                                ",
"                                                                                                                                                                                                                                                                                                                ",
"                                                                                                                                                                                                                                                                                                                ",
"                                                                                                                                                                                                                                                                                                                ",
"                                                                                                                                                                                                                                                                                                                ",
"                                                                                                                                                                                                                                                                                                                ",
"                                                                                                                                                                                                                                                                                                                ",
"                                                                                                                                                                                                                                                                                                                ",
"                                                                                                                                                                                                                                                                                                                ",
"                                                                                                                                                                                                                                                                                                                ",
"                                                                                                                                                                                                                                                                                                                ",
"                                                                                                                                                                                      XX;XK.9.OX1Xw.` #.6.                                                                                                      ",
"                                                                                                                                                                                      o.#.9.8X1X}.=X.X0.OX                                                                                                      ",
"                                                                                                                                                                                      $.q.<.xXVX#X7.$.0.>XoX                                                                                                    ",
"                                                                                                                                                                                    =X1XxXlXKXCXBX#.$..X9X4X                                                                                                    ",
"                                                                                                                                                                                    9XVXDXnXKXzX#Xo.7.7.;X/.                                                                                                    ",
"                                                                                                                                                                                  ;X>XNXFXCXSXDX9Xo.&.7.;X#X                                                                                                    ",
"                                                                                                                                                                                  }.}.=X1X1XoX1XOX$.7.0.1X#X                                                                                                    ",
"                                                                                                                                                                                  &.o.#.$.6.` ] ` #.w.w.1X#X                                                                                                    ",
"                                                                                                                                                                                  $.] %.w.+.] OX=Xw.}.OX#X#X                                                                                                    ",
"                                                                                                                                                                                #X.X#.w.}.w.7.>X>X;XOXoX4XiXgX                                                                                                  ",
"                                                                                                                                                                                ;X}.$.}.w.9.#.|.>XOXK.4X5XgXiX                                                                                                  ",
"                                                                                                                                                                                9X0.#.9.q.6.OX$.OXK.OXgX4X#XyX+X+XA.3.                                                                                          ",
"                                                                                                                                                                                XXw.+.9.H.8.oX$.=XOXOX4XgXgXgXgX4XA.P.} A.                                                                                      ",
"                                                                                                                                                                                }.+.] ' ' ' 0.0.=XoX#X#X+X+XoX+X3XA.P.P.c.P                                                                                     ",
"                                                                                                                                                                                XX0.6.w.9.6.w.=X|.w.=.*.G { { { { ..b.G.g.Z P                                                                                   ",
"                                                                                                                                                                                OXXXOXqX7.6.0.|.}.7X<XoXP.~.Y.+XY.^./.I.b.g G !.                                                                                ",
"                                                                                                                                                                                OX*.' oXX.+.0.|.}.2X1X+X+X+X+X#XY.^.D.!.F.C 9 h b.                                                                              ",
"                                                                                                                                                                                1XH.] +.' e.=X0.e.2X2X3X4X+X+X~.Y.^.D.!.W.Y 8 g D.                                                                              ",
"                                                                                                                                                                                4X9.s { q.7X=X6.}.;X+X<X3X3X4XpX@X@X(.(.E.U 4 C W.@X                                                                            ",
"                                                                                                                                                                                1X9.f 8.8.L.e.$.r.K.oX/.+XpX@XiXsXiX).E.j.M q / p.G.                                                                            ",
"                                                                                                                                                                                #X7...8.K.7.w.7.w.K.^.G.W.!.W.m.M.| D Y U 4 4 / N |                                                                             ",
"                                                                                                                                                                                ;X7.=.K.8.=.XXw.6.8.G.g.S T B N N 5 @ 4 b 4 4 r e D                                                                             ",
"                                                                                                                                                                                XX9.=.9.l 9.9X#.] =.G R S p.T T B 8 % , r + + r t t Z.Z.Z.[.                                                                    ",
"                                                                                                                                                                                e.6.O.2.s ] w.7.w.#XY.aXsXsXyXsXvXpXt $ + r r / F z ( y t (                                                                     ",
"                                                                                                                                                                                6.-.+.s = ] 7.w.:XoXJ.pXbXzXpXlXdXpX[.h.Z.) h.) t _ y y y ^ nX                                                                  ",
"                                                                                                                                                                              -.8.8.3...' K.BX;X;X-X<XnXDXxXlXlXhX6XR.R.U.B.I z y ( _ y ^ t 3XiX                                                                ",
"                                                                                                                                                                              2.K.OXoX2.' 2.2.q.<XT.2XVXDXlX[.T.S.4.3./.+XP.<X% y _ ^ y y y :.).                                                                ",
"                                                                                                                                                                              ' =.9.9.' ] 2.L.=.].K.<XUXSXhX6X4XpXdX5X<X/.T.n.g ^ ^ _ _ y y D                                                                   ",
"                                                                                                                                                                              s s H.H.] ..8.oX=.-X5X].6X6XJ.2.I.D.x.x.x.x.>.W I _ ^ ^ ^ y r t [.                                                                ",
"                                                                                                                                                                              ' ' 9XK.6.=.J.1Xw.6.2X1X<X<X3X@X^.A.>. . . . .P Z ^ ) F F t 4 F [.4XpX                                                            ",
"                                                                                                                                                                              =.8.K.=.: =.;XqXoXY.J.H.c. .H C i j : ; - 0 : ; g j F j t ,.j ,.4X5Xl.k                                                           ",
"                                                                                                                                                                              3.8.-X1Xq.3.-X2X8.=.k k a ; = o X % : j I ,.n.U.Y.Y./.I j ^ I 3XP.c.W h                                                           ",
"                                                                                                                                                                              9.oX8XoX<.l *.-.*.=.*.*.=.;.,.3.n.*.) K *.) n.P.b.v.:.- % ^ K l.h.g W h                                                           ",
"                                                                                                                                                                            =.u s f u k *.3.8.8.oX2XXXR.q.-.*.4.*.) ( z ) 3.n.W Z Z V $ 0 i h g Z W Z                                                           ",
"                                                                                                                                                                            =.=.-.=.O.' ' =.6.q.e.].e.5.4.4.( z 4.4.4.^ j P C a w 9 w # 9 p w V S Z C                                                           ",
"                                                                                                                                                                            ' 6.;X+.] l ' O.=.r.6.e.].R.5.5.5.5.5._ 5.( ^ D N N N N c N B S U N S C L                                                           ",
"                                                                                                                                                                            =.=.6.=.' ' ' { =.-.q.].e.5.'._ '.'.'._ 5.K F V N B J B N N N N D S m H G                                                           ",
"                                                                                                                                                                            ;.s ' *.;.{ G I { O.3.K.5.5._ _ wX].'.'.5.j g V N J N N N N N N B M V Z h                                                           ",
"                                                                                                                                                                            i 0 k 0 K Z 0 - # o : y 4.K z R.cXwX].wX'.y j e M B B N N B N N B B a h Z                                                           ",
"                                                                                                                                                                            7 = 8 ; $ o # O # o o % ) F % 5.cXwXwX:X'.z g m N S S N N N c 7 7 7 5 h P                                                           ",
"                                                                                                                                                                            s.= C  .l * * . o n.[.[.[.y % y [.Z.].].) g 9 9 7 7 7 7 7 c U U D B D P c.                                                          ",
"                                                                                                                                                                            H.= I 8.;.P C a P +X0XkXcXh.% % y y y z o $ @ * o @ @ @ @ 7 ~ S M D D Z ~.                                                          ",
"                                                                                                                                                                          @XJ i P <.1. .>.J ..oX5XcXxXU.% $ $ $ y y . + . # O @ @ < < c S c 6 < r e i                                                           ",
"                                                                                                                                                                          E.a i K  .1...[ a J P.<XdXpX>.% $ 4 R.lXB.. . O + 1 + @ < 1 6 S 1 O < w e 8                                                           ",
"                                                                                                                                                                          @XY 9 i C P C p # N 2.+X5XpXP 0 r t pXxXpX/.V.1 + # 1 5 6 6 6 y.U U S m e o                                                           ",
"                                                                                                                                                                            | a p i a 9 a 5  .x.#X1X4Xx.p r F Z.UX5XU.~ 8 + , < 5 6 w 5 f.~ y.Y w 8 o                                                           ",
"                                                                                                                                                                            | * a P  .2...s J ..3X5X3X>.) ^ / h.cXpX].F 1 + O b N < 7 c j.u.T T w 8 .                                                           ",
"                                                                                                                                                                            a.* a { H.c...k 2...3XhX5X4XuXpX[.Z.cXwX]._ F 4 > v B 2 M 6 s.T ~ T 9 9 $                                                           ",
"                                                                                                                                                                            x.* a s x.9...X.w.#XzXUX6XlXcXwX].].wXwXZ.Z.H 4 3 p.B < c < a.u.T Q 9 ; $                                                           ",
"                                                                                                                                                                            G.= N k 2.9.=.] 9.1XkXxX6XhXUXAXAXwXwX[._ Z.F 6 6 p.T < M > p.~ E E ; - $                                                           ",
"                                                                                                                                                                            !.a a j { { ' ..9.8XjXcX5XpXcXcXcX].].].) ) $ + < 7 T < 7 < Y ! R W t : ;                                                           ",
"                                                                                                                                                                              * a k <.H.S...#XBXAXkXwXcXcXcXcX5._ '.) t t t < @ N > 7 c S f.0 t ^ ^ I                                                           ",
"                                                                                                                                                                              * a Z ;.1.....dXZXkX0XcXcXlXlXpX5._ ( _ _ / 8 5 < N 7 6 6 e g _.[.6XB.                                                            ",
"                                                                                                                                                                              * p h P C u = = -.:XwX6XwXnXaXpX5._ Z.( t t , 6 7 c 6 @ < 1 4 ).5X  /.                                                            ",
"                                                                                                                                                                              # w H  .a...J { K.:X,X].cXUXaX6X'._ _ Z._ 0 # < m 7 5 < @ $ f.uX    [.                                                            ",
"                                                                                                                                                                              * a J x... .{ *.XXqXwX:XUXUXhXMXZ.R.R.].Z.t @ 5 c x 5 < < # V.    3X!.                                                            ",
"                                                                                                                                                                              o 9 ..2.2.2.' *.e.qXqX6XUXnXlXcXZ.5.wX[.[.t + q 6 5 5 5 < # E     [.                                                              ",
"                                                                                                                                                                              = 9 ..S.S.9.d =.-XwXqXcXUXSXcXcX].].[.].Z.F 4 @ 5 5 < 1 @ # H                                                                     ",
"                                                                                                                                                                              X = k ..2.-.u -.NXUX2X].ZXSXnXcX[._ [.R._ y + + 1 6 5 1 < 5 p                                                                     ",
"                                                                                                                                                                              = ; x.S.1.*.l P.hXkX].T.6X5X3X[.].5._ _ _ t % r e 7 < 1 @ 5 G                                                                     ",
"                                                                                                                                                                              7 N 2.x.S.1.I { { ,.3.R.J._.].[.[.R._ C._ _ 4 y.`.< 5 < 1 # p.                                                                    ",
"                                                                                                                                                                              9 a J J k k i I : d : l =.6X[.wXwX_ _ _ _ y / ) A 7 < < # * C.                                                                    ",
"                                                                                                                                                                              9 p Z j k d i s k { { =.=.5XL.;X].t._ _ _ _ t `.^ @ # O + # N.                                                                    ",
"                                                                                                                                                                              9 C W ;.A.2.T.dXlXzXzXjX5X-.oX-Xq._ 5.'._ _ y C./ @ O O + $ V.                                                                    ",
"                                                                                                                                                                              * g [ ,.{ H.gXBXVXVXCXFX#X3.8.J.5.5._ ) ( t y ^ U c 1 8 8 # _.                                                                    ",
"                                                                                                                                                                              = ; k ..k H.gXCXCXVXFXGX#X2.J.q.q.4.) ) ) ^ / `.~ U 1 5 - $ (.                                                                    ",
"                                                                                                                                                                              = = H.+XY. .gXCXCXDXDXGX+X=.L.K.8.4.,.1.U.^ 0 H B U X w * $ ~.                                                                    ",
"                                                                                                                                                                              J x.8XoX3.x.yXJXCXCXDXDXH.k 8.8.3.=.c.1.:.W p E  .T @ 8 # $ I.                                                                    ",
"                                                                                                                                                                               .+X8XOX;...gXJXbXbXVXVXY.....{ 8.....x. .S N p.a.Q # r # $ I.                                                                    ",
"                                                                                                                                                                              x.k ] o.=.9.fXVXgXpX+X+XY...' ' =.] 2... .S p Y Q R O 8 . . U.                                                                    ",
"                                                                                                                                                                              2.=.+.` +.OX9XgXY.#XoXY.H...6.e.XXw.8.8. .h # S N w 5 e 8 - !.                                                                    ",
"                                                                                                                                                                              X.` ` o.&.}.OX#XOX#X#XK.K.] 7.w.0.0.6.=.{ k 9 Y J S p Y # - h.                                                                    ",
"                                                                                                                                                                        8.w.8.u s .X&. X&.OXe.OXXX7.oXXXO.7.}.&.6.6.=.1.E r A N 9 1 1 4 - L                                                                     ",
"                                                                                                                                                                        }.7.w.X.] 7.{.&.%.#.|.%XeX>XXXXX+.q.|.7.0.w.<.3.P 8 e w w O , % r E                                                                     ",
"                                                                                                                                                                       X X&.w.=.#.0.$.&.#.o.$.|.%X X&.w.@.-.7.$.0.q.=.,.P g m B m < 4 4 # K                                                                     ",
"                                                                                                                                                                      {..X7.#.f u @.7.|.$.` 0.&. X%X X0.] -.0.r.t.@.3.<.) C C U N 6 8 4 8 L                                                                     ",
"                                                                                                                                                                      }.0.$.] s +.w.|.7.O.o.$.&.{.%X{.0.` +.w.6.O.@.-.<.:.U N T B 6 q + % t                                                                     ",
"                                                                                                                                                                      ' ` +.6.l 6.e.0.6.o.@.&. X{.{.&.0.f o.e.r.o.O.=.=. .C N T U < 5 # $ ;                                                                     ",
"                                                                                                                                                                      -.' 6.8.+.f $.}.&.$.` &.&.%X*X&.r.` o.e.0.o.@.+.*.;.h N T U O q + $ -                                                                     ",
"                                                                                                                                                                      oX] ' ` 8.+.@.0.$.o.o.0.{.%X%X{.$.` @.%Xr.@.t.r.-.<.G B Y B + q + % ;                                                                     ",
"                                                                                                                                                                      <.l { k ` 8.$.e.$.#.` 0.%X%X%X&.$.$.&.|.0.$.$.+.=.*.p V S U > r , $ 8                                                                     ",
"                                                                                                                                                                      Y.l <.' : O.r.=X@.o.e.o.@.&.&. X|.#.$.$.o.@.o.O.-.*.C U U B < b # + ;                                                                     ",
"                                                                                                                                                                      ^.....l u f o.f f f +.+.` 6.%X X|.&.o.0.$.$.$.+.-.<.G U M M 6 2 < 4 0                                                                     ",
"                                                                                                                                                                      H. .k ' =.r.'.%Xw.6.` +.` O.8.7.0.#.+.7.0.7.#.$.-.<.g V w q < 1 1 . r                                                                     ",
"                                                                                                                                                                      2...d -.|.%X&X>X&X X X%.u u d d @.o.O.q.e.0.$.$.6.3.j 0 0 0 r # + $ %                                                                     ",
"                                                                                                                                                                      2.S.' L.=X*X&X&X&X*X%X X] O.] f r.' d ` @.$.$.$.@.6.d j ~.U.,.% $ $ )                                                                     ",
"                                                                                                                                    ] ` 9.#X0X9X1X                     .H.X.}. X*X&X*X*X{.{.%X>X X=X>X0.$.o.6.>X XX.] o.6.-.3.l { l z ^ ^ R lX                                                                  ",
"                                                                                                                                    }.}.w.f X.8.#XBXNX9.H.            2.S.X.|. X%X*X&X*X*X&X&X%..X*X{.&.$.o.0.%X&.#.7.o.o.+.u f f f d : : o $ o                                                                 ",
"                                                                                                                                    BXqX#X7.9.}.>XAX$X=.OX..2.        2.X.$.%X%X'.*X*X&X*X&X{.`  X X{.%.&.o.$. X#.f o.%.&.w.s +.6.r.$.-.d o $ o o                                                               ",
"                                                                                                                                    BXjX9X#X#XqXAX  }.X.] u f =.    gX..9. X  &X*X*X*X&X*X{.o.o.>X%X&.&.&.o.#.{.%.s 9.%.&.7.u o.$.$.o.-.O.i g % : $                                                             ",
"                                                                                                                                    #X9.f X.=.#XNX  #.` ` ] oX4X    ;X}. X      *X&.*X*X%X&X&X|.qXe.&.0.#.$.7.|.7.s #..X0.0.f %.7.#.o.6.=.: } g & -                                                             ",
"                                                                                                                                      9.=.H.3.P.    }.$Xs ]         :X%X        *Xt.&.*X,X,X,X` |.@.` +.@.=.w.|.}.f 6.&.0.|.` #.$.#.$.$.f & Z I h j                                                             ",
"                                                                                                                                              3X    #X$Xs k                     *X&.&.%X%X$.` X u f o z d I K.q.6.u ' o.0.|.$.$. X$.#.@.d & o g j J.hX                                                          ",
"                                                                                                                                                    #X.X= u +XzXGX        &X&X*X&.&.&.%.o.o.` r.L.O.l j i i d <.' u u ]  X0.f #.%X|.|.e.O.& 0 j j S.+X+X/.                                                      ",
"                                                                                                                                                    #X9.s = H.NXqX>X,XrX&X X{.{.{.{.*XrXrXrXrX&X X0.K.4.X j d } >.& : $.0.6.+.+.7.+.w.0.#.= * 9 :.: ; & o $ . .                                                 ",
"                                                                                                                                                #X1X7.#Xs = ..9.7.|. X%X%X%X%X{.{.*X*XrX&XrX&X X{.7.+.*.X s { i j : f ;X0.;X=.' 8.] +.7.9.: 7 * J 9 o o o o $ . _.                                              ",
"                                                                                                                                                x.=.$X#X' d { 6.XX=X0.#.%. X X&.{.*X*X{.{.*X X X6.=.d : : j i d u d 6.+.-.O.u j k k d k u @ @ 8 X 5 $ o o # * * nX                                              ",
"                                                                                                                                                    BX#.f & f 6.0.&.` 7.o.0.&.&.&X*X{.&X&X{.&.o.' d % o ; u s =.#.$.@.` O.u & % 8 8 9 X . + 4 4 8 e 9 # o # * & SX                                              ",
"                                                                                                                                                    9X7. X` f +.+.+.] .X&. X Xo.%.o.%.%.` f f & : j # # o X #.}..X{. X$Xw.u o O $ e ! ! # # $ + # + 1 $ % 4 . $                                                 ",
"                                                                                                                                                    BX$XOXXX-.3...=.0. X&.&.%.o.%.] o.` f @.+.z I j # + o ' |..X.X{..X X7.& # @ r E | C @ 1 + . $ + + . $ # . X                                                 ",
"                                                                                                                                                  #XOX7.}.J.O.*.l OXw.X.` ` o.o.#.#.o.o.$.7.+.3.k j * X . ' .X X.X{..X#.] u # @ 5 x.} C @ X # . . + . % # # .                                                   ",
"                                                                                                                                                $X}.$XOX              OXf ` ` #.` #.%..X$.7.$.K.j i ; @ = f OX$X X.X{.}.q.i X @ @ J u 9 o # # @ . $ # nX                                                        ",
"                                                                                                                                               X X.X#X                OXu s ` #.o.] %.$.$.0.6.u X 7 a @ = k }.}.9.7.$.7.8.; X X @ ; X X @ X . . o # i uX                                                        ",
"                                                                                                                                            o.%..X%.>X                Y.= X k =.+.+.#.o.+.] 8.& X u a = = ' Y.H.X.X.6.] ' & = # o a = J ; = . X @ = h <X                                                        ",
"                                                                                                                                            ] ] %.}.                  P.= : k f f =.3.' f l k k u ..[ a ; k h u X X = =.=.u * = = s ..$XS.a 7 . @ * ; #X                                                        ",
"                                                                                                                                            ] %.o.%.                  H.d ; i & : : & ; 0 X ; [ *.=.2.I = 7 = X i ' w.OX' = i 9 7 ....9.=.s @ X p [ a +X                                                        ",
"                                                                                                                                            #X#.] %.                  S.' k & o @ @ # # # * ; { =.9.=.u X . o & 9.9X>X|.o.f x.k = s ..X.X.' ; X g.J { +X                                                        ",
"                                                                                                                                              7.#.7.                  9.k j 9 . @ > O . . X & ..=.=.=.j X . X ; S.>X>X&.#.] 2.$Xs a ] X.9.H.{ = a a ..OX                                                        ",
"                                                                                                                                              9X9.K.                  l l L V . O O + + 5 * i =.9.#.-.h . # - o & 2.$X] 9.X.9.X.s = s ] #.H...X X J ..H.                                                        ",
"                                                                                                                                                4XgX5X              { u h 8 w < < 1 > # 1 = s +.=.=.8.P . # 1 # X & = = $XH.$XJ s 7 s ..}.$X2.X =  . .x.                                                        ",
"                                                                                                                                                                     .: 0 4 4 @ O O < 1 @ * G ..K.w.3.H . @ # o $ # o & 1.A.h u = X u f 9.9.] . . #X....                                                        ",
"                                                                                                                                                                  1.k o # ; w * < < , + # * { =.w.q.<.G . $ 9 X ; r $ X e p 7 * - * ; s ..] = X . x.2...                                                        ",
"                                                                                                                                                    iXY.          1.d # : L.#X= < 2 1 + 5 e ..6.9.8.8.k : K <.;.1.i o $ 8 # 9 o 5 8 9 a s ..X.a 7  .N H.                                                        ",
"                                                                                                                                                    9X#X          8.k z f AXBXk # r 1 @ 7 a { =.w.7.8.l j 3.8.H.8.>.& o * 7 w 5 8 1 9 X X X.H.s X  ...X.zX                                                      ",
"                                                                                                                                                    #X1X          ] ] f 0.HXHX=.. 9 = @ * p =.=.7.7.-.k j 6.8.$XOXoX& & 5 1 8 w 7 5 * @ s X.X.s X * h ..yX                                                      ",
"                                                                                                                                                9X9X9XoX          K.f u =XHXGXP.. = @ @ 5 k ..=.w.7.w.k k OXoX}.}.w.u o 8 5 w M a 7 = X = $X9X9.' a 7  .x.@X                                                    ",
"                                                                                                                                              X.X.%.#.o.}.        }.f s -XBXzX^.X o 7 # = h *.6.0.7.6.j u { w.}.}.K.k : r w N Y B a 7 a s s ] J k X a J G.x.G.3X                                                ",
"                                                                                                                                              s ] ] X.%..X$X9X>X$X$X= = u = ; J = 5 w * 9 k =.=.w.}.7.d i ..w.}.}.OXl & w c S S N 7 = s s ] ..' : ; k = {  .{ 3Xh                                               ",
"                                                                                                                                              9..X.X.X.X.X$X$X X XX.= = d ; i 9 w 9 w 5 a k 9.7.|.|.w.d i =.OX|.$XXX' & r e w 9 - X X s H.2.k ..u i I ;.~.                                                      ",
"                                                                                                                                                  >X%..X.X.X$X X.X.Xs s k : i a a m p 5 a I -.w.|. Xw.f : ` .X X XOX=.& 8 6 q * : & X k s J ..= ; /.VXbX                                                        ",
"                                                                                                                                                    .X X.X.X.X{.{..X%.%.}.7.H.J 6 w e 5 p { 8.|.=X X Xf u 7.OX>X=X>X=.X w q m p - & & ; a = c 7 & 4XVX                                                          ",
"                                                                                                                                                  OXX.9..X$X.X{.*X.X%.%..X7.=.a 5 w 9 * h ..8.}.=X>X>X] f $XeX>X$X>X8.a f.j.j.Q P h 0 9 X X = a : Y.VX                                                          ",
"                                                                                                                                                          1X$X%..X.X.X.X.X7.9.j # e e @ C H.9.$X.X0.|.' ' 7.$X|.$XOXK.s c e w N B C 8 Y 7 @ * ; & Y.VX                                                          ",
"                                                                                                                                                              #..X.X.X.X.X7.6.g 8 9 H 5 G 1.9.=.K.9.q.*.f =.7.7..X$XH.= 5 1 5 c B e w A 5 @ 7 9 ; ^.nX                                                          ",
"                                                                                                                                                              ] X.] X..X=X8.=.i @ p S p N h h s d d z j G k ' X.] =.9.* @ 1 q a C a 5 m 7 * 9 a ; /.VX                                                          ",
"                                                                                                                                                              ] ] X.$X.X` : j * 9 5 a U l.G s k d u y t j u k f s ] 2.* # 1 7 7 a 7 # V 8 * * ; a ^.VX                                                          ",
"                                                                                                                                                              ..X.s k z u 9 8 r 1 w V c H ..9.9.#.=.l j : j *.7.%.9.9.= * i a a 7 7 5 7 e 8 * = i I.VX                                                          ",
"                                                                                                                                                              = s s j Y.k U.(.4 r e m p P 9.}.X.X.] ' { - k =.7..X$X9.s p a N J 7 = 9 ; ; 9 o = = H.bX                                                          ",
"                                                                                                                                                              X = X @ ).c.sX  1 r 9 C u ..2.$.7.$.#.@.) ; l 2..X7.7.9.u g a 7 7 C * 8 & C h = = s s.CX                                                          ",
"                                                                                                                                                              * = @ o VX      1 5 5 Z & k +.w..X.X%.6.l d k 9.X.#.9.+.u = u {  .a w C g h & = u ....VX                                                          ",
"                                                                                                                                                              - - # = vX      1 1 # p ; k 6.0. X X0.w.d : l 9.=.] 9.|.%.0.$X6.[ * X 8 t d O.e.K...s ^.4X                                                        ",
"                                                                                                                                                              & & * *         1 1 5 C j ,.OX;X|.>X,XqX4.[ oX4XOX9.w.7.=X,X.X7.k * . # t : -XXXBX5Xs G.                                                          ",
"                                                                                                                                                              o o & e         q 5 q S Z ;.3.L.9XOX|.7X2XJ.<.9.9.X.= ] }.#.o.X.: - $ % - : L.2XBXjX: Y.                                                          ",
"                                                                                                                                                              ; $ & G         6 1 r S F a ; s ' ' X.L.7.` ' H.9XBX=.u ` }.7X6.: 4 - 1 ; & d 8.BX9Xu G.                                                          ",
"                                                                                                                                                              J X X N.        8 5 q D w 9 h i : s #.=XrX%X.X%.rXeX$.`  X&X>X}.u $ ; - ; X : & = & X =                                                           ",
"                                                                                                                                                              ..X X           e r w m e - * ; & u jXeX*X{.%..X{.$X&.o..X.X{.&.s : u u k { i 1.{ G 9 C                         Y.S.S.                            ",
"                                                                                                                                                                X .           w 8 8 r k k 9 * G ' 9XrX*X&X{.*XrX&X{.#.` %..X.XX.#.X.] ] s u x.@X@X .P                   ..{ ..K.+X                              ",
"                                                                                                                                                                & .           @ # 1 * D.c.[ P ;.9.>XrX*XrXrX*XrX&X7.f s ] {.{.%.o.#.X.s s = G.                          #X+XP.1X                                ",
"                                                                                                                                                                d X           8 5 # 9 }  .>.Y.J.w.OX&X*X&XrX*X&X X9.u ` %.{.&X.X.X.X] s s . a.                            3XS.                                  ",
"                                                                                                                                                                I.}           5 * 1 9 l.3.3.H.2.7.&X&X*X*XrXrX{.&.w.` ] $X=X$X%..XX.X.= a X  .                            dX+X3X      4X5X                      ",
"                                                                                                                                                                  @X          * 5 @ ; S.1...2.l o.rXrX*XrXrX*Xo.0.}.] s ..8.` u ' =.] = ; = a.                    ).(./.@X(.G.G. .I.^.P.S...                    ",
"                                                                                                                                                                              5 * # * A.=.{ <.k X.{.&X*XrX{.o.&.OX}.u u u & & o u s s 7 7 5 z.              X 5 = 5 7 * a N a a a a N k a :                     ",
"                                                                                                                                                                              7 5 5 & Y.2.f 8.u +.{.rX&X&X%.o.>XHX7.u s I { o & 0 a a * < @ Q.              = X 9 * * a H Y G 8 5 w w N a &                     ",
"                                                                                                                                                                            bX* @ 5 X oX9.f 1.X ' &X,X%X&.` = o.$.+.f f K c.& o - 8 = @ 5 @ yX              * = * @ 9 p Y Q D q q q 6 V.g i ;.                  ",
"                                                                                                                                                                            yXX X 5 = oXOX..{ X : .X X{.o.{. X` ` f f d *.;.& $ @ @ X = a 7 ).              * = 9 9 W.W.W.m.A 1 , 6 x j.9 j l                   ",
"                                                                                                                                                                            X # # 9 : OX9.' u X 2.w.%.&.%.%X>X&.f ' ' u k 3.j 9 7 @ X X 7 < yX              o @ 7 = j.F.E.V.Y 1 > 3 b V.0 j 1.                  ",
"                                                                                                                                       X}.7.o.X.                            H X # * h Y.2...J =  .=.+.0.%.7.7.7.] f ..=  .H.>.Y e @ @ # w = (.              * 5 p 5 l.m.V.M.A > > < N W.; [ nX                  ",
"                                                                                                                                .XX..XX.o.] ` ] 9.                          x.. $ * a Y...s N = a k ] ` ] f X.` =.j i ; h ; i 5 5 1 O @ < @ yX              O 5 N 5 j.k.V.W.~ x x c T W.- - Z                   ",
"                                                                                                                            7..X.X%.%.%.%.%.%.#.7.                          /.. X # 9 } J ....G i u i d J.R.) d i k 9 o X X * 5 # @ # # 7 @ vX              1 @ m 7 j.j.V.E.T B s.d.W.Q.7 o X                   ",
"                                                                                                                          $X{..X$X>X&X&X&X$X}..XOX                          (.. X + 8 Z [ J ; a : ; : u d j 0 - : g C # 8 k b.N.Z @ @ @ 7 @ MX              @ @ N 5 f.j.V.M.U B B u.E.W.N 9 5 g                 ",
"                                                                                                                        =X$X X X X,XeX>X.X}.7.$X9XgX                          . . O 4 C k l k ..u k & 8.=.u g o j t g t P <.c.K X o $ # 6 @ fX              # 1 D w j.j.m.m.U B u.u.M.Q.N 7 * a                 ",
"                                                                                                                        $X%X X$X}.XXqX8XOX#X$X$X9XNX                          . . 8 D } ;.<.=.' k f 8.+.' l } :.^ H G : j z =.{ & X # @ 7 @ fX            # * @ S 7 g.j.V.m.U M T T E.W.a 7 # i                 ",
"                                                                                                                        $X$X$X>X9X2XNXxXBXjXjX9.9.H.P.                        . * e U.R.8.<.*.' H.6.6.6.O.' *.S.g.X # o <.qXkX8X& X $ O 5 = vX            $ O # S 9 g.z.M.M.U M T T M.Q.p 8 - e                 ",
"                                                                                                                      }. X}..X9.9.*.=.3...{ k = s u X                         g.E 0 pXA.*.l ' d ' O.XX6.9.-.2.2.C X O . l =.w.8.& . @ O 5 @ vX            # # @ S 9 f.j.C.j.N m B U M.W.e - % 9                 ",
"                                                                                                                      0.$.] ' k i & VXKXDXzX#XI ,.I u                         A.& X L j i ; ; - : f -.q.-.=.{ ;.p @ . = ..w.XX*.; o 1 1 7 7               9 X @ S 9 k.M.m.m.N c B  .x.F.V 5 # 9                 ",
"                                                                                                                    7X+.' f d ; * * mXSXbXgX~.*.n.,.G                         v.o . 9 * t U y.:.) l =.R.3.O.*.K i X = i ..' 8.2.; # 1 1 5 7               5 @ @ N w C.m.m.m.B m T a.s.W.H r - -                 ",
"                                                                                                              1X1X-XL.: u y ; 0 0 g mXCXfXfXY.1.J.Y.Z.;.~.zXCXDX              x.8 . # p e M.j.E ;.) 4.hXJ.*.l s i = C ..2.' 8.2.i @ 1 1 < 7               - @ . D a m.m.V.m.U N s.s.m.F.R 4 - -                 ",
"                                                                                                        0X7X8.6.O.' d : 0 : % 0 g Z nXCXfXlXI.c.J.I.;.X . X X 7 >.            j.# . 5 5 U Y p [ { O.-.6X*.d d ' { u k { { ' 2.2.; O 1 1 = 7               8 $ @ S m M.M.V.m.S U j.s.m.V.| 8 # o                 ",
"                                                                      3X<X<X+X<XoX<X<X<X<Xc.i u 0 & : w.>XXX0.r.o.d ( ( ( z z j g Z bXnXvXmXI.A.T.Y.I.} X = X X =             f.# . 5 5 G G J.L.L.L.8.r.r.t.&.0.7.K <.=.=.8.8.3.0 % , 1 1 a               r X @ U p V.M.M.V.S 7 c 7 5 7 * - # o                 ",
"                                                3.1.<.<.3.<.<.-.-.<.=.;.*.' *.O.*.=.=.3.-.<.z z z d O.>X>X%X'.%X%X( @.@.( z y : j G lXSXfXmX~.G.T././.l.* @ * X ;             | # @ q * G *.oXe.r.:XqX'.=X%X&.&.0.z *.8.e.w.XX3.; # , 8 < w               0 @ @ Y p V.m.M.M.D 1 5 5 < 5 5 # o o                 ",
"                                  ~.U.n.;.[ u : : j l k I l I { [ *.l l l d k z l ( ( *.*.*.l =.-.l @.wX7X:X].=X'.r.'.:XwXwX:Xz 0 k bXKXmXmX^.A.~.+X/.N.@ @ * ; h KX          ! @ X 9 X } H.e.}.|.qX7Xf $.&.{.&.0.f l 6.w.&.w.<.: # , 4 5 w               w @ . Y m M.C.m.V.D @ 1 < 7 w 9 8 ; $                 ",
"                        B.c.P.J.J.J.P.U.Y.+X/.Y.I 3.xXnXxXxXxXxXnXcXjX<X3.T.5XjXxXSXZXUXcX2X5X0XcXcXcXqXkX:X-X:XAXAXAXAXAXAXUX,.g L nXLXIXLX^.c.Y.T.~.b.O . r * h DX          R X o a & 1.Y.6.XX=XAXAXy -.%X{. X=XO.d q.w.@.q.<.- + + , 5 w               0 X O R m V.C.m.M.Y * 1 @ w 8 8 8 - o                 ",
"                +X=.l ' <.3.-XBXZXxXnXSXFXDXDX8XY.+XVXSXZXSXSXDXDXFXFXhXT.5XkXZXZXZXZXSXAXZXUXUXxXUXSX0XkX=XXX6.AXAXHXAXAXGXcXj X i zXCXKXKX@X3.Y.R.Y.D.. . % % i KX          L $ o C X x.8.6.XX=X8X2Xz K.0.0.}.}.8.k 3.3.<.<.A.p . 4 2 1 w               9 * . U S N.m.m.M.Y * # . S p.9 r ; #                 ",
"                jX<XoXoXK.-X7XwXqXSXGXKXLXGXFXjX9X8XNXZXSXZXFXFXFXFXSXxX-XkXFXSXAXZXSXAXZXZXBXkXkXZXVX8XkXXXXX6.ZXFXFXFXAXZX5Xk i a x...x.#XPXA.Y.T.<XU.o # # - i CXVX      CXH @ o g 9 l.k S.O.K.-X/.j z r.#.+.{ a a & ; 9 i Z * O 4 2 5 7               9 # . H V N.z.m.M.U 5 @ < V.!.C 9 t #                 ",
"        gXIXIXPXPXLXHXLXGXFXAX7X7XZXFXDXKXFXDX8X9XqXjX0XkXUXSXFXSXSXNXcX2X0XBXZXZXZXZXBXkX-X1X2X1XL.J.oXjXXXr.6.2X:X;X0XjXcX0XI J u H.#XgXLXH.G.Y.T.<XU.$ $ * @ a KXVXVXnXSXSXF # o p m G k = s d z 4.I n.=.k u = & X @ O O O # # + 1 , 6 7               9 @ . U C V.m.M.M.Y 7 a 5 W.(.h 0 p o                 ",
"    @ X c.IXIXIXIXPXPXLXGXHXAXBX2XZXGXLXKXDXCX5X9X7X7X7X:XAXFXSXSXSXNX0XoXq.-X:X2X2X0X0XwX6X-X;XjXxXjX1X8XXXq.w.2Xr.q.2XkXkXhXk a s Q.$X#X#XY.l.R.R.T.B.$ . 5 @ J KXVXbXnXnXnXC # # p e E k { 2XXXhXcXt n.{ I j X * + # # + 1 1 + 4 1 1 1 7               9 # @ Y V N.m.m.M.U m B N !.(.g 8 e o                 ",
"  S @ @ 7 JXIXIXIXIXPXPXLXGXNXqX9XAXPXLXPXLXFX9XqXqXqX=X:XkXBXNXNXxXjXcX2XwXwXqXAXeXAXqX0XHXHXAXAXZXxX0XkX7Xw.q.:Xf :XBXkXkXhXK C C h ' ..oXG.2.P.Y.R.B.o $ 1 * } LXCXzXzXzXbXg % # F 9 } C H.qX7XAX-X: <.=.<.K X 8 g D 9 5 1 1 2 4 + , 1 7               9 @ . F V v.m.N.M.T m c c !.(.a 0 e o iX              ",
"  5 @ < @ < J E.sXJXIXIXIXPXGXBXBXGXFXLXGXCXjX9X7X>X;XL.qXkX0X0X0XcXkXqXqXqXqXkXAXAXwXqXAXAX0XqXUXUX0X0XxXoX-.K.-Xd 7.|.:X2X6XK H a x.' ` 2.oXx.J.R.Y.U.- % 8 # j.bXgXgXzXbXnXg - # m e [  .9.7X=XqX-Xo D.=.' u ; F R W H 7 < 5 b 1 + $ # 5               8 @ . S V V.m.V.M.T p a c (.(.p e / = iX              ",
"  @ @ < < @ @ = . . O N W.LXDXBXqXFXGXCXCXFX#XK.;XK.6.w.7XBX0XjXkXZXZXkXkXqX2XqXAXAX,X:X2Xq.q.-XwX>X2XL.7XoXK.oX2X-.qXUXkXxXhXP E  .bX2Xq.q.x.2.S.J.J.U.% $ 5 . . X X u zXNXnXg - $ 9 i 1.[ H.qX>XqXL.o +X=.l k k ; Z J J J M.T 1 , $ 1 * 8               * o @ V V N.z.N.M.T w c m (.^.p e g # sX              ",
"  5 @ > < < < @ # < 5 < N LXGXgXFXDXGXLXDXGXFX1XjX9XOX1X1X2X8XkXkXBXkXkXkX:Xe.>XeXqXqX].w.6.q.e.e.|.:XXX1X<XY.8XwXqXHXHXHXLXSX^ C P 4XqX:Xn.d l Z.J.R.B.% + 1 + . 7 ' 4XzXNXzXt # $ & : ;.9.8.7XXX:X@.& -X*.' l k i i J .. .s.s.A , $ % # 7               * @ . A C M.m.N.M.Y N a p Q.!.p g / o uX              ",
"  . @ > < < < 1 1 1 @ 6 < @XVXbXGXLXDXLXDXFXSXBXK.oXjXSXNXK.oXBXAXAXAXHXHX7X'.AXqX>X7X>X7XXXw.0.w.w.}.w.OXoXS.7Xe.:XHXAXAXUXhXK C J 3X5X5X6Xo d R.R.R.J.8 $ 1 1 * +X5XhXjXkXhX: o $ ; & 2.2.K.9XL.AX-X-XjX+.+...k u a J {  .H.d.v . + # 1 5               * @ 5 e N M.z.M.M. .S J 7 !.W.e h m X iX              ",
"  . > < > < < 1 3 1 1 1 < O ).LXLXKXKXDXFXFXNX-XjXGXDXDXDXH.w.;XAXHXHXAXqX,X%XAXqX>X7X7X;XXXw.w.0.0.7.7.oXK.=.:Xr.L.cXkXZXkX0Xj S Y +X5X].~.Z ( [.<X/.B.% 8 8 8 . 3XhX8XjX8X5X^ g K /.k ;.P.K.oX1X5X-.L.8X+.#.] ] = a J .. .x.s.v . + $ # 7               * o . e 9 M.M.M.M. .B B # W.F.p C p o iX              ",
"(.O > 1 > @ 1 , 1 < < @ @ . vXLXPXLXKXDXDXZXNX+XVXLXLXDXFXS.2.XXAXHXZXqX,X:Xe.qX>X Xe.w.w.w.w.w.q.7.7.K.XXK.-.e.:XqXAXqXqXUX0XK a J ^.<X[.C.8 n.[.3XY.B.- # # 4 $ 3XdX5X5XhX<XW F Z :.h.>.;.{ } n.I u k S.=...=.J = a {  .J s.x.w O + # # 5               * # @ V w N.m.x.M.s.T N p V.B.p C C o uX              ",
"W.. < < < 1 > 1 1 1 @ 7 @ < bXIXPXIXPXPXLXSXxXxXPXIXPXLXDXY.S.;XqXqX2XqXeXqX%X,X%Xr.$.@.$.q.7.q.w.K.w.w.-XL.q.q.r.1X7XXX2XwX-X) J J B.5.n.`.+ F ) ) :.) 4 + $ + # :.pXU.l.;.I - - o e h C 9 e 8 - # : i ;.*.8.;.a u h I ..J ..s.q O O + 1 5               % @ O e w M.M.M.M.a.B N e I.N.g h N * uX              ",
"W.@ O > < > + , , 1 @ + @ 5 7 LXLXLXFXVXNXjX8XxXGXGXLXKX5X8.H.K.w.OX2XeXAX>X X,X=X|.7.#.-.6.9.8.9.OX8.9.oXK.T.R.d z u l l z y F Y Y x.Z.n.B.F / `.`.) ~ # # # 4 . @ o & 0 : - # 4 # * q w v e r 8 # Z L ;.*...I a ; a { ..s  .s.r O + + @ 7               - # @ m p M.k.M.M.a.U N ; :.l.Z C V = uX              ",
"F.@ < > > + < > , 1 < O @ < = 9 /.hX{ ' 1X8XqXNXSXUXFXdXH.=.2.K.9.w.9XqXqX'.'.:X%X|.9.=.+.8.9.S.S.Y.+X9.oXR.6XT.j Z & I dXR.l.R R R n.Z.R.[.^ ) V.Z.D.C.$ # 4 4 O p.F.      g + % # # 8 e v e 8 r e e Z l.{ k k u 7 a { ..J .. .5 + + + < 7               8 * * m e M.z.M.M.a. .m.c.).I.I Z Z * uX              ",
"M.@ O < > 1 @ > 1 > O O @ @ X . & - s = CX0XAXAXZXkXSXpXc.2.2.H.X.J.XXoX=Xe.%X%X|.}.w.9...9.S.8.2.Y.+XP.Y./.[./.j a X 8.T.P.T.W W D c.J.[.R.^ C.I.A.D.v.$ # 8 * . @X        ! . # + # r 0 e r e 0 t D C b.H k j i a k { ..s  .T 4 + + 1 @ 7               - # # p 9 m.k.m.j.| T N.l.lX5X) Z C o @X              ",
"M.@ O < @ > , < > < O @ @ . X . . X s.zXGXjXGXFXFXBXNX<X..>.S.H.=.=.8.7.e.w.XXXX|.OX7.=.=.=.9.S.H.oXY.Y.I.Z./.Z.G K d P.T.<X/.g g H U.].( l ) 4.U.I.P.f.# . 5 # @           V.. O # 5 8 e e 0 g D Z D Z }  .h h g g k J k J { Y 8 + + + @ 6               * o @ w 5 M.m.M.j.Q Q C F lX3XK t g # @X              ",
"F.X @ . @ @ O > + O O O @ O @ O X a +XNXjXBXHXHXGXNX8XoX2.S.H.H.=.' 8.w.w.XX;Xe.w.L.6.-.=.8.8.8.H.I.+X^.!.~.nXnX/.5XJ.jXZXxX4Xt F F Z.SXwXcX[.Z.<X[./.V.$ + < @ X           !.. . # 8 e e :.z.v.G E H G : i : % ; g 0 d {  . .y.r + $ 4 + w               - o # m V z.j.k.s.E Y 0 - nXpXy F ^ 8 (.              ",
"  X 7 E.@ O O > O < < O O < O < . * D.1.k 1XNXkX7XoXOX8.9.8.K.H.2.-.8.J.K.XXoXL.q.w.=.=.*.3.3.8.S.~.^.+X).+XDXVXhXSX5XjXZXkX6Xj p 0 n.nXFXPX6X_ 6X[.[.v.# O @ @ .           W.. + $ 8 9 p  .h.z.v.I.~./.~.l.j 0 g ^ h 9 C H T T r + + 4 1 w               8 $ * C C V.j.j.x.Q D 8 8 lX[.z ^ ^ % (.              ",
"  T vXyX. @ > @ > O < O O < O > < < O 5 = x.hXjX7XK.K.K.2.Y.Y.J.<.8.8.S.K.;XjXoXq.K.6.{ ..<.3.1.S.Y.oXH.Y.+XSXhX0XSX0XkXZXZX;Xd 0 j ,.xXwXSX].) U././.B.# # # O .             . $ # 8 9 p >.g.v.b./.~./.3X+X/.Y.,.^ 0 - m S H ~ 4 + + + + w               - $ * e w F.j.g.a.P S r 9 3X[.^ ^ ^ % ^.              ",
"  CX  (.. O O > @ > O @ @ O @ O < O < < 5 9 >.8.T.dXVXbX9XP.oX8.<.8.3.=.8.w.OX6.=.-.3.....x.c.2.S.P.Y.c.Y.+XSX0XqXNXkXxXkXBX2Xl j j ,.T.) ( t t U.R./.B.# o @ = @             . $ # 8 8 g a.>.D.D.P././.+X+X/././.:.a 0 S S D ~ + 4 + + + w               - $ * Z m U.f.j.a.T N 1 # _.Z.y ^ t $ !.              ",
"      (.. + > O > O O O O O O > @ O O > < 5 * o o 0 H ^.+XoXH.9.8.8.8.=.=.=.=.s ` 8.8.;.1.l.b.3.8.Y.T.S.Y.1XSX0XqX8X5X8XhX0X1X-.*.,.1.,.1.G k j Z.R._.Z.- * * * .             . % # 9 * C g.>.N.D.Y./.Y./.Y.Y.P.b.G.>.. H S D Y % 4 + % @ e               9 - # p.C ~.a.a.l.Y v 4 % C.4.j 0 p @ F.              ",
"      N . O > > > O O O O O O > O @ @ < < < 1 + O 5 e N b.#X2.H.K.w.L.OXoXXXoX8.' H.3.l.:.l.b.<.8.Y.T.K.H.3X1X=.2.2...{ l *.8.*.*.,.1.,.*.:.I g n.U.T.B.% o % o .             . # 4 r e C | h.v.b.l./.~.Y.Y.I.P.D.m. .* C H U R 4 4 4 + @ m               8 - # R V !.f.a.s.H c , 4 `.C.^ r 0 o F.              ",
"      5 . + 3 > O > > O > O O > > < < O @ > < < # 1 6 <  .Y.2.8.oX8.oXoXoXL.T.Y.<.J.3.*.[ 1.1.1.3.Y.Y.H.P.+XA.X u h ; i ;.<.3.;.*.:.:.<.,.) K t v.U.~.B.% o o # .             . % 4 r 8 H | x.l.~.N.v.Y.Y.I.Y.~.D.F.k.- ^ E H ~ / 4 + 1 @ v               r o - D V F.p.a.g.S N 4 4 `.4.z % w # F.              ",
"        yXS M sX> < > O O O O > O > O @ @ O < @ > < 5 @ = H.2.8.K.<.3.3.3.c.S.3.3.S.n.h.I 1.1.9.H.H.Y.H.P.@X3Xp m Y Y = c.S.J.3.,.,.,.3.,.:.I t l.n.T.B.o o - $ .             . # % 9 8 Z  .F.f.Z g p G ~.^.F.U.F.G.g.V Z ! P E F r # 1 # c               ; # * L p F.| a.a.U w , $ y._ ^ 4 p o F.              ",
"          JXKXIX> O > O O > + O > > < < O < < > < < < O * +XoXK.oX<.[ P G S J N j l.l.l.P  .g.x.x.S.H.G.Y.@X~.S V M V 5 v.J.c.<.*.[ ,.;.,.,.^ : h.Z.~.B.- o % . .             . % # r 0 G Z p a C 0 i % U.)./.U.F.G.x.a {  .E W D , + , @ p               r - # D e V.f.j.s.T e 4 + F ) r - e @ F.              ",
"            mXIX> > > + + O > O O < O > > < > 3 > < < < . @X1XT.T.1.H J U T Q  .P h.m.x.P  . .....x.H.G.G./.F.m c w c 5 :.P.3.,.W *.*.W ,.) j y h.Z.!.Z.- o 8 + .             $ 4 # e e Q Y H E C # * Z !.D. .F.F.M.s.a Y T H R D 4 + % < w               8 - # ~ p F.f.j.s.u.b 4 + U y.e . V $ F.              ",
"              KXO > O + > + > O O > < < < < > > < < @ @ . 3X<XS.2.G 7 J U p.a. .E x.N. .J { } T  .9.G.x.S.^.I.e b w q 1 `.B.n.4.) W W *.,.,.F t f.Z.Z.V.# o * $ .             . % 1 e e } m.N.z.| h Z !.).U.h x.N.M.s.N P E H R D 4 4 1 # m               8 # # R V V.j.a.s.u.w 4 O U `./ e H # F.              ",
"              KXO > O O + O O O @ > > < < > < < < < < < o /.3X@X^.G. .B T u.s.s. .x.x. .N H  .{ ..s.I.b.v.~.v.r r q q 4 ~ B.v.h.[ *.I *.4.4.l t h.n.U.v.o $ 8 $ .             . # - 9 9 j.N.D.z.C. .h.3XpX3X~.b.G.N.x. .Q } P Y ^ 8 4 + @ w               ; - 8 ~ W V.k.p.j.T q 1 . ^ h.Z F H & U.              ",
"                < O O O + < O > @ > O < < > < < < < @ 1 @ . 9 a 9 a S T x B  . .{ a. . .J [  .[  .x.A.G.;.Y.b.# / t b 4 ~ C.C.) I k l *.-.*.I j C.n.U.v.% + # + .             . % 1 8 e | v.v.v.b.N.b.3XpX3X).U.D.D.N.E W E R H ! 4 + # O e               8 # 8 S F f.C.Q a.u.w 5 . S f.E H Z # !.              ",
"                IXO O @ O O O > > < > < < < > > < < < < + O . * @ @ 7 U w B  . . .x.g.} J [  ..... .2.;.1.A.Z.r - % 4 4 A V.B.) ) j *.*.( { K t ) v.Z.m.- # % # .             . % # 8 - | x.z.z.>.g.J P.Y.~.~.D.N.N.j.p V Z L E R r 4 1 # p               - - 8 e . H j.Q a.T 7 5 . V a. .E C * F.              ",
"                  V.vXJXU > + > > < < > + > > < < < < 1 < , O @ + < 1 c T M.F.M.x.x. .[ J [  .;. .;.{ K ;.n.,.j K K l g ^ `.C.C.} j *.5.L.J.[ Z ) v.Z.V.- # 4 # X             . + # r 8 k.N.B.!.~.@X^.3XpX<X).~.W.G.M. .L E  .E D 4 4 % # m               - 8 # e # R f.T p.u.w # @ Z a.| R p # U.              ",
"                    JXJXJX. > + @ > > < > < 3 1 @ < < > > 3 1 < 1 3 2 1 U yXV.z. . .| | G {  . .2. .{ G c.1.A.J.J.4.n./.uXU.4.n.;.j *.-.5.3.[ g R v.Z.v.% # # # .             . $ # 9 8 g.z.U.I.I.!.Y.@X3X3X+X/.!.G.x.R H J T | y.4 # 1 @ p               - 9 * p p | a. .a.T C p J a.z.} R G # U.              ",
"                        JX. ).sXc < < > > 3 , 2 3 4 1 , 1 3 1 > < > < < b (.Q H H E p.!  .P >.l.l.l.>.h P c...k *.*.3.*.[ } ,.n.*.I l -.-.{ j 9 ^ B.Z.N.* $ * @ .             # + # p 8 j.z.~.I.P.Y.T.<X5X5X<X/.^.I.x. .S R  .| k.4 # 1 @ e               - - 5 m * ! j.T  .s.B g k.A.b.>.W G # W.              ",
"                                MX< < > > , , 2 2 2 3 3 > , 3 > 3 < < 2 n j.v m p 5 v R Q E >.>.>.g.| H J 2.H.k d d : j  .} W h.*.( *.3.A.T.;.j R v.B.v.8 # 5 * .             * # X e 9 h.G.!.Y.U.T.T.4XpXdX5X<X/.G.M. .H L Q Q | 8 4 8 # m               * 8 r p # Q a.T p.p.T p W D.b.,.E Z # W.              ",
"                                  m < < , , 2 q 2 2 3 2 3 2 , 1 1 < < 6 , > 6 v 5 q q m D m Z W } P H Y P 2.P.: P 1.I i  . .! 1.,.*.*.*.<.<.I F W v.N.v.9 # 5 * 5             8 # X 9 9 z.x.^.~.~.[.<X3XpXhXlX4XT.Y.H.| K P W E ~ w 1 8 # m               * 8 9 e #  .s.p. .a.S 9 Z D.n.:.I H # I.              ",
"                                  (.6 < , 2 2 n 2 2 1 2 , , 3 2 2 1 3 < 2 O O > O 3 b A A 8 V ! :.L L S T  .c.a h 0 & . i W ,.1.) l l z l I I t P v.B.v.0 8 * 5 5             8 % . 8 9 h.F.!././.<X4XpX5XdXhX<XY.~.x.P h L W R H 8 1 1 @ p               & 8 9 e X T s.p.p. .S * Z B.n.! H H # U.              ",
"                                  aXx < 6 < 2 1 2 6 4 2 1 3 , < 2 6 2 > < > < > 3 M y.u.n 1 e D 0 r V V R x.2.P C h p ; E >.P K l l O.O.' ) l i P B.B.v.9 8 8 q @             e 8 # 0 e x.I.).n.n.,.k 3XhXpXhX/.S.S. . .C H E E H r 8 1 # w               - 8 r e 5 p.k.a.p. .N 9 Z l.>.W I R - F.              ",
"                                  sXe < 2 < 6 3 6 2 2 , , 3 2 2 2 2 > O > < < O 3 U A b 2 + 8 e C F D F [ x.2.k a h ; * G :.W ) 4.) O.*.*.W G e L v.N.B.r 5 5 5 5             e 8 # 9 e b.H  .P h K ^ <XxXpXhX@XD.x.x. .E G E Y D 8 , # @ 8               & 8 9 e * | j. .a.a.U C g.b.g.W K W ; U.              ",
"                                  m.. < < 1 1 1 f.x 6 , > 1 1 2 6 2 < O > 6 < O > x b > 1 O p M.H N V C  .2.9.] k a : k K k j j ^ l I ) I I Z g R b.B.B.0 # r D 9             p 8 # 8 a C i : :.U.U.K <XnXpXpX3XI.+XN.z.Z Z R H C 1 1 + # 7               - 8 e e # Q s.p.p.a.Y 9 - C P L I :.t B.              ",
"                                  p.. . @ 7 j.    _.4 , 1 1 3 > 2 2 2 3 2 c < O > < O 3 1 1 Y p.Q H C 9 k 2.9...' ' k 2.} K j t ^ k I K K K Z g E B.B.B.0 # V N N             m 8 + ; C f.l.>.h D v.g /.nXpX5XY.{ >.x.x.Z ^ D R D 4 4 # # r               * 8 e e @ E a.p.a.| m - . o - G E l.g B.              ",
"                                                    sX4 , , 1 2 x 2 < > U b < > O > > > 1 < v Y Q H H w h ;.8.' =.+.' s { k Z j j z k j j ^ Z e R B.U.N.9 - e e m             e r # w i N.>.h.v.h.:.Z [.zX5X6X~.; Z p D e F H R R 4 # + # 8               - 9 8 9 * p.k.a.a.T w @ 1 m Q E.m.V.8 v.              ",
"                                                    uXq 2 , 3 3 < 1 < O 2 6 < > > > O O > 2 1 e ! D W r g 2.6.O.9.=.] ' *.P I j j ,.U.J.R.Y.I.k.h.!.b.B.8 # e q M             w 8 + r Z b.N.)._._.U.P [.zX5X4XU.[ G H Y S D H R Y % 1 4 # 8               - 8 0 w 5 a.k.j.a.| @ X @ 5 U p.u.U r !               ",
"                                                    yXq 1 > < q 1 < < 2 < > 1 O O O O O O 1 , 1 v D ~ v 0 2.=.{ ....' ' ' k { e % E P./.[./.4X3X_.U.N.N.9 1 e 8 N             w 8 + r i >.B._.~.~.Y.n.<XzX6X3X/.} :.F Y A D Q R Y 4 4 # # 8               8 8 e 0 # f.m.a.a.| # # # 1 1 < O O 9 g               ",
"                                                    tXq 1 < < > > @ @ 1 < O @ O O > O O > O 1 + @ r g e 0 W I [ k f k s J { J w 8 | ~.T.~.3X+X/.D.B.U.v.e r q c D             w 8 @ r C x.U.~.U.U.U.U.aXfXpX_.Y.v.W R Y C D Y R L 4 , 1 # 8               - 8 w 8 @ a.C.a.j.Q # $ . # 8 6 . O 4 e               ",
"                                                    C < < @ @ O O @ O 2 2 < @ @ O + @ O O O O < n / F / w R P P = a s k k G 0 # e E l.^ ^ K G i E l.x.C.r 8 q e S             e r . e Z h.B.U.U.!._.B.n.W ^ . : P L A U V V Y R D q 4 + 4 8               - * r 8 # p.m.j.a.E # . + 1 # 1 1 8 8 8               ",
"                                                      N w S M Y Q y.W.uXM > < + O O O O @ 1 1 2 b E., q r F 0 H J {  .{ G l & 9 Z } c.I j G p i l.F.B.v.e 8 5 c C             m r + V h n.N.U.~._.uX[.lXpX3XiX3Xb.D V Q v A D S D r r 4 8 8               # - w 9 1 f.N.k.k.Q * # . 5 m 8 @ # .                 ",
"                                                                      (.1 1 @ @ @ @ @ * # # O 1 y.A b @ 6 + e G { { ..{ k k i h L  . .[ [ ;.J J F.^.B.B.p - 5 q B             e 6 . e Z v.v.I.Y./././.pXhXpXlXpX:.V w D v v A S F v 4 , # e                 - r 8 * a.m.z.k.Q 5 r 8 H D. .x.iX9                 ",
"                                                                        . < @ . @ . . . . . O b `.A , 2 q > @ C a { ....k C : a { 2.' { ..I ; X C l.B.z.9 # # 7 Y             w 1 . e Z l.b.!.Y././.~.pXcXpXlXiXB.! D 1 w 5 V m / / 4 4 4 p                 8 r 5 # p.m.m.j.Q 9 w >.x.>.k +X  ).                ",
"                                                                        7 . X . . X * 9 e !.Y > q 2 6 , > , > p j k { ' l H 9 h { ..l ..2.S. ...!._.n.C.; # 5 c U             w q . 8 Z >.l.I./././.Y.pXhXdXpX3Xz.| Y 1 1 @ q 2 F / , 2 # w                 8 0 8 # p.V.V.a.Q e e J D.a P G.                    ",
"                                                                          Z 7 D V.        bX# @ 5 1 1 > , > 1 9 a d k k k G a ; :.*.k >.Y.^.b.N ^ v.Z.l.- # 5 N T             e 8 + 8 H  .m.I.~./.[.U.hXhXdXhX/.h.E A q + r v q b / 4 4 5 p                 8 e V w _.N.M.j.E 1 - ; j ; C A.                    ",
"                                                                              sX            @ @ 5 < < , > 3 , 9 i i k { j p 8 . W *.d g.).@Xz.C H h.B.h.9 5 7 N Y             r 8 O 8 H } j.~.Y././.Z.hXcXpXpX/.>.E S w r D V b 2 b 4 1 @ N                 8 e V N ).W.F.s.| w w * * . 5 u                     ",
"                                                                                    iXaX    @ . 5 < < 3 , , > m K h G k d 9 0 # ) :.G h.).yXN.H W ,.B.g.5 5 7 m T             w 8 . 8 Y } h.~.~././.B.dXhX4X3XY.:.H S V e F / , 2 q 4 1 5 S                 8 8 8 @ w V.V.k.Q 8 r 4 8 * 9 ;                     ",
"                                                                                    sX3X  !.. @ 5 5 < < 3 > b k.W i  .k k 9 g 0 D W d Z z.~.j.J p.h.Z.f.% 5 w c  .            v q O - P :.l.~.~.<X3XY.hXhX6X+XU.H C H C 8 e m 1 2 q 4 4 4 Y                 8 8 # . 8 V.V.z.Q 5 8 # 8 8 ; &                     ",
"                                                                                    aXiX  !.. @ @ < 3 > b x 2 * ; & g K k w e Z % W I h  .N.f.G p.v.B.k.* q 7 m T             v 1 O # H | >.~.~./.3X/.hXlXpXpXI.G R T F 8 w v 1 2 q r , 4 Q                 r 8 5 @ V !.W.z.Q * 5 # # * i                       ",
"                                                                                            . * w 1 O > 2 b q 5 * ; 0 G L * p D - h } J  .j.p.C ! U.B.C.5 5 9 w T             v 4 + 8 H  .v.~.~.[.)./.pXhXhXhX/.} | H A q F D 4 4 b 4 4 1 |                 8 # 8 # S (.!.m.! 5 5 . o = b.                      ",
"                                                                                              # 5 S j.U M U Y D E g * a Z p e H - g P h. . .U a Q ) U.k.5 5 7 c p.            e 8 @ # G } x.U.U.!./.1.6XpXlXlXpXg.Z Y F e ~ p.2 2 4 b 4 # a.                4 X 8 8 m ).!.N.! 0 r # & Y.                        ",
"                                                                                                                fXuXV g 9 w 5 e 9 e m C S w p w e Q V.f.# @ < m a.            e 1 . 8 C W x.U._.Y._.:.W _._.I.B.>.| E D 8 V ~ q 4 4 q 4 # g.                8 . 8 # r sX(.V.W 8 w O * aX                        ",
"                                                                                                                    R V w * . o # * w p 7 * 9 * e | j.V 7 @ # 5 p.            V 8 O r p :.l.U.F.!._.N.R ^.v.v.>.:.! R D # w Q 4 4 n r 1 < x.                # . r # 1 vXyX_.Q r v . p N.                        ",
"                                                                                                                    | V e # . 5 e 8 e r @ # 8 @ @ m S w X 5 C s.M.            V 8 # w g >.l.B.U.!.F.F.f._.!.N.:.g.| W D # V m.4 6 b q 1 @ j.                - . r @ D mX  uXQ * A . D uX                        ",
"                                                                                                              sX    H 5 8 . . o 9 . @ # X * $ # . 1 * @ 9                     v 1 O 8 C >.b.B.N.V.v.m.C.B.B.C.h.f.R Q Y % D m.q 2 4 b 5 # l.                # @ e @ ~     uXQ 8 Y @ j.                          ",
"                                                                                                                    z.* 9 < . @ @ . . . . . # + $ + @ @                       V 1 . 8 0 1.b.pXuXuXuX[.`.F ! k.C.:.! ! :.e R V.2 4 4 b , # z.                5 # w # R     aX~ 8 D @ V.                          ",
"                                                                                                                uXsXKX  sXE.7 Y C.k.j.C r $ # . + # # @                       m 1 . e 0 >.v.sXaXpXMXaXuXlXiX1.V.:.:.C.N.C R m.q 2 4 4 4 * j.                8 O q # R     aX~ 8 A @ V.                          ",
"                                                                                                                        yXsXV.j.m W.!.sXyX4 # . + # # p                       p * @ e i :.b.3XfXpXlXlX3XbX3X>.N.:.E :.k.V D p.8 4 2 b 4 5 g.                7 @ q @ Y       R 5 F O F.                          ",
"                                                                                                                        F.U S @ 8 Q ).j.!./ . + + # # U                       S 7 O r g  .U./.3X3XpXaX/.nX/.h.v.! C C g 0 V m 8 4 4 4 4 5 |                 8 O q @ R       R 1 N O W.                          ",
"                                                                                                                      m S w # = . S a.M O . O . 8 4 X p.                      m 5 . 8 p :.h.:.B.B.I.~.b.zX_.v.v.:.| E L e 9 F e 4 q 4 1 1 !                 m + e O R       R r D @ _.                          ",
"                                                                                                                      Y R 5 o $ X @XbXsXaXyX!.Z f.- . N.                      m 8 # r g } l.B.~.~.!.U.U.bXI.b.k.f.k.k.~ t 9 Z 8 r 4 % 1 X Z                 S + q @ H       R q D O _.                          ",
"                                                                                                                      D A e 8 # # N.aXfXaXfXlX(.W.5 . @ 7 N m c p.            e * o e g | h.!./.[././.~.lX~.b.N.f.| Q L e ^ b.Z.U.^ 4 r 5 p !.              D @ 8 X H       D 8 A . F.                          ",
"                                                                                                                  bXfXW.8 0 # - *  .iXaXaXaXfXm.W.C . . X # X @ m             w # # e g :.>.~.).uXiXiX/.lXU.B.N.| E L D Z E v.[.U.^ r - # S F.              Y @ 1 # H       D 7 m . V.                          ",
"                                                                                                    k j P.I.U.1.,.R V t o % - # @ a.fXfXfXpXsXm.W.E.m.@ # @ # # H             w 8 o e V :.j.D.B.B.U._.I.lX~.D.k.R L ~ W t F Z.Z.K : # 4 5 * *               Q @ * @ Z       Y q m . N.                          ",
"                                                                          @X/.I.D.S.l.>.[ { K Z P k : o I K ,.I j j ~ - - % $ r *  .vXfXiXaXuXz.Q.^.W.9 * * 5 p Q             w 5 $ e V :.h.F././.@X3X/.fX).P.z.Q R R Z F ~ U.h.I t r # * 5 z.              y.+ 8 # N       H v e @ N.                          ",
"                                                    @X/./././.Y.A.P.P.b.G i p j G H P H Z G ^ j k g & & j G ) ,.z : t $ r : % o X { bXfXsXiX@XV.G.^.F.N . @ # w T             9 * . 0 t } l.U.@X3X3X3X3X/.3Xv.p.R H D F ^ L ) `.~ ) D q 8 m ).              p.O 5 # m       D e v @ k.                          ",
"                                yX@X^.!.F.b.l. . .I K G j k j j k { P.S.[ : d : : j G g ^ ,.C.) Z.Y.K Y.3X3XpX4X[./.<X3XpX5XhXcXD.{ CXbXaXpX@Xm.W.(.W.H . @ 5 7 N             8 * X r 0 | l.D.@X3X3X3XiXI./.b.:.R L Z F 0 r / / A / A 8 8 F !.              j.@ 7 # m       H 9 p . E                           ",
"                    b.l.g.E P J G k G P D Z j I I l l K I ,.<.n.n./.).<XoX8.oX6X1X2XhXlXnXxXUXSXUXcX<X8XNXnXxXUX1XL.-X0X0XBXFXxX/. .bXbXfXgX@Xj.W.!.!.y.. @ 7 5 a             8 r % e 0 ) >.P.3X@X3XuXiX!.~.B.} L ^ R L ^ / ^ / ^ A / b 8 q e 9             m.@ # # N       E r 8 # C                           ",
"              ' X = = = s G J.+X#X4XpXlXlXnXzXcXjXcXjXzXNXFXLXKXLXKXKXpXdX2XqX0X0XUXZXhXzXSXSXZXBXjXoX8XxXjX0X0X7Xf XX-.:X>Xe.-.l [ @XG.A.~.~.k.W.(.(.p.O # 8 7 N             * 8 % V 0 W l.B.).@X3XuXiXU.U.v.L E W R ^ ~ ^ ) / / / / 4 r r * o Z           N.@ # 5 C       ! r 7 1 F                           ",
"      bXCXJXKXCXCXVXCXnXlXhXFXDXFXFXDXDXSXVXxXqXqXqXqX2XcXFXGXDXKXKXKXzXdXqXqXqXAXAXGXL.2X8X;XqX9X9X8.oXNX0X;X-XL.q.|.#.|.:Xr.L.*.P x. .G >.U.y.W._.(.f.@ @ 5 1 N             % 8 8 / e ~ v.F././.)./.pXY.Z.v.Z D ^ H ^ ~ ^ ^ ~ / 4 4 , 8 8 * $ F           V.O @ * S       | e # 8 F                           ",
"    s.vXJXJXLXLXKXDXCXCXNX4XFXGXKXGXKXKXKXFXkX,X,X>X=X2X7XxXzXdXjXlXVX1X0X0X7XwXqXAX0X7.oXXX>XqX7X5X9.+X8XqX7X:XL.6.e.+.=XqX:X-X3...x.b.v.x.!.y.W.!.(.f.X @ 5 7 N         N._.; 8 1 t v ~ B.!.!./._.).[._.v.h.g R ~ D H ) y.) ^ F 4 4 + O 1 9 - C           W.@ * 5 S       p.e # 1 C                           ",
"  @ B Q.IXJXJXLXLXJXKXKXDX#XGXLXLXKXKXLXLXFXUX,X,X,X,XwX'.:X1X8XpXzXGXcXUXSXkXqXqXAX7XXX1XXX>XqX=XXXJ.OXoXXX:X:X:X=.0.w.qXeX:XL.J. .c.c.N.G.W.Q F.W._.`.+ + w 9 p             o 9 # / / H k.) C.h.h.:.B.C.) ^ t t t / F r r / ^ ^ , 4 + + # 1 #             !.. 5 * D       | e O 8 D   uX                      ",
"sX@ 3 u.JXyXyXJXLXKXLXJXLXdXKXLXLXLXKXLXPXHXAX,XrXrXrX,X%XUXSXFXFXPXIXGXGXSXSXHXAXBX,X2X2XXX=X0.:XL.K.=.K.$.r.:X:Xr.w.:XqX>X&.q.J.I x.>.x.N.!.! F.W.tX`.O + 8 9 N             . r # V V ) C.B._./._.U.3XB.v.aX4X/.U.Z.f.V.) C.) ^ 4 4 4 + # e 0             (.. < # J       | w . # D                           ",
"(.O @ > 7 @ 7 yXJXJXKXLXLXbXJXLXKXLXKXLXHXHXeXrXrX,X,X,XqXAXGXSXVXSXKXPXLXxXcXUXqXwX0XjX0X2XqX>X=X-X-.L.;X:X0.:X:X6.2X>X|.eX>X].L.[ l.l.l.N.!.Q W.!.(.j.# O 8 7 p             X 0 # F D W l.lXpXpXpX4XlXn.) hXhX5X<Xn.R._./.f.C.~ 4 4 + . m.KX              ).@ = < Y       :.9 X . E                           ",
"Q.< O > @ @ 7 7 vXJXJXJXmXu.vXLXKXKXKXKXHXHXeXeXrXrX,X>X%X].jXSXFXLXIXIXDXzXT.6X<X0X0XkXkXL.:X,X>Xq.O.T.jX,X'.0.=Xu XX7X7XHXeXwXT...>.x.B.V.!.Q E.!.(.j.# . 5 5 p             . w # F Z R Z.5XpXpXhXpXlX1.I hXhXwX<XZ.U.+X/.f.B.~ , 4 4 O C.mX              yX@ < = R       f.w # . !                           ",
"Q.> > + > > + O O O O > x 7 i.LXLXJXCXCXwX=X,XeXeX,X,X&Xe.w.8XhXUXCXKXMX_.uX3XGXHXUXkX0XxXqXe.,X>X8.l L.2X>X:X|.%Xt.6.w.r.=X0.-.3. .>.x.G.I._.| M.!.(.C.# . ; 5 w             . e # g F ) Z.3XpXdXfXpXdXP.,.5XwX6XT.B.U._._.k.C.y.# 4 # 1 p.                yX* * * Q       | w @ @  .                          ",
"E.> > > > O + O O O O > > 3 x IXIXCXgXBXBX:X XqXeXeX>X=X:XXX2XSXpXlXKXKXKXKXnXPXPXSXkXxXkXAXqX>X7XO.z J.;X:X0.=X0.@.w.|.|.e.:Xw.w.<. .x.F.I.!.| N.!.(.m.# X 5 5 a             . w # / j `.Z.uXiXaXfXsXpXZ.l.3X5X-XU.n.F.~._.`.V.~ 1 + 1 . p.                @X# @ o D       f.8 # @ p.                          ",
"E.3 > > > O O O O O O O > 3 B IXIXyX$X#X#XOX8.;X;X;XXX7X=Xq.8XGXUXKXPXPXLXLXKXSXhXpXcXkXZXAX:X=Xe.J.O.<X6X:X'.=X>X0.r.7.|.6.=XoXoX*.[ >.A.D.U.} M.W.(.k.# X 8 5 w             . q 1 t F ) U.uXuX).G.N.k.F.G ~.6X<XU.V.B.U.U.f.V.y.+ # + # Y                 yX5 o @ E       j.5 # . f.                          ",
"d.n > O O . O O O O O O < < 7 IXIXyXgXBXBXNXNXVXFXGXFXNXw.9.hXNXUXFXIXIXIXIXKX6XcX4X6X0XZXqX:Xe.-.z j Y.<Xq.;X X|.e.XX|.;Xr.` e.L.{ [ ;.S.J.P.:.V.W.).k.# $ 8 7 e             O e 1 / F h.Z.pX@X^.M.H p.I.G ~.<X<XU.V.V.!.V.`.C.~ + O # @ Y                 @X8 * * k.      f.1 5 . g.                          ",
"Q.n 3 > O . O O O O O O O @ @ JXKXGXNXBXBXNXDXNXVXBXgX1X*.K.1XK.pXLXPXKXKXKXKX4XxXzXhXT.-X2XAXL.2Xj j F K S.jX:X:X-.7.-.e.q.q.XXL.=.P *.S.A.P.,.z.W.(.C.1 X 8 7 w             < e < C g :.Z.3X@X@XgXiXyX[.e /.].<XT.n.v.B.B.W C.~ + + 4 # Y                 uXm @ * V.      j.5 * . k.                          ",
"d.n 3 > O . . O O O . O O O X IXIXPXVXAXGXGXLXzXgXgXgXpX8.J.T.L.wXnXKXCXVXVXpXdXzX4XT.-X8.-.7XL.oXK I 3XT.T.-X-XXXO.-.L.-XT.-.q.8.=.{ ..3.3.J.:.v.W.(.C.1 . 8 8 p             5 a @ C g ,.B.uX3X@XiX@X@XuX: /.6X6X/.v.>.n.B.) V.~ 1 1 # 5 Y                 yX8 = @ k.      f.1 @ . |                           ",
"d.n n > O O . O . O . O . . X LXKX#X8XZXAXLXGX8X5XnXVXlX3.3.:X:X2X3.].U.~.4XT.T.P.{ 3.*.y y ( -.R.k [ L.-X1Xe.e.XX-.K.XXq.w.q.K.K.<.[ *.3.3.n.>.C.W._.m.* X - 5 e             # w = C g ,.B.iX3X@X3X@X~.uXg _.4X-X/.,.E j.C.y.V.~ 4 + 4 # Y                 ).* . X j.      j.5 @ @ |                           ",
"E.i.n > O . O O O O O O @ O @ s.Q.= ..1XSXGXNX9XnXnXxX0X-.O.:X:XqXhXGXUXNXxXL.' K.;X0X-X-.-X<XK.K.c./.<X8X0XXXw.XXq.q.8.8.6.=.w.8.S.;.x.J.S.J.>.C.W.(.C.1 X 8 5 p             < c @ C 0 :.Z.iX).iX3X3X~.6XF U.6X[.I.! r Y k.) V.D 4 O # @ Y                 ).w O X z.      k.5 . .  .                          ",
"d.d.i.3 > > O O O O O O O O O 3 < . G ~.NXGX1X#XcXUXcX0XO.@.qXqXqX:X:X;XOX-X3.K.-Xr.].q.@.e.L.L.T.Y./.hXcXdXL.q.L.oXK.J.K.L.oX8.J.8.' =.1.2.n.h.k.W.(.k.* # - 5 p             7 a @ D g ,.B.iX3X3XiXuX[.uX^ Z.6X/.~.a.D k.C.`.V.U 4 , 4 < J                 @X8 X . z.      C.# 1 . W                           ",
"d.i.i.3 O > > O O O O > O O > 6 3 + F B...8X=.zXGXZXkX0XO.` qXqX%X:X;X;XL.T.;.5.q.e.>X6.+.R.L.T.L.T.6XpXdX5X8.3.8.q.8.q.w.J.K.K.K.=.*.3.Y./.+Xh.k.Q.(.C.1 # 8 8 m             5 N . L g ,.U.iX[.3X).[.).3XF B.3X/.^.z.j.F.B.`.C.D # # 4 * U                 yX5 @ X j.      m.# # . R                           ",
"d.i.n 3 > > > O O O O O > O > < > > b b < = oXgXZXkX0X7XO.=.K.;X3.8.XX1XT.,.j j 4.XXe.w.L.T.L.oXoXP.<X3X4X3XS.8.8.=.=.8.8.J.8.8.J.8.3.2.J.A.P.:.f.W.(.M.1 X * 9 p             7 7 @ J g ,.Z.pXiXiXpXiX3XuXL v.[.U.~.M.T V.V.) C.U 1 1 5 < S                 uX# . X g.      N.@ # O D                           ",
"d.i.n n > > > O O O O O O O O O > 3 b 3 O X +XjXZXqX8X;X<.=.L.oXq.z S.R.B.; e / Z.-XL.XXJ.K.L.T.oXR./.+X3X[.3.S.J.3.8.8.S.8.J.K.H.3.<.2.T.Y.D.E ! E.(.V.# . * 8 p             5 m @ H g v.B.pX3XuX3X@X_.uXW v./.P.!.M.~ C.C.~ C.A 1 # 1 @ J                 uX. . @ x.      C.# + @ C                           ",
"tXd.tXE.sX> > > > O O O O O O > O > n > O O @XgXNX0X7XxX3.H.9.T.K.k 2.~.E V / w ).<XJ.J.H.2.1.;.P.P./.+X<X/.8.8.8.8.2.8.8.3.8.8.3.<.2.1.S.1.n.W `.V.(.M.> O 8 8 e             6 w @ D j c.A.pXgXfXfXmXlXmXj.N.3XU.^.M.J  .p.R f.A 1 + # # S                 uX. @ X j.      C.@ + O g                           ",
"JXIXIXIXIXyXO O > O > + > O O O O > > > O @ F.#XhXq.4.,.{  .1.P.A...P.pX~.k.r r U.[.J.I 2...I [ n.A.T./.<XoX3.<.3.2.=.<.<.<.-.3.=.<.<.<.1.;.l.! ) E._.E.# O 9 8 p             w v O ~ g >.A.pXzXnXbXbXlXnXz.v.[.Y.^.M.S s.f.! j.U 8 # # # S                 sX. @ X g.      v.# # @ C                           ",
"      KXJXb > O O O O O O + O O O > > > < @ . b...h : + 0 >.G.b.c.>.H.+XA.f.g L _.J.R.[ J { { I l.n.~.T.+XT.2.<.<.2.8.-.-.<.<.3.2.2.<.;.1.1.l.! y.V.(.M.# . 9 8 m             5 v . R j 1.D.iXVXCXnXbXaXmXm.f.3X/./.V.S h.`.~ f.S , # 8 # U                 aX. @ . |       v.+ * # p                           ",
"          3 O O O O O O O O O . O O > O @ O O . . + q + e x.S.c.;.G J k d h j G n.Z.,.; a u h { 1.n.U.Y./.Y.1.<.2.=.2.<.<.<.<.<.3.3.1.<.;.l.c. .y.!._.M.# X 9 8 a             q M O R g 1.c.pXCXCXVXmXMXnXz.p.[.3X_.N.C k.`.R j.S 1 1 1 @ D                 sXO < X |       m.. # # e                           ",
"            Y < O O . O O O O O O O > O O + O O O O O O 7 S.2.2.k a s k k  .[ ;.c.,.,.{ { S.c.>.l.l.Y.T.T.K.*.<.<.<.<.<.<.<.<.<.2.<.*.;.<.<.1.E T F.Q.M.@ . 9 9 9             7 w O Y g 1.b.dXCXCXnXmXfXmXV.f.3X3X/.B.) ) y.R f.U 1 # # # Y                 aX@ = X |       N.# @ # e                           ",
"              A . . O O O O O O O O O O O O O O O > O O @ x. .....=.3.8.2.S. .;.1.,.S.*.k H.Y.c.A.1.P.K.T.P.2.[ 2.<.;.*.;.=.<.<.2.<.*.;.;.<.>.} E V.!.M.@ o 9 5 w             6 c . Z g 1.x.lXVXCXCXmXfXmX!.V.!.v.U.~.:.`.) ~ j.U 1 # 5 X Y                 aX# 1 . |       v.O # $ p                           ",
"              uX. sXV O O O O O + O O > > O O > O > > O @ C  ...{ =.2.9.9.2.k i ;.;...{ u A.Y.A.A.x.A.Y.Y.P.[ } } ;.;...;.<.>.3.1.;.;.;.;.>.>.} E V.(.m.* . * 5 9             7 c O F g l.S.gXVXCXVXnXfXlX!.V.) j I ^ t ) W y.j.T , 1 4 # H                 aX5 5 @ |       B.O # # g                           ",
"                m.  c > O O O O O O O O O + O > > O O > . J b.c. .<.<.9.2.;.G a { J G s = 2.S.c.c.1.J.J.P.A.W [ ;.;.;.}  .;.<.} [  .;.>.;.>.1.E T V.W.M.# o * 9 9             @ e . C g x.b.@X4XyXuXiX3XfXU._.^ t ^ ) ) h.W y.j.Y 8 # # # R                 fX* # . Q       V.. X * g                           ",
"                    sXM > O O > O O > O O O > > > O O > > p m.x.h.1.H.S.8.[ a 9 C }  . .a ..1. .[ >.x.S.S.A.H {  . .[ :.[ ;.>.{ { [ [ ;. .>.>.! R M.!.m.< * - 9 a             5 m O F F >.n./.+X+X^.+X!.iX!._.) j ( ) ) ) y.`.y.u.q % + + R                 aX5 5 X R       F.O . # p                           ",
"                      tX> > O O O O O O O > > > > > O > O < j.Q  . .1.S. .Y w 7 9 a N a ; a H P I  .x.S.A.D.J P P }  . .;.;.;.} }  .} } } ;.>.W R M.W.k.* @ * 9 p             5 v . V g 1.D.I.Y.Y.).@X@X@X@XV.,.F ^ ^ ) ) ) `.y.T 6 1 # + E                 fXq 5 . H       F.. . # p                           ",
"                      yX> 2 > O O > > O O O O > > > O > < < @ 7 7 a 7 a m e m w 5 q w 8 e p C N a J x.S.G.S.J J [ [ k ;.;.;.*.{ [ [ [ P [ ;.1.E R M.Q.j.# o * * N             5 q O V g h.A.G.H.Y./.3X3X^.iXb.n.^ ^ ( ^ ) ^ y.s.T 6 1 # . !                 fXr 5 . H       B.# . # V                           ",
"                        O O O > O O O O O O > > > O > > > < < > 3 5 @ 6 5 6 x 6 6 q 1 8 5 5 C S p J 2.S.S.S.k I P [ {  .} [ [ } [ I I { } 1.l.W R M.!.j.< X * * m             1 7 O t g >.x.P.D.A.b.x.H G 3Xl.l.( ^ F ^ ^ R `.a.u.6 # 1 O !                 aX8 5 @ R       B.# O 5 g                           ",
"                        > 3 n n O > > O O O > > > O > O > > < 3 3 3 6 2 3 6 6 n < 1 @ * * # 9 a 7 J  .x.H.x.k J P [ [ } [ [ *.;.[ [ [ *.;.;.1.W D m.!.m.* . 7 * C             w q # / F 1.l.U.U.B.v.h.:.D pXh.v.) F t t ^ ~ y.y.T 6 # 5 $ |                 aX- - # Z       !.1 + 8 C                           ",
"                            mXtX> > > O O > O > > > O > > > < 3 3 3 3 > 3 > v U q 5 r 9 0 i p Z a T 2.b.A.x.k J P E } E [ [  .<.3.>.[  .;.;.>.W U M.Q.C.< X 9 5 C             w q # e t 1.,.~.U.U.F.B.k.~ aXZ.Z.) ) ^ ^ ^ ^ `.y.u.q 1 4 $ |                 aX- # O D       !.# . * g                           ",
"                                (., , O O > > O O > > > > < > 3 > > 3 > < < T q A D D E |  .:.E >.} >.S.H. .k J E [ [ }  .;.1.1.;.;.[ [  .;.>.W Y M.(.j.* @ 9 * N             e q O e 0 h.,.B.~./.F.V.f.D sXB.h.C.4.) ^ ~ ^ `.y.T c 1 # . Q                 aX8 # # H       !.+ . 1 F                           ",
"                                  ).O + O O O > > > > < 3 3 > 3 3 3 > > < 2 `.1 c Q R Q E E f.| j. .x.G.H.c.{ I P W P [ ;.;.>.<.;.;.;.[ *.;.>.W Y M.(.j.@ X 9 5 C             e r O v 0 4.I 1./.V.U.V.y.v uXV.f._ `.) `.^ ^ `.`.u.7 8 # $ Q                 aX% # . R       !.8 . * Z                           ",
"                                    uXO O O O > > > 3 > > 3 > 3 3 3 3 3 2 U y.x 4 , > > > 1 , , 7 5 ;  .G.H.G J J [  .} } ;.<.;.{ P [ [ [ ;.;.E D m.(.a.* @ 9 * C             v 8 1 r V :.,.P.~.aXpXaX).j.MXB.) Z.Z.4.4.:.D | y.T 6 5 5 @ |                 lX# # @ Y       !.% . # !                           ",
"                                      . O O > O > > > > 3 > 3 > > 3 > 3 3 U 2 2 n n n 3 3 2 2 3 7 p T x.x.2.k C P P } [ I [ [ { { [ [ *.[ ;.>.L Y m.(.p.# # 8 * N             g 8 1 v t ,.l.n.n.v.J.U.!.V.uXI.B.4.4.) ) l.E T T u.6 4 # . E                 vX1 # @ ~       F.# + + |                           ",
"                                      . O O < > 3 6 3 > 3 > > 3 3 > > 3 3 O > > , 2 n 3 n 2 n n M Y *  .N.x.k a L P } [ [ [ [ { { [ [ } [ [ >.P U M.Q.y.# @ 8 * Z             v 8 + e 0 >.c.4.,.1.;.1.>.>.~.=.J.4.) 4.,.,.H ! u.~ q 5 1 . Q                 lX5 # O !       !.$ . # :.                          ",
"                                      . . @ < < > 3 < > > 3 > > 3 > > 6 3 > < > 3 3 n 3 3 n n n Q.B O T j. .J p H P } } [ } P I G J [ [ } ;. .L Y j.W.Q @ # - 5 D             m q 1 e r v.c.,.3.<.;.3.1. .4XY.3.4.( ( ) ,.D y.u.T 6 1 # . !                 aX4 # # |       V.# $ @ :.                          ",
"                                          Q (.).@Xf.1 , > > > > > > > 2 > O > > > 3 > n 3 3 u.E.M.B > y.F.p.G E C >.h i * i g m V e C G G P | H U j.M.Y @ @ 5 # T             v q + e g v.>.3.c.3.8.3.2.;./.Y.3.( *.4.4.;.H ~ ~ u.6 8 # . !                 fX8 5 # k.      V.# # $ :.                          ",
"                                                    uX1 > O + > > > < 3 > > > > > > > , > 3 u.C.Q.d.u.M w N S  .E  .H * . * 1 8 r # 8 9 W  .>.H J z.V.Y # @ 8 5 Y             m q < r p :.W 1.3.8.2.2.*.*./.J.3.O.( *.) ) P ! u.T 6 6 # . y.                fX8 1 $ k.      B.. * o g.                          ",
"                                                      S + 1 > O > @ > > > O > > > > 3 > > > b E.sXy.B n 1 O a.Y } P | C * w w 5 5 6 5 Y C E | J S j.E.T 1 # 8 # Y             M 7 # r V | I { ;.1.2.=.;.*./.J.5.( *.( *.I P Q Q u.q 4 # X |                 aXr # X k.      V.. * $ g.                          ",
"                                                      uXO < + > O < O > O > > O > > > > 3 3 n b U b n 3 6 2 w Q |  . .H * p v c v U S a.p.! | H S M.G.u.5 $ * 5 Y             m 5 1 r g :.} k ..{ l [ ;.1.T.R.8.) ( 4.) I L y.u.T b q 1 . p.                sX9 # @ k.      N.. 8 . l.                          ",
"                                                        . O O O < @ 1 c O O O > > > > + > > 2 > n 3 > 2 > 2 w Y g.>.g.R 9 a Y B M M U Q | a.l.T T M.!.y.# @ 8 1 Q             A q 8 e g k.:.d P [ 3.2.1.c.3XR.n.( ) ;.*.,.W Q ~ T q 6 # . f.                sXw # # z.      z.. * $ v.                          ",
"                                                        O . @ O O 1 V.> > O O O + O O > > < 2 2 3 3 3 3 3 3 q D z.x. .P p U T c 7 7 N  .|  .g.R P M.W.Q @ $ * * Q             S q 5 v 0 v.1.;.;.>.2.2. .1.+X/.5.) ( W *.,.L Q ~ T q 1 # . f.                sXr 1 # C.      C.$ - . N.                          ",
"                                                        . . . 5     vXA O O < + O O + > O < 2 3 2 3 2 3 3 3 3 S b.z.| R p S N N w 7 a T  .| g.P Y M.W.y.# . 5 1 E             S w 8 v p v.>.A.c.>.1. .P { T.J.4.( ) K ) I L ~ Q u.n q 1 . |                 sX0 1 # z.      C.. # . v.                          ",
"                                                                        . @ O O + + O O > < 4 1 + , 3 , 3 1 @ C N.l.l.P p N S T B N N Y | | a.J P M.F.! # + 8 # Q             S 6 8 e t l.*.A.c.;.1. .P [ J.n.4.) I K k K Z Q ~ ~ q 5 1 . f.                uXr # $ C.      C.X # . N.                          ",
"                                                                        X . . O > 1 > # 1 , 2 , O O 3 , , , + C >.g. .H S T  .T  .N N J  .E a.Y T M.F.p.# . r 5 T             S 8 8 8 0 /.T.Y.A.,.l.} I :.Z.Z.n.K K I ^ z F R u.U q q 1 . h.                iXr 5 @ h.      k.. 8 . v.                          ",
"                                                                          . . . . . . . . q , > > > , 3 > > O E  .[ J N H Q p.T B N N J |  .>.H T M.F.p.@ # w 5 E             U 8 7 r p 3X+X8X3.;.>.W ;.) n.5.4.( K I K L Z R Q U b q 1 . j.                uX4 # @ h.      k.. 8 . v.                          ",
"                                                                            F.          JXKX).O > > 3 > > > O N C w p 7 w 7 5 w N N 7 J | f.x.J T V.W.| X # v 5 Y             D q 8 9 d A.1XoX3.{ >.[ { ;.c.3.4.I ^ I ) K L R y.T q q # O k.                uX8 # # k.      C.. 8 $ V.                          ",
"                                                                                            _.O , > > > > O O @ @ @ 5 @ 6 5 7 7 7 7 < J >.g.j.T Q M.W.| @ # v 5 T             Y w 8 9 0 G.J.-.J.k 2.J K ;.J.3.,.I I R K K ^ H ~ T q 4 1 . k.                uX# # . g.      h.. 8 . N.                          ",
"                                                                                            W.< 3 > 3 > 3 < 1 < < 1 5 1 6 7 q 8 7 8 w Y g.l.x.S Q W.W.Q # # w 8 C               7 r 0 0 l.S.8.T.2... .s >.A.3.4.K ^ K ^ Z j Y ~ U n q 1 . j.                iX+ # . :.      f.@ e . v.                          ",
"                                                                                            (.O > O > 3 O < O < < 2 1 5 6 r w 5 5 p = B H T  .B T F.G.Q @ # w 5 N               5 r e 9 b.c.H.J.P...2.u *.S.*.,.) I I K ^ Z R T U q 5 # . j.                uX@ # . :.      f.. 9 . v.                          ",
"                                                                                              @ 6 c M b y.U M 6 6 5 5 1 w e r 8 5 7 . 7 N N J 7 T G.V.| @ 1 8 @ 8               5 w r r B.P.A.A.A. . .2.>.>.*.4.I ^ W K K Z R ~ U 6 1 1 . f.                iX$ # . |       k.. w $ v.                          ",
"                                                                                              < > < > x u.~ U M c w 8 e D D V S D S Y  . . .a 7 Q j.B.`.. 5 1 @ 5               8 r r w V.B.c.1.x.} ..x.} [ Z ,.) K I ^ h g Y T S q 4 1 . k.                uX+ # . f.      f.X r . v.                          ",
"                                                                                                    W.V.          ).O # % r r w 5 # 7 7 7 < @ X 5 Q C.Y O @ @ 5 . a.            q q r w N.A.c.P.U.x.^.^._./._.1.K h I Z G C S R U q 1 # . f.                iX@ # X |       R $ # X >.                          ",
"                                                                                                                  uX@ . O + $ O . O 5 @ @ . . . 8 q 5 q # @ @ @ X Y             8 r q e C.D.c.T.~.~.4XiXlXlX<Xh.,.:.h.k.E H Y R Y q 8 1 @ f.                uX@ 1 @ `.      ~ # # . h.                          ",
"                                                                                                                    # O # # $ . @ @ @ 5 1 # 1 + 1 b r 2 + , . @ .  .            8 1 r w z.c.S.Y.A.S.>.Y.pXhXT.4.,.Z W | E Z Y Y U w 5 # . g.                uXO < @ !       ! $ - $ h.                          ",
"                                                                                                                    p . O O O . O . . O @ O + O + 6 1 + + . < T a               r 1 r 7 f.b.S.D.b.S.c.+XiXhX~.3.n.I C E E H D E U q 5 # . f.                iXO 1 . |       :.$ % X g.                          ",
"                                                                                                                    j.* @ . @ @ . b W.e O 1 # O . 1 # < S                       5 1 r 5 H l.S.S.G.S.1.+X4X5XT.J.l.v.L E H J D Y D q 4 # . k.                iXO @ @ |       `.1 # X h.                          ",
"                                                                                                                    (.N N w 7 5 @ uXvXtXO + O @ O # .                           r 4 q 8 L A.c.c.G.A.1.+X5XdX<XZ.1.v.W E H D D Q U e q # . g.                iX+ @ @ |       ) 1 # X g.                          ",
"                                                                                                                    ).p T T < 5 1 V.sXp.. . O . . - .                           5 # q 8 H A.c.S.P.H.3.P.T.q.3.I ^ ) H E G Z S Q Y q 1 + . g.                iX@ 1 @ !       ) O $ . >.                          ",
"                                                                                                                    (.B T T m 5 # m y.# . X # $ # 8 .                           r 4 q q C A.c.H.A.A.2.oX4X1X-X,.;.:.W ! Q Y Y Q U r 8 # @ g.                uXO # . p.      p.@ $ X g.                          ",
"                                                                                                                    ).7 N 7 3 * o * . . O . $ X $ r .                         0 8 5 q 8 H x.S.A.I.H.S.5XxXhX<Xc.} :.E | R A U H Y 4 1 # . g.                iXO @ @ R       ) + . X !                           ",
"                                                                                                                    (.# m > < 5 # N uX(.k.^ h.} l.A .                         w 8 5 w 5 C >.S.D.@XI. .+X5X5XY.>.} g.E E Q S D Y D q 1 + $ h.                iX. # @ E       f.# # # W                           ",
"                                                                                                                    (.@ M 5 5 @ @ J @X@X+XdX3XG.U.e 6 7 7 M p.U               9 7 1 q 8 Z x.P.I.Y.I.l.~.3XiX/.>.W | L Y E D D Y D q # # . k.                uX. @ # E       :.O $ # W                           ",
"                                                                                                                  CX_.7 M c e 7 = a Y.+XY.+X+X} R T 5 O . O @ . 5 w           w 7 5 q 8 C ;.[ [ P P u P  .P.n.l.L E D H Q Y H H L 8 1 # $ k.                iXO * @ E       ) O # # E                           ",
"                                                                                                          lXiXv.H g * # # 5 5 6 7 J @XyX#X#XoX .z.M.j.r $ 4 O + e V.          9 5 5 q # R c.c.J.P.Y.Y.T.<X4XA.z.m S e m S H S C h e # , $ f.                uX. # # W       f.+ * # E                           ",
"                                                                                              H i o - h C W H F 9 e 0 8 e 8 * 5 w J yX#X#X#XY.x.F.E.j.4 + + + . (.mX          9 5 7 v 1 H c.Y.S.8.K.K.L.1X2XS.| D Z Z Z G Z C G V r 4 # + k.                uX. * # ~       ) # $ 8 H                           ",
"                                                                            iXuXuX3X@XuXyX^.z.0 ; # 0 D Z ! W ! Z % 1 - 8 8 8 5 @ 7 iX#X#X#XP.S.G.M.j.e $ + + # 8 !.          e 8 r w 1 H l.A.8.K.K.8.oXoX;XL.K C g h G G j h g F - # # + m.                uX. < # Q       ) 1 X 8 Z                           ",
"                                                        x.>. .P P P G J k h g j a a a C G G g r : - G K :.f.:.W P ; : 0 Z W K i a { yXfXgXiXY.x.F.V.p.D 4 $ # @ 5 (.          C w 7 8 r L  .<.J.S.oXK.XX;X;XL.<.>.P.P.J.S.J.Y.I.h.- 1 1 O V.                uX. # # Q       ! $ $ * Z                           ",
"                                    4X+X!.S...{ k ; : : u : u u u u u u : : : d u d d j *.<.<.<.*.T.pX4XpXlXpX5XoX*.K.<X2X6X0X<XG.{ gXCXDXxXJ.v.F.C.z.f.+ . O . . R           A 6 5 8 5 P ,.l 3.K.oXT.oXL.#X8.P.1.3.8.R.oXK.A.B. .# * # . N.                uX. 7 # !       ! + # # E                           ",
"                    2...{ { ;.*.2.=...2.2.2.2.8.2.j 1.=.=.6.8.=.<.-.9.H.3.q.J.K.oX<X-X-X1X<X2X<XT.2XNXNXNXxXkX8X2Xw.XXXXe.:X-X=.' k fXgX4X4XJ.J.!.N.V.V.8 # * $ X N.          D e 8 w 8 H 1.b.J.P.J.Y.+XP.J.' k K j 3.OX;X2XJ.P.f.X @ # O V.                uX. 7 # R       ! + X X E                           ",
"                9.9.9.9.9.9.OXoX$XOXOXOXoXoXOXOX>X] 9XBXNXBXkXjXBXBXqXeXqXqXqXkXkXkXUXkXZXqXBX:X;X-XkXjXjX0X7X;X:X6.6.o.$.:X].O.k J I.x.2.K.S.n.!.B.B.C.# . $ # 9 vX          F 6 @ # 8 V - k N.A.P.J.+X: X $ 8 $ $ { oXoXK.A.A.| X @ * O V.                uX. 6 r k.      R # O . |                           ",
"              NXVXNXAXBXNXBXAXFXAXGXFXFXFXVXAX7X>X}.;XBXSXAXZXSXVXNXNXBXAXAXAXAXAXAXAXAXBX7XqX:X;XL.qX0X0X0X0X;X=Xr.w.@.|.=X=X*.k J { ....H.S.n.U.V.B.k.* # # * 9 fX          D q # 1 w R h.U././.Y.P.3XP.e 7 r v 9  .Y...=.S.l.[ X 5 @ O N.                ).. w 1 B.      ^ . X . :.                          ",
"              GXGXVXFXFXFXFXLXLXLXGXLXLXPXPXPXHXAX>X6.SXGXFXFXFXGXDXFXeXBXK.6.8.8.q.0.e.r.@.r.0.XX-X0X2X2X2X;X:X=X-.8.+.:X>Xe.<.;.P. .k X.9.H.d.H.M.W.j.4 . - * 8 fX          R # # 4 b ! v.I.T.+XY.Y.+X~.9 8 Y  . .N } k >.x.>.! $ # @ . z.                ).. @ # ~       R $ X . f.                          ",
"    I.@XpXzXLXPXPXIXPXDXGXVXLXPXPXPXPXPXPXIXPXAXAXeX7.BXFXGXGXDXGXGXHXBXBX6.=.f O.@.#.:X|.f 0.r.e.:X;X:X-X-XXXL.w.-.3.+.;X|.e.{  .2.x.J s H.H.X.$Xd.V.M.- . 8 # 5 sX          A 1 . 8 r Y h.U.+X<XT.Y.oX3XA.N.z.s.T T i G J L }  .o # @ . m.                ).. @ O L       H + . . >.                          ",
"  J MXJXJX{ H.H.vXCXLXLXDX#XGXPXLXLXLXLXGXGXHXeXAXrX&.7XHXGXAXNXNXZXAXAXqXOX6.#.XXe.].7X>Xt.%Xe.e.wX2XwX2XwX2XXXe.-.-.+.7XOXw.3...x.s.s.X.X.H.s.B.B.V.V.* + - 8 9 aX          e 1 # 9 0 v.,.1.+X-XT.T.+X/.P.x. ...u.N N g 8 K W | # # # . m.                (.. O . D       ^ + . . f.                          ",
"  @ @ x x 7 = 7 JXIXLXIXIX..bXLXIXLXIXKXhXBXAX,XeXeX=X=XeXBXqXeXqXqXeXBXqX7XOX;X7X>X,X,XqX%X%X'.r.,X>X7X2X;X].w.-.' f ] qXqXqXP.s...2.H.H.$X$Xs.U.V.V.v.8 $ 4 # 8 fX          v 1 w e e :.;.=.T.oXY.Y.T.+XP.l.a.s...N N G H F E :.# # * . m.                /.. @ @ R       Y + X . f.                          ",
"  < O < 3 O @ @ 6 yXvXyXyXC B LXIXLXLXGX..q.OX}.,XqX2XL.7X;X>XqXeXqXqXqXqXqX7X9X>X>X:X,X%Xt.0.r.r.,X=XXXOXw.q.9.9.X.s s 9..XK.S.J I ....s.$X}.{ V.B.C.V.4 + 8 - 5             v 8 w * X W [ 2.K.+XT.R././.U.j. .s.T s T D D R L E * # # . m.                !.. . @ ~       ~ $ $ . f.                          ",
"7 @ O < < < > > O O > . X 7 < KXIXKXJXVXY.H.OXoX0X7X7Xw.7Xw.=X=X=X>X>X7X7X7X=XqX7X&X%X'.&.t.%Xr.e.7XOX7.OXw.9.X.9.X.] ..H.#XK.J.J ' ' ..X..XH. .B.V.V.V.r + # 8 8             Z * 5 9 * H { { J.Y.T.T.T./.U.g.a.s.T B N N A D L W - # 1 X z.                !.. O $ R       ~ . . . f.                          ",
"7 @ O < O O > + O O O . @ @ c JXLXJXCXgX9XzXNXFXFXBXNXL.1Xw.=X;X;X7XBXAXSXBXqX7X:X%X&.t.o.@.|.'.e.XXOX7.w.$X9.X.9.9...] H.;XK.J.....B ..X.H.9...!.F.V.Z.t % 4 r e             W h v.i h ;.[ { S.Y.R.Y.T.+XF.g. .u.T B N N V D ^ R % # # . k.                !.. . O W       ~ $ X . g.                          ",
"7 @ > > O O + O + . + O < T U CXLXCXCXgXNXNXNXSXNXjXBXT.;X2X7X0XjXkXxXNXBXjX0XqX>X&X'.{.&.|.%X%X Xo.w.#XH.#XH.X.X.9.=.X.8.1XR.R.J J ..X.X.9.9.{ B.V.V.V.% + r # w             /.>.} & ;  .3.2.S.S.3.c.J.I.x. .B  .T N w w e e D R - * @ X k.                !.. . @ ~       ~ $ $ . f.                          ",
"N @ > > > > + + . + + + O s.A (.IXDXVXzXgXjXgX8X<XOX4XK.1XqXkXjXkXjX4X8X8X0X7X>XwX>X&X>X&.'.0.0.=X;XK.K.8.' l ' s.$X6.6.OXT.R.T.,.W { ..X.9.9...B.V.v.k.0 # # # 9             R R p 0 H P g. .P.A.S.8.A.I.G. .s.s.T B B e S V Z W % # + X f.                !.. @ @ H       y.. + . :.                          ",
"N > > n > O O . . + + O O M n N IXIXDXNXNXgXhXdXzX4XVXY.1XkXqXqX8XdX1X4X4X8X2X;X,X>XwX:X0.$.6.$.w.-X1X3.Y.oXJ.J.2.OXXX6.L.1XJ.T.4.;.{ H.}.X...{ V.V.v.C.0 1 - 8 e             X - 4 9 C  .9 p ^.~.Y.J.P.oXW.x.s.s...T T m v V D R 4 # # # p.                !.. O O H       ! . $ . f.                          ",
"B O > M > > . O . + . O O @ < @ bXVXzXNXVXzXfXgX5X@XdXoXOXBXqX7X7X5X4X4X4XpX2X1X2Xe.L.-.-.q.6.-.6.8.<.<.hX0XL.L.-.6.-.q.-XqXwX-X-.*.<.#XH...2.;.V.B.m.h.e 4 # r e             . # $ * i 9 @ 7 b.Y.P.P.Y.oXG.x...s.s.s.J H S D ^ W 8 # O . E                 W.. @ . H       ! . . . f.                          ",
"T > > u.> > O O O . + O @ < @ 6 s.yXY.iXzXbXzX#X4X4X5XT.J.0X0X1XoX1X1X4X4X8X6XL.-X6.( z d l ' -.-.-.<.J.nXcXL.5.+.q.+.e.L.:X0X-Xz l <.T.2.9.9.g.B.C.v.g.r # # 8 w             $ 5 # @ M.G.7 S  .P.P.H.P.Y.H.x.s.x.s.M.M.Y D D D ~ 8 # # . R                 V.O + + Y       ) . $ . f.                          ",
"y.< O U 3 O O O O O O . O O < 3 c N a G.4XfXx.2.S.P.+X/.3.7X1XOXH.oX+X#X4X4XoXT.-XR.=.l i l 3.L.L.J.-.J.xXpXJ.d ( 3.-.q.@.w.:X:X@.@.e.+.l O.<.>.V.B.m.k.e * 8 8 r             . # # #  .s.7 a g.l.Y.A.P.P.H.c.x.H.H.s...N N S S L r # + X R                 B.O 1 @ Y       :.$ # . :.                          ",
"E.< . x O > . O . O O O . + , 2 @ X @ P @XDX#X9X9X5X5X4X<.;X1X9.2.Y.Y.+X#X+XJ.L.L.K.3.4.d <.L.L.L.q.-.J.hX3X4.4.3.3.-.*.*.r.e.e.,X7X].'.e.w.K.x.V.V.m.C.g 8 8 e w             8 5 # V R ..B P >. .b.b.I.Y.P.c.H.s.u.J B N N C S R e # + O H                 V.. # O H       f.. $ . f.                          ",
"^.@ O < O O O O O O . O O O , ~ 5 > O @ (.W.zXgX#X9X4X<X3.-XoX6.K.oX+X+X+Xx...3.q.q.=.*.d J.2X-Xe.q.q.J.hX3Xh.1.3.3.=.O.O.q.t.=X,X].t.|.e.r.-.>.N.F.N.v.p - 5 r q             r 5 p 7 C 7 = I.~.I.I.U.P.Y.G.x.x.x.J N J N N V C L w # # X R                 V.. 1 @ H       | . X $ |                           ",
"(.@ N O O O O O O O O O . O , 1 6 2 x b a  .KXVXgXdX5X+X<.-XoX8.Y.#X#X+XI.P u =.=.q.6.*.z J.L.L.r.8.8.Z.hX<XZ.n.4.4.*.) *.q.r.:X%X-.+.XXe.-.{ k m.W.V.m.m * # # 5             . @ w e w 9 & v.@X~.~.Y.~.^.Y.H.s.x...J J N N V S R r 1 + $ Y                 B.. 1 O H       ! $ # . :.                          ",
"yXE.JXM O O . O O O . O . O O O O 3 b b < J KXDXNXVXdX<X2.#XK.H.oX4X4X3XP.Z G l q.L.e.L.-.L.L.t.-.-.-.3.hX5XZ.n.*.I l z 3.8.q.q.r.O.O.q.q.8.3. .j.W.F.N.V # # 5 #             Y m.y.!.W.w . ; p E  . .D.P.G.S.x. . .H P S N N C ! e # . # W                 W.. @ < R       :.. # X C.                          ",
"IXIXIXvXO . O O + . . O O O O O O > 3 > @ c KXVXlXhXdX@X;.8.c.2.a.H.+X3X_.I.P l e.r.t.-.f ( O.@.@.=.*.3.5X-Xq.-.O.-.-.*.-.J.5.-.3.*.I 4.;.[ >.P x.W.F.N.p * # 8 #             Q _.R !.F.| P p 7 5 R f.@X+XP.x. .x. .H T J S N U Q e 4 # # m.                !.. @ @ E       | # @ o h.                          ",
"  j.Y < . . + O O O . O O O O . . O O > < X iXF.^.G.Y.b. .'  .;.G K D./.v.:.I I L.6.6.*.: f l f O.-.3.q.SXZXL.XX-.-.=.l *.3.c.<.<.,.} I [ >. .J z.W.V.M.p 8 5 r 5             8 4 C ).V.G.x. .H H ; 9 G.^.G.x.c.x.g.E E S N N H R V # # . f.                _.. < @ R       p.@ # X k.                          ",
"              vX. O O O O . O . O > > < 5 . O 9 8 W E J G. . .P H i W ,.Z P K I J.r.-.8.l =.S.-.O.*.=.4.1XXXq.r.=.-.O.l l 3.,.<.,.W W } P >.a.C l.!.V.m.p 8 8 e 8             # , 8 w q 7 7 N j.uXB.= x.^.W.>.l.x.g. .E S N N U R V # . X z.                yX. @ < R       ) X X $ k.                          ",
"                . O O O O . + O O O > > + O O O O + 1 @ g.s...a : % j K : K ) ,.J.J.3.<.{ <.8.S.<.*.*.<.<XL.r.=.-.=.O.' I ,.,.,.} E E Q } ! E C j.F.N.z.m * * # O             1 4 , + O > 1 5 f.)._.C 8 p H v.l.x.h.>.j.C N N Y U V # $ . h.                yX1 6 # p.      W + . @ j.                          ",
"                O . . . . . . O O O O > > > > > O O O O S M. .C K ,.~.B.K ^ K 1.3.1.{ k k { S.3.1.*.,.;.6XT.O.=.<.n.<.<.=.*.;.;.W L E R Q E ! C j.G.N.h.p 5 5 * X             1 n 3 > 3 > 2 U C.!.B.E g | b. .!.D.^.N.| S N N Y D F # $ X j.                @X1 @ 5 z.      W # @ o x.                          ",
"                . . . O . O O O O O > O O > O > > > > O w E | P ) D.J.U.1.} K ,.<.C C Z p a J { l 1.,.n.+XK.{ *.,.,.B.<.*.;.*.:.P H Y E R E E m a.V.M.k.w 5 5 # .             4 / n , 3 2 3 v 8 f.p W l.F.(.J * 9 7 7 S S M N S D A 4 $ $ h.                ).7 @ w B.      ! # O X V.                          ",
"                . O . O O . O O > > O O > O > O O > O O . N.N.E h.U.P.n.c.} 0 L p 9 m N a J  .g.v.) K ;.A.J.c.W W ^ h G *.;.*.>.E G R ~ R Y E p f.N.m.k.e * 8 * @             , U 4 3 , , 2 c X = a m.F.F.G.g.. * @ @ w S N S S D F 4 # # l.                (.@ O w z.      } * $ X F.                          ",
"                O < < O > O > > > > > O > O > > O > O O e | J e L K I >.} S S M 1 6 B B N  .M.x.1.,.P 1.P.c.>.| ! L 9 I [ ;.[ :.P P R Q R E E V f.V.N.j.p 8 r * .             # e 1 O + + + O o . a F.F.G.F.j.Q 5 @ 5 m Y @ 7 7 m e + 4 # l.                ^.@ < w *       E # # X F.                          ",
"                      y.> > O > , > O > O > O O > > > O w k. .T f.C.>.P P Q D 7 5 U a. .a....... .1. .c.S.>.[ } H e 9 P ;.} } ;.E E E R ~ R E h f.N.N.j.p 5 8 5 .             . 4 + + . O O . @ X . g.k.T N C.a.A 7 7 Y j.j.z.P D v , , $ h.                ).@ 5 5 @       Z * # X F.                          ",
"                        yX> O O > > O + O + > O O > > O @  .N  .g.| f.| C C m @ N a.Q J J ..J ' { ;.{ S.A.;.>.P p U h P } } W } } P E R Y R H N :.N.N.f.9 5 8 5 X             . + O + @ + O + @ @ O 1 w 5 1 1 S ! 8 w H a.g.g.j.m.A , + X z.                (.@ w @ .       g # # X F.                          ",
"                          Y > O + > O O O > O O + > O > @ N N  .Q T Y D V N 5 7 Y T T J J J k J { ;. .1.c. . .C m H p P [ W [ } E H H Y Y R Y p | m.m.f.e * * * .             . + . + # 1 @ @ @ 5 5 @ 1 q w 1 p.Q p m D g.}  .T ! b , + . l.                @X. m # =       F * # @ F.                          ",
"                          sX> > O > O O O O O > O > O O O O < b 6 6 5 < < c c 7 7 7 7 a a N J { [  .{ [ ;.;. .C J E h G } } E E H H U S U J Y m j.M.V.p.w # 5 # X             . O O O . O $ o @ @ @ @ < @ O @ Q p.c 7 S | H J N S v , # @ N.                (.X N q *       F # * X !.                          ",
"                          E.> y.M O O O O O O O O > O O O O O O > < > > 3 c B B 7 7 = 7 a h J ..[  . . .} 1.>.J H x.H G } L H L H H J H J Y H a p.z.M.p.9 5 8 * X             . 1 @ # * * 8 8 e H p.a.w Y w m J j.A 5 M M N S N U q , 1 # z.                @X@ D 8 *       Z # 5 o !.                          ",
"                          Q .   s.O . O O . O O O O O O O O > O O > < > < < N s.N 7 a N J k .. .}  . .P H  .E ; V >.E h E P E H H U J J J T Y N a.M.M.| 9 # 5 * .             @ @ 4 R e D ! f.f.f.| ).D.F.F.!.F.N e w w c = w 5 5 5 + < @ 7 C C           bX(.@ Y 5 X       V 1 * . !.                          ",
"                            Y   u.< O O O O O O O O O O O O O O O > O > < < U T N N N J J J J s.:. .:.P E P Z i * C Z G } P L H H H U S S Y Y p | z.m.p.7 * - @ X             @ 1 8 Q v D E f.>.j. .^.F.I.!.b.p.R c U M A N C m c A 1 5 @ @ = . . ;       bX(.< y.w .       / # 5 . !.                          ",
"                                  T < @ O O + O O > O O O O > O > @ > > > 3 B T M M S U Y a e H | k.| :.| D C P p L L G H L G H H D Z J J U S a a.m.j.p.7 * 8 * X             O 1 4 Y e D p.| f.g.f.^.b.D.D.c.g.| 5 M m Q j.| a.Q Y q > q @ = h I a @X    bX(.7 j.V.w       D % 4 . _.                          ",
"                                  m.7 . O O + O O O O O O > > > > > < > < u.y.M 7 7 N U m < q v V F D D ! D g P Z Z Z h Y H G D L H S U Y J Y w a.m.z.u.5 # 8 o X             @ # 4 Y r D | | f.g.>.^.x.S.A.x.z.p.c w 7 y.M.W.F.H V b + 1 @ N fXfX{ D.    bXyX7 M 6 @       D 4 * . ^.                          ",
"                                    _.5 . @ O > O O > O > O > > > > > O > M A b 6 3 > 3 > > b U w r V m ~ Y h H G G Z N H H S C H Y E Y J Y Y w s.M.j. .* # * @ @             O @ 1 Y r D ! f.f.k.j.(.l.m.G.b.x.a.V 7 6 M a a C | m q 1 6 < <  .x.H       yXN < 6 @ .       F - 8 . ^.                          ",
"                                      j.. E.q O O > O O O + > > > > > > < 3 3 , , 3 > > > 2 6 S 5 # 8 V D D D K j P C N Y Z S F t p S D Y H T a p.M.M.T 5 # - * X             @ 1 5 ~ 0 D :.:.k.m.k./.v.A.P.D.N.f.N q O @ @ X 9 9 m q 6 5 @ W.              7 @ 7 @ @       F 4 8 X                             ",
"                                        5   T S M 1 > + > O 1 > > > , > , , > , , , > > O > . D :.h.;.:.l.C P I [ } H p H p 9 - r 8 * D Y R T w f.m.j.Q 5 @ 8 # =             O 5 7 Y 4 F h.h.b.m.x.).b.x.G.G.b.f.N N S Y N N 7 m U w 8 @ . @X              M O w O @       V * - .                             ",
"                                                  sXyX@ < O O 3 > , , > 2 , > , , , , > O O y.E D.n.l.1.>.G L [  .P J a H N 9 5 8 # 9 D R U Y p p.m.j.Q 5 # 5 5 @             @ 1 @ D # Z >.l.L E >.~.G.x.P.G.N.g.C v q U | R U U y.e O * @                 T @ w 1 V       V * - .                             ",
"                                                      C.O @ > < , > , , 2 2 > , , , > O > O Q m.Z G H E L G D >.} J C a S p 9 e e e w R D ~ Y e p.C.k.~ 1 # 8 # @             O 5 5 e * t - } b.N.N.).G.N.I.G.b.g.N w 7 Y N M S U A V # @ #                 j.@ M 8 Q       V # 5 X                             ",
"                                                      k.O @ O > > , > n 3 2 , , , > , , O < c M # @ w 5 V w H >.{ C C a S S H E Y D S D D Y T w s.m.k.u.5 # * * @             + @ < q r g E >.N.G.D.^.G.D.I.U.N.h.C q c U m M M v b U @ * 5 sX    [         a.# B w ).      V $ - X                             ",
"                                                      6 < O < 3 > 2 3 b n 3 > > > , > O > 3 c + O @ O q v N P G { C C a S S Y H Y Y 9 S Y D D M y.m.C.Q 5 o r 9 *             + 2 4 v 4 / E >.N.G.D.~.!.G.G.F.D.z.N c c ~ c M c 6 > c # q 1 # . .            .< S v yX      g # o X                             ",
"                                                      < 3 O < < > > O B 3 > O + + > + O < 1 q > < < 2 < 1 6 N G ;.C Z p G Y J N 9 9 e N T D Y c M.m.j.D 5 # 5 8 =             O , 4 / , V L | N.N.F.~.I.G.U.I.F.M.A q M T b M b O 1 2 6 1 @ a.).            a.6 M c _.      t # # X                             ",
"                                                      > > < 3 x b n O b M > > + + > > > 3 1 x > 1 c x > < @ a P  .I k w H S S w 7 7 a N N U U a p.j.T S * # # 8               + , 2 F , v H  .N.V.F.~.!.D.D.G.N.C.M c c B x c b x 3 q 1 5 . sX              a.7 c 5 W.        * o X                             ",
"                                                        s.N 7 d.tXV.q ~ d.2 > > + > + > 2 < 6 + 3 T 2 > 1 < 7 C G J C a J J N w 9 7 5 B S J N 9 U T S m 5 # # 5               + , 2 U q A ~ :.N.F.F.^.^.F.>.E j.p.c x b c 5 x c x 2 2 < 1 .                 a.@ m O F.        o * X                             ",
"                                                        vXH.s.yXvXdX3XfXaXx O O < > O O 1 @ 5 @ , U n O < < p J C h C 9 S a 9 7 7 5 7 Y P T T N V.C.j.p.5 # O *               , , , A q A R f.N.F.W.^.@XN . < c 3 B x m b O < 2 6 3 2 1 6 .                 | . m < ).        % o .                             ",
"                                                        +X .x.#XgXdXpXVXfX7 @ < 2 T 6 O O @ < + 2 ~ 2 > < @ p C a i a p C N C N e 7 < J Q T H N y.s.j.y.5 # # #               , , + A q / R j.M.F.F.!.Q.k.c T u.x c M 2 6 < 7 < 5 < 6 1 q @                 U . U @ aX        # # X                             ",
"                                                        OX..x.!.).Y.+X4XsXm < c M.b M . . @ < 1 > A q > 1 1 5 6 p e a 7 S S N V c 7 < T T  .S 7 a.j.k.y.8 $ 1 *               , , , A r / ~ j.G.W.G.I.!.k.7 U B b c c 6 m b c 2 5 > q @ 1 O                 S . A 7 nX        & & o                             ",
"                                                        =...s.x.G.H.#X#X@XN B a.m.C p * . M 1 q > 2 1 O 1 7 6 O @ @ < w m N m p N 7 = U  .T S w a.f.f.p.5 + # #               @ , , A r F ~ a.M.G.G.I.W.m.6 6 c c U M > U Q u.N b < 6 + 5 .         D.@X    S . m M KX        X @ o                             ",
"                                                      OXX = 7 ; i 9.Y.@X@XJ a.(.a.N k - C e 1 v , , 1 O + < 1 O 2 b q v 8 q e q w w * T T  .S w s.a.f.y.q + # #               @ @ O M r D D j.V.F.F.G.W.F.6 < 7 Y y.T c T y.~ B M > q > < X               KXA > q S LX        o * X                             ",
"                                                      H.= = ; = a 9.=...x.N T m.D.; 1.G l.A q v > # @ O O > > > n U A 2 7 q q 5 5 w 5 Y T Y J 7 a.a.j.f.4 O 4 #               @ O @ A r F H p.D.G.G.G.~.F. .a.j.k.a.p.U y.E.u.M v < q 1 5 @               JXW.. @ 9 f.        o # X                             ",
"                                                      OXu u i i ;.#X8X5X+Xa U } B.<.k H.U.% 4 v O + O O > , 3 3 b A v q 8 5 8 8 7 e 5 S T S S w p.f.f.`.5 # # #               < @ O A r S H p.G.G.G.F.F.M.z.F.M.z.j.f.N y.m.~ M M < 6 1 * #               p # O @ 5 .         # # X                             ",
"                                                    #XOXs u d j ..#X#X4X+XN a.x.1.Y.J.oX4X- + w + O @ O 1 , 3 b A b , # r e e N M m N U S Y N 8 y.p.p.f.5 O * #               @ O O A r N J a.D.G.G.G.G.G.j.x.j.m.z.j.H Y M.T M M > 4 1 < #         VX  V.A + (.# * X         o o .                             ",
"                                                    ;XoXs u p k 2.+X#X4X/.J x.2.S.K.J.2XpX; 4 e O . + , 1 6 > , w 6 @ # @ * r 6 5 q e A e 8 1 1 Y y.a.j.9 . @ *               O < . A e F C :.D.N.^.G.I.G.a.x.x.j.x.s.N Y a.U M c < 5 1 @ 7       CXVXfX* @ . sX1 . X         * X X                             ",
"                                                    1X#Xs s a a 3.+X4XpXpX .H.G.H.L.K.8XhX0 r r O . O O O . O @ # 1 . . # . . . O @ O 1 # O . 1 S U y.j.m # X @               . < . m w p C f.x.G.G.G.I.G.x.N.M.x.j.g.J J s.T N M > 2 7 @ <       nXSXyXX @ . sX@ X .         * o #                             ",
"                                                    3X#Xk i J h 1.3XpX  lXf.I.Y.Y.T.K.5XlXV e q r . k.vXsX! O R j.f.V.~ # . O + 1 1 @ @ + + + . . # e N r . . #               O < . M 9 m C j.v.F.G.F.W.G.G.N.x.g.z.| p S a.T N N < 7 3 @ 7       SXuXKX~.* . !.. . .         $ X #                             ",
"                                                    4X3XG i C k  .iX    nXz.W.I.Y.T.K.5XhXg q 4 A + y.KX            mX).O . . , O . O . O . O . + . * 8 e 0 V                 O 1 . A w e V z.N.F.F.W.F.G.M.M.x.g.a.T 7 N  .T N c 3 6 < < 7       yXr nX^.# . tXf.z.          X X                               ",
"                                                      @XJ i G ;.A.I.      G.^.+XT.oXT.5XpX0 5 5 m 4 ~                 !.+ , k./ y.A O + + # + . O @ Q                         O @ O A e 8 e D :.f.z.V.W.F.M.M.j.| p.Q 7 T j.p.N N < 6 < < 7     mX. . mXv 8 . iX              # .                               ",
"                                                        P.h [ ~.          b.^.#XoX-X-X0XhXg q # v 1 D                 _.n A tXD Y D O + # # O # @ .                           @ 5 O m q # O O # 1 7 e S k.z.a.a.| p.E B T a.u.B c < 2 < < <     0 4 / mX@ @ .                   ~                               ",
"                                                        gXa >.H.           .G.K.K.XXL.0X5X0 q O A 1 m                   4 / tX~ U A 2 O > 1 1 # @ .                           @ 1 @ v r 8 < # O 1 1 # O 7 k.y.p.Q p.Q N T p.Y M c < 6 < 5 7 sX).. . m.sXO # # nX                W.                              ",
"                                                        pXk J c.          [ P.OXXX;XL.wX5X% q + D 8 e                   q ~ sXy.~ b r . + 1 # # . .                           O 1 @ v f.p.D # 1 # @ # # w M.g.| Q p.Q 7 U U M b c 3 6 < 7 @ c w . . aXmX@ 5 8 U.1.X $ . F (. .0 -                               ",
"                                                        #XJ ..M.          2.Y.K.OX=XXX0X5X: r @ r 5 e                   . O M v 4 2 , + + O @ * w                             . @ @ S k.:.W :.E F # 8 5 k.N.a.p.Q a.p.S 7 1 n n x n 6 < 2 < c  .k J KXmXm 6 p fXbXR 1 4 r !.} E                                 ",
"                                                        @X{ .. .          l.H.oXXXoX;XqXzXd H . @ 8 e                   5 O b 2 n 4 , , 1 # X *  .                            . 5 @ D :.,.W I ^ D p A m f.z.} | | a.Q 6 w 6 b n n n 2 3 q O p.zXfXbXCXsX@ < f.DXnX3X# 1 @ lX                                    ",
"                                                        #XJ .. .iX        S.+XoXoXoXoXjXcXj C . O 8 p                   | . r v 2 y.2 + + 1 C                                 . 5 # V W P K :.L Z V t V f.l.E E R | T w 6 M A B n 2 3 > 2 + z.lXVXVXaX3XR c JXFXxXuX$ 1 . aX                                    ",
"                                                        #XJ ....1X        h 2.D.x.+XY.dX5X; Z . r 8 V                   sX. p.).  vXy.. O p mX                                . 2 @ v } ) K W D Z D m V f.a.E  .R T Y w 6 c c b n 2 3 > , # ! lXnXhXlXbX(.~ DXbXdX).. 1 . 3X                                    ",
"                                                        +XJ ..9.1X                  Y.dX<X: Z . . 8 e                     C         f.> . Y                       w N @ 5 E.a.@ 1 @ A P P I Z K Z H F V f.f.|  .E | ~ 7 2 4 , n b 2 , 2 # < E nX4Xx.fXvX# , vXpXuXuX, 4 .                                       ",
"                                                        +XJ ....4X                  4X5XT.- V $ # # 8                     F.        k.O O y.                    @ T !.< @ N M < 1 , D R E L I L F H m A | g.| | Q f.N q 1 3 2 n n 2 , > < 1 E VX& . 7 X . + ^ aX_.[.$ , +                                       ",
"                                                        +X{ ..2.#X#X                  5XJ.o r O # # #                     E k.      m.. O j.                    2 s.vX5 > M b 1 5 1 D W W I L L C C e ! | f.j.g.f.Q Y q 1 1 M b b 3 , , + @ m aX; . iXfX~.p.aXpXlXmX4 4 # 3X                                    ",
"                                                        +XJ ..9.oXoX                  <X*.: * . @ # #                     e p       k.. . j.                    7 j.mXY 5 T ~ 1 2 1 D ~ I Z g r 8 V p Q a. .| ! Q Q Y 1 5 6 b M b , 3 1 # 1 X vXLX| KXfX3XdXlXzXnXmXr r # /.                                    ",
"                                                        +XT ....$XW.#X                2Xz & F # # 5 D                     . ;       f.X . j.                    w Q CXvXmXmXk.> 1 6 M D D A v A v V V | | | | y.T u.U q 4 2 b b b 2 , , 1 1 5 CX).= E I.+XlXVXVXnXJXF b $ @X                                    ",
"                                                        +X....2.+X#XyX              iX5Xz : Y.o 5 8 V.                       .      Q # . a.                    w Q vXfXsXsXu.3 6 3 q 2 2 q b v v v e R D D D A A M b q 6 6 q b b 3 3 , , 1 1 M.. X ; U...VXSXxXnXCXF / # 3X                                    ",
"                                                        +X.. ...Y.#X4X                hXf y +Xo # r V.                              p # @ p.                    7 . a.F._.tXp.3 6 > , 2 2 2 4 3 3 < < 1 q 2 6 2 2 3 , > 3 3 > 6 n , , , 1 , > < . . v.3XZ zXxXxXUXnXe 1 8 I.                                    ",
"                                                        @X ... .I.#XpX                NXO.d /.o # 8 V.                              9 # * |                   N < . N.uXuXyXj.1 x 3 > , 2 2 2 n n x 6 5 3 2 3 > n 3 3 3 3 3 3 3 2 , > 2 , > O + O . aXiX>.nXxX<X5XCXW O ~ /.                                    ",
"                                                           .k  .l.A.                    O.z T.* # 8 W.                              r @ - Y                   @ 5 O fXvXiXiXj.O 6 O O < 1 2 6 x q q 6 6 6 n n 2 n 3 2 > 3 2 2 > , 2 2 , > > O v Y e _.).aX3X[.U.4.V.^ + _._.                                    ",
"                                                          J J pX                        f l U.* # 5 !.                              # X 7 p                   @ 6 N mXbXfXsXf.O < O < 6 1 1 1 @ < 2 6 6 2 v u.b 2 x 2 3 2 2 2 1 2 2 3 , > > , v F W V d K W y % ^ `.A + uXU.                                    ",
"                                                          G  .gX                    T.;Xf l R.8 # * _.                              - # @ w                   2 U B vXvXaXaXa.. * @ m S S D D H R E Q D 6 v b , < 3 < 1 2 , 1 1 , 4 4 > 2 3 O W B.P.P.3XT.3X6X3.j aXaXr D W                                     ",
"                                                          a.g.uX                    & T.d z Y.- 8 # _.                              X @ 5 o                   < 3 6 V.N.I.sX| . X # S E | f.h.j.j.h.h.G * r 5 1 q 5 1 1 + + O O 1 q b , n n D /.6X6X            R.dXy ^ :.:.                                    ",
"                                                          N.j.                      Y.,.% z Y.; 7 1 ).                              $ * 8 *                   O b r r t D A e # 1 1 e f.v.,.g.:. .z.F. .. R  .Q R Y ~ R G H a N Y N T N 3 > m 3.-X              <X*.y ,.K                                       ",
"                                                          F.x.                        f.$ k J.r 8 1 ).                              # # = @                   @ 6 2 4 8 e v q 5 + + / >.h.W |  .E  .| R E P P H E E Y H H a h  .a.h T s.y.> Z q.                  . Y.P.I                                       ",
"                                                          G.x.@X                        f.K n.a 9 O ).                              8 # 5 =                   > 2 1 2 4 O @ 6 5 < q D E ) Q | | a.a.| J H T Q T E | W  .} g h.D.b.H  .Q ~ + ) J.-X                      /.                                      ",
"                                                          W.a.^.                        mXL I g e . ).                              0 # 5 * j.W.            F.> x 2 5 c A U U @ 9 A y.Q Q R D |  . . . .E } |  .}  .>.n. .N j.! E h H L D 0 Z Y.oX                                                              ",
"                                                          W.x./.                        mXh g C 9 + ).                              V . * * # O # 8 r 1 1 / A 2 x c Y S S M D 9 8 D p.! Q ~ H E P } f.g. .>.>.>.n.1.>.I G X U U V @ 0 W J C | g.Z                                                               ",
"                                                          ^.a.^.                          E m F 0 X ).                              m . 5 X # + 4 v / 4 r A / 6 < p.T U U D D w 8 D ~ W W } } I 1.1.3.<.<. .;.l ' k } :.G 1 `.~ / O p x. .J 7 9 8                                                               ",
"                                                          (. .W.                          z.m F 9 + ).                              * . # # # 1 , w q 1 4 v v 1 @ N J J J J F V . e 0 l l O.z O.-.8.=.' oXBX8XoX<XH.D.h 1 O > n 3 . * G.k N c @ . o                       (.| S                                 ",
"                                                             .G.                          V.p V 0 + ).                              D * C.o 8 Y V.b O + 1 U ~ q < ).x.J k h t r X K u 3.K.qXBXHXHXPXGXAXGXGXHXSXNXP.>.8 + O > > > O 5 J 7 B T B 7 5                     * C = a ;                               ",
"                                                             .D.                          I.e D w X /.                              * @ ^.. 8 m vXuX        f.q @ m.!.;.I 3.1.% 9 xXxXZXFXGXGXPXPXPXPXGXFXxX^. .E p w # > O > O > > 1 7 3 B E.s.S 9                     8 Y Q # @                               ",
"                                                             .G.gX                        !.9 C e X (.                              z.F.(.. * 9 F           Q q @ aXCX3.hXFXCXfXbXKXPXPXPXGXSXlX3XA.*.: & & @ @ q n 1 1 # + O + + , 3 3 7 u.s.3 B 7                     r A S 9 o                               ",
"                                                             .x.uXg.z.                    I.* g p . _.                              sX!.m.. 5 @ -           w 8 . V.).+X<XnXnXiX_.Y.3.j : : 9 % % - 8 4 4 4 x b b n n 1 > + + + , , 3 2 3 3 3 3 U 5                     e D 5 5 9                               ",
"                                                            g.N.@XE v.                    !.o p F X !.                              F.9 p . * # D           5 5 . # * - o ; 0 r # - - - # 4 e q r e v / , q 2 3 n > 3 3 1 O $ O + , , 3 > 3 3 x Y 7                       < 9 p                                 ",
"                                                             .b.3Xg b.P.                  ~.# g C $ _.                                o * . * * (.          * # r q q % - r ~ w , + 4 8 r v v v r q 1 # # 8 q u.u.b 3 3 > + O O > < < 3 > 3 3 x m w                                                             ",
"                                                              x.3Xg n.G                   ~.* e F $ I.                                R @ . w S             # # 4 Q ~ # 1 E aXE.v 4 # + # 4 + + . 1 % 0 W P.Z z.j.u.b 2 1 + O O > 1 < > 3 3 3 x c a                                                             ",
"                                                                @XG G                     I.- 0 V * B.                                  . . p (.            8 7 c d.u.6 5 B !.A + 1 / `.A e 8 R B.I.P.J.K.Y.d x. .H r 2 1 # + + @ < 3 < 3 2 x N M p                                                             ",
"                                                                                            - 8 V 8 V.                                  . . = uX            5 < B E.u.2 * S f.r % , ~ k.r . X R U.<.6.6.+.L.` 9.S.P e , < 1 < @ < 2 2 > 3 n i.x M 7                                                             ",
"                                                                                            # 9 m * z.                                iX. . P               3 n n `.M 3 O S  .6 4 q C.V.; 9 % V./.L.=X$.+.w.+.w.2.{ p 1 1 + 2 > b 1 2 > x x d.s.c <                                                             ",
"                                                                                            # r m * h.                                iX. a iX              M n u.i.n q O w m < 4 , `.V.% o $ g ;.q.|.%X0.|.$.=...h N v q v 3 3 > > < x x B u.d.B <                                                             ",
"                                                                                            . * e o |                               mXF.. aX            sX  E.Q.MXQ.O @ . 7 < @ 1 r v.h.$ $ . $ S.+.f e.|.|.7.6.f J N b / A b b x < > 3 x x B B d.O                                                             ",
"                                                                                            w e V @ E                            .F.CXi # iX            aX  tXQ.MXd.X 7 = 9 & X o j +X<X<.>.F ,.<X2X` o.` +.-.+.k H y.U b A b U B < > 3 U 6 2 B y.>                                                             ",
"                                                                                            e q m * R                       H & . X bXi >.            aX3X    s.vXE.> @ 7 a . & ' 8.1XL.w.Y.k ,.-X,X&. X0.0.;X:XP.N.a.U M m N d.c < < @ 5 4 q M b                                                               ",
"                                                                                @X          r 5 m . W                     i h a . X aX!.              iXiX    (.MXE.S = ; S.8.K.8.XX=X0.#.' f ' e.%X%X0.0.r.;XcXdX@X(.B 7 N p.s.x < . < # 5 e r 8                                                               ",
"                                                                                @X          w 5 m # E                     P a.z.. X @X                9 uXB.(.tXsX_.K { ' w.OX=.` w.XX X|.0.#.}.|.%. X&.r.+.-.T.8.h.s.a 1 w T T 3 , # 1 1 9 KXSXlX                                                              ",
"                                                                                            # 8 N 9 D iXiX                ~.= = . X                   . 9 0 V.).).iXl *.6.+.=.] f $.|.0. XOX7. X0. X&.0.=X-.O.R.3.f.T 7 5 w N B x + , 1 + . uXxX                                                                ",
"                                                                                            # < 6 5 # @ 5 * # 8 ).aX    fXpX~.N.. 9                   . - 8 o yXyXgX..9.XX7.6.+.w.|.}.$.o.#.` o.%. X X$.|.@.*.0X+XI. .J T M.E.u.x < , 2 # ; iX4X                                                                ",
"                                                                                            7 6 q @ 5 v O 5 # . w m j.P ; 9 @XbX!.                    . * & * vXgXvXH.oXXX0.$.+.7.7.|.OX7.}.] $.$.#.%X0.XX=.8.Y.n.b. .T T a.s.T x > 1 1 5 = ..K.5X                                                              ",
"                                                                                            e 5 v 6 5   p.9 # 7 * # # . .                             . = 0 p vXyXsXH.K.OX0.6.6.' u ' #.o.#.}.9.=.6.8.q.-.O.J.;.; 5 w N m N N S c < 5 5 < X 1.q.`                                                               ",
"                                                                                            e 1 U 1 A       w w 5 9 $ - 9                             # * R Y vXyXW.k =.7.6.o.6.-.` u f s ` ] ] f ` -.K.K.6.{ 0 . O q c 5 @ # w 7 < 3 < @ @ >.+.r.                                                              ",
"                                                                                            m 1 A 1 D             V C N                               o o H V Q.Q.; k f 9.6.+.+.XX;X9.f s = K.9.K.OXw.8.2.=.k . . 1 1 < 1 # # 5 w 1 1 , 1 @ ;.+.}.                                                              ",
"                                                                                            p @ Y 5 |                                                 8 * h Z j.s.J ] s 9.#.#.9.] ..X.=.s s X.' ' -.*.' f { k . < + + + + $ + # M > 1 1 # o ;.6.XX                                                              ",
"                                                                                            e # Q r a.                                                $ X Z @XiX#XH.f 8.u ` +.r.+.= u u f = u k K *.k = u 2.^.H . . @ + + O + # U > > , 8 o ;.+.|.                                                              ",
"                                                                                            H 5 Y 8 p.                                                0 R g F.iXyXK.] ] f 6.w.w.f f <.9.f 9.' *.S.P.d u { +XH.[ - @ @ + O $ X > A 2 > + # $ { =.}.OX1X+X                                                        ",
"                                                                                            Q 5 R 5 R                                                 X - : b.pX4XOX0.` ` XX=Xf f +.+.=.` ` ' ' J.T.l *.<X<X1.G Z V 8 # - 4 # 7 u.< < 1 1 O I =.q.` u j B.                                                      ",
"                                                                                            E X ~ 7 D                                                 $ o o ;./.oX0.6.+.$.0.@.d q.7XXXw.] =.-.=.q.;X-.q.L.=.k { } W ~ F r e F B M 3 > 1 1 @ >.<.K.*.I 0 v.                                                      ",
"                                                                                            | X ! # Y                                                 # 8 g I.5XH.=.] ] w.+.d @.6.6.] f s ' O.+.0.XX$.-.+.*.' 3.3.E H Z D H p U y.O O , A q (.9.8.& - e E *                                                     ",
"                                                                                            a.* m.V E                                                 . Z 9 d j { <.{ ' OX+.` 7.6.w.3.<.K { 3.f 6.=Xe.6.e.L.6.8.8.J C Z S R < T y.> 1 4 q q B.q.8.i . # 9 =                                                     ",
"                                                                                            F.e j.S Q                                                 . | 0 X : I #X{ =.] f ` 6.6.K.S.i 0 : { { 8.=X-X@.e.L.-.8.K.{ p J N N N T s.O > > < < C 8.jX0 # O @ X                                                     ",
"                                                                                            | 5 m 9 V                                                 + R L : ; a G.= = l ] w.7.-.f u o o - 1.<.3.q.r.@.@.q.=.6.8. .J N J R T u.x < 3 1 6 @ u 8.L.: . . # *                                                     ",
"                                                                                            C 8 1 # 8                                               iX. R g.G # = p s k =.+.7.6.6.[ - & # 8 B.} I 4.*.*.O.*.O.f 3.K S Q  . .J ..m 1 # # . X } OX;X5X. - * *                                                     ",
"                                                                                            p - # # @                                               3X. !.U.d * u x.k l ] #.w.+.' j & o $ 8 D : : K l j z *.J.*.l Z m N N C J s.x. .o a G h S.;X9X1XX & 9 j                                                     ",
"                                                                                            (.f.5 w +                                               b.$ D.P.<.{ 8.K.=.' =.6.=.' { ' : 0 o 8 / % % y y ^ j j z l U.V w 6 7 { ..8.2...k ..2.X.9.$XOX#Xu y t                                                       ",
"                                                                                            iXvXD R / vX                                            H . U.A.=.8.8.*.=...2.9.K.8.2.<.l ^ g | ~ ^ ) ,.4.) 4.,.,.4.U.8 6 6 5 { c.<.{ l l ..=.H.9.=.H.oXl ,.,.                                                      ",
"                                                                                            sXV.D C R mX                                            . . l.A.3.J.<.*.1.G C ;.>.;. .I >.l.h./.3XpXpXpXaXcXhXlXnXcX/.9 1 + 1 a W ;.[ : d [ ..2.2.9.{ i % 1.                                                        ",
"                                                                                              H f.# V _.                                          iX. . I /.j j j j ; * O * - ; ; 8 - 0 g L K K I ^ ) ) h.R.pXpX5X_.+ , w m 0 r - % . - u u a i 0 & - v.DX                                                      ",
"                                                                                              e ~ O 1 1                                           k.. . E +X[ j i ; * 5 . + . % 8 - o # # - o # % % % - % r r t F v b / / U b + $ 4 # 4 - 8 # 9 0 # 9 d LX                                                      ",
"                                                                                              9 D # 4 v                                         iX# @ . g.@X[ c.x.A.F.r O . . r 9 w 8 r # e e r r r e r / v F t r q 2 , 3 b A b 4 4 q b v V # @ 5 . # & SX                                                      ",
"                                                                                              p R 8 v C.                                      lXuX@ . . g.@X>.G.W.M.p.~ # $ . W F / 8 4 1 8 m F F F D D D v e 4 / T v 2 6 B U q 1 b U u.E.E.+ 1 # # % g bX                                                      ",
"                                                                                              V ~ V L vX                                  ).^.!.z.# . @ R 3XH b.G.!.(.V.O X X ~ e v 8 1 + r V D Z ^ H F D A r 4 8 S c O 3 n M w 1 6 u.~ u./ + + . O X 3X                                                        ",
"                                                                                              S Y 8 V ).iX                            >.pXm.uX_.C $ . . H               . + 1 k.A / e r q e V F R D D D D R D # V Y m < < 5 8 4 4 q 4 b 2 6 1 + $ o o                                                           ",
"                                                                                              * e o # | _..                         @XX (.| V._.!.. $ o P               # . + `.q e r v q e F H S G Z Z E ! ! t R ~ m O < . % + 1 + , 1 O . uX!.g Z                                                             ",
"                                                                                              0 p * # N.fX8 vX                      Z.. v.h.      . # % H               X # O y.5 N V Q Q h.!.P.B.P.D.D.B.} h.R ~ Y w 3 c 5 # + + + + + + O W.KXSX                                                              ",
"                                                                                              F H S Y aXKXS (._.                  +Xj $ ).fX      . X % C               # # @ p.q E | k.:.D./.T.3X3X3X3X4X4XU.W R F 6 6 b 8 # + + , + 1 , + W.nX                                                                ",
"                                                                                              g e m H /.CXS 5 . B.f.            3Xz.@X            . # - 9               # # @ j.c R  .l.} A./.[.6X6X/.].[.[.6XI V V 6 c v 1 # + , + 4 , 1 + ).                                                                  ",
"                                                                                              p F iXKXKXKXf.w G mX@ E           uXz. .            . $ % 9               # # @ j.C  .G.B.;.Z.].[.wX6X6XwXwX6X[.h.0 D 7 c v < + , + + + , 1 O uX                                                                  ",
"                                                                                              8 Z >.uX_.x.N 9 mX^.@ !.F.G.^.a | | * .             $ $ * 9               8 1 5 k.| m.U.B.*.Z.].e.6XwX6X2X-X].-XZ.L E M b M 3 + + + , , 4 > O vX                                                                  ",
"                                                                                              9 Z aXKXDX      m.N = = = = a = . 7 * $ o           $ o % ;               8 @ 5 j.f.Z n.n.*.J.<X6XcXUXkX0X-X6X5X,.a.N.~ b v 3 , + + , , 4 + + mX                                                                  ",
"                                                                                              a  .U.                    @X~.G.# 8 5 @             # $ - *               e @ O j.M.).J.,.1.R.-X8X0X2X0XhX1X-X<X .l.W.m.T q + , # , , , 2 , O JX                                                                  ",
"                                                                                              a J g.                        vX. Y                 % $ 8 *               p 5 @ Q uX/.l.1.1.R.6X5XhX2X2X7X1XL.+X} j.s.y.U q $ # + 4 , , 2 , >                                                                     ",
"                                                                                              p P P                           . k.                0 $ * &               D w @ N V.v.! ~ V.U.[.R.R.R.T.].[.<XT. .g.H m 4 % $ % $ + , , , , 1                                                                     ",
"                                                                                              a G G                           * N.                e o o o               S r . m F.v.1.! ) Z.Z.5.4.4.5.q.-.Z.n.| E 9 r o : o # # , , 4 , , 1                                                                     ",
"                                                                                              h I l.                          x.                  D $ # @               Y 8 @ J Q.x.b. .4.J.r.5.'.5.'.Z.5.C.) U N P C K K ) v.! + + 1 , O 1                                                                     ",
"                                                                                              g ;.>.                        @X                    L $ % o               ~ 5 * U ^.x.G.>.4.5.e.'.'.5.'.5._ _ ^ /  .N.b.,.3.A.B.f.1 O + + O 1                                                                     ",
"                                                                                              g ,.}                          .                    ! . o o               R # 7 Y !.G.I.,.4.r.e.t.'.'.5.'.y ) % $ P N.1.;.I 1.n.) # + + # . *                                                                     ",
"                                                                                              j  . .iX                    uX .                      $ o #               Y @ * Q ^.G.~.I 4.e.t.'.'.'.'.'.'.5.y % a.~.A.I l ;.;.! 1 . # # O 1                                                                     ",
"                                                                                              C  .c.gX                  yXyX@X                      o o X yX            E # @ T @XG.P.{ q.r.t.'.%X'.'.'.].R.: : ~.3XP.k d ,.k.) r + + , O @                                                                     ",
"                                                                                              k  .2.#X            S. .!.@X@XzX                      $ o # (.            f.# <  .yXH.H...Z.e.t.'.'.'.].wX'.J.y h.pX/.l.,.) ! ,.~ w + + , O @                                                                     ",
"                                                                                              a  .S.+X              @Xx.u I.                        o $ % !.            !.r # | yXH.G.x.5.5.t.r.].'.].:XR.n.) 1.c.*.l k j h E Y q + + + + O                                                                     ",
"                                                                                              j ..H.Y.                                              i - . _.mX          ~.t e m.yX+XH.s.c.3.R.q.].'.'.R.4.) - ; K I [ [ l k % D q , . O < O                                                                     ",
"                                                                                              a 2.H.Y.                        yX+XY.                x.o . V.fX~.:.D F g t r V W.^.J G I v.4.n.5.5.-._ ) y ^ b r {  .c.<.<.A.e m 1 + + + < O                                                                     ",
"                                                                                              k 2.K.Y.                         .u u {               @X& # 8 9 X & - # # : : g a a X u 0 n.l.R.Z.T.[.[.].4.) + / E ;.;.;.g.l.D.e + + + + 1 O vX                                                                  ",
"                                                                                              k 2.H.K.                           .E P @XI k k W c.~./.N.g G * @ 8 8 - ,.lX[.5XfX4X1XT.8.J.l 5XVXLXPXLXPXY.# 4 f.z. .l.1. .C 9 1 , + , + < @ uXm.e Z                                                             ",
"                                                                                              G 2.8.H.                                  fX} i : l.>.>.P h m.a w r 8 $ ~.hXxXFXxXhX+XK.*.R.d xXDXLXLXGXFXU.. 8 r Q f.Q N 7 * p X , + + + O + R F . .                                                             ",
"                                                                                              { 2.K.H.                                      ).j iX3X_.K ; a i !.S @ e Y.zXNXxXdX4X1XT.P.3X' VXDXVXVXVXlXU.5 9 5 c w < 7 * * e . $ . $ $ X X vXaXE * X                                                           ",
"                                                                                              } 8.K.H.                                        P bXuXlX3XJ C } Q D 5 * /.nXNXhXdXzXdXpX@XpX>.pXY.I.D.F.>.g r N 6 O @ @ < 5 5 * 0 L 3X,.<.D.v.3XbX~.e @                                                           ",
"                                                                                              { 2.H.2.                                          R a p.^.g - C p q V 8 !.iX@Xb.I Z e 0 r w r 8 # * * 8 w 7 5 5 8 q 1 7 q 7 8 9 v.4XhXxXjXdX/.3XlXE V X                                                           ",
"                                                                                              { ..2.2.                                            (.* G X # D N 5 w q 9 a N w ; r % v , r 4 1 + O # 5 + . . 1 # @ q c < 6 9 * N./.5XdX5X<Xc.H C 8 C m                                                           ",
"                                                                                              { K ' { @X                                                X E W.!.a.7 < < e b < 9 - 8 4 4 F + C.!.C.V.v.C.C.k.k.~ H y.v Y j.q v R E E L H 9 8 7 @ @ < r uX                                                        ",
"                                                                                              KXCXVXVXCX                                                        yXW.< @ c N < . . @ 1 1 v Z !.iX3X4XuX3X3X/.!.I.k.Y q A A v 8 4 1 1 8 q 1 q q > O O 7 E                                                         ",
"                                                                                              CXVXCXCXKX                                                        E.7 O O 7 N x @ @ O O k.9 @XpXdXdXpX4X3X@X~._.!.!.f.< q c 1 4 4 1 1 q , 1 r 1 > x 3 e |                                                         ",
"                                                                                            #XY.$XK.H.#X                                                        yX< . . s.yXQ.< # < < T N. .~.+XP./.^./.!.~.).lXmXV.q , + + O + 1 4 , q < 8 v x y.2 q E                                                         ",
"                                                                                          ..9.X.#.9.....                                                          C.v k.JXJXyX7 * 7 a  .B 7 < . X . X . # C V ! A b 1 1 O O 4 n 4 4 2 4 O Q mXuX(.O 5 H       Q E S E @X!.                                      ",
"                                                                                          X.}.$X}..X}.X.                                                          _.q ~ JXmXE.7 = 9 a  .!.MXvXM.5 < < # 1 8 , A 1 4 q v q 2 b b b 2 6 q O !.vXmXmXU c Q   D O @ i j.fXaX!.                                      ",
"                                                                                        #XX.9.}.}.}.X.9.                                                            ! (.yX| a @ < 7 = 7 @XJXCXuX5 @ @ O 1 b 2 , 1 q b b r q q q b 2 4 < + yXKXJXmXj.S m.@X< . C ).bXmX@X|                                       ",
"                                                                                        yXX.X.}.}..X9.s.                                                            . O . 5 # X = < @ c vXgXgXuXO . # @ q f.~ U q 4 4 + + @ @ 2 , 1 , q > E.JXvXsXu.M U c O e F.lXmXbXuX(.uXlX                                  ",
"                                                                                        gXX.X..X$X}.X.9.                                                            . N 1 # + $ % w . N yX@XfX(.. O 1 O q U A q 4 1 , + + @ @ + + + > < @ U yXV.V.M q + U , C.!.aXaX).V.V.k.| E C R                             ",
"                                                                                        yX] X.$XOXH.X.9.                                                              z.w 8 % - # Q 7 | sXz.W.G.. # 1 < 4 c O # > > + 1 + O + < + O # q 1 5 2 6 w 6 b O q e j.D :.F j ; - 8 * ; : X * - :                       ",
"                                                                                        yXX.] $XOX9.X.=.                                                                vX/ % 8 *  .T s.j.U . < O 1 + 1 q q 1 1 1 4 4 1 < + O + + O < 1 < 1 3 6 A 4 $ + + 4 r e % - % $ o % % % 0 - $ . $ % ,.                  ",
"                                                                                        yX] ] H.OXH.X...                                                                aXv $ # . a.N.iXsXV.a.+ O @ 1 # e S Y R D D A A v w r , > + < 1 + c W.!.V.~ Z D v `.V.n.v.Z.F.U.U./.[.[.).h.^ $ F j lX                  ",
"                                                                                        pX9.}.gXdX#X] ..                                                                  # . # . H a.T T S U U U v v r A D D D Y D A A D A v , > < 2 8 O S E.V.f.:.v.!.B._./.Z.n./.[./.3X[.).<XT.) D v.f.t 0 g Y               ",
"                                                                                          2.}.gX8XoXX...                                                                  # O # < a.T N 7 7 m 7 V v / r A D S Y R F v / v V v 2 > > 2 1 < U N.N.1.v.!.[.~./.U.n.n.J./.<X[.<X<XT._.L R B.g.% . $ O               ",
"                                                                                          H.1X8XgXoX..=.                                                                  1 1 O 7 U T 7 7 c w M D / A U ~ Q R f.f.F F ! ! D A 6 > , q 1 O U V.m.) v.!./.~.U.P.n.n.n.U.3X)././.3X/.>.l.I.U.8 $ $ X               ",
"                                                                                          H.#XjX8X#X2.2.                                                                  # 1 1 + 6 7 x x c N  .k.k.C.E.C.y.E m.V./ f.f.! D A 6 1 3 2 + @ T M.V.) C./.Z.v.,.>.;.>.:.:.:.,.l.b.B.U.v.Z.~._.V # + # e             ",
"                                                                                          oX#XjX8X4XH.=.                                                                  1 + O < 7 3 7 < 2 m.W.U.B.v.v.m.! H :.! - R W R V V q , 2 4 , , u.E.V.A 8 # - - o - o $ @ * 8 p 9 0 p ^ h.h.[./.Z # $ # C             ",
"                                                                                            oX+XY.oX                                                                      # + # < 7 < < m 6 M.S.T.P.J.v.N.f.H x.0 D f.f.R p e 2 , 4 n 4 , U W.V.A 8 8 r - 8 0 e w w 9 p 9 w w V f.,.n././.D X # * C             ",
"                                                                                                                                                                          w O 1 5 7 7 Q U . E 1.T.oXY.J.3.>.Z z.g E f.P Z V e 8 , 1 q , , ~ E.m.V 8 0 F e ; Z L E | ! H E R R C B.) B./._.I X $ - C             ",
"                                                                                                                                                                          r # H Q a.a.B N N H x.Y.oXL.3.k i %  .;.! W L Z C 7 q 1 2 6 1 , u.E.j./ 8 0 H ^ - Z } :. .W W E F. .S C.C.n.T._.R X $ * C             ",
"                                                                                                                                                                          m 9 J j.G.z.Q R U x.x.A.1XxXzXJ.Y.P.Y.l. .;.H D U A 6 2 , q , > T W.j.w / v ) Z o j j z t 0 % 0 C F m k.:.n._./.) + # * C             ",
"                                                                                                                                                                          w = X  .b.x.H N 7 j.2. .I d & ; [ I ,.;.} ;.} Z R A n 2 , 4 , O T M.j.e r w v.:.P.R./._.U._./._.g.| N f.:.v.T._.:.$ # 5 C             ",
"                                                                                                                                                                          p.7 7 ^.Y.2.J a X 9 i J Y.dXi j } ;.:. .H  .f.v.D Y b 2 + 4 , @ Y M.| r % r >.U.~.U.R.R._././.3XY.W S f.) C.U.~.) $ o - C             ",
"                                                                                                                                                                          F.7 N +XY.S.1.x.X k x.Y.+X+XK - C Z G E Y z.N.G E D v n > 4 1 1 Y M.H 8 % 0 :.b.U.T././.[.T.Y.R.b.Z e y.^ n._.U.:.. * 5 C             ",
"                                                                                                                                                                          !.N H @XP.c.9.c. .~.Y.Y.Y. .- . # # 9 A m 9 a # N A b 4 , 2 + 4 D M.H 9 8 j W l.J.[.3X[.[.<XR.J.D.Z 8 Q ! v.U._.h.o % 8 C             ",
"                                                                                                                                                                          W.a J ^.A.S.....h G.H.H.K.<.& . r - e W.@ q H p e v q 4 , 4 4 4 Q m.R p 0 D Z l.Y.[./.[.oXT.R.P.B.R 8 ~ ! v.U._.,.$ # 8 Z             ",
"                                                                                                                                                                          V.7 S N.b.H.H.2.= J J >.K.1Xc.n.j e D U O O S q q q 6 , + 4 4 # | M.R t / Y t B.~.3X[./.T.T.Y.P.v.W A ~ W h.U.U.h.% % 5 C             ",
"                                                                                                                                                                          V.* m S  .x.2.2.s a 5  .K.7XjX8X0 :.e v + . yXT > , 4 , + 4 , # p.s.Y v e Y e _.I./././././.Z.n.l.! U D ~ v.B._.,.% $ * C             ",
"                                                                                                                                                                          !.5 . < a a ;  .N a 7 { 8.;XBXqX#XU.# > + , uXU 6 < 1 , 4 4 4 1 s.j.S e e H C B.v.b.B.B.n.B.v.C.A v S U R v.U.U.v.# 8 - N             ",
"                                                                                                                                                                          F.7 . Y  .M.x.x.7 a T a d -XNXjX5X/.0 1 > / sXC 1 1 1 , 4 4 n 1 s.j.U 9 r g 9 9 * $ - r % - r F r A y.D W B.U.U.v.% # * C             ",
"                                                                                                                                                                          F.9 w a.a.W.G.s.s a J R s +XxX+XZ.l.; 9 T ~ (.r + 1 # 4 , 2 4 1 p.j.T 9 - 9 0 Z P K ) ) W h.n.R . 8 D / D v.B.B.v.8 % * C             ",
"                                                                                                                                                                          !.9 ;  .W.oXH.x.k N J j.c. .j j % $ $ @ q n r 4 . $ % + 4 , 6 3 s.j.U w % e f.!.~.~.U.U.U._.!.C.. O v A V v.n.n.:.% # * p             ",
"                                                                                                                                                                          ^.9 a b.~.Y.H.H.N s ..H.P.c.C % . # X . 6 4 t t y % $ % 4 % , , j.M.B e e e  .!.~.!.T./._./._.! . . A j.D v.l.n.) 4 % # h             ",
"                                                                                                                                                                          ^.* a E ^.^.~.H.s J ..H.H.8.S $ . 0 a.7 N ) U.Z.) R.R.: $ + 4 , s.j.M q e F W Y.U.~.~._.~._.Z.R # 4 S v m h.v.v.h.- % # N             ",
"                                                                                                                                                                          !.* X 9 b.G.A.H.J ..s.9.H.9. .# 4 F.^.J ; % K 5.) R.Z.% $ . 1 1 s.j.T v e p E !.U.I.~.U.!.U.!.D q m c q # | B.B.B.- - * C             ",
"                                                                                                                                                                          !.; * P  . .2.s.s J 9.9.9.2. .w # F.P.2.G W ~.Z._ Z.Z.g $ $ 4 q m.M.U v / g W D.W P h g 0 8 8 # # U U 6 5 h.D.U.v.- - * a             ",
"                                                                                                                                                                          !.9 p !.Y.I.>. .J J ..9.H.H.s.7 V ~.A.[ P v.v.H t ) W e 8 + 1 3 j.m.A e e V Z 9 X & ; ; - : H :.>.b.~ 5 5 N.N.U.B.r o @ a             ",
"                                                                                                                                                                          ^.a  .Y.~.+X^.~.l.....2.H.H.s.N U ).B.0 o . . . . . . O + 1 # 6 s.m.B w e F ~ N.N.v.l.n.B.D.n.D.v.N.V @ @ y.f.v.U.t # * p             ",
"                                                                                                                                                                          ).7 g.a. .;. . .J J ......x.T S Y @X~.& X . . . . . . 1 q e 1 7 j.M.A q e V E V.v.v.l.l.v.b.b.b.x.N.D @ < Y V.V.B.r o = N             ",
"                                                                                                                                                                          ^.= a = a s u { { h k J ..J 7 M H 3XD.o o . @ # # # O 8 1 q 5 6 M.M.A e w F S B.h.h.l.c.v.b.b.A.A.v.Y 6 5 m r ! / % . * C             ",
"                                                                                                                                                                          !.a H T x.x.c.Y.x.k ....k K g w P @XF.X o # O O # # 1 1 r q q 8 M.M.M w e Y F B.g.h.v.l.b.l.n.c.v.N.Y 5 6 < * $ # # X @ C             ",
"                                                                                                                                                                          W.J !.x.S.G.A.H.x.J G s ..1.D e [ 3XG.o # # @ 1 1 8 c q 5 8 1 6 k.m.M e / D D B.f.v.l.c.n.l.l.l.l.x.| w 5 < 1 # # # # o C             ",
"                                                                                                                                                                          I.C x.^.^./.+XG. .P a k 2.,.! c { iXN.X @ @ < 1 5 r w 1 1 1 8 6 m.m.M v v F H V.C.l.v.l.n.l.l.l.1.j.Y c < b r 8 w 4 X < J             ",
"                                                                                                                                                                          x.| ^.!.+X@X+X/.C N a @XiXlX).Z h.4XD.X @ @ @ @ 5 8 S r @ # 1 5 s.m.v e e m # z.v.l.b.v.v.l.l.l.g.l.Y w U A q D b 1 @ 5 J             ",
"                                                                                                                                                                          C a p.! F.+X@X@XG.N { h.pXnXuXC 1.lXI.9 a.a.N w U Y Q D . 1 8 6 s.m.S e r V r V.v.v.n.v.b.v.l.>.l.h.J 7 < 5 5 1 8 1 # * J             ",
"                                                                                                                                                                          N X @ # E ^./.+Xx. .N U.nXKX/.>.VXVXpX4X@X^.N.p H H T A + + % 5 a.j.V e e D e N.v.V.b.b.b.n.x.x.m.D.C * O 5 5 D v # $ * N             ",
"                                                                                                                                                                           .* p Z I.3X@X#XW.s. .).nXKXE F B.Z.;.A.x.E T e M U Y V # # # q s.j.M q / D g F.v.b.b.n.b.b.l.l.b.D.H 5 m Y | m.j.O X # N             ",
"                                                                                                                                                                          G.9 | v.~.iX4X@XG.s.../.VXDXC $ $ . & K x.J m N S S U m # O # w j.k.N e v F / Z.v.v.n.A.b.B.>.l.c.z.G 9 D M.N.B.C.# @ * N             ",
"                                                                                                                                                                          W.a P ).4XpXlXlXaXQ. .@XzXJXJ X @ o 9 G.p.D 6 c N U D v O $ # 7 z.m.p r e A e v.v.l.B.B.l.v.l.l.v.l.H a N V.M.!.m.. @ < a             ",
"                                                                                                                                                                          G.a 7 ~ J.T.<X#X!.G. .yXzXDXx.a.M.>.>.J Q S < c M N D e # + # < m.m.N w e F g C.:.v.v.n.b.v.l.h.h.l.E p H | z.!.k.X @ * a             ",
"                                                                                                                                                                          N.p 9 ~./.3X+XD...{ ..iXgXLXG.Y.+XY.G.a.E V 7 w m B S e + . + # m.M.C e - 9 0 r g F Z ~ R :.N.:.g.} E S S g.j.F.z.. X @ a             ",
"                                                                                                                                                                          b.w a F.@X<X4X4XY.@Xs.fXgXLX^.I.P.x.2.>.Y V 5 p B S U e + . + 5 m.M.C 0 9 w r * $ . - % r D p E 8 H p. .R f.>.F.z.* @ < a             ",
"                                                                                                                                                                          m.a J D./.+X4X+X2.2.;.iXzXPX+X+XY.P.S.;.} C @ w M U Q m . . V e V.V.S e - h 8 :.:.f.:.:.Z :.R . w ! C.M.Y j.g.z.C.= 5 * w             ",
"                                                                                                                                                                          D.a S D.^.@X<X+X3.Y.Y.PXPXPX4X#XoXJ.S. .} C . e m D y.v . # r q V.V.A e w D * ! h.:.:.h.z.B.>.$ 8 C.C.a.a p.:.z.F.5 * @ a             ",
"                                                                                                                                                                        fXN.p J N.^.#X4X4X2.H.@XPXLXKXdXY.Y.H.c.>.} F . e m D p.e . # # e V.V.m 8 9 C 9 | g.v.z.N.D.D.v.9 8 M A N # p P F.F.# 5 # a             ",
"                                                                                                                                                                        fXx.a N G.~.+XpX4X;.l.Y.gXiXNXgXG.H.A.1.>. .V . e e D a.v . 4 4 v V.V.A 8 9 p - R h.h.v.v.v.B.g.L 8 9 # # @ # 9 !.!.@ # @ w             ",
"                                                                                                                                                                        fXl.p Z D.!.I.I.x.G } J J N i 1.~.S.l.1.>.| S @ w e S y.v + 4 4 v V.V.U 9 e V 8 ! :.z.b.b.B.b.n.g o 5 @ 5 p a } F.F.5 $ = a             ",
"                                                                                                                                                                        fXj.p H D.I.G.Y.b.k J C  .A. .^.I.l.c.1.>.| F @ w v V Q e + 4 4 b V.W.U 5 p C - ! f.N.B.D.B.B.n.L $ - . 8 w < } z.M.* @ @ i             ",
"                                                                                                                                                                        fX>.a E G.G.I.I.A.[ R C b.U.G./.P.x.G.S.x.l.S . v m A Q q 1 4 4 v W.!.A e p D * :.v.v.B.D.P.B.B.) - # # D V . H l.z.5 * * 7             ",
"                                                                                                                                                                        fX| a J b.G.~.!.D.a.J  .g.D.b.Y.Y.G.P.A.B.v.D @ m A S Y 8 1 % 4 b W.!.U 9 V D 0 k.z.b.B.B.B.B.U.l.- # 7 Y S X a | k.* * * 7             ",
"                                                                                                                                                                        fXG a D N.I.^.~.G. .H C  .P J x.G.Y.A.Y.D.N.E # e m m S 5 # # 4 w E.!.D 5 m F V G D C Z g 0 9 g 0 8 8 V E.Y . w j.g.* * * 9             ",
"                                                                                                                                                                        aXS a T l.x.G.P.b.p 9 J R C . ;.A.S.>.1.l.g.D @ q q w M 1 1 1 + M k.m.U # # # X # # $ # # $ $ # # @ O 5 e e * * w 5 X X - p             ",
"                                                                                                                                                                        sXJ h E  .v.c.G.I.b.F.G.G.v.G  .S.S.1.c.1.j.Y 8 m e p v 1 + # + + @ w r O X # X . . X # # # - # # @ # # w 1 w 5 a H                     ",
"                                                                                                                                                                        pXZ C E G.G.~.P.G.b.N.S.I.uXP.H.P.S.A.A.l.| D q M v e N @ . + + 1 5 w e # 1 # # X $ # # # $ . . . . . p i @ 5 aX                        ",
"                                                                                                                                                                        aXp a  .l.A.S.x.x.l.1.>.P.pXA.x.<.c.x.1.x.z.! q M e c M 1 + , O # v A w 5 q e - 8 5 5 1 8 4 ; : } I I 4X).* 9                           ",
"                                                                                                                                                                        aXh C [ g.G.S.l.S. . .k ;.H.{ 2.P.Y.P.A.x.f.~ q v v e M 2 + + + O m D v 8 6 q 1 r e F D Z Z B.B./.1.Y.D.D.                              ",
"                                                                                                                                                                        sXp C J 2.G.P.A.A.2.{ u I 2...;.G.S.S.x.m.l.Y q m e m c 6 + + # . w A e r r 8 O 8 w O 8 8 0 B.! 1.>.                                    ",
"                                                                                                                                                                        gXN C P x.x.+XP.H.I.x.x.A.H.>.1.P.A.S.c.l.| Y 7 c v c e q 1 O 4 @ m E R R ! E v.h.8 * $ # $ W                                           ",
"                                                                                                                                                                        aXa J T a.2.G.G. . .a k } g...x.oXY.P.S.x.h.J 7 b w w b 4 + 4 # + @X              E . 0 g                                               ",
"                                                                                                                                                                        sX7 C J  .x.G.G.x.c.x.j. .x. .c.Y.Y.I.H.b.z.R 7 c q 1 q + $ $ + $                 ~.                                                    ",
"                                                                                                                                                                        iX7 N J x.b.x.x.b.x.x.x. .a.x.G.G.x.b.b.b.x.} 5 w w p j ) 4 , + #                                                                       ",
"                                                                                                                                                                        iXa p  .M.x.b.H.H.x. . ... .M.J .. .{  . . .S 6 7 # h U.U.t / # F                                                                       ",
"                                                                                                                                                                        @Xa N H a... ...{ { 2.1. . .m. .C J  . .R N c 6 6 7 S.oXK.[ p 8 ).VXCX                                                                  ",
"                                                                                                                                                                        yX; p a a.J  . .s.x.j...J  .T  .T  .J N C 9 = X @ X ~.9XoXc.= = J { s = = =                                                             ",
"                                                                                                                                                                        !.7 N J j.a.x.b.x.x.c.s.T  .}  . .J Y H J k 2.x. .X I.H.'  .k  . .J N J Z *                                                             ",
"                                                                                                                                                                        F.a N J 2.x.x.x.x.S.a.Y T  .J  .<. .;.P./.<X4X#X..X ).Y... .N x.Y.+X..N 8 X                                                             ",
"                                                                                                                                                              @X        V.= N  .x.x.a. .x.x.x... .C u J.<X2X0X2X1X;X#X+X} . p.D w 6 * 5 = * * e H e                                                             ",
"                                                                                                                                                              l.        !.* a Z x. . .x. .{ J J J k l q.-X;X;X7X0XjXdXI.Y @ 6 3 3 < < > < < @ e p.D                                                             ",
"                                                                                                                                                            a } fX    fXF.= N  .h. .{ G k I P ..c.9.H.;X7X0X8X8XA.1.Z w 6 < 3 n n n n 3 3 3 1 S | V                                                             ",
"                                                                                                                                                            . & P E N.!.| a C Q S.c.x.2. .>.>.c.4XjXNXdX8X+Xc.a - 1 1 6 6 n 3 3 n 3 3 2 3 3 < D f.;                                                             ",
"                                                                                                                                                            = o 7 5 a H S h E h.x.1.<.S./././.A.iX@XpXv.H a a 6 1 > q 1 5 4 2 2 3 2 3 < > 3 @ 5 9                                                               ",
"                                                                                                                                                          /.X . X . a C E | N.~.@XdXdX8XdX5XI.= J p Q % 1 x c x 6 < , 1 1 # 1 3 3 3 < > @ 1 @ Z                                                                 ",
"                                                                                                                                                          ^.X . * X Y.4XlXbXCXSXSXVXNXVXzXg # $ = $ p 8 A u.s.E.b O O + + + > < 3 < 1 < < 1 # aX                                                                ",
"                                                                                                                                                          _.. . c.: dXVXzXzXbXnXVXCXVXVXlXq # 4 % o r 9 f.W.Q.j.N @ @ > > # < 1 1 3 < < 1 < H                                                                   ",
"                                                                                                                                                            = = gX..NXGXDXCXJXDXKXVXgXyXmXa.6 @ # . A.P ;.x. .k * ; o m 1 @ 5 > n 3 1 < O @ z.                                                                  ",
"                                                                                                                                                            X ..CXVXVXCXnXvXgXM.c = = c x 7 @ 1 O & DXdXdX1X+XY.T././.@X/.5 6 c A M > > < < W.                                                                  ",
"                                                                                                                                                            k vXKXbX{ c a a 7 7 w * Q Q B w 5 @ . X P.oXT.T.K.L.1X1X1X<XD.9 N u.B B 6 1 < 5 j.                                                                  ",
"                                                                                                                                                            x.VXbXx.= = 7 < 7 < w @ . . . = # N a ; dX<X;X+XoXXX8X1XoXoXS.a S j.U A 2 < < p p.                                                                  ",
"                                                                                                                                                          3Xj C p * . 5 5 5 # 1 $ $ . % ; W Z ^.bXH.NX$XoXoXoX;XBXqX9X1X#XN N s.B U 2 @ @ # @                                                                   ",
"                                                                                                                                                      ).k g 9 * # # @ O 1 # # # 8 e 0 lXSXFX+X .M.4XgXH.H.OX#X#XjX#XK.G.+XJ B B B B 3 @ 1 @ #                                                                   ",
"                                                                                                                                                ^.G 5 = - X o o 9 E e . < 1 1 r R 0 C <X8XjX;.a G.@XI.H.H.H.G.H.2.c.a s J c N B B B < < @ + $                                                                   ",
"                                                                                                                                          @X; ; ; & X X X . X & uXCXiXX 5 6 6 A | e i ;.S.{ l ; a * = X = a a a N J 7 7 c M N N x x 7 < # # #                                                                   ",
"                                                                                                                                        * = . . X = u i = i A.<XSXSX/.& 5 q M a.j.J a { { [ d r 5 @ 5 g B J J U J B N V w N 6 c M M x @ + + @                                                                   ",
"                                                                                                                                      uX* 9 X P ~.4X3XoXk P.4XjXNXzX;.X 1 9 U M.u.J a I.+XJ.;.N.e V N S J T B U Y B N c w 5 7 M M M x O + @ @ 8                                                                 ",
"                                                                                                                                      uX= [ I G.Y.Y.+X+X3.Y.8X9X0XoXk # 5 7 D J Y J a @XhXK.<.l.& e e N N N B B M v b c 7 q 1 b b b 6 < @ @ # o                                                                 ",
"                                                                                                                                      ^.i +XP.T.Y.+X~.~.S.4X8X7X9X<.j * r 6 7 w 7 N i ~.hXJ.=.l 0 e M B N m B B M b b b q 6 6 c n b 6 + @ + @ X                                                                 ",
"                                                                                                                                        } 4XiX4XuX3X@X@X+X+XS.2.l j : % 7 w 7 w a a * S.K.X.f I j p V T M b x B b n x x 6 x 7 x x b n 6 O @ @ X                                                                 ",
"                                                                                                                                                    aXiXpXP.= s u j r r :. .P C a m = 8.q.+.9.;.; p M A M m c B x B c B M M x x b b 6 3 O @ . $                                                                 ",
"                                                                                                                                                          x.[ a } ; o l I [ J { J N = 2.q.@.6.*.0 p / U M 7 c c B B B N M N N x x x 3 < O @ . .                                                                 ",
"                                                                                                                                                          (.P . 9 U.*.3.<XT.H... .B 9 8.=.o.6.3.j 1 c v 6 7 x N i.B B B N x c x c c 3 @ O # O .                                                                 ",
"                                                                                                                                                          iXg & g R.*.].AX1XS.1.C C p c.q.>X,X1X4.# v w b n n B B B B B N N x B b x 3 < @ < @ .                                                                 ",
"                                                                                                                                                          @XP : I -X( e.kXoX2.{ ; m 9 c.jXqXqX;Xd 4 e / c b B B T B B S N m 7 c b b 3 @ < O X .                                                                 ",
"                                                                                                                                                          3X~.0 *.7X@.6.8XS.k C - w 9 b.8X0X2XJ.y $ r v v M n B U N c 7 7 6 x b b x x > > + O X lX                                                              ",
"                                                                                                                                                            @XH l T.O.z I N # # * 7 e l.T.oX8.: $ + q v A n B s.y.B N a c 7 c b x B x > > + O # 9 P }                                                           ",
"                                                                                                                                                            iXJ K j . % r r 2 6 , 4 e V E N.G o + r r r b b B u.~ U S q e c 3 x b 2 , , > + O $ . O O .                                                         ",
"                                                                                                                                                              P Z 9 o # e V D b B v c 5 5 h.D , + 4 4 4 w n b A U M D w c q 2 2 2 2 > 2 , 1 @ O # + < .                                                         ",
"                                                                                                                                                              } a X X & i g & 5 b 1 q @ 1 Q e + 4 4 8 w / r q N U e c w c b 3 < 2 2 > , , , + 1 1 4 6 .                                                         ",
"                                                                                                                                                              oX2.=.8.K.L.8.8.H.} 9 g p 8 V 8 + # 4 8 8 w 4 # w m 9 e q e e 1 1 4 2 1 + + + O . @ < 1 .                                                         ",
"                                                                                                                                                              T.6.7.%X=X|.%X|. Xw.K.Y.k ~.W $ . $ $ o $ X $ $ g h } ;.I j 0 o X . @ @ * p 9 E P p.@ < @                                                         ",
"                                                                                                                                                              2X` 0.%X%X%X%X&X X.X=X;XA.hX5XR.U.I././.3X3X@X<X+X<X4X5X3X6X3X+X).!.N.z.>.|  .x.m.z.< < @ p.                                                      ",
"                                                                                                                                                              1Xf w.|.>X&X X*X X|.7X;Xf 6X8XT.<X[.<X<X<X<X/.<XT.T.-X6X1X8X2XY.G.G.x. .P { |  .a.p.1 < 1 5                                                       ",
"                                                                                                                                                              1Xo.-.w.|.=X>X=X X}.}.8.. R.].-XT.T./.T.T.T.T.T.T.T.L.-X1X5X<XJ.2.x.[ J p p 9 7 Y S @ + 1 1                                                       ",
"                                                                                                                                                      Y.~.8.oX9.-.' *.' 8.8.8.6.=.=.k X 1.Y.oX+X/.T.+X/./.T./.+X+XoXT.<X5X[.I 0 9 * # 1 # 1 1 @ , 4 , , 4 W                                                     ",
"                                                                                                                                                  { u k K s d k s & & u u d u ; u i i 7 a ;.{  .>.P P P P I P K :.;.[ *.b.1.; . # 1 , 4 , 4 , > , 4 , + 1 9 uX                                                  ",
"                                                                                                                                                  & = s 1Xk u u ; ; : V 0 u h Z 0 i 9 - ; % & # 9 8 - r 9 - 8 0 - - 0 - L F . + , , 1 , , 1 1 , 2 4 4 , 1 O $ j i                                               ",
"                                                                                                                                                  : k d 4XJ a h g i p E w 9 h g 8 9 F 8 - 8 8 8 e r % r r 8 r + # 4 r 8 V e 1 < 1 3 > , 1 , , , 2 4 + 4 4 + # . o ).                                            ",
"                                                                                                                                                  /.k = { u ; 9 * i D.| 9 * a ; e - r 8 8 8 r r r V D D D / b 4 4 V e `.f.4 + < 3 > > 1 , 2 , , < + 1 , 4 , @ . ,.nX                                            ",
"                                                                                                                                                    *.X *.k { d k d l P ; : . = & o $ 4 4 e r - 8 t / ~ D 4 8 1 r V r V 0 4 # 1 1 1 1 < 1 1 , , < 5 O 1 , + # . V.nX                                            ",
"                                                                                                                                                    Y.k 2X;X=X|.=XOXoXoX] & f ..' ....8 . = * : : : y - : o 0 t V F r e t o % % + , 1 1 # @ 1 8 @ a Y @ 8 w = X pXVX                                            ",
"                                                                                                                                                    zXoX7XqX X>X>XqXqX7X>X#XoX9X9X9X5X# . bXxXhXzXnXSXVXnXnXlXnXnXnXzXhXlXlXaXB.v.e R g.g.>.a.!.S S J 7 | J a = 3XLXLX                                          ",
"                                                                                                                                              G [ h =.oX6.w.q.oXr.w.K.;X9X7X7X#X>X$XS.O . hX5X8X5X4X6X1X<X5X8XdX5X4X5XhXhXdXhXdX5Xh.D.x.s.x.s. . .J a 7 S J J a z u  .3X                                        ",
"                                                                                                                                          . X & & & 5XBXXXu k s u X = ' 8.+.` ` f ` f . % pXhX0X0XjXjXhXjXhX5X0XqX0X8X8X0X0X0XhX4Xx.z.H. .....a Y J N = a a N ..S.a X =                                         ",
"                                                                                                                                    I.    * X H : X 7X>XXX& : : & X & u -XqX}.}. XXXoX. O T.1X;X-XL.K.L.L.oX-X;X0X2X7X7X7X0X0XBX5X .N p ..s...X J T T = @ X a k G. .@ 7                                         ",
"                                                                                                                                        /.& . 0 & & 8XOX$.& g # o - o & 0XOX|.%X=X;X2X4 5 VXBX8X7X8X8X2X1X5X8X8XkX7X7X8X8X0XjXxXjX;.m.H N @ 7 = N J N @ 7 = w N M.J @ = G                                       ",
"                                                                                                                                        @XX $ 8 & f ;X}.w.u % # % 8 0 f 9X7.}.0.7.8.8.e V zX8X8X1X1X1X5X#X1X4X5X8X1X1X<XoX/.T.+X4Xv.X 5 1 5 O 6 6 6 1 1 1 5 w w j.w O 5 N                                       ",
"                                                                                                                                        ).$ . 4 ; k w.7.+.u g t L d d <.XX7.9.9.9.K.P.p 7 c...' ' f k k { >.;.,.I { 1.} K l k j W D e q q > < 1 2 1 > , 1 6 1 1 M 3 @ 1 p                                       ",
"                                                                                                                                        !.X # : i { 9.9.f i ,.J.T.;.*.;.3.{ k f u i a m p [ { E R P H E f.g.! I [ >.n.h.E ) :.o L D v A b 1 + O 1 5 q 1 q q 1 @ A < O 1 9                                       ",
"                                                                                                                                      lXU.X r r ; K d : u L 1.K.H.=.{ j - - * = u w 0 p p p N C C F F R :.! W I W b.U.h.f.D :.g f.~ b b b > 1 + 1 1 @ 1 q 1 1 1 c > 1 1 5                                       ",
"                                                                                                                                      uXf.- - & h G i a ; P 3.9.] ' k & ; 0 F C g D ^ R L W L Z F F g ^ F V 0 t j ^ ^ g D Y ^ V f.A , , x , , 1 1 1 1 + 1 # @ 1 6 3 1 5 *                                       ",
"                                                                                                                                      Z 9 - ; 0 i p C g G K *.=.6.3.{ k F F L L P ^ Z ! Z [ :.h.4.C.,.h.) E ) >.I :.:.Z :.K C.W R V 1 q b q q 4 q 6 1 8 1 1 3 6 w 2 2 5 *                                       ",
"                                                                                                                                    ; 0 0 9 ; - ; ; 8 e a K 6.w.7.6.=.0 0 e g j G 0 C.D D >.n.c.n.n.n.v.:.| h.;.1.1.l.g i o j W G H 5 q w q b b c v v 2 6 q 5 2 b 2 2 1 *                                       ",
"                                                                                                                                    . o * ; - i i 9 9 g = *.=.+.o.@.O.j C D P [ K Z k.) 0 h.n.n.n.n.c.c.>.:.h.<.l.;.>.j C Z I.n.l.Z w q q , w A c v q 6 6 6 c 2 x 3 < * * ).                                    ",
"                                                                                                                                    Z 0 g K I [ k Z g g I =.O.#.@.@.*.y ) c.<.l *.G f.y.Y ) D.P.J.n.c.c.>.k ) :.<.:.H H Z p >. .H C 5 1 6 2 c 2 q 5 2 6 3 1 6 6 q 1 1 1 o ~.                                    ",
"                                                                                                                                    f.# g [ [ P j 0 g h I l +.#.$.@.4.( ,.3.=.O.S.Z R D t L B.I.c.<.1.c.A.n.1.3.c.g.P 8 * @ C Z | Y m q v q 1 q 2 5 2 O O > < 6 c 1 1 # # ^.                                    ",
"                                                                                                                                    ) q 0 ;.;.I k Z Z K K f -.$.&.r.O.4.3.8.=.8.[ j B._.v./.iXhXlXdXpX4X4XpX/.S.D.l.H C 8 5 L X G D v c A M c 6 M 6 5 6 6 7 3 6 q 1 1 5 * !.                                    ",
"                                                                                                                                    ! 1 g ;.*.K d I I l f z r.0.r.-Xe.T.J.-.-.' d P 3X/.3X3X3X/.4X4X4X4X5XhX+XP.A.v.P f.H * p G E ~ 5 q b b 6 x w 6 < 6 6 6 < 6 6 < 1 # * I.                                    ",
"                                                                                                                                    ! 4 g P <.{ z z l <.*.l 6.6.r.-.O.l 4.-.@.=.I j iXpX3X/.3X<X5X4X4XpXdXpXT.I.P.x. .j.} . H v.W D < 5 6 2 5 c c 7 1 6 6 6 < 6 q < 1 # * ^.                                    ",
"                                                                                                                                    ^ 8 0 j <.*.O.z f { J.-.-.-.$.-.( l *.-.3.3.k - 4XiX/././.<X4X/./.<X4X<XT.Y.G.c.| f.| 5 W } R D q 5 2 6 1 2 c 6 < 6 x 6 6 q q # @ $ = I.                                    ",
"                                                                                                                                    Z 8 ; K *.' =.q.q.-.3.-.-.q.-.r.l l 3.,.l l I 8 uXuX_././.3XpX<X~.Y.U.P.U.P.D.v.p.l.E J Q | } S 1 2 6 2 6 6 m 6 6 x q c 6 b 6 1 @ @ @ D.                                    ",
"                                                                                                                                    g 8 - K l *.3.q.3.3.q.3.-.6.-.-.z K :.*.: y : r ).uX/.~./.3XpX~.~.A.A.n.U.U.G.c.g.a.Y C k. . .Y 8 6 6 6 1 b 6 6 6 6 x 6 6 b 2 > 1 O @ D.                                    ",
"                                                                                                                                    j - : K I =.-.-.3.3.q.-.-.r.-.-.-.*.3.*.( I 0 : 3X3XY.~.!././.~.Y.P.J.U.U.P.D.b.l.g.! Y F.| } ! w w c q 6 6 6 2 1 2 2 6 6 6 > > 1 @ o G.                                    ",
"                                                                                                                                    g - t j ,.-.q.3.8.q.8.<.-.q.-.r.3.( I *.*.K - - [.).I.I.!._././.I.U.B.B.U.I.P.x.z.G.k.R F.[ f.Q 5 q q q 2 6 2 1 2 6 2 2 2 2 > , 1 O X m.                                    ",
"                                                                                                                                    t $ 0 L *.-.-.q.3.q.J.) *.l O.r.4.& d ) 4.h : % )./.I.I.~././.~.Y.I.A.n.U.B.G.x. .| a.9 9 Z E E 8 6 6 6 1 2 2 6 6 1 6 2 2 2 3 , , # o [                                     ",
"                                                                                                                                    r % 0 k I -.8.-.r.-XJ.l [ l 4.q.-.: k 4.3.^ % o )./.P.I.~.~./.~.Y.I.B.l.U.P.Y.>.T J p 9 p P  .R e 1 6 5 < 1 2 2 6 6 2 6 5 3 1 1 + # X i ^.                                  ",
"                                                                                                                                    8 % % j l -.-.-.r.-Xr.l *.3.R.].q.j ,.Z.n.^ r o ~./.I.I.^.(./.~./.Y.I.I >.;.N.x. . .J 5 E h :.E q q 6 @ O 5 < 2 1 < < 5 1 2 , , , @ * * 9                                   ",
"                                                                                                                                    - o % j { -.q.-.@.-.q.4.-.5.L.-Xq.j K ( ) z t o ~./.I.G./././.^./.~.U.n.v.D.D.h. . .C 5 E G G | q 5 1 1 < 1 1 6 1 5 < < 5 1 > , 1 # # = h                                   ",
"                                                                                                                                    % $ % k I -.q.6.O.-.r.-.=.8.q.q.O.z K K ^ t - ; /.@XI.U./././././.~.I.!.D.D.x. .a.a.G p j.P L E 5 5 1 < < 2 1 5 5 @ < 5 5 < > > 1 1 < =  .                                  ",
"                                                                                                                                    o $ - K *.-.q.3.-.q.3.O.4.z =.R.T.4.3.) z t : # _.3X~.!.^.~./.~./.~.Y.I.P.D.x. .x.g.Q  .g.E | E 5 q 6 w M v v M v S w @ 5 < > + # 1 5 = c.                                  ",
"                                                                                                                                    $ + % K ,.3.5.q.-.5.3.) l d l ( -.4.4.( ( t 4 % (.3X~.I.I._.I.~./.^.^.~.b.v.l.>. .Z p D C e C p p q q M y.T M N N S N r 6 3 b b 6 6 w a U.                                  ",
"                                                                                                                                    + # 8 Z <.q.L.4.*.4.4.) l d ( d ( l =.3.3.F r % (.).!.U.P.D.D.b.A.F.U.I.D.l.l.l.g.! 7 @ # # * 9 e 8 w v ~ S 1 e m w c 6 w x x U c w 7 N ^.                                  ",
"                                                                                                                                    $ % r Z ;.J.3.O.-.5.5.l l l -.-.( z -.q.5.z 8 # (.).~.G.D.b.A.A.S.P.Y.Y.v.l.x.l.f.| H 9 7 N f.| C 5 q c M 6 6 5 < 6 5 < 7 x c 6 < 6 e N ~.                                  ",
"                                                                                                                                    $ # ; ^ *.3.q.q.r.R.R.2.*.8.q.q.( d 5.q.3.t - % ).3X^.U.P.D.D.A.c.S.I.D.x.l.v.h.} R ! 8 r p ! | H 1 6 2 1 < < < x 6 3 5 c B 3 b 6 w M 9  ..                                 ",
"                                                                                                                                    o $ # j I 3.5.r.r.R.J.j d O.r.r.O.z J.].5.F - # (.).D.D.A.D.P.P.S.P.P.D.g.l.l.l.| f.E 0 m e W | G 5 1 1 5 6 x x b 6 x < b b 5 c 1 6 c N p .                                 ",
"                                                                                                                                    $ # : K *.8.8.6.r.q.-.z d =.5.5.@.O.].q.4.z % @ B.x.| n.>.c.D.I.G.G.A.P.c.1.l.h.:.g.E m p C | H Y 1 5 6 1 6 6 6 x x x < x M 6 c 6 w c a J .                                 ",
"                                                                                                                                    o $ t K *.4.3.-.q.e.5.j *.3.q.K.3.-.q.R.4.: % # m.!.I.G.D.A.D.J a 9 ; l.S.h.h.g.g.f.E m e S E E H * < 6 2 3 6 6 x 6 w < b M 5 c 6 6 m p | & iX                              ",
"                                                                                                                                    o . C 3.l *.5.-.5.-.( z ( *.-.3.*.-.5.( ( % 4 # k.~.I.I.G.^.+Xa o @ = v.A.l.l.>.>.| | p p Z E :.E 1 5 2 1 2 < 2 6 6 6 < q c < 6 < 6 M B g.* 4X                              ",
"                                                                                                                                    & $ I 3.*.q.L.r.r.w.-.( 3.*.-.O.-.5.=.O.( % % % ) !.Y.^.!.+X3XC @ # - B.l.x.h.x. .x.E N a H z.f.E 8 5 6 < < 6 2 < < < O 2 q O q < < 7 S | 7 iX                              ",
"                                                                                                                                    X . ;.3.' r.-Xr.e.r.-.( 4.=.*.4.5.r.q.t.5.t % z /./.+X^.^././.m @ # 8 b.c.>.x.h. .h.| w e Z E g.| w 6 6 3 1 2 6 < 2 6 3 v M 5 7 < < 6 p J 7 iX                              ",
"                                                                                                                                    o % I 4.=.q.L.e.r.w.-.-.J.,.*.) 4.O.4.r.@.z T.6X3XT.~.^.(./.~.N # 5 e x.v. .x.h.| | | m p Z :.g.! w 6 2 1 2 2 6 2 6 v b 6 c 5 6 6 < b a a = sX                              ",
"                                                                                                                                    $ o ^ 4.-.q.q.L.r.q.q.*.) ,.: K l ( ].e.t.O.K.T.4X+X/.).@XaX@XG @ 5 p l.x.>.>.| :. .E J C H E >.| w 1 2 6 2 6 q 2 6 b v b q q 6 < 2 c a 7 @ iX                              ",
"                                                                                                                                    X o I 4.3.q.R.q.-.*.*.R t - y % K -.r.r.t.-.r.-X8X5XaXvX).sXfXe . * 0 l.v.z.g.>.>.| } U m C L | f.w 1 6 2 2 6 2 < 3 6 6 3 1 < 1 < < N T a = yX                              ",
"                                                                                                                                    o 0 P ,.*.J.4.4.5.l y r r r % y ( 5.].d O.r.q.-X0XhXlXCX(.B.@XU.! } P  .>.l.g.>. .>. .J p V R } E e 5 6 6 1 2 5 < < 2 1 < O > > < < U S a < iX                              ",
"                                                                                                                                    o o t l l y j l J.4.^ - r t r t j 4.@.( z O.w.-X2X4XpXvX[.~.iX~.I.Y.A.>.l.l.>. .>.g.>.N 9 p H  .E e 5 < 3 6 6 2 < < 1 6 < + + > + < m N T = iX                              ",
"                                                                                                                                    o o g I z W y n.U.) l ) ) `.t F t ( O.( ( % l oX<X/.3X[._._.P.n.,.x. .>.>.z.j.>.l.x.p.Z G Q g.P :.g 1 < 1 2 2 2 < < 3 < < < < 1 < 6 m S B = iX                              ",
"                                                                                                                                  5X% % W 4.,.) y 5.[.) ) ) ) ) ^ t ( O.O.z y y 0 1.U.Y.P.b.H p a w h H C  .g.l.h.h.>.j.:.p V C Y } >.C < 5 x 3 6 3 > 3 < < + > , 1 > 1 6 M m @ yX                              ",
"                                                                                                                                  3Xr - h.4.3.*.l R.<X*.) ) ^ ( ^ y F ( ( z y % e W /.B.b.b.P D 9 E J j. .a.j.g.g.g.>.l.| S S H |  . .S 6 6 b 6 6 3 3 < < < < 1 1 > < < < 6 c 6 @X                              ",
"                                                                                                                                  lX: - I n.*.) j ^ K y z ) ^ ) ^ : h ) ) y 4 % r ) ~.v.v.n.W G p E Y T  .a.j.g.g.>.:.l.g.R Y H P  .| S 5 6 c x 3 2 1 < @ < @ + + @ @ 5 1 6 c x !.        +X3X                  ",
"                                                                                                                                  aXf.: ^ n.*.*.z ^ 4.z K I l ) F : K *.( F r 4 t :.U.v.l.x.L H e H J C a.s.x.g.g.>.| :.| H G J T P  .C < < x 6 6 < 1 < @ @ # * ; * o 5 < q M c M.    4X4XiX3X).                ",
"                                                                                                                                . @ # r V n.k ,.*.*.Z.z l *.) ) t r ) 4.) ^ j t / ) !.z.c.z.P Y m U C J  .g.z.a.a.>.:. .~ H Z G J { | H w 6 x 6 6 2 5 @ < 5 C H.oXK.A.% @ q c b 5 @X+X3X1.3X:.- Y C a }         ",
"                                                                                                                                  q < 5 C I I 4.*.4.Z.*.l ) z ) : % ,.4.Z.Z.^ r F ) U.b.c.v.E G p C p S a.a.z. .| } |  .E e m p a G H S 5 6 6 x 2 6 3 2 7 < g.K.oXXXl g # 6 1 < @ pXdX5XpXlXI . * # . a         ",
"                                                                                                                                  w @ * H j I q.-.*.3.,.W :.L I g - ) ,.3.*.^ 0 F :.U.B.B.N.W J N R R H a.x.j.|  . .W W | N e e C H P Z 1 6 x 2 3 3 < < 6 O C  .8.-.f >.8 4 2 5 = lXzXhXhXpXl.. . m X >.        ",
"                                                                                                                                  N m . P :.[ 3.4.j g D W ~ ) I } g D *.,.*.K g F f.I.~.P.P. .| C Y J J a.g.a. .E P W E P p e w a C R S r b b x x x 6 6 < 6 @ = = =.S.+Xr q , 5 = bXzXzXlX5Xl.. . G f.[ DX      ",
"                                                                                                                                  q < q G H 0 ,.I - # 4 8 / V p j Z I l *.P G e / ) ~./.Y.P. .{ P E  .| | a.j. . .>.>.>.L p 8 e p Y U p 8 1 5 b 6 2 6 < 1 3 < . . l S.).F 6 2 q * bXnXhXhXpXU.. . N  . .CX      ",
"                                                                                                                                  2 q m p.| j n.^ - 1 3 2 v Y Z R R t z j G D r r D c.A.J./.G.I. . . .x.A.I.I.x.l.>.>.>.[ m p 6 q M V A w 2 6 2 2 3 3 2 6 3 < O @ C [ I.h 1 1 w @ ).bXnXxXnXfX4 O D  . .KX      ",
"                                                                                                                                  < U e k.h.A.I.h.t 8 < x Y m.m ! >.h.4.n.c.~ 0 / f.@X4X4X/.>.I i } 2.1.A.H.P.x.b.c.c.1.x.C 5 m D H m V 1 x 2 2 2 2 3 3 3 3 5 6 @ S i I.H O O + O . $ X v.fXuXv q a.a. .CX      ",
"                                                                                                                                  1 A S } >.n.3.*.- # 1 v Q k.H v.5X3XT.J.>.^ r r F h.c.S.K.[ G a  .;.2.P.K.K.S.S.x.1.{ <.Z e e S L E W ~ A b n x x 2 2 3 2 3 > 1 5 # P.E @ + . O @ . $ $ $ # r 6 U Y J gX      ",
"                                                                                                                                  1 7 w l.;.J.A.c.f.E S a.g.b...A.4X4XR.q.2.I r 0 P b.3.8.8. .J H [ 2.2.K.K.K.H.c.S.A.8.8.K E C.E >.1.S.:.r c q 6 6 2 > 2 > 3 3 2 1 @ h.g 1 . O > O @ + O . # 5 7 Y C 7 N.      ",
"                                                                                                                                    8 *  .A./.P.3.W a 9 P  .x...8.oX-X-.-.*.j : t W v.3.8.2.<. .{ { ..=.K.9.q.J.1.S.H.8.J.j S p.E } 3.8.;.9 1 1 6 < 1 q 7 < 5 7 1 < # p 5 # > O O > > > + O # e S T m 7 @       ",
"                                                                                                                                    8 p c.A.T.8.2.[ a N  . .2.2.=.q.L.-.4.,.K t e E D.2.3.2.2.2. .{ ;.<.8.H.q.H.S.S.S.=.=.u # w 5 o l K.=.# 1 @ @ @ * 1 < 5 = < 5 < * m b 1 1 1 + O > > + . O = a * * 7 a       ",
"                                                                                                                                    r g  .1.Y.J.3.} p @ N B } ....{ 2.{ O.K j % 0 :.G.1.8.<.c.2.>.;.c.H.H.3.3.;.*.2.=.6.=.X @ > 5 * 2.8.-.9 q w C w C C a a 7 = 9 a @ m v 6 1 # = < < < > O $ J c.9 7 . =       ",
"                                                                                                                                    * Z C P <.{ { k h M M.k.f. .{ a  .{ <.n.P t V L h.c.<.;.1. .J { x.A.x.x.;.;.[ { *.6.8.Z 8 q c 9 2.8.=.; q w Y ; a J ' s s k ....= J D , 1 H x.U < < O 5 ~./.<XG p = *       ",
"                                                                                                                                  < 5 R Z G { P k j p 3 u.y.E S J H a.c.b.b.I F 0 ! /.Y.D.v.b.x.k J E E C [ H Z p a { =.-.h 1 3 7 = ..=.' * # 8 e N = s s = s s ] ..' J j./ 9 2. .P < @ > @ (.1.<.J J # 7       ",
"                                                                                                                                  > 7 f.S a h H G V V b y.| J N J S | [ } } j - 8 L B.B.A.x.I.b.K h C >.e F e 8 q w J *.=.g 1 1 1 # C =.{ ; 1 # w e - @ o X @ s J ..{ J >. .;  . .N 1 > 1 < f.I [ [ | a a yX    ",
"                                                                                                                                  1 q y.V 9 V w e e v v y.E C N Q H T E P I j 9 0 P n.c.N.z.~.l.j 0 p Z r F r q c 5 * *.*.0 1 2 5 7 h ..{ 9 # # r 4 q # 1 < @ X = = X ; J G = a J 9 1 . 1 1 1 & g P 9 N p U     ",
"                                                                                                                                  > q T e 1 8 c U A A U Q R G H T Q ! L ^ F 0 t 8 W l.l.v.>.!.v.j i a 0 % ; F D / r 0 *.*.: + , 4 m T ..{ 9 # 8 q 6 , > 2 b n < 7 p = @ a a X = a 9 * @ > < < 1 O @ @ 9 N a     ",
"                                                                                                                                > < 6 M q 5 5 w v A A m Y H D D ~ Q ! E ~ R F r r I >. .>.c.^.b.H k h ; & : h k K o d -.O.: ; e m M  .2.8.C 8 8 r 6 1 1 x b b 7 B U 9 6 Q 9 X = a a @ O @ < < , > > @ e H a     ",
"                                                                                                                                < @ 1 q 5 5 5 b A / Y p D V V S Y Y ~ U ^ U D / 0 ^ v.c.>.>.n.>.{ k k u & = : l q.j j @.f ( i # q a >.8.2.P 5 1 6 6 < = w a N 7 9 r r 5 A r . = a a = @ + < < , 1 3 3 < N  .    ",
"                                                                                                                                1 O # 9 * 1 5 v b w v F C 0 w p A A D ~ y.y.y.v / R l.;.{ { *.3.=.=.#.#.0.XX}.O.-.k z t.r.=.& e m p 1.9.6.[ e 8 7 7 < 7 a a 7 = 8 8 5 < q 8 # 5 a c = < @ > < < > < 3 O D a.    ",
"                                                                                                                              > O H [ k G a w m b 3 q p 0 8 r v A t V ~ y.~ ~ n r :.l.;.{ 8.7.0.%. X>Xo.%.&.%.0.6.d J.w.r.*.; % g a S.-.6.O.o . q 6 m N N N N 5 r 6 1 . + < @ 5 6 6 1 3 > > < > 3 , < # | l.    ",
"                                                                                                                              < w  .x. .[ H S V.U b q m H V C D V b / Y y.~ ~ A q | :.*.8.L.-X$.&.*XrX&X%.&.#.w.-.d d f O.j - 1 q g ;.7.XXw.f i ~ Y U J J N N b r 6 8 1 1 1 1 q v v 2 3 3 > < > 3 > > 5 | j     ",
"                                                                                                                              3 M g.b.S.1... .a.p.B v ~ ^ j 1.h e v c U U U U q w R >.,.S.T.-X$X.X&XrX X X&.-.9.*.i & u l.E 0 2 1 V d f 6.#.s & e 5 7 B B B M x 6 q 1 > > 4 c b U M n 3 3 > > 3 3 1 > e H 0     ",
"                                                                                                                            q < a g.2. . .J J @XE b b 1 0 z f k & r w b b / v w F C ;.b.c.J.K.=X>X X{.&.7.6.-.4.k h 0 ; f.~ v 4 v Q s 2.$X6.] 0 c < x 7 x 7 3 , 2 < 3 1 1 > , 3 n n n 3 3 3 > , 1 < < w R >.P   ",
"                                                                                                                            3 1 c p g G g 1 @ D m n b 4 k ] 0.w.` & 8 4 q q r e e e 0 h.v.L z l r.0.` ` O.l j j h g - # A A v q v j.!.<.9.9.H.P w v b x n 3 3 3 > 1 , 3 3 , , 3 n n 3 3 3 > 3 > 1 > , q | ).h.  ",
"                                                                                                                            1 1 w 8 Z ~ e 1 1 Y A A A 4 s }.%X{.o.& % - # 9 9 & ; & o g K Z : { 0XAX@.@.z d d d 3.d & o 8 q b c A y.P C { k 2.[ # + 4 3 3 3 3 3 3 > , , , , , 3 3 n 3 3 3 > > 3 > 1 > 8 f.Z h   ",
"                                                                                                                          6 6 @ w w H f.p 5 5 D F / A , u  X{.{.%.: & o : j u u d & : : d o : -.qX%X'.%X&X%X%X%X=X$.] u & # 5 q 1 7 5 * & X ; 8 # , , 1 , 3 3 , > 3 3 , 3 , 3 3 3 3 3 3 > < < 1 1 > 1 + # * %   ",
"                                                                                                                          5 6 5 w H Y z.w * 9 V e e 0 # s .X X{.%.6.l z L.q.L.:X-.` XX;XL.' L.w.$.` o.{.*X*X%X%X%X%X|.L.f : ; 5 8 * * @ # # 8 # # 4 , , , , , > > , , , 3 3 3 , 3 3 > > , @ @ @ + @ + 4 4 # o   ",
"                                                                                                                          N N o 1 E C Q 5 * ; # % + = X = o. X{.%.%.6.0. X X X%.%.%. X&X,XrX|.7. X&.&.{.*X*X{.*X X%X%X%X>X|.OXu * * * 8 9 w @ * 4 , , , , , # # # 1 1 , , , 3 3 3 3 > > + + @ 7 5 4 + + 4 - -   ",
"                                                                                                                        p  .B C V G ; C } H & = i h s = u .X X7.` %.%.>X%.*X X%.%.%. X&X{.&X X.X%.o.rX*X*X&X&X%X|.$.&.&.{. X X' X * 5 p N h : Z % 4 + # + + O @ . O > > , 3 , 3 3 > > + + < v p.Y 4 1 4 1 4 #   ",
"                                                                                                                        N H J N S G : j k d = = s s s ` #. X.X&.o.>X&.&X` %.*X%.` ` %X{.{.&.{.%.o.f rX&.*X X` f u : : d  X{.>X-.X X - p k ' ..=.u & o # + . X = # @ > > 3 3 , 3 > 3 > > + O 9 0 ^ $ + $ + 1 1   ",
"                                                                                                                        B  .N * ; s s @.] +.] 7.>X>X X%.>X&X{.&. X X X%..X{.{.&.] ` &.&X{.*X{.%.%Xo.*X&X&X0.u o % % : u =.&X&XK.o . ; a { ..9.X.u X o . X ; a h o . + > > > 3 3 3 3 > > O . G L - + % o o o %   ",
"                                                                                                                      J S A M 8 s .X&X&X*XrX X{.%.%.{.{.&.{..X= ` ] {.{.&X{.{. Xo.] &. X{.&X*Xo.&.,X&XrX*X@.$ $ r r g o L. X X=.$ . @ & { ..] ] ] : ; & ' s k j o X O > > > 3 3 3 > > > + X K j $ % - l 3.) d   ",
"                                                                                                                      a p A A e = .X&X&X*X*X&X&X&XrX X X X.X X` #.>XrX*XrX{..X Xo.` .X{.{.&XrXf  X&X*X*X&.7.: % y o : : 2X0.|.z X o * = h =...] u u ; d s u ..J # . O > 3 3 3 > 3 > > , S K ;.g + + ^ q.e.q.-.  ",
"                                                                                                                    g.7 w m A D s .X*X&XrX*XrX&X X$X0.0.0.7.$.` %.>X&X&X%..X`  X{.%. X X&.*X{.%.*X&X*X{.*X%Xo.: z ( y f 0.w.K.0 . @ = 7 k c.k d = X 9 C ; J h j X @ O > > > > > > > > O f.J.3.- 4 # K r.=X'.'.  ",
"                                                                                                                    = . @ 5 q e s $X{.{.{..X` f f f s = ' f ` ] 7..X.X.X7.7.` ` %..X{.&X{.%.{.{.{.{.*X{.&X%X{.%X&.|. X'.e.q.u - O 5 < 5 ; = & X ; X * : o X X # . 1 O > > O > > > > O O D 3.[ X 1 @ j -X:X'.e.  ",
"                                                                                                                    5 * O O + # = k ] f f d u & = & & X d d k d f f f f f z f ] ` X.] #.] o.] $.&.&.{.&X%X{.&.%.&.&. Xt.0.q.o o @ # # 1 # # % # X . O o $ . $ + + + + , > + + O O + . + . $ $ . O O y 6X:X:X].  ",
"                                                                                                                  u i * = w 6 # * = u i u & : i j g ; : j u j d k d j d d d d k f f f f f u f ] $.$.#.|.&.&.{.&.%.%.o.o.d z $ . O # + # + . . + . . . + . . . + O , O O + O O O O + + . . . . . 8 8 : 5XwX].-X  ",
"                                                                                                                                              0 t t & y y j z j d j d j j z j z h j d ; : u : u ' -.+.z O.` ` o.o.o.@.o.O.z o $ + + + + + . . + . + $ + . . . + + . . . + . . + . + . . . . O + + $ . % t Z.4.  ",
"                                                                                                                                                                                              z *.R.-Xq.q.@.6.6.@.o.@.t.                                                                          vX_.).F lXuX  ",
"                                                                                                                                                                                              j 4.-.w.-.@.-.-.@.@.$.-.+.                                                                                    aX  ",
"                                                                                                                                                                                              j ,.O.3.l O.@.O.-.@.-.6.-.                                                                                        ",
"                                                                                                                                                                                            N.j I *.' z z l *.( ( =.J.O.                                                                                        ",
"                                                                                                                                                                                            K g j j j : j j K *.,.-.<.;.                                                                                        "
};
