/* XPM */
static char *out[] = {
/* columns rows colors chars-per-pixel */
"44 44 58 1 ",
"  c None",
". c #64416F",
"X c #8864FC",
"o c #8864FD",
"O c #8864FE",
"+ c #8964FE",
"@ c #8965FE",
"# c #8965FF",
"$ c #8A65FF",
"% c #8A66FF",
"& c #8B66FF",
"* c #8B67FF",
"= c #8C68FF",
"- c #8D69FF",
"; c #8D6AFF",
": c #8E6BFF",
"> c #AA8CFF",
", c #AB8CFF",
"< c #AB8DFF",
"1 c #AC8DFF",
"2 c #AC8EFF",
"3 c #AD8EFF",
"4 c #AD8FFF",
"5 c #AE8FFF",
"6 c #AE90FF",
"7 c #B091FF",
"8 c #B397FF",
"9 c #B498FF",
"0 c #B599FF",
"q c #B699FF",
"w c #B79AFF",
"e c #B79BFF",
"r c #B89BFF",
"t c #BCA1FF",
"y c #BDA2FF",
"u c #BEA3FF",
"i c #BFA4FF",
"p c #C0A5FF",
"a c #C1A6FF",
"s c #D1B9FF",
"d c #D2BAFF",
"f c #D2BBFF",
"g c #D3BBFF",
"h c #D4BCFF",
"j c #D5BCFF",
"k c #D5BDFF",
"l c #D6BDFF",
"z c #D6BEFF",
"x c #D7BEFF",
"c c #E1C1FF",
"v c #E2C2FF",
"b c #E2C3FF",
"n c #E3C3FF",
"m c #E4C3FF",
"M c #E4C4FF",
"N c #F3CAFF",
"B c #F4CAFF",
"V c #F4CBFF",
/* pixels */
"                     ##                     ",
"                        $8#                 ",
"                         ,,                 ",
"                          #                 ",
"                                            ",
"                                            ",
"                                      o     ",
"                                    o>O     ",
"               *                            ",
"              3y3                           ",
"            =quq-3=          @+             ",
"           2yu   4u          ##             ",
"           9yy    ig         ,              ",
"                  pjh w     ##              ",
"                - alnbhe    #               ",
"                6  zznl  5s                 ",
"                hkl zzzk f0        .        ",
"                knz   kvh                   ",
"                nVMk  hkh             o     ",
"              : mVBj   hh             O+    ",
"              gkmMn    7 khg5       o   O   ",
"              ijll       lkhd=%,##      O   ",
"              ;rhj      znn       #    o    ",
"                   hvkzMMxl      #+   o     ",
"                 gcvvnVVMxk      O          ",
"                 dg  lNn khg                ",
"                 0   pch  gd                ",
"                 2         4                ",
"                 *         9               o",
" oo             *9         8%               ",
"O               11         ##               ",
"    + +O   +    &t<                         ",
"    O++    #>>      #                   X   ",
"             #    ##  o                o    ",
"             O       Oo                X    ",
"                                            ",
"                                            ",
"                                            ",
"                                            ",
"                                            ",
"                                            ",
"                                            ",
"                             o              ",
"                             o              "
};
