/* XPM */
static char *out[] = {
/* columns rows colors chars-per-pixel */
"73 173 8 1 ",
"  c None",
". c #2288F4",
"X c #44C4FF",
"o c #44D3FF",
"O c #4EE0FF",
"+ c #6EFFFF",
"@ c #C0FFFF",
"# c white",
/* pixels */
".                                                                        ",
"                                                                         ",
"                                                                         ",
"                                                                         ",
"                                                                         ",
"  .                                                                      ",
" .                                                                       ",
"                                                                         ",
"                                                                         ",
"                                                                         ",
"                                                                         ",
"                                                                         ",
"                                                                         ",
"                                                                         ",
"                                                                         ",
"                                                                         ",
"                                                                         ",
"                                                                         ",
"                                                                         ",
"                                                                         ",
"                                                                         ",
"                                                                         ",
"                                                                         ",
"                                                                         ",
"                                                                         ",
"                                                                         ",
"                                                                         ",
"                                                                         ",
"                                                                         ",
"                                                                         ",
"                                                                         ",
"                                                                         ",
"                                                                         ",
"                                                                         ",
"                                                                         ",
"                                                                         ",
"                                                                         ",
"                                                                         ",
"                                                                         ",
"                                                                         ",
"                                                                         ",
"                                                                         ",
"                                                                         ",
"                                                                         ",
"                                                                         ",
"                                                                         ",
"                                                                         ",
"                                                                         ",
"                                                                         ",
"                                                                         ",
"                                                                         ",
"                                                                         ",
"                                                                         ",
"                                                                         ",
"                                                                         ",
"                                                                         ",
"                                                                         ",
"                                                                         ",
"                                                                         ",
"                                                                         ",
"                                                                         ",
"                                                                         ",
"                                                                         ",
"                                                                         ",
"                                                                         ",
"                                                                         ",
"                                                                         ",
"                                                                         ",
"                                                                         ",
"                                                                         ",
"                                                                         ",
"                                                                         ",
"                                                                         ",
"                                                                         ",
"                                                                         ",
"                                                                         ",
"                                                                         ",
"                                                                         ",
"                                                                         ",
"                                                                         ",
"                                                                         ",
"                                                                         ",
"                                                                         ",
"                                                                         ",
"                                                                         ",
"                                                                         ",
"                                                                         ",
"                                                                         ",
"                                                                         ",
"                                                                         ",
"                                                                         ",
"                                                                         ",
"                                                                         ",
"                                                                         ",
"                                                                         ",
"                                                                         ",
"                                                                         ",
"                                                                         ",
"                                                                         ",
"                                                                         ",
"                                                                         ",
"                                                                         ",
"                                                                         ",
"                                                                         ",
"                                                                         ",
"                                                                         ",
"                                                                         ",
"                                                                         ",
"                                                                         ",
"                                                    .                    ",
"                                                                         ",
"                                                                         ",
"                                                                         ",
"                                                                         ",
"                                                                         ",
"                                                                         ",
"                                                                         ",
"                                                                         ",
"                                                                         ",
"                                                                         ",
"                                                                         ",
"                                             .                           ",
"                                             .                           ",
"                                           ..                            ",
"                                                                         ",
"                                                                         ",
"                                                                         ",
"                                                                         ",
"                                 .                                       ",
"                                                                         ",
"                          .       .                                      ",
"                                    . .                                  ",
"                        .                                                ",
"                                                                         ",
"                                                                         ",
"                                                                         ",
"                                              .                          ",
"                        ..                                               ",
"                           ..                                            ",
"                           ..X.                                          ",
"                           ... ...                                       ",
"                                 ..                                      ",
"                                   .                                     ",
"                                   oo                           .        ",
"                                   oOO            ..                     ",
"                                   .OO                                  .",
"                                     +O                       .         .",
"                              OO          X.                 X.          ",
"                             OO++         OO                 o           ",
"                              o++X    .  O++  .             oX           ",
"                                         +@@+OO             .            ",
"                                  + +++  +#@+Oo            .             ",
"                              O+@+ +@+   ##@               .             ",
"                              ++++ ++   +@@                              ",
"                              O+++O      +               .               ",
"                              O+    +++  +    .         .                ",
"                               ++  +++   +O oX         .                 ",
"                                +++@@+     Oo                            ",
"                                ++@@@@+O             .              .    ",
"                                +@@@@@+                                  ",
"                                 +@+++                                   ",
"                                 O      ..       ..                      ",
"                                ..       X   ..                          ",
"                                                                         ",
"                      Xo        .                                        ",
"     .               OOOOX      .                                        ",
"                    XO  .oX                                              ",
"               .    .                                                    ",
"                                                        .                ",
"                 .                                                       ",
"                .                                                        ",
"                                  ..                                     ",
"                                     .                                   "
};
