/* XPM */
static char *_[] = {
/* columns rows colors chars-per-pixel */
"64 64 34 1 ",
"  c black",
". c #808080",
"X c #797979",
"o c gray74",
"O c gray74",
"+ c gray49",
"@ c #7B7B7B",
"# c white",
"$ c #7C7C7C",
"% c blue",
"& c #7B7B7B",
"* c #5B5B5B",
"= c None",
"- c #606080",
"; c #6D6D92",
": c #63757D",
"> c gray48",
", c #647A7A",
"< c #7B7B7B",
"1 c #6D8080",
"2 c #5B6D80",
"3 c #7C7C7C",
"4 c #7B7B7B",
"5 c #607080",
"6 c #667777",
"7 c gray35",
"8 c gray48",
"9 c #5A5A5A",
"0 c #393939",
"q c #7B7B7B",
"w c #EFDECE",
"e c white",
"r c gray74",
"t c #181818",
/* pixels */
"                                                                ",
"                                                                ",
"                                                                ",
"                                                                ",
"                                                                ",
"                                                                ",
"                                                                ",
"                                                                ",
"                                                                ",
"                                                                ",
"                                                                ",
"                                                                ",
"                                                                ",
"                                                                ",
"                                                                ",
"                                                                ",
"                                                                ",
"                                                                ",
"                                                                ",
"                                                                ",
"                                                                ",
"                                                                ",
"                                                                ",
"                                                                ",
"                                                                ",
"                                                                ",
"                                                                ",
"                                                                ",
"                                                                ",
"                                                                ",
"                                                                ",
"                                                                ",
"                                                                ",
"                                                                ",
"                                                                ",
"                                                                ",
"                                                                ",
"                                                                ",
"                                                                ",
"                                                                ",
"                                                                ",
"                                                                ",
"                                                                ",
"                                                                ",
"                                                                ",
"                                                                ",
"                                                                ",
"                            .XoOoX.                             ",
"                           +@90909@+                            ",
"                         #$9009q9009$#                          ",
"                        %&909qwewq909&%                         ",
"                        *909qrwewrq909*                         ",
"                        =909qrwewrq909=                         ",
"                       -qt09qreeerq90tq;                        ",
"                       :9t0qrweeewrq0t9:                        ",
"                       >tt9qrweeewrq9tt>                        ",
"                      ,9t09qrweeewrq90t9,                       ",
"                      <0t09qreeeeerq90t0<                       ",
"                     19tt09rweeeeewr90tt92                      ",
"                     30tt9qrweeeeewrq9tt03                      ",
"                    290t09qrweeeeewrq90t092                     ",
"                    40t009qrweeeeewrq900t04                     ",
"                   590t009qrweeeeewrq900t096                    ",
"                   700t009qrweeeeewrq900t098                    "
};
