/* XPM */
static char *_[] = {
/* columns rows colors chars-per-pixel */
"64 64 40 1 ",
"  c black",
". c #808080",
"X c #7B7B7B",
"o c #EFDFCE",
"O c white",
"+ c #808080",
"@ c gray74",
"# c #7B7B7B",
"$ c gray75",
"% c gray48",
"& c #7C7C7C",
"* c #808080",
"= c #7B7B7B",
"- c #5A5A5A",
"; c #5B5B5B",
": c #393939",
"> c black",
", c #666699",
"< c #607580",
"1 c #62757C",
"2 c #64737E",
"3 c #7B7B7B",
"4 c white",
"5 c None",
"6 c #66707A",
"7 c #7B7B7B",
"8 c gray48",
"9 c #5A5A5A",
"0 c #6D8080",
"q c #7C7C7C",
"w c #5A5A5A",
"e c #717171",
"r c #557171",
"t c #5A5A5A",
"y c #393939",
"u c #7B7B7B",
"i c #EFDECE",
"p c white",
"a c gray74",
"s c #181818",
/* pixels */
"                                                                ",
"                                                                ",
"                                                                ",
"                                                                ",
"                                                                ",
"                                                                ",
"                                                                ",
"                                                                ",
"                                                                ",
"                                                                ",
"                                                                ",
"                                                                ",
"                                                                ",
"                                                                ",
"                                                                ",
"                                                                ",
"                                                                ",
"                                                                ",
"                                                                ",
"                                                                ",
"                                                                ",
"                                                                ",
"                                                                ",
"                                                                ",
"                                                                ",
"                                                                ",
"                                                                ",
"                                                                ",
"                                                                ",
"                                                                ",
"                                                                ",
"                                                                ",
"                                                                ",
"                                                                ",
"                                                                ",
"                                                                ",
"                                                                ",
"                                                                ",
"                                                                ",
"                                                                ",
"                                                                ",
"                                                                ",
"                                                                ",
"                                                                ",
"                            .XoOoX.                             ",
"                           +@tyyyt#$                            ",
"                          %tyytutyyt%                           ",
"                         &tytuipiutyt&                          ",
"                        *=tytuipiutyt=*                         ",
"                        -tytuaipiautyt;                         ",
"                        :tstuaipiautst:                         ",
"                       >systuaipiautsys>                        ",
"                       ,ssytaipppiatyss,                        ",
"                       <tsyuaipppiauyst<                        ",
"                       1tstuaipppiautst2                        ",
"                       3sstuaipppiautss3                        ",
"                      45sstuaipppiautss54                       ",
"                      6tsytuaipppiautyst6                       ",
"                      7ysytuipppppiutysy8                       ",
"                      9ssytaipppppiatyss9                       ",
"                     0tssyuaipppppiauysst0                      ",
"                     qysstuaipppppiautssyq                      ",
"                     wysytuaipppppiautysyw                      ",
"                    etysyuapppppppppauysytr                     "
};
