/* XPM */
static char *_[] = {
/* columns rows colors chars-per-pixel */
"64 64 108 2 ",
"   c black",
".  c #885533",
"X  c #F75A08",
"o  c #835130",
"O  c #DE0000",
"+  c #F75A08",
"@  c #845231",
"#  c #835130",
"$  c #DE0000",
"%  c #854E2C",
"&  c black",
"*  c #808080",
"=  c #835132",
"-  c #845331",
";  c #845231",
":  c #875230",
">  c cyan",
",  c #835132",
"<  c #845231",
"1  c #835131",
"2  c #556A80",
"3  c #668080",
"4  c #DE0000",
"5  c #835132",
"6  c #80512E",
"7  c #845230",
"8  c #824F33",
"9  c #874B2D",
"0  c None",
"q  c #84552F",
"w  c #55AAAA",
"e  c #845231",
"r  c #F65908",
"t  c #835330",
"y  c #DE0000",
"u  c #606080",
"i  c #845231",
"p  c #666699",
"a  c #855332",
"s  c #825230",
"d  c #845131",
"f  c #DD0000",
"g  c #845231",
"h  c #845231",
"j  c #DE0000",
"k  c #835231",
"l  c #835232",
"z  c #835330",
"x  c #835230",
"c  c #E30000",
"v  c #DB0000",
"b  c #835231",
"n  c #DC0000",
"m  c #845331",
"M  c #5E717B",
"N  c #845130",
"B  c #63737B",
"V  c #63737B",
"C  c #697878",
"Z  c #5A7878",
"A  c #63747A",
"S  c gray48",
"D  c #7B7B7B",
"F  c #5A5A5A",
"G  c gray35",
"H  c #607580",
"J  c #6B7986",
"K  c gray48",
"L  c #7B7B7B",
"P  c white",
"I  c #5A5A5A",
"U  c #5A5A5A",
"Y  c #64747C",
"T  c #667A7A",
"R  c #7C7C7C",
"E  c gray48",
"W  c #5A5A5A",
"Q  c #5A5A5A",
"!  c #808080",
"~  c #65757A",
"^  c #66777D",
"/  c #7C7C7C",
"(  c #7B7B7B",
")  c #71718E",
"_  c #717171",
"`  c #5B5B5B",
"'  c gray35",
"]  c blue",
"[  c #557171",
"{  c #667777",
"}  c #61727B",
"|  c #64757D",
" . c #62747D",
".. c #7B7B7B",
"X. c #845231",
"o. c #DE0000",
"O. c #F75A08",
"+. c #EF7B18",
"@. c #EFA573",
"#. c #EFBD9C",
"$. c #F7B521",
"%. c #EFDECE",
"&. c white",
"*. c #7B7B7B",
"=. c gray74",
"-. c #5A5A5A",
";. c #393939",
":. c #181818",
/* pixels */
"                                                                                                                                ",
"                                                                                                                                ",
"                                                                                                                                ",
"                                                                                                                                ",
"                                                                                                                                ",
"                                                                                                                                ",
"                                                                                                                                ",
"                                                                                                                                ",
"                                                                                                                                ",
"                                                                                                                                ",
"                                                                                                                                ",
"                                                                                                                                ",
"                                                                                                                                ",
"                                                                                                                                ",
"                                                                                                                                ",
"                                                                                                                                ",
"                                                                                                                                ",
"                                                                                                                                ",
"                                                                                                                                ",
"                                                                                                                                ",
"                                                                                                                                ",
"                                                                                                                                ",
"                                                                                                                                ",
"                                                                                                                                ",
"                                                                                                                                ",
"                                                                                                                                ",
"                                                                                                                                ",
"                                                                                                                                ",
"                                                        . X o O + @ # $ % &                                                     ",
"                                                  * = - X.o.O.X.o.O.O.X.o.; : &                                                 ",
"                                              > , < X.O.o.O.o.O.O.O.o.O.O.O.X.1 2                                               ",
"                                            3 1 X.O.o.+.O.+.O.O.O.o.O.O.+.o.O.X.4 5                                             ",
"                                          6 7 o.o.O.+.O.+.O.O.+.O.O.+.+.o.+.O.O.o.O.8                                           ",
"                                        9 < O.o.+.O.@.O.@.O.@.+.#.$.#.+.$.O.o.O.O.X.0 q                                         ",
"                                      w e o.O.+.o.@.O.#.+.#.+.#.+.#.+.#.+.+.+.o.O.O.O.r *                                       ",
"                                      t o.O.o.+.@.O.#.+.#.$.%.$.%.+.#.+.#.$.+.@.O.o.O.X.y                                       ",
"                                    u X.o.o.O.O.$.#.O.#.$.#.$.%.#.%.$.%.$.%.$.+.@.O.O.O.i p                                     ",
"                                    a o.o.O.O.$.@.+.#.$.%.#.%.%.#.#.%.$.%.$.%.@.+.+.O.o.O.s                                     ",
"                                    d X.O.o.O.@.+.#.#.%.#.%.%.%.%.%.#.%.$.%.$.%.$.O.o.O.X.f                                     ",
"                                    g o.o.O.O.+.@.#.%.#.%.%.&.&.&.%.%.#.%.#.%.$.+.$.O.X.O.h                                     ",
"                                    X.O.o.+.+.@.$.%.#.%.%.*.=.=.=.*.%.%.#.%.$.%.$.+.+.+.X.g                                     ",
"                                    j X.+.+.@.$.@.$.%.*.=.-.;.;.;.-.*.=.&.#.%.@.$.+.O.+.o.k                                     ",
"                                    l o.O.@.+.@.+.@.*.-.;.;.-.*.-.;.;.-.*.%.$.%.+.$.O.o.O.8                                     ",
"                                    z X.O.O.@.+.@.#.-.;.-.*.%.&.%.*.-.;.-.#.%.$.$.X.O.O.x &                                     ",
"                                    & - o.O.o.@.%.*.-.;.-.*.%.&.%.*.-.;.-.*.%.+.O.O.X.O.c                                       ",
"                                      v X.o.O.o.+.-.;.-.*.=.%.&.%.=.*.-.;.-.X.X.O.X.O.s                                         ",
"                                        b X.o.X.O.-.:.-.*.=.%.&.%.=.*.-.:.-.O.X.X.o.a                                           ",
"                                          n X.O.X.;.:.-.*.=.%.&.%.=.*.-.:.;.X.o.m M                                             ",
"                                            N X.X.:.;.-.=.%.&.&.&.%.=.-.;.:.:.B                                                 ",
"                                              V -.:.;.*.=.%.&.&.&.%.=.*.;.:.-.C                                                 ",
"                                              Z -.:.-.*.=.%.&.&.&.%.=.*.-.:.-.A                                                 ",
"                                              S :.:.-.*.=.%.&.&.&.%.=.*.-.:.:.D                                                 ",
"                                            & F :.:.-.*.=.%.&.&.&.%.=.*.-.:.:.G &                                               ",
"                                            H -.:.;.-.*.=.%.&.&.&.%.=.*.-.;.:.-.J                                               ",
"                                            K ;.:.;.-.*.%.&.&.&.&.&.%.*.-.;.:.;.L                                               ",
"                                          P I :.:.;.-.=.%.&.&.&.&.&.%.=.-.;.:.:.U &                                             ",
"                                          Y -.:.:.;.*.=.%.&.&.&.&.&.%.=.*.;.:.:.-.T                                             ",
"                                          R ;.:.:.-.*.=.%.&.&.&.&.&.%.=.*.-.:.:.;.E                                             ",
"                                        w W ;.:.;.-.*.=.%.&.&.&.&.&.%.=.*.-.;.:.;.Q !                                           ",
"                                        ~ -.;.:.;.*.=.&.&.&.&.&.&.&.&.&.=.*.;.:.;.-.^                                           ",
"                                        / ;.:.*.=.&.&.=.%.&.&.&.&.&.%.=.&.&.=.*.:.;.(                                           ",
"                                      ) -.*.=.&.&.=.*.=.%.&.&.&.&.&.%.=.*.=.&.&.=.*.-._                                         ",
"                                      ` *.=.&.=.*.-.*.=.%.&.&.&.&.&.%.=.*.-.*.=.&.=.*.'                                         ",
"              & & ] P ! w p [ { } |  .*.=.&.=.*.-.-.*.=.%.&.&.&.&.&.%.=.*.-.-.*.=.&.=...                                        "
};
