/* XPM */
static char *_[] = {
/* columns rows colors chars-per-pixel */
"63 64 39 1 ",
"  c black",
". c #608080",
"X c #7B7B7B",
"o c gray",
"O c white",
"+ c gray49",
"@ c gray74",
"# c black",
"$ c #7C7C7C",
"% c gray48",
"& c cyan",
"* c #7B7B7B",
"= c #7B7B7B",
"- c gray35",
"; c #3A3A3A",
": c #181818",
"> c #181818",
", c #63747C",
"< c #5D7474",
"1 c #627680",
"2 c gray48",
"3 c #808080",
"4 c None",
"5 c #64747C",
"6 c #687880",
"7 c #7C7C7C",
"8 c #5A5A5A",
"9 c #66777D",
"0 c #7B7B7B",
"q c #717171",
"w c gray35",
"e c #7B7B7B",
"r c #7B7B7B",
"t c #5A5A5A",
"y c #393939",
"u c #181818",
"i c gray74",
"p c white",
"a c #EFDECE",
/* pixels */
"                                                               ",
"                                                               ",
"                                                               ",
"                                                               ",
"                                                               ",
"                                                               ",
"                                                               ",
"                                                               ",
"                                                               ",
"                                                               ",
"                                                               ",
"                                                               ",
"                                                               ",
"                                                               ",
"                                                               ",
"                                                               ",
"                                                               ",
"                                                               ",
"                                                               ",
"                                                               ",
"                                                               ",
"                                                               ",
"                                                               ",
"                                                               ",
"                                                               ",
"                                                               ",
"                                                               ",
"                                                               ",
"                                                               ",
"                                                               ",
"                                                               ",
"                                                               ",
"                                                               ",
"                                                               ",
"                                                               ",
"                                                               ",
"                                                               ",
"                                                               ",
"                                                               ",
"                                                               ",
"                                                               ",
"                                                               ",
"                           .XoOoX.                             ",
"                         +@rtyyytr@+                           ",
"                       #$ttyytrtyytt$#                         ",
"                       %tyutripirtuyt%                         ",
"                      &*tuytrapartyut=&                        ",
"                      -tyytriapairtyyt-                        ",
"                      ;tuytriapairtyut;                        ",
"                      :yuytiapppaityuy>                        ",
"                      ,tuyriapppairyut,                        ",
"                      *uutriapppairtuu*                        ",
"                     <tuutriapppairtuut<                       ",
"                     1tuytriapppairtyut1                       ",
"                     2yuytrapppppartyuy2                       ",
"                    34uuytiapppppaityuu43                      ",
"                    5tuuyriapppppairyuut6                      ",
"                    7yuutriapppppairtuuy7                      ",
"                   38yuytriapppppairtyuy83                     ",
"                   9ryuytriapppppairtyuyr9                     ",
"                   0tyuytriapppppairtyuyt0                     ",
"                  qryuyytriapppppairtyyuyrq                    ",
"                  wtyuyytriapppppairtyyuytw                    ",
"                 #etyuyytriapppppairtyyuyte                    "
};
