/* XPM */
static char *_[] = {
/* columns rows colors chars-per-pixel */
"64 64 61 1 ",
"  c black",
". c black",
"X c #5A7878",
"o c #373737",
"O c #7C7C7C",
"+ c gray74",
"@ c white",
"# c white",
"$ c white",
"% c gray74",
"& c #7B7B7B",
"* c #353535",
"= c #606080",
"- c gray23",
"; c #393939",
": c #393939",
"> c #393939",
", c #808080",
"< c #393939",
"1 c gray22",
"2 c gray25",
"3 c #373737",
"4 c #7C7C7C",
"5 c gray48",
"6 c #5A5A5A",
"7 c #5A5A5A",
"8 c #393939",
"9 c cyan",
"0 c #5B6D80",
"q c #6A6A80",
"w c #62747E",
"e c #64757E",
"r c #61747D",
"t c #617380",
"y c #5A5A5A",
"u c #5A5A5A",
"i c #5A5A5A",
"p c #5A5A5A",
"a c gray35",
"s c #5B5B5B",
"d c #393939",
"f c #558080",
"g c #63757D",
"h c #667780",
"j c #5A5A5A",
"k c gray22",
"l c #3A3A3A",
"z c #608080",
"x c None",
"c c #393939",
"v c gray22",
"b c #607080",
"n c #393939",
"m c gray22",
"M c #5A5A5A",
"N c #7B7B7B",
"B c #393939",
"V c #181818",
"C c gray74",
"Z c #EFDECE",
"A c white",
/* pixels */
"                                                                ",
"                                                                ",
"                                                                ",
"                                                                ",
"                                                                ",
"                                                                ",
"                                                                ",
"                                                                ",
"                                                                ",
"                                                                ",
"                                                                ",
"                                                                ",
"                                                                ",
"                                                                ",
"                                                                ",
"                                                                ",
"                                                                ",
"                                                                ",
"                                                                ",
"                                                                ",
"                                                                ",
"                                                                ",
"                                                                ",
"                                                                ",
"                                                                ",
"                                                                ",
"                                                                ",
"                                                                ",
"                                                                ",
"                                                                ",
"                                                                ",
"                                                                ",
"                                                                ",
"                                                                ",
"                                                                ",
"                                                                ",
"                                                                ",
"                                                                ",
"                                                                ",
"                         .XoO+@#$%&*=                           ",
"                        -;MNNNNNNNNNM:>,                        ",
"                       <MMMBBMMMMMBBMMM1.                       ",
"                      2NBBBVVMNNNMVVBBBN3                       ",
"                      4BMMVVVNCCCNVVVMMB5                       ",
"                      6MNCBVBCZAZCBVBCNM7                       ",
"                      8NCZBVMCZAZCMVBZCNB9                      ",
"                     0MCAABVNCZAZCNVBAANMq                      ",
"                     wNCCCCCAAAAAAACCCCCNe                      ",
"                    rMNNNNMMMMMMMMMMMNNNNMt                     ",
"                   yNMBBVVBBNCAAACNBBVVBBMNu                    ",
"                  iMBBBBVVBMCZAAAZCMBVVBBBBMp                   ",
"                 -BBBMCMVVBMCZAAAZCMBVVMCMBBB-                  ",
"                 aBVMNCBVVBNCZAAAZCNBVVBCNMVBs                  ",
"                 dVBMNCBVVBNCZAAAZCNBVVBCNMBVd                  ",
"                .BVBNNNNNNNNNNNNNNNNNNNNNNNBVB.                 ",
"                fBVBMNMBVVVVVVVVVVVVVVVBMNMBVBf                 ",
"                gBMNBVBBBBBBBNBVBNBBBBBBBVBNMBg                 ",
"               hjNMBBMMMMMMMMNBVBNMMMMMMMMBBMNjh                ",
"              kNMBVVBMMMNMMMMNBVBNMMMMNMMMBVVBMNk               ",
"             lMBVVVBMMMMBMMMMCBVBCMMMMBMMMMBVVVBMl              ",
"            zxVVBVVBBBBBBBBBBNBVBNBBBBBBBBBBVVBVVxz             ",
"            cVVVVVVBMMMMMMMMMNBVBNMMMMMMMMMBVVVVVVv             ",
"           bVBVVVVBMMMMNMMMMMNBVBNMMMMMNMMMMBVVVVBVb            ",
"           nVVVBVVBMMMMBMMMMMNBVBNMMMMMBMMMMBVVBVVVm            "
};
