/* XPM */
static char *_[] = {
/* columns rows colors chars-per-pixel */
"64 64 71 1 ",
"  c black",
". c black",
"X c #5A7878",
"o c #373737",
"O c #7C7C7C",
"+ c gray74",
"@ c white",
"# c white",
"$ c white",
"% c gray74",
"& c #7B7B7B",
"* c #373737",
"= c #606080",
"- c gray23",
"; c #393939",
": c #393939",
"> c #393939",
", c #808080",
"< c #393939",
"1 c gray22",
"2 c gray25",
"3 c #373737",
"4 c #7C7C7C",
"5 c gray48",
"6 c #5A5A5A",
"7 c #5A5A5A",
"8 c #393939",
"9 c cyan",
"0 c #5B6D80",
"q c #6A6A80",
"w c #62747E",
"e c #64757E",
"r c #61747D",
"t c #617380",
"y c #5A5A5A",
"u c #5A5A5A",
"i c #5A5A5A",
"p c #5A5A5A",
"a c #3C3C3C",
"s c gray35",
"d c #5B5B5B",
"f c #393939",
"g c #558080",
"h c #63757D",
"j c #61727B",
"k c #61727B",
"l c #5A5A5A",
"z c #393939",
"x c #3A3A3A",
"c c #393939",
"v c None",
"b c #3A3A3A",
"n c #3A3A3A",
"m c gray22",
"M c #6D6D6D",
"N c gray9",
"B c gray22",
"V c #627676",
"C c #393939",
"Z c gray22",
"A c #6D8080",
"S c #3A3A3A",
"D c #667777",
"F c #393939",
"G c #5A5A5A",
"H c #7B7B7B",
"J c #393939",
"K c #181818",
"L c gray74",
"P c #EFDECE",
"I c white",
/* pixels */
"                                                                ",
"                                                                ",
"                                                                ",
"                                                                ",
"                                                                ",
"                                                                ",
"                                                                ",
"                                                                ",
"                                                                ",
"                                                                ",
"                                                                ",
"                                                                ",
"                                                                ",
"                                                                ",
"                                                                ",
"                                                                ",
"                                                                ",
"                                                                ",
"                                                                ",
"                                                                ",
"                                                                ",
"                                                                ",
"                                                                ",
"                                                                ",
"                                                                ",
"                                                                ",
"                                                                ",
"                                                                ",
"                                                                ",
"                                                                ",
"                                                                ",
"                                                                ",
"                                                                ",
"                         .XoO+@#$%&*=                           ",
"                        -;GHHHHHHHHHG:>,                        ",
"                       <GGGJJGGGGGJJGGG1.                       ",
"                      2HJJJKKGHHHGKKJJJH3                       ",
"                      4JGGKKKHLLLHKKKGGJ5                       ",
"                      6GHLJKJLPIPLJKJLHG7                       ",
"                      8HLPJKGLPIPLGKJPLHJ9                      ",
"                     0GLIIJKHLPIPLHKJIIHGq                      ",
"                     wHLLLLLLIIIIILLLLLLHe                      ",
"                    rGHHHHGGGGGGGGGGGHHHHGt                     ",
"                   yHGJJKKJJHLIIILHJJKKJJGHu                    ",
"                  iGJJJJKKJGLPIIIPLGJKKJJJJGp                   ",
"                 -JJJGLGKKJGLPIIIPLGJKKGLGJJJa                  ",
"                 sJKGHLJKKJHLPIIIPLHJKKJLHGKJd                  ",
"                 fKJGHLJKKJHLPIIIPLHJKKJLHGJKf                  ",
"                .JKJHHHHHHHHHHHHHHHHHHHHHHHJKJ.                 ",
"                gJKJGHGJKKKKKKKKKKKKKKKJGHGJKJg                 ",
"                hJGHJKJJJJJJJHJKJHJJJJJJJKJHGJj                 ",
"               klHGJJGGGGGGGGHJKJHGGGGGGGGJJGHlk                ",
"              zHGJKKJGGGHGGGGHJKJHGGGGHGGGJKKJGHx               ",
"             cGJKKKJGGGGJGGGGLJKJLGGGGJGGGGJKKKJvc              ",
"            ,bKKJKKJJJJJJJJJJHJKJHJJJJJJJJJJKKJKKb,             ",
"            nKKKKKKJGGGGGGGGGHJKJHGGGGGGGGGJKKKKKKm             ",
"           MNJKKKKJGGGGHGGGGGHJKJHGGGGGHGGGGJKKKKJNM            ",
"           BKKKJKKJGGGGJGGGGGHJKJHGGGGGJGGGGJKKJKKKB            ",
"          VKKKKKKKJKJJJJJJJJJHJKJHJJJJJJJJJKJKKKKKKKV           ",
"          CKJKKKKKJHHHHHHHHHHLJKJLHHHHHHHHHHJKKKKKJKZ           ",
"         AKKKKJKKJGGGGGGGGGGGHJKJHGGGGGGGGGGGJKKJKKKKA          ",
"         SKKKKKKKJGGGGHGGGGGGHJKJHGGGGGGHGGGGJKKKKKKKS          ",
"        DKKJKKKKGGGGGGJGHHHHHHHHHHHHHHHGJGGGGGGKKKKJKKD         ",
"        FKKKKKJJKJJJJJJJGKKKKKKKKKKKKKGJJJJJJJKJJKKKKKF         "
};
