/* XPM */
static char *_[] = {
/* columns rows colors chars-per-pixel */
"64 64 160 2 ",
"   c black",
".  c #666699",
"X  c #DE0000",
"o  c #F65909",
"O  c #667380",
"+  c #808080",
"@  c #DD0000",
"#  c blue",
"$  c #DA0000",
"%  c #F65B09",
"&  c #657280",
"*  c #637180",
"=  c #627676",
"-  c #63737B",
";  c #DE0000",
":  c #DE0000",
">  c #62727C",
",  c #DE0000",
"<  c #DD0000",
"1  c #647A7A",
"2  c #627680",
"3  c #606080",
"4  c #DF0000",
"5  c None",
"6  c #DE0000",
"7  c #63757D",
"8  c #61727B",
"9  c #CC0000",
"0  c #DD0000",
"q  c #F75A08",
"w  c #DE0000",
"e  c #FF600B",
"r  c #808080",
"t  c #F75A08",
"y  c #DE0000",
"u  c #697878",
"i  c #F75A08",
"p  c #DF0000",
"a  c #5E7979",
"s  c #DF0000",
"d  c black",
"f  c #F65A09",
"g  c #F65809",
"h  c #62757D",
"j  c #DE0000",
"k  c #64737E",
"l  c #DE0000",
"z  c #608080",
"x  c #65747E",
"c  c #63747D",
"v  c #558080",
"b  c #62747C",
"n  c #63747D",
"m  c #DE0000",
"M  c #DE0000",
"N  c #6A6A80",
"B  c #DF0000",
"V  c #5E717B",
"C  c #607080",
"Z  c #DE0000",
"A  c #64757C",
"S  c #DC0000",
"D  c #DE0000",
"F  c #DE0000",
"G  c #DE0000",
"H  c #DD0000",
"J  c #845331",
"K  c #80552B",
"L  c #647480",
"P  c #845231",
"I  c #835231",
"U  c #555555",
"Y  c #DE0000",
"T  c #845232",
"R  c #71718E",
"E  c #63747D",
"W  c #63737B",
"Q  c #63757D",
"!  c #64737C",
"~  c #717171",
"^  c #855331",
"/  c #855230",
"(  c #855231",
")  c #845332",
"_  c #835130",
"`  c #804E31",
"'  c #55AAAA",
"]  c #845231",
"[  c #835232",
"{  c #874B2D",
"}  c #845231",
"|  c #865330",
" . c #835231",
".. c #845231",
"X. c #62727D",
"o. c #62727E",
"O. c #393939",
"+. c #556A80",
"@. c #393939",
"#. c #5D7474",
"$. c #66707A",
"%. c #5A5A5A",
"&. c #5A5A5A",
"*. c #667780",
"=. c gray23",
"-. c #3C3C3C",
";. c gray20",
":. c #5A5A5A",
">. c #5B5B5B",
",. c gray25",
"<. c #3A3A3A",
"1. c #393939",
"2. c gray22",
"3. c gray9",
"4. c #181818",
"5. c #393939",
"6. c #393939",
"7. c #6A8080",
"8. c #393939",
"9. c #3A3A3A",
"0. c #5A7878",
"q. c #393939",
"w. c gray22",
"e. c #668080",
"r. c gray23",
"t. c #393939",
"y. c #181818",
"u. c gray10",
"i. c #161616",
"p. c #393939",
"a. c gray9",
"s. c #181818",
"d. c #181818",
"f. c #181818",
"g. c gray9",
"h. c #181818",
"j. c #181818",
"k. c #393939",
"l. c #393939",
"z. c #3A3A3A",
"x. c #393939",
"c. c #5A5A5A",
"v. c #181818",
"b. c #181818",
"n. c gray9",
"m. c #181818",
"M. c #F75A08",
"N. c #EF7B18",
"B. c #DE0000",
"V. c #F7B521",
"C. c white",
"Z. c #EFDECE",
"A. c #EFBD9C",
"S. c gray74",
"D. c #7B7B7B",
"F. c #5A5A5A",
"G. c #393939",
"H. c #181818",
"J. c #845231",
"K. c #EFA573",
/* pixels */
"                                                                                                                                ",
"                                                                                                                                ",
"                                                                                                                                ",
"                                                                                                                                ",
"                                                                                                                                ",
"                                                                                                                                ",
"                                                                                                                                ",
"                                                                                                                                ",
"                                                                                                                                ",
"                                                                                                                                ",
"                                                                                                                                ",
"                                                                                                                                ",
"                                                                                                                                ",
"                                                                                                                                ",
"                                                                                                                                ",
"                                                                                                                                ",
"                                                                                                                                ",
"                                                          . X o O     + @ #                                                     ",
"                                              $ % & * = - ; M.N.M.: > , M.<                                                     ",
"                                            1 M.B.M.B.N.B.N.N.N.N.M.B.M.B.M.2                                                   ",
"                                        3 4 5 N.M.B.N.M.N.N.N.V.N.N.M.B.M.B.6 7 8 9                                             ",
"                                      0 q M.M.B.N.N.M.M.V.N.V.C.V.N.V.M.B.M.B.B.M.w e                                           ",
"                                    r t B.N.B.N.B.V.M.V.N.V.V.Z.V.V.N.V.M.V.M.M.B.M.y u                                         ",
"                                    i B.M.B.N.B.V.M.V.N.V.V.Z.C.Z.V.V.N.V.M.V.M.V.B.N.p r                                       ",
"                                  a M.M.M.M.N.V.M.V.N.V.Z.V.Z.Z.C.Z.V.V.N.V.M.V.B.V.B.M.s                                       ",
"                                d f B.M.N.N.N.M.V.N.V.Z.V.Z.C.C.Z.Z.Z.V.Z.N.V.N.V.N.V.N.N.g                                     ",
"                                h B.N.M.N.V.V.V.N.V.Z.V.Z.Z.Z.C.C.Z.V.Z.V.Z.V.Z.V.V.V.V.N.j u                                   ",
"                              k B.N.B.V.M.V.Z.V.V.Z.V.Z.Z.Z.C.C.Z.C.Z.Z.Z.V.Z.Z.Z.C.Z.N.N.V.l z                                 ",
"                            x B.N.B.N.M.V.V.C.Z.Z.V.Z.Z.C.Z.C.C.C.Z.C.Z.C.A.Z.C.Z.Z.V.N.V.N.V.c v                               ",
"                        + b B.N.B.V.B.V.M.V.Z.C.Z.C.Z.C.Z.C.C.C.C.C.Z.C.C.Z.C.Z.C.V.N.V.N.V.B.N.n v                             ",
"                      = m B.M.B.V.M.V.N.V.Z.V.Z.C.Z.C.C.C.C.C.C.C.C.C.C.C.C.C.C.Z.V.Z.N.V.N.V.B.N.M N                           ",
"                  d B j B.M.B.N.M.V.Z.V.Z.V.Z.Z.C.C.C.S.D.S.C.C.C.S.D.S.C.C.C.Z.V.Z.V.Z.V.V.M.V.B.N.w V                         ",
"                C Z B.B.M.N.M.V.V.V.V.Z.V.Z.Z.C.S.D.F.D.D.D.D.D.D.D.D.D.F.D.S.Z.Z.V.Z.V.V.N.V.N.V.M.B.B.A                       ",
"            + S M.B.M.M.B.M.N.N.N.V.Z.V.Z.V.Z.S.F.F.F.G.G.F.F.F.F.F.G.G.F.F.F.S.Z.Z.V.Z.N.V.N.V.M.B.N.B.M.D z                   ",
"          8 F B.B.M.B.M.M.B.N.M.V.V.V.Z.V.Z.S.D.G.G.G.H.H.F.D.D.D.F.H.H.G.G.G.D.S.C.Z.V.V.N.V.M.B.N.B.J.B.M.y G v               ",
"        H B.B.B.M.B.M.M.B.N.M.V.B.V.M.Z.C.Z.D.G.F.F.H.H.H.D.S.S.S.D.H.H.H.F.F.G.D.C.C.Z.V.V.N.B.M.B.J.B.J.B.B.B.J K             ",
"        d L M M.B.M.B.J.M.M.N.M.V.V.Z.C.Z.C.F.F.D.S.G.H.G.S.Z.C.Z.S.G.H.G.S.D.F.F.C.C.C.V.M.V.M.B.M.B.J.B.M.P I U               ",
"            + Y M.B.M.B.B.N.M.V.N.Z.Z.Z.Z.Z.G.D.S.Z.G.H.F.S.Z.C.Z.S.F.H.G.Z.S.D.G.V.Z.C.Z.V.M.M.M.B.J.J.J.T R                   ",
"                E B.B.J.M.B.N.N.V.V.V.V.N.V.F.S.C.C.G.H.D.S.Z.C.Z.S.D.H.G.C.C.D.F.M.V.V.V.M.V.B.M.J.J.J.W                       ",
"                d Q J.B.J.M.B.V.N.V.V.N.V.N.D.S.S.S.S.S.S.A.C.C.C.A.S.S.S.S.S.S.D.V.M.V.B.V.M.M.J.J.J.!                         ",
"                  ~ ^ J.B.B.M.N.V.N.N.M.B.F.D.D.D.D.F.F.F.F.F.F.F.F.F.F.F.D.D.D.D.F.V.B.M.B.J.B.J.J.J.r                         ",
"                    / J.J.J.B.M.N.B.N.F.D.F.G.G.H.H.G.G.D.S.C.C.C.S.D.G.G.H.H.G.G.F.D.F.B.J.B.J.J.J.(                           ",
"                    v P J.B.J.J.J.N.F.F.G.G.G.G.H.H.G.F.S.Z.C.C.C.Z.S.F.G.H.H.G.G.G.G.F.F.B.J.J.J.B.)                           ",
"                      _ J.J.B.J.J.G.G.G.G.D.S.F.H.H.G.F.S.Z.C.C.C.Z.S.F.G.H.H.F.S.D.G.G.G.G.J.J.B.J.`                           ",
"                      ' ] B.J.B.J.F.G.H.F.D.S.G.H.H.G.D.S.Z.C.C.C.Z.S.D.G.H.H.G.S.D.F.H.G.F.J.B.J.[                             ",
"                        { } B.J.J.G.H.G.F.D.S.G.H.H.G.D.S.Z.C.C.C.Z.S.D.G.H.H.G.S.D.F.G.H.G.J.J.[ d                             ",
"                          r |  .J.G.H.G.D.D.D.D.D.D.D.K.A.C.C.C.C.C.A.K.D.D.D.D.D.D.D.G.H.G...X.                                ",
"                                o.G.H.G.F.D.F.G.H.H.H.H.H.H.H.H.H.H.H.H.H.H.H.G.F.D.F.G.H.O.+.                                  ",
"                                v G.F.D.G.H.G.G.G.G.G.G.G.D.G.H.G.D.G.G.G.G.G.G.G.H.G.D.F.@.#.                                  ",
"                              $.%.D.F.G.G.F.F.F.F.F.F.F.F.D.G.H.G.D.F.F.F.F.F.F.F.F.G.G.F.D.&.*.                                ",
"                            =.D.F.G.H.H.G.F.F.F.D.F.F.F.F.D.G.H.G.D.F.F.F.F.D.F.F.F.G.H.H.G.F.D.-.                              ",
"                          ;.:.G.H.H.H.G.F.F.F.F.G.F.F.F.F.S.G.H.G.S.F.F.F.F.G.F.F.F.F.G.H.H.H.G.>.,.                            ",
"                        d <.H.H.G.H.H.G.G.G.G.G.G.G.G.G.G.D.G.H.G.D.G.G.G.G.G.G.G.G.G.G.H.H.G.H.H.1.d                           ",
"                        2.H.H.H.H.H.H.G.F.F.F.F.F.F.F.F.F.D.G.H.G.D.F.F.F.F.F.F.F.F.F.G.H.H.H.H.H.H.2.                          ",
"                      r 3.G.H.H.H.H.G.F.F.F.F.D.F.F.F.F.F.D.G.H.G.D.F.F.F.F.F.D.F.F.F.F.G.H.H.H.H.G.4..                         ",
"                      5.H.H.H.G.H.H.G.F.F.F.F.G.F.F.F.F.F.D.G.H.G.D.F.F.F.F.F.G.F.F.F.F.G.H.H.G.H.H.H.6.                        ",
"                    N H.H.H.H.H.H.H.G.H.G.G.G.G.G.G.G.G.G.D.G.H.G.D.G.G.G.G.G.G.G.G.G.H.G.H.H.H.H.H.H.H.7.                      ",
"                    8.H.G.H.H.H.H.H.G.D.D.D.D.D.D.D.D.D.D.S.G.H.G.S.D.D.D.D.D.D.D.D.D.D.G.H.H.H.H.H.G.H.9.                      ",
"                  0.H.H.H.H.G.H.H.G.F.F.F.F.F.F.F.F.F.F.F.D.G.H.G.D.F.F.F.F.F.F.F.F.F.F.F.G.H.H.G.H.H.H.H.u                     ",
"                  q.H.H.H.H.H.H.H.G.F.F.F.F.D.F.F.F.F.F.F.D.G.H.G.D.F.F.F.F.F.F.D.F.F.F.F.G.H.H.H.H.H.H.H.w.                    ",
"                e.H.H.G.H.H.H.H.F.F.F.F.F.F.G.F.D.D.D.D.D.D.D.D.D.D.D.D.D.D.D.F.G.F.F.F.F.F.F.H.H.H.H.G.H.H.u                   ",
"                r.H.H.H.H.H.G.G.H.G.G.G.G.G.G.G.F.H.H.H.H.H.H.H.H.H.H.H.H.H.F.G.G.G.G.G.G.G.H.G.G.H.H.H.H.H.t.                  ",
"                y.H.H.H.G.G.H.H.H.H.G.G.F.G.G.G.F.H.H.H.H.H.H.H.H.H.H.H.H.H.F.G.G.G.F.G.G.H.H.H.H.G.G.H.H.H.H.C                 ",
"                u.i.2.p.a.s.d.f.g.h.j.k.y.l.z.x.c.v.b.n.m.H.H.H.H.H.H.H.H.H.F.G.G.G.H.G.H.H.H.H.H.H.H.G.G.H.H.8.                "
};
