/* XPM */
static char *_[] = {
/* columns rows colors chars-per-pixel */
"63 64 146 2 ",
"   c black",
".  c #808080",
"X  c #E00000",
"o  c #835231",
"O  c #DD0000",
"+  c #667380",
"@  c #DE0000",
"#  c #DD0000",
"$  c #55AAAA",
"%  c black",
"&  c #F65B09",
"*  c #DF0000",
"=  c #558080",
"-  c #F75A08",
";  c #62727E",
":  c #637180",
">  c #845231",
",  c #DE0000",
"<  c #808080",
"1  c #DD0000",
"2  c #DE0000",
"3  c #64747C",
"4  c #62737B",
"5  c #DE0000",
"6  c #64747E",
"7  c #666699",
"8  c #855230",
"9  c #F75A08",
"0  c #DF0000",
"q  c cyan",
"w  c #717171",
"e  c #DE0000",
"r  c #61757A",
"t  c #DF0000",
"y  c #DE0000",
"u  c #804D33",
"i  c #64747E",
"p  c #DE0000",
"a  c #894E3B",
"s  c #E00000",
"d  c #DD0000",
"f  c #64737D",
"g  c #61727B",
"h  c #E30000",
"j  c None",
"k  c #855231",
"l  c #F75B08",
"z  c #DD0000",
"x  c #DE0000",
"c  c #61747D",
"v  c #608080",
"b  c #845231",
"n  c #845231",
"m  c #555555",
"M  c #835132",
"N  c #855230",
"B  c #DE0000",
"V  c #DF0000",
"C  c #666680",
"Z  c #844F2C",
"A  c #845232",
"S  c #647480",
"D  c #62727C",
"F  c #825432",
"G  c #63737B",
"H  c #835330",
"J  c #61727B",
"K  c #865531",
"L  c #835130",
"P  c #8E5539",
"I  c #865131",
"U  c #855331",
"Y  c white",
"T  c #855232",
"R  c #835231",
"E  c #855231",
"W  c #855132",
"Q  c #667777",
"!  c #63737D",
"~  c #62747C",
"^  c #65757A",
"/  c #556A80",
"(  c #667A7A",
")  c #687880",
"_  c #647680",
"`  c #5A5A5A",
"'  c #5A5A5A",
"]  c #3C3C3C",
"[  c #373737",
"{  c gray23",
"}  c #5A5A5A",
"|  c #5A5A5A",
" . c gray20",
".. c #3A3A3A",
"X. c #3A3A3A",
"o. c gray22",
"O. c #393939",
"+. c #181818",
"@. c gray9",
"#. c #393939",
"$. c #393939",
"%. c #6A6A80",
"&. c #393939",
"*. c #393939",
"=. c #627689",
"-. c #5A7878",
";. c #393939",
":. c #393939",
">. c #6D8080",
",. c #668080",
"<. c #3A3A3A",
"1. c gray23",
"2. c #181818",
"3. c #181818",
"4. c gray9",
"5. c #181818",
"6. c #5A5A5A",
"7. c #393939",
"8. c #3A3A3A",
"9. c #393939",
"0. c #393939",
"q. c #181818",
"w. c #181818",
"e. c gray9",
"r. c #181818",
"t. c #181818",
"y. c #181818",
"u. c gray9",
"i. c #393939",
"p. c gray22",
"a. c #161616",
"s. c gray10",
"d. c #F75A08",
"f. c #845231",
"g. c #DE0000",
"h. c #F7B521",
"j. c #EF7B18",
"k. c #EFDECE",
"l. c white",
"z. c gray74",
"x. c #7B7B7B",
"c. c #5A5A5A",
"v. c #393939",
"b. c #181818",
"n. c #EFA573",
"m. c #EFBD9C",
/* pixels */
"                                                                                                                              ",
"                                                                                                                              ",
"                                                                                                                              ",
"                                                                                                                              ",
"                                                                                                                              ",
"                                                                                                                              ",
"                                                                                                                              ",
"                                                                                                                              ",
"                                                                                                                              ",
"                                                                                                                              ",
"                                                                                                                              ",
"                                                                                                                              ",
"                                                                                                                              ",
"                                                          . X o O                                                             ",
"                                                        + @ d.d.f.# $                                                         ",
"                                                    % & g.d.d.h.d.g.* +                                                       ",
"                                                  = - g.d.g.j.j.j.g.g.d.;                                                     ",
"                                                : > g.d.g.d.h.j.h.d.d.g.d., $                                                 ",
"                                            < 1 f.g.j.g.j.j.j.h.h.j.d.d.g.d.2 3                                               ",
"                                        . 4 5 d.g.j.g.h.j.h.h.k.h.h.j.d.d.g.j.g.6 7                                           ",
"                                      8 g.f.d.g.h.g.h.j.h.h.k.l.k.k.h.d.g.h.g.h.g.9 0 q                                       ",
"                                    w g.f.d.g.h.g.h.d.h.k.h.k.l.k.h.k.j.d.g.j.g.h.g.d.e r %                                   ",
"                                  % t d.g.g.d.g.j.g.h.k.h.k.l.k.l.k.h.h.d.h.g.h.g.j.g.d.g.y u                                 ",
"                                  i d.g.d.d.g.h.g.h.j.k.k.k.k.l.k.k.k.h.j.d.j.d.j.d.d.g.d.f.p a                               ",
"                                s d.g.d.g.d.h.d.h.d.h.k.h.l.l.k.l.k.h.k.h.j.d.j.j.j.d.d.g.d.d.d %                             ",
"                              f d.g.d.g.d.d.j.h.h.j.k.h.k.l.l.l.k.l.k.h.k.h.j.h.h.j.d.g.d.g.g.f.g                             ",
"                            h j g.d.g.j.d.j.h.k.h.h.h.k.l.k.l.l.l.k.l.k.h.h.k.h.k.h.d.d.g.g.f.g.k                             ",
"                          . l g.d.d.j.d.j.d.j.h.k.k.k.k.l.l.l.l.l.l.l.l.k.k.l.k.h.d.h.g.d.g.g.f.z .                           ",
"                          x g.d.d.j.d.h.j.h.d.h.k.l.k.l.k.l.l.l.l.l.k.l.k.l.k.k.k.h.g.d.g.d.g.g.f.c                           ",
"                        v b d.g.j.d.j.j.h.j.k.h.k.k.l.k.l.l.l.l.l.k.l.l.l.k.k.k.h.d.h.g.h.g.d.f.g.n m                         ",
"                        M g.g.d.d.j.j.h.j.k.h.k.k.l.k.l.k.l.l.l.l.l.k.l.k.l.k.h.k.h.d.h.d.h.g.d.f.g.N                         ",
"                      % B f.g.g.d.j.h.j.h.h.k.l.l.k.l.z.x.z.l.l.l.z.x.z.l.k.l.k.k.h.h.j.h.d.d.g.d.f.p %                       ",
"                      V f.g.d.d.j.j.j.h.j.k.l.l.z.x.c.x.x.x.x.x.x.x.x.x.c.x.z.l.k.k.h.h.h.j.d.d.g.d.f.C                       ",
"                      < g.f.d.g.d.d.d.d.h.h.l.x.c.c.c.v.v.c.c.c.c.c.v.v.c.c.c.x.k.h.k.h.d.d.d.g.d.f.g.Z                       ",
"                        A g.g.d.g.d.g.h.j.h.z.x.v.v.b.c.x.x.v.b.v.x.x.c.b.v.v.x.z.k.h.j.h.g.g.d.f.g.f.S                       ",
"                        D f.d.f.d.g.d.j.h.j.x.v.c.b.v.x.z.x.v.b.v.x.z.x.v.b.c.v.x.j.h.h.d.g.d.g.d.f.g.F                       ",
"                        G g.f.d.f.d.j.h.j.j.c.c.x.b.c.x.k.x.v.b.v.x.k.x.c.b.x.c.c.h.h.h.j.d.g.d.g.f.f.;                       ",
"                        H f.g.g.f.d.f.j.d.h.v.c.z.v.c.x.l.x.v.b.v.x.l.x.c.v.z.c.v.j.h.j.h.j.d.g.f.f.f.J                       ",
"                        k f.f.f.g.f.d.f.h.j.v.c.l.c.x.z.l.x.v.b.v.x.l.z.x.c.l.c.v.h.j.h.j.h.j.f.f.f.f.K                       ",
"                        L f.d.f.f.g.f.j.d.h.x.z.z.z.z.h.n.m.l.l.l.m.n.h.z.z.z.z.x.j.f.j.f.j.f.d.f.f.f.P                       ",
"                        I g.f.d.f.f.j.d.j.c.x.x.x.x.c.c.c.c.c.c.c.c.c.c.c.x.x.x.x.c.j.f.j.f.g.f.g.f.U .                       ",
"                        Y T f.f.f.g.f.c.x.c.v.v.c.x.z.z.x.c.v.b.v.c.x.z.z.x.c.v.v.c.x.c.f.d.f.f.f.f.R                         ",
"                          . E f.f.f.c.c.v.v.v.v.c.z.z.k.z.x.v.b.v.x.z.k.z.z.c.v.v.v.v.c.c.f.f.f.f.M                           ",
"                            % L f.v.v.v.v.c.b.v.c.z.z.l.z.x.v.b.v.x.z.l.z.z.c.v.b.c.v.v.v.v.f.W Q                             ",
"                              . ! c.v.b.v.c.b.v.c.z.k.l.z.x.v.b.v.x.z.l.k.z.c.v.b.c.v.b.v.c.~                                 ",
"                                ^ v.b.b.v.c.b.v.x.k.k.l.z.x.v.b.v.x.z.l.k.k.x.v.b.c.v.b.b.v./                                 ",
"                                7 v.b.b.x.x.x.x.x.x.j.n.m.l.l.l.l.l.m.n.j.x.x.x.x.x.x.b.b.v.%                                 ",
"                                . v.b.b.c.c.c.v.b.b.b.b.b.b.b.b.b.b.b.b.b.b.b.v.c.c.c.b.b.v..                                 ",
"                                ( v.c.x.v.b.v.v.v.v.v.v.v.x.v.b.v.x.v.v.v.v.v.v.v.b.v.x.c.v.)                                 ",
"                              _ ` x.c.v.v.c.c.c.c.c.c.c.c.x.v.b.v.x.c.c.c.c.c.c.c.c.v.v.c.x.' g                               ",
"                            ] x.c.v.b.b.v.c.c.c.x.c.c.c.c.x.v.b.v.x.c.c.c.c.x.c.c.c.v.b.b.v.c.x.[                             ",
"                          { } v.b.b.b.v.c.c.c.c.v.c.c.c.c.z.v.b.v.z.c.c.c.c.v.c.c.c.c.v.b.b.b.v.|  .                          ",
"                        % ..b.b.v.b.b.v.v.v.v.v.v.v.v.v.v.x.v.b.v.x.v.v.v.v.v.v.v.v.v.v.b.b.v.b.b.X.%                         ",
"                        o.b.b.b.b.b.b.v.c.c.c.c.c.c.c.c.c.x.v.b.v.x.c.c.c.c.c.c.c.c.c.v.b.b.b.b.b.b.O.                        ",
"                      = +.v.b.b.b.b.v.c.c.c.c.x.c.c.c.c.c.x.v.b.v.x.c.c.c.c.c.x.c.c.c.c.v.b.b.b.b.v.@.<                       ",
"                      #.b.b.b.v.b.b.v.c.c.c.c.v.c.c.c.c.c.x.v.b.v.x.c.c.c.c.c.v.c.c.c.c.v.b.b.v.b.b.b.$.                      ",
"                    / b.b.b.b.b.b.b.v.b.v.v.v.v.v.v.v.v.v.x.v.b.v.x.v.v.v.v.v.v.v.v.v.b.v.b.b.b.b.b.b.b.%.                    ",
"                    &.b.v.b.b.b.b.b.v.x.x.x.x.x.x.x.x.x.x.z.v.b.v.z.x.x.x.x.x.x.x.x.x.x.v.b.b.b.b.b.v.b.*.                    ",
"                  =.b.b.b.b.v.b.b.v.c.c.c.c.c.c.c.c.c.c.c.x.v.b.v.x.c.c.c.c.c.c.c.c.c.c.c.v.b.b.v.b.b.b.b.-.                  ",
"                  ;.b.b.b.b.b.b.b.v.c.c.c.c.x.c.c.c.c.c.c.x.v.b.v.x.c.c.c.c.c.c.x.c.c.c.c.v.b.b.b.b.b.b.b.:.                  ",
"                >.b.b.v.b.b.b.b.c.c.c.c.c.c.v.c.x.x.x.x.x.x.x.x.x.x.x.x.x.x.x.c.v.c.c.c.c.c.c.b.b.b.b.v.b.b.,.                ",
"                <.b.b.b.b.b.v.v.b.v.v.v.v.v.v.v.c.b.b.b.b.b.b.b.b.b.b.b.b.b.c.v.v.v.v.v.v.v.b.v.v.b.b.b.b.b.1.                ",
"              Q b.b.b.b.v.v.b.b.b.b.v.v.c.v.v.v.c.b.b.b.b.b.b.b.b.b.b.b.b.b.c.v.v.v.c.v.v.b.b.b.b.v.v.b.b.b.2.                ",
"              *.b.b.v.v.b.b.b.b.b.b.b.v.b.v.v.v.c.b.b.b.b.b.b.b.b.b.3.4.+.5.6.7.8.9.2.0.q.w.e.r.t.y.u.i.p.a.s.                "
};
