/* XPM */
static char *_[] = {
/* columns rows colors chars-per-pixel */
"65 65 194 2 ",
"   c black",
".  c #760000",
"X  c #E00000",
"o  c #F80000",
"O  c #F05050",
"+  c #F90000",
"@  c #E00000",
"#  c #A00000",
"$  c #A00000",
"%  c #9F0000",
"&  c gray22",
"*  c #393939",
"=  c #63747A",
"-  c #55AAAA",
";  c None",
":  c #905831",
">  c #8F582F",
",  c #657280",
"<  c #61757A",
"1  c #63727D",
"2  c #808080",
"3  c black",
"4  c black",
"5  c #64757E",
"6  c #64747D",
"7  c #808080",
"8  c #557171",
"9  c gray47",
"0  c #606060",
"q  c #667777",
"w  c #617979",
"e  c #D0D0D0",
"r  c #989898",
"t  c #5F5F5F",
"y  c gray84",
"u  c #D0D0D0",
"i  c #B2B2B2",
"p  c #D0D0D0",
"a  c #AEAEAE",
"s  c #D2D2D2",
"d  c #AEAEAE",
"f  c gray82",
"g  c gray69",
"h  c black",
"j  c #6D6D6D",
"k  c #F9F9F9",
"l  c #AFAFAF",
"z  c #D0D0D0",
"x  c gray69",
"c  c #F8F8F8",
"v  c #61727B",
"b  c #AFAFAF",
"n  c #A7A7A7",
"m  c #505050",
"M  c gray69",
"N  c #A7A7A7",
"B  c #608080",
"V  c #627680",
"C  c gray69",
"Z  c white",
"A  c gray66",
"S  c #555555",
"D  c #989898",
"F  c #A7A7A7",
"G  c #5E717B",
"H  c #989898",
"J  c blue",
"K  c #A06138",
"L  c #5F5F5F",
"P  c #F89861",
"I  c #A16138",
"U  c gray37",
"Y  c #FFA25D",
"T  c #A7683F",
"R  c #61747D",
"E  c #606060",
"W  c #64757C",
"Q  c gray47",
"!  c #606060",
"~  c #A76740",
"^  c #558080",
"/  c gray28",
"(  c #A86840",
")  c #61727B",
"_  c gray44",
"`  c #989898",
"'  c gray60",
"]  c #989898",
"[  c gray40",
"{  c #556A80",
"}  c #697878",
"|  c #63757D",
" . c #637180",
".. c gray82",
"X. c #505050",
"o. c #898989",
"O. c #607580",
"+. c #D2D2D2",
"@. c gray22",
"#. c #898989",
"$. c #6D6D6D",
"%. c #AFAFAF",
"&. c #535353",
"*. c #868686",
"=. c gray45",
"-. c #767676",
";. c #5555AA",
":. c #64707C",
">. c #484848",
",. c #797979",
"<. c #202020",
"1. c #6B7986",
"2. c #3C3C3C",
"3. c #00003F",
"4. c #64747E",
"5. c gray16",
"6. c #000040",
"7. c #667780",
"8. c #697887",
"9. c #000040",
"0. c #000040",
"q. c #63747D",
"w. c black",
"e. c #000040",
"r. c #63757C",
"t. c black",
"y. c black",
"u. c #64727B",
"i. c #000040",
"p. c #63747C",
"a. c black",
"s. c #617380",
"d. c black",
"f. c #62727C",
"g. c #63747D",
"h. c #000044",
"j. c black",
"k. c #00003F",
"l. c black",
"z. c #000040",
"x. c black",
"c. c #000040",
"v. c black",
"b. c #627676",
"n. c #63747D",
"m. c #6D6D92",
"M. c #62757D",
"N. c #63747D",
"B. c #63737B",
"V. c #607379",
"C. c #408080",
"Z. c #E00000",
"A. c black",
"S. c #505050",
"D. c gray66",
"F. c #F8F8F8",
"G. c gray22",
"H. c #202020",
"J. c #0000A8",
"K. c gray44",
"L. c #C0C0C0",
"P. c gray47",
"I. c #484848",
"U. c #808000",
"Y. c #986038",
"T. c #0000B0",
"R. c #885830",
"E. c #B87848",
"W. c #F8B890",
"Q. c #F09058",
"!. c #A86840",
"~. c #F89860",
"^. c #E88858",
"/. c #805028",
"(. c #C87848",
"). c #D8D8D8",
"_. c #905830",
"`. c #584020",
"'. c #503818",
"]. c gray69",
"[. c #989898",
"{. c #888888",
"}. c #D0D0D0",
"|. c #606060",
" X c #63747D",
".X c gray91",
"XX c #F8F850",
"oX c #F8A858",
"OX c #F87800",
"+X c #A85000",
"@X c #684820",
"#X c #282828",
"$X c #000040",
"%X c white",
/* pixels */
"                                                                                                                                  ",
"                                                                                                                                  ",
"                                                                                                                                  ",
"                                                                                                                                  ",
"                                                                                                                                  ",
"                                                                                                                                  ",
"                                                                                                                                  ",
"                                                                                                                                  ",
"                                                                                                                                  ",
"                                                                                                                                  ",
"                                                                                                                                  ",
"                                                                                                                                  ",
"                                                                                                                                  ",
"                                                                                                                                  ",
"                                                                                                                                  ",
"                                                                                                                                  ",
"                                                      . X o O + Z.Z.@ # $ % .                                                     ",
"                                                      & A.S.S.D.F.F.D.S.G.H.&                                                     ",
"                                                      * J.J.A.A.A.A.A.A.A.A.*                                                     ",
"                                                      = G.K.L.D.P.S.S.G.G.G.=                                                     ",
"                                                      - ; S.S.S.S.I.I.G.G.; -                                                     ",
"                                                        : U.Y.T.R.R.T.Y.U.>                                                       ",
"                                                        , E.W.W.Q.!.W.W.E.,                                                       ",
"                                                        < R.~.Q.^.^.Q.~.R.1                                                       ",
"                                                      2 3 /.(.D.).).D.(./.4 2                                                     ",
"                                                    2 5 H./.(.^.^.^.^.(./.A.6 7                                                   ",
"                                                  8 9 I.H.G._._._._._.`.'.P.A.0 q                                                 ",
"                                                w e F.P.H.G.].H.A.A.A.A.D.A.[.[.r t                                               ",
"                                              y u F.F.].H.H.H.A.I.I.A.A.A.{.).).}.}.i                                             ",
"                                            p }.F.).).F.P.H.A.{.{.L.{.{.{.L.L.L.}.}.}.a                                           ",
"                                          s F.F.F.).].L.L.|.H.I.L.{.L.).).).).L.{.[.}.}.d                                         ",
"                                        f F.F.F.}.D.[.L.L.P.H.H.I.P.L.P.P.P.P.].|.[.].}.g h                                       ",
"                                      j k F.}.}.D.P.S.[.L.L.P.H.H.I.P.D.L.L.[.].|.[.].}.}.l                                       ",
"                                      z F.).}.D.P. XK.K.K.K.].P.H.H.H.K.L.L.[.[.|.[..X.X}.x                                       ",
"                                      c ).F.F.F. X XS.G.{.{.K.{.K.H.H.H.[.[.P.S.v }.K.[.}.b                                       ",
"                                      n ).F.F.F.F. X XG.S.K.S.K.K.S.H.H.H.K.S.G.7 m [.}.}.M                                       ",
"                                        N F.F.}.}. X XA.A.H.H.H.XXoXoXH.H.H.A.A.B V [.}.}.C                                       ",
"                                        Z A }.~.~.~.~..X.X.XH.H.OX+X@XH.H.H.A.A.q S [.}.].D                                       ",
"                                          2 F ~.~.H.H.I.]..X.XP.P.I.P.P.P.P.|.I.G   H }.}.].                                      ",
"                                            J K E.H.H.H.I.P..X.XD.[.].D.D.{.P.K.L   P ~.~.!.                                      ",
"                                                I H.H.H.H.I.I.D..X[.{.D.D.[.P.K.U   Y T ~.!.                                      ",
"                                                  R H.H.H.I.I.I.I.I.P.D.D.[.P.K.E     W ~.!.                                      ",
"                                                    Q I.I.#XP.P.I.I.K.D.D.D.P.K.!       ~ !.                                      ",
"                                                  ^ P.].].].[.{.|.I.S.K.K.K.K.S./       h (                                       ",
"                                                  ) D.L..X].].{.K.S.S.P.D.D.D.[._         Z                                       ",
"                                                  ` D..X.XL.D.P.K.S.K.].).L.L.[.K.                                                ",
"                                                  ' L..X.XL.D.P.|.S.{.].).}.L.[.P.2                                               ",
"                                                  ] .X.X}.].D.P.|.S.{.].).).).].P.^                                               ",
"                                                [ ]..X.X}.].D.P.S.S.{.].).).).].{.{                                               ",
"                                                } }..X.X.X}.{.P.S.| {.].).).).L.[. .                                              ",
"                                                ..}..X).).}.P.P.X.S o.L.).).).L.[.O.                                              ",
"                                                +.].].].]..X[.|.@.  #.L.).).).].[.$.                                              ",
"                                                %.].].].].[.S.I.&.  *.L.{.F..XD.].=.                                              ",
"                                                -.].].].D.P.|.S.;.  :.K.].D.D.{.{.>.                                              ",
"                                                ,.P.[.[.P.S.G.<.    1.I.{.{.{.{.K.2.                                              ",
"                                                3.G.I.I.I.G.A.4.    j K.K.|.S.I.G.5.                                              ",
"                                                6.$X$X$XA.A.A.7.    Z $X$X$XA.A.A.8.                                              ",
"                                                9.$X$X$XA.A.A.^       0.$X$XA.A.A.j                                               ",
"                                                q.$X$X$XA.A.w.        e.$X$XA.A.w.h                                               ",
"                                                r.$XA.A.A.A.6         t.A.$X$XA.y.                                                ",
"                                                u.$X$X$XA.A.i.        p.A.A.A.A.a.                                                ",
"                                                s.$X$X$X$XA.d.        f.$X$XA.A.g.                                                ",
"                                                h.$X$X$X$XA.j.        k.$X$X$XA.l.                                                ",
"                                                z.$X$X$X$XH.x.      h c.$X$X$X$XA.v.h                                             ",
"                                                b.$X$X$X$X$Xn.m.  ^ M.A.$X$XA.A.A.A.N.B.V.8.B C.2 h                               "
};
