/* XPM */
static char *_[] = {
/* columns rows colors chars-per-pixel */
"65 65 165 2 ",
"   c black",
".  c #808080",
"X  c #282828",
"o  c gray22",
"O  c gray12",
"+  c #373737",
"@  c #202020",
"#  c #627680",
"$  c #647480",
"%  c #808080",
"&  c #667380",
"*  c #585800",
"=  c #606080",
"-  c #64747D",
";  c black",
":  c #556A80",
">  c #697887",
",  c None",
"<  c #63737D",
"1  c gray69",
"2  c #D8D8D8",
"3  c gray85",
"4  c #B4B4B4",
"5  c gray69",
"6  c #AEAEAE",
"7  c gray69",
"8  c #637180",
"9  c gray44",
"0  c white",
"q  c gray69",
"w  c #515151",
"e  c gray69",
"r  c #505050",
"t  c #B2B2B2",
"y  c #515151",
"u  c #55AAAA",
"i  c #515151",
"p  c #D8D8D8",
"a  c #61757D",
"s  c #65737E",
"d  c #63727E",
"f  c #64747C",
"g  c #64747E",
"h  c #687480",
"j  c #62727C",
"k  c #5E717B",
"l  c #64737C",
"z  c #65757A",
"x  c #606060",
"c  c #B1B1B1",
"v  c gray69",
"b  c #667777",
"n  c cyan",
"m  c gray47",
"M  c gray47",
"N  c #5A7878",
"B  c #797979",
"V  c #62747D",
"C  c #797979",
"Z  c gray85",
"A  c #668080",
"S  c #E7E7E7",
"D  c #63737C",
"F  c #989898",
"G  c gray59",
"H  c #505050",
"J  c #607080",
"K  c #989898",
"L  c gray89",
"P  c #505050",
"I  c black",
"U  c #989898",
"Y  c #6D6D6D",
"T  c #D0D0D0",
"R  c gray22",
"E  c #989898",
"W  c #62727E",
"Q  c #B1B1B1",
"!  c #505050",
"~  c gray81",
"^  c #797979",
"/  c #717171",
"(  c black",
")  c #C0C0C0",
"_  c black",
"`  c #617979",
"'  c #5F5F5F",
"]  c black",
"[  c black",
"{  c #606060",
"}  c black",
"|  c #64737C",
" . c #00003F",
".. c blue",
"X. c black",
"o. c #6A8080",
"O. c #62747C",
"+. c black",
"@. c #00003F",
"#. c #000040",
"$. c black",
"%. c #61727C",
"&. c #5D7480",
"*. c #000042",
"=. c black",
"-. c #5F757C",
";. c #63747A",
":. c #000040",
">. c #000040",
",. c #000040",
"<. c #000040",
"1. c #000042",
"2. c #66707A",
"3. c black",
"4. c #64767C",
"5. c black",
"6. c #00003F",
"7. c black",
"8. c black",
"9. c #700000",
"0. c #E00000",
"q. c #0000B8",
"w. c #000078",
"e. c #000060",
"r. c #0000A8",
"t. c #A00000",
"y. c #202020",
"u. c gray22",
"i. c #505050",
"p. c gray44",
"a. c black",
"s. c #989800",
"d. c #707000",
"f. c #484848",
"g. c #F89860",
"h. c #808000",
"j. c #282828",
"k. c #404000",
"l. c #B87848",
"z. c #986038",
"x. c #0000B0",
"c. c #885830",
"v. c #584020",
"b. c #684820",
"n. c #503818",
"m. c #F8B890",
"M. c #D8D8D8",
"N. c #D08050",
"B. c #C0C0C0",
"V. c #805028",
"C. c #C87848",
"Z. c #606060",
"A. c gray69",
"S. c #A06038",
"D. c #989898",
"F. c gray47",
"G. c gray66",
"H. c #888888",
"J. c #D0D0D0",
"K. c #D88850",
"L. c #F87800",
"P. c #A85000",
"I. c gray91",
"U. c #000040",
"Y. c white",
/* pixels */
"                                                                                                                                  ",
"                                                                                                                                  ",
"                                                                                                                                  ",
"                                                                                                                                  ",
"                                                                                                                                  ",
"                                                                                                                                  ",
"                                                                                                                                  ",
"                                                                                                                                  ",
"                                                                                                                                  ",
"                                                                                                                                  ",
"                                                                                                                                  ",
"                                                                                                                                  ",
"                                                                                                                                  ",
"                                                                                                                                  ",
"                                                                                                                                  ",
"                                                                                                                                  ",
"                                                                                                                                  ",
"                                                                                                                                  ",
"                                                . 9.0.q.q.w.w.w.e.e.e.9.X                                                         ",
"                                                  o r.t.t.t.t.t.t.t.t.y.O                                                         ",
"                                                  + r.r.u.u.i.p.p.i.u.a.@                                                         ",
"                                                  # s.d.f.y.y.y.y.y.y.y.$                                                         ",
"                                                  % s.g.h.i.f.f.u.j.j.k.&                                                         ",
"                                                    * g.l.z.x.c.c.v.b.n.=                                                         ",
"                                                    - l.m.m.M.p.N.N.l.n.%                                                         ",
"                                                    ; c.g.B.y.y.p.N.c.a.:                                                         ",
"                                                  > , V.C.B.y.y.Z.C.V.a.<                                                         ",
"                                            . 1 2 M.A.A.M.f.p.p.f.M.M.M.M.3                                                       ",
"                                            4 M.M.M.M.M.m.m.m.N.S.D.D.M.M.M.5                                                     ",
"                                            6 M.M.M.M.M.m.m.N.S.S.F.D.D.A.A.7                                                     ",
"                                            8 B.B.G.G.D.m.m.N.S.S.F.F.D.D.H.9                                                     ",
"                                            0 q D.D.F.Z.y.f.F.H.J.J.A.H.Z.i.w                                                     ",
"                                              e D.F.F.F.y.y.f.F.A.A.A.H.F.Z.r                                                     ",
"                                              t M.H.F.F.F.y.y.f.F.G.H.F.F.Z.y                                                     ",
"                                              u M.A.H.p.F.F.y.y.y.p.F.F.p.Z.i                                                     ",
"                                                p A.H.H.p.H.p.y.y.y.F.p.Z.i.a                                                     ",
"                                                s M.i.p.i.p.p.i.y.y.y.p.i.u.d                                                     ",
"                                                f a.a.y.y.y.K.l.z.y.y.y.a.a.g                                                     ",
"                                                h y.y.y.y.y.L.P.b.y.y.y.a.a.j                                                     ",
"                                                k G.G.G.G.F.F.f.F.F.F.F.Z.f.l                                                     ",
"                                                z G.I.I.A.A.F.Z.A.I.I.I.D.F.x                                                     ",
"                                                c I.I.I.A.A.F.Z.M.B.B.B.B.D.F..                                                   ",
"                                                v I.I.A.A.D.Z.f.F.M.M.M.M.M.A.b                                                   ",
"                                              n m I.I.A.A.D.Z.f.D.M.G.G.G.G.F.M                                                   ",
"                                              N M.F.F.F.F.F.f.p.D.p.M.M.M.M.G.B                                                   ",
"                                              V M.M.D.H.F.Z.Z.p.D.G.M.M.M.M.A.C                                                   ",
"                                              Z I.A.D.H.F.Z.Z.p.D.A.J.M.M.M.B.D.A                                                 ",
"                                              S I.A.D.F.F.Z.Z.D F A.J.M.M.M.M.J.G                                                 ",
"                                            0 J.I.A.D.F.F.Z.H   J A.A.J.M.M.M.J.K                                                 ",
"                                            L J.A.A.D.F.Z.Z.P   I U A.J.M.M.M.J.J.Y                                               ",
"                                            T A.D.G.F.p.F.Z.R     E D.B.M.M.M.J.J.W                                               ",
"                                            Q H.p.D.D.H.i.f.!     f D.B.M.M.M.M.J.~                                               ",
"                                            ^ Z.Z.Z.Z.F.Z.i./     % B.J.M.B.B.B.G.M.I                                             ",
"                                            ( Z.Z.Z.Z.i.u.O         ) B.A.G.G.H.H.f..                                             ",
"                                            _ a.f.f.f.u.a.`         ' f.H.H.H.H.p.u.n                                             ",
"                                            ] a.U.a.a.a.[           u { p.Z.i.f.u.j.                                              ",
"                                            } a.a.a.a.a.|              .U.U.a.a.a.a...                                            ",
"                                            l a.a.a.a.a.X.            o.U.U.a.a.a.a.u                                             ",
"                                            O.a.a.a.a.a.+.              @.U.U.a.a.a./                                             ",
"                                            #.a.a.U.a.a.$.              %.a.U.U.a.a.&.                                            ",
"                                            *.U.U.U.y.=.0               -.a.a.a.a.a.;.                                            ",
"                                            :.>.,.<.1.I                 2.U.U.a.a.a.3.                                            ",
"                                                                        4.U.U.U.a.a.5.                                            ",
"                                                                        6.U.U.U.U.a.7.                                            ",
"                                                                        8.U.U.a.a.a.a.I                                           "
};
