/* XPM */
static char *_[] = {
/* columns rows colors chars-per-pixel */
"65 65 165 2 ",
"   c black",
".  c #700000",
"X  c #282828",
"o  c gray22",
"O  c gray12",
"+  c #393939",
"@  c #202020",
"#  c #62737E",
"$  c #647480",
"%  c #627680",
"&  c #667380",
"*  c #62767C",
"=  c #606080",
"-  c #64747C",
";  c #808080",
":  c #E70000",
">  c #556A80",
",  c #62747C",
"<  c #63737D",
"1  c #555555",
"2  c #B1B1B1",
"3  c #D8D8D8",
"4  c gray85",
"5  c #B4B4B4",
"6  c gray69",
"7  c #B2B2B2",
"8  c gray69",
"9  c #637180",
"0  c gray44",
"q  c white",
"w  c gray69",
"e  c #515151",
"r  c gray69",
"t  c #505050",
"y  c #515151",
"u  c #55AAAA",
"i  c #515151",
"p  c #D8D8D8",
"a  c #61757D",
"s  c #65737E",
"d  c #63727E",
"f  c #64747E",
"g  c #687480",
"h  c #62727C",
"j  c #5E717B",
"k  c #64737C",
"l  c #65757A",
"z  c #606060",
"x  c #B1B1B1",
"c  c #808080",
"v  c gray69",
"b  c #667777",
"n  c cyan",
"m  c gray47",
"M  c gray47",
"N  c #5A7878",
"B  c #797979",
"V  c #62747D",
"C  c #797979",
"Z  c gray85",
"A  c #668080",
"S  c #E7E7E7",
"D  c #63737C",
"F  c #989898",
"G  c gray59",
"H  c None",
"J  c #607080",
"K  c #989898",
"L  c gray89",
"P  c #505050",
"I  c black",
"U  c #989898",
"Y  c #6D6D6D",
"T  c #D0D0D0",
"R  c gray22",
"E  c #989898",
"W  c #62727E",
"Q  c #B1B1B1",
"!  c #505050",
"~  c gray81",
"^  c #797979",
"/  c #717171",
"(  c black",
")  c #C0C0C0",
"_  c black",
"`  c #617979",
"'  c #5F5F5F",
"]  c black",
"[  c black",
"{  c #606060",
"}  c black",
"|  c #64737C",
" . c #00003F",
".. c blue",
"X. c black",
"o. c #6A8080",
"O. c black",
"+. c #00003F",
"@. c #000040",
"#. c black",
"$. c #61727C",
"%. c #5D7480",
"&. c #000042",
"*. c black",
"=. c #5F757C",
"-. c #63747A",
";. c #000040",
":. c #000040",
">. c #000040",
",. c #000040",
"<. c #000042",
"1. c #66707A",
"2. c black",
"3. c #64767C",
"4. c black",
"5. c #00003F",
"6. c black",
"7. c black",
"8. c #E00000",
"9. c #0000B8",
"0. c #000078",
"q. c #000060",
"w. c #700000",
"e. c #0000A8",
"r. c #A00000",
"t. c #202020",
"y. c gray22",
"u. c #505050",
"i. c gray44",
"p. c black",
"a. c #585800",
"s. c #584020",
"d. c #E80000",
"f. c #880000",
"g. c #B80000",
"h. c #503818",
"j. c #F80000",
"k. c #F05050",
"l. c #F8A070",
"z. c #F8F850",
"x. c #A8A800",
"c. c #D8D8D8",
"v. c #C80000",
"b. c gray47",
"n. c #989898",
"m. c gray69",
"M. c #C0C0C0",
"N. c gray66",
"B. c #F8B890",
"V. c #A06038",
"C. c #888888",
"Z. c #606060",
"A. c #484848",
"S. c #800000",
"D. c #D0D0D0",
"F. c #D88850",
"G. c #B87848",
"H. c #986038",
"J. c #F87800",
"K. c #A85000",
"L. c #684820",
"P. c gray91",
"I. c #000040",
"U. c #282828",
"Y. c white",
/* pixels */
"                                                                                                                                  ",
"                                                                                                                                  ",
"                                                                                                                                  ",
"                                                                                                                                  ",
"                                                                                                                                  ",
"                                                                                                                                  ",
"                                                                                                                                  ",
"                                                                                                                                  ",
"                                                                                                                                  ",
"                                                                                                                                  ",
"                                                                                                                                  ",
"                                                                                                                                  ",
"                                                                                                                                  ",
"                                                                                                                                  ",
"                                                                                                                                  ",
"                                                                                                                                  ",
"                                                                                                                                  ",
"                                                                                                                                  ",
"                                                  . 8.9.9.0.0.0.q.q.q.w.X                                                         ",
"                                                  o e.r.r.r.r.r.r.r.r.t.O                                                         ",
"                                                  + e.e.y.y.u.i.i.u.y.p.@                                                         ",
"                                                  # a.s.w.w.w.w.w.t.t.s.$                                                         ",
"                                                  % d.w.f.g.g.g.f.w.d.h.&                                                         ",
"                                                  * a.d.g.j.j.j.g.k.w.h.=                                                         ",
"                                                  - w.g.k.k.l.l.k.g.f.h.;                                                         ",
"                                                  : d.g.j.l.z.x.l.j.g.f.>                                                         ",
"                                                  , f.g.j.l.x.z.l.j.g.f.<                                                         ",
"                                            1 2 3 c.w.g.j.k.l.l.k.k.w.c.d.4                                                       ",
"                                            5 c.c.c.c.d.g.j.j.j.j.w.v.c.c.c.6                                                     ",
"                                            7 c.c.c.d.c.w.f.j.f.w.b.n.n.m.m.8                                                     ",
"                                            9 M.M.N.N.n.B.B.g.V.V.b.b.n.n.C.0                                                     ",
"                                            q w n.n.b.Z.t.A.S.C.D.D.m.C.Z.u.e                                                     ",
"                                              r n.b.b.b.t.t.A.b.m.m.m.C.b.Z.t                                                     ",
"                                              7 c.C.b.b.b.t.t.A.b.N.C.b.b.Z.y                                                     ",
"                                              u c.m.C.i.b.b.t.t.t.i.b.b.i.Z.i                                                     ",
"                                                p m.C.C.i.C.i.t.t.t.b.i.Z.u.a                                                     ",
"                                                s c.u.i.u.i.i.u.t.t.t.i.u.y.d                                                     ",
"                                                - p.p.t.t.t.F.G.H.t.t.t.p.p.f                                                     ",
"                                                g t.t.t.t.t.J.K.L.t.t.t.p.p.h                                                     ",
"                                                j N.N.N.N.b.b.A.b.b.b.b.Z.A.k                                                     ",
"                                                l N.P.P.m.m.b.Z.m.P.P.P.n.b.z                                                     ",
"                                                x P.P.P.m.m.b.Z.c.M.M.M.M.n.b.c                                                   ",
"                                                v P.P.m.m.n.Z.A.b.c.c.c.c.c.m.b                                                   ",
"                                              n m P.P.m.m.n.Z.A.n.c.N.N.N.N.b.M                                                   ",
"                                              N c.b.b.b.b.b.A.i.n.i.c.c.c.c.N.B                                                   ",
"                                              V c.c.n.C.b.Z.Z.i.n.N.c.c.c.c.m.C                                                   ",
"                                              Z P.m.n.C.b.Z.Z.i.n.m.D.c.c.c.M.n.A                                                 ",
"                                              S P.m.n.b.b.Z.Z.D F m.D.c.c.c.c.D.G                                                 ",
"                                            q D.P.m.n.b.b.Z.H   J m.m.D.c.c.c.D.K                                                 ",
"                                            L D.m.m.n.b.Z.Z.P   I U m.D.c.c.c.D.D.Y                                               ",
"                                            T m.n.N.b.i.b.Z.R     E n.M.c.c.c.D.D.W                                               ",
"                                            Q C.i.n.n.C.u.A.!     - n.M.c.c.c.c.D.~                                               ",
"                                            ^ Z.Z.Z.Z.b.Z.u./     ; M.D.N.M.M.M.N.c.I                                             ",
"                                            ( Z.Z.Z.Z.u.y.O         ) N.b.N.N.C.C.A.c                                             ",
"                                            _ p.A.A.A.y.p.`         ' A.b.C.C.C.i.y.n                                             ",
"                                            ] p.I.p.p.p.[           u { i.Z.u.A.y.U.                                              ",
"                                            } p.p.p.p.p.|              .I.I.p.p.p.p...                                            ",
"                                            k p.p.p.p.p.X.            o.I.I.p.p.p.p.u                                             ",
"                                            , p.p.p.p.p.O.              +.I.I.p.p.p./                                             ",
"                                            @.p.p.I.p.p.#.              $.p.I.I.p.p.%.                                            ",
"                                            &.I.I.I.t.*.q               =.p.p.p.p.p.-.                                            ",
"                                            ;.:.>.,.<.I                 1.I.I.p.p.p.2.                                            ",
"                                                                        3.I.I.I.p.p.4.                                            ",
"                                                                        5.I.I.I.I.p.6.                                            ",
"                                                                        7.I.I.p.p.p.p.I                                           "
};
