/* XPM */
static char *_[] = {
/* columns rows colors chars-per-pixel */
"65 65 79 1 ",
"  c None",
". c black",
"X c #080000",
"o c #100000",
"O c #110000",
"+ c #170000",
"@ c #180000",
"# c #270000",
"$ c #280000",
"% c #290000",
"& c #300000",
"* c #282008",
"= c #38280F",
"- c #372810",
"; c #382810",
": c #382910",
"> c #003F3F",
", c #202020",
"< c #282828",
"1 c gray16",
"2 c gray19",
"3 c gray22",
"4 c #400000",
"5 c #470000",
"6 c #480000",
"7 c #490000",
"8 c #4F0000",
"9 c #500000",
"0 c #510000",
"q c #600000",
"w c #680000",
"e c #403018",
"r c #483818",
"t c #483918",
"y c #503818",
"u c #503918",
"i c #68471F",
"p c #584020",
"a c #684820",
"s c #704828",
"d c #004040",
"f c #004141",
"g c #005858",
"h c #006868",
"j c #007070",
"k c #007878",
"l c #484848",
"z c #505050",
"x c #606060",
"c c #63737D",
"v c #63747D",
"b c #64747D",
"n c gray44",
"m c gray47",
"M c #805028",
"N c #885830",
"B c #986038",
"V c #A06038",
"C c #A86840",
"Z c #B07040",
"A c #B87848",
"S c #C87848",
"D c #D08050",
"F c #D88850",
"G c #E88858",
"H c #F09058",
"J c #F89860",
"K c #F8A070",
"L c #008080",
"P c #008181",
"I c #009898",
"U c #898989",
"Y c #989898",
"T c gray66",
"R c gray69",
"E c #F8B080",
"W c #E7E7E7",
"Q c gray91",
"! c #E9E9E9",
/* pixels */
"                                                                 ",
"                                                                 ",
"                                                                 ",
"                                                                 ",
"                                                                 ",
"                             QWWQQQQQ                            ",
"                          QmTQQmll333,vn                         ",
"                         QYzQQm<lllll3,vn                        ",
"                      888QXlQQs,<<<lls,X3$55                     ",
"                    5@$$$Q.lQQsr,,,<lC,X.$$$5$                   ",
"                    @5.XXQXlQSSSVs,s,C,X3XXX.5.                  ",
"                   85.XvvQv3QEKDDDDs,N,vxvvv..$                  ",
"                   8$XvvvQvNQssGKHEssNmvxvvvv$$                  ",
"                   8$XvvvQvZQn.<Mp<,nAxvxvvvv5$                  ",
"                   5$XvvvQvNQZCCGACCZAxvzvvvv5$                  ",
"                    $XvvvQvvQGJEEFJJGAzvzvvvv5$                  ",
"                    $XXvvQvvRCFVppVSCazvzvvv5$X                  ",
"                    #$XXvRvvRCSVBBVSNallzvv5$$X                  ",
"       98$          v$$XXRvvRBZyXXyZaallzvv$$Xv          9       ",
"     w9999$        ggggggd<vRBZXooXZarl<<ddggd.v       w&&oo     ",
"    wllLj3&o,<<<<Ljjjjjjjjd<xBCM$$MCar<<dddjjjd.,<<<<owllll<     ",
"    z3L.,g3o,<33Lkkkkkkkkkjd<<NCCCCN<<<dddgjkkkd.,333LjllllLj    ",
"   z33j,,g<3,<3Ljhhhhhhhhhhhhd<<<<<<<ddddghhhhhhd.,3L.,g3lL.,g   ",
"   3333gg,<33<Ljhhhhhhhhhhhhhhh<<<ghhhhhhhhhhhhhhd.,j,3g3lj,3g   ",
"   Lj33..<3Lj3jgggggggggggggggg<ddjgggggggggggggggd,lgg<..lgg<   ",
"   .,g....L.,gggggggggggggggggg<ddjgggggggggggggggg,ll3...,l33   ",
"   ,,g<..3j,,gddddddddddddddddd<22gdddddddddddddddd,lLjl,,lLjl   ",
"   gg,<Lj33ggdgddgggggggggggg<d<22gddggggggggggg<d<,L.,g3lL.,g   ",
"   3<<L.,g<<,.gddd<<<<<<<<<<<dd<22gddd<<<<<<<<<<d2<,j,3g3lj,3g   ",
"   &33j,,g<X  dgddggggggggggg<d<22gddgggggggggg<d<<  gg<3llggX   ",
"   q&33gg,XX  .gddd<<<<<<<<<<dd<22gddd<<<<<<<<<d2<   q<<<<<<XX   ",
"   X........   gddddddddddddddd<22gddddddddddddd<<   X........   ",
"   9&lll33&X    gdddddddddddddd<22gddddddddddddd<    9&lLjl<&X   ",
"   9Lj3333Lj    gdddddddddddddd<22gdddddddddddd2<    9zL.,g3<X   ",
"   L.,g33L.,    ddddddddddddddd<22gdddddddddddd<     zlj,3g3l<   ",
"   j,,g<3j,,     gddddddddddddd<22gdddddddddddd<    lzllgg<3ll   ",
"   3gg,..3gg     <<<<<<<<<<<<<<,..,<<<<<<<<<<<<<    Ljll..3lLj   ",
"   33<....3<<    v.............................v    .,g...,L.,   ",
"   3Lj3..3Lj     &&&&&&&&&&&&&$$$$$@@@@@@@oooXX.    ,3g3,,lj,3   ",
"   L.,g33L.,    o...............................    gg<3Ljllgg   ",
"   j,,g<3j,,    jg,............<<..............      33L.,g3l<   ",
"   8gg,<33gg    jg,,,,,,,,,,,,,<<jgggggggggggggg     8lj,3g3<.   ",
"   8&<<333&.    jgggdddddddddddddjggggggggggggggg    8&3gg,<&.   ",
"    oo..X..      <<<<<<<<<<<<<<<,dddddddddddddddd      oXXX..    ",
"                 <<<<<<<<<<<<<<<,d<<<<<<<<<<<<<<d                ",
"                 ,,,,,,,,,,,,,,,,djgggggggggggg<>                ",
"                 g<<<<<<<<<<<<<,vdjgggggggggggg<d                ",
"                 g<<<<<<<<<<<<<,vvjgggggggggggg<v                ",
"                jg<<<<<<<<<<<<<,vvLjjjjjjjjjjjjjj                ",
"               ILg2222222222222,vvIIIIIIIIIIIIIIIj               ",
"               Ijgggggggggggggd<<lILLLLLLLLLLLLLLgl              ",
"              ULddddddddddddddd<3zLjjjjjjjjjjjjjjdz              ",
"              njd22222222222222<<3jgggggggggggggg<               ",
"              Lg<<<<<<<<<<<<<<<<,vgdddddddddddddd<               ",
"              jd,,,,,,,,,,,,,,,,,vd<<<<<<<<<<<<<<                ",
"             Ljjjd,,,,,,,,,,,,<<,vvv<dddddddddd<                 ",
"             Ljjjd<,,,,,,,,,,,<<,vvvjgggggggggg<                 ",
"             Ljjjgd<<<<<<<<<<<<<,vvvjgggggggggg<                 ",
"             Ljjjjgd,,,,,,,<<<<<,vvvjgggggggggg<                 ",
"             Ljjjjjdvvvvvvv<<<<<,vvvjgggggggggg<                 ",
"             Ljjjjjdre;;;;;<<<<<,jjjjgggggggggg<dddd*;r          ",
"       ayyre;j<<<<<<*******,,,,,,jjjjjjjjjjjjjjjjjjd*****;ryi    ",
"   ayyre;;;;;********************jjjjjjddddddjjjjjjd******;;ry   ",
"             ;-=;;;;;;;;;;;;;;;;;LjjjjjddddddLjjjjjdeeeeeerry    ",
"                             vvvvjdddddvvvvvvjddddd<vv           "
};
