/* XPM */
static char *_[] = {
/* columns rows colors chars-per-pixel */
"65 65 91 1 ",
"  c None",
". c black",
"X c #080000",
"o c #100000",
"O c #180000",
"+ c #280000",
"@ c #300000",
"# c #282008",
"$ c #38280F",
"% c #372810",
"& c #382810",
"* c #382910",
"= c #202020",
"- c #282828",
"; c gray19",
": c gray22",
"> c #400000",
", c #410000",
"< c #470000",
"1 c #480000",
"2 c #490000",
"3 c #500000",
"4 c #600000",
"5 c #680000",
"6 c #700000",
"7 c #403018",
"8 c #483818",
"9 c #483918",
"0 c #503818",
"q c #503918",
"w c #484800",
"e c #585800",
"r c #68471F",
"t c #686800",
"y c #707000",
"u c #584020",
"i c #684820",
"p c #704828",
"a c #004040",
"s c #005858",
"d c #006868",
"f c #007070",
"g c #007878",
"h c #484848",
"j c #505050",
"k c #606060",
"l c #62747C",
"z c #62747D",
"x c #63747D",
"c c #62747E",
"v c #63757E",
"b c #64747D",
"n c gray44",
"m c gray47",
"M c #800000",
"N c #880000",
"B c #980000",
"V c #A00000",
"C c #B00000",
"Z c #B80000",
"A c #C80000",
"S c #D00000",
"D c #E00000",
"F c #E80000",
"G c #F80000",
"H c #805028",
"J c #885830",
"K c #986038",
"L c #A06038",
"P c #A86840",
"I c #B07040",
"U c #B87848",
"Y c #C87848",
"T c #808000",
"R c #909000",
"E c #D08050",
"W c #D88850",
"Q c #E88858",
"! c #F09058",
"~ c #F89860",
"^ c #F8A070",
"/ c #008080",
"( c #008181",
") c #009898",
"_ c #898989",
"` c #989898",
"' c gray66",
"] c #F8B080",
"[ c #E7E7E7",
"{ c gray91",
"} c #E9E9E9",
/* pixels */
"                                                                 ",
"                                                                 ",
"                                                                 ",
"                                                                 ",
"                                                                 ",
"                              {[[{{{{{                           ",
"                           {m'{{mhh:::=xn                        ",
"                          {`j{{m-hhhhh:=xn                       ",
"                       111{Xh{{p=---hhp=X:+>>                    ",
"                     >O+++{.h{{p8===-hP=X.+++>+                  ",
"                     O>.XX{Xh{YYYLp=p=PAX:XXXX>X                 ",
"                    1>.Xxx{x:G]^EEEEp=JDxkxxxXX+                 ",
"                    1+Xxxx{xJGppQ^!]ppJGxkxxxx++                 ",
"                    1+XxxxGxIFn6-Hu-BnUGxkxxxx>+                 ",
"                    >+XxxxFxJFIPPQUPPIUFxjxxxx>+                 ",
"                     +XxxxFxxFQ~]]W~~QUDxjxxxx>+                 ",
"                     +XXxxDxxFPWLuuLYPiD3jxxx>++                 ",
"        >            ++XXxDxxDPYLKKLYJiSNjxx>++X                 ",
"       31+>          x++XXDxxDKI0XX0IiiSZjxx++Xx                 ",
"      @36>@@        ssssssa-xDKIXooXIi8S-assssa.x       @@@@@@oo ",
"     +h661:@++----/ffffffffa-kKPH++HPi8-asdffffs.=>> xx@h/fh-11@ ",
"    6>f6w4:>6+-::/gggggggggfa--JPPPPJ--asdddggggd.=>665>/.=s115@ ",
"   x>556w456>+-:////gggddddddda------asdfffddddddg.>1VC144116V5o ",
"   hf5w4wBMM>s-////gggdddddddddd---sddddddddddddddg.41VAC346A61- ",
"   4MMMBewBM41>+////gffddsssssss-aafssssssssddddddgg=16CtAAe6@@- ",
"   CBwweRewwBwCZAAAA/ggsssssssss-aafsssssssddddggggAV44NATTA6N1@ ",
"   >MMBBew45531@///ggdssaaaaaaaa-;;saaaaaasasssssAZZZZNNATTAC4>- ",
"   h>55BwBB5Osa//g))////fdsssa-a-;;sa-assdf////))dfffs4NeAAtA6s= ",
"   >M554B455>+.//fsaaaaaaa-----a-;;sa----aaaaaaasddff14A6ZN6VV-x ",
"   >MM>4B4O>MOx//gd)///fdssssa-a-;;sa-asssdf///)ssdfx4V4NVN16V1x ",
"   >3>-151:+OOxZZ/fsaaaaa------a-;;sa-----aaaaassdfxx4411Vs=11V> ",
"   >>@@+C>@@Xx>CZ/fdsssasaaaaaaa-;;saaaaaasasssssddx>x3@6V@@@@>1 ",
"   3>@hh4+:@>5C>/ffddsssaaaaaaaa-;;saaaaaaassssssdx+5x3@6V3h-@5x ",
"   >551/M+>>5V5xxdddsssasaaaaaaa-;;saaaaaasassssssxxx55f5Z5h55Xx ",
"   15B55V>5VV5>xxsssssasaaaaaaaa-;;saaaaaaasasssssx5x5V56ZN5ZNs5 ",
"   h55MVVMVwV5>xxxsssssaaaaaaaaa-;;saaaaaaaasssssxxxxfNAZeZZN5s  ",
"   h154eSVeV5>xxxx--------------=..=-------------x@165NZSySZN55  ",
"   /.>4ARRAMM3sxxxx............................@@4VVZCZeyTyeZMZ  ",
"   33MMVRRAVVM33x4443311>>@@@@@+++++@@@@@>>1133444@16NNZSySZN55  ",
"    s>4VVAeN>sxxx>@OOOoooXX.............XXoooOOO@    5NNZeZNZNs  ",
"    :4V446NNC1xxxfs=............--..............     5554655NN5  ",
"    >M4>>>6CC>1xxfs=============--fssssssdddddddd    xss1V5hs55  ",
"    +>::ss11>5>xxfsssaaaaaaaaaaaaafsssssssssdddddd    1-1V3--@   ",
"    1ooXXX..11+1xs---------------=aaaaaaaaaaaaaaaa     o@6@X..   ",
"              >+xs---------------=a------------aaa       1       ",
"                 x================afssssssssssddaa               ",
"                  s-------------=xafssssssssssssaa               ",
"                  s-------------=xxfssssssssssssax               ",
"                 fs-------------=xx/ffffffffffffff               ",
"                )/s;;;;;;;;;;;;;=xx)))))))))))))))f              ",
"                )fsssssssssssssa--h)//////////////sh             ",
"               _/aaaaaaaaaaaaaaa-:j/ffffffffffffffaj             ",
"               nfa;;;;;;;;;;;;;;--:fssssssssssssss-              ",
"               /s----------------=xsaaaaaaaaaaaaaa-              ",
"               fa=================xa--------------               ",
"              /fffa============--=xxx-aaaaaaaaaa-                ",
"              /fffa-===========--=xxxfssssssssss-                ",
"              /fffsa-------------=xxxfssssssssss-                ",
"              /ffffsa=======-----=xxxfssssssssss-                ",
"              /fffffaxxxxxxx-----=xxxfssssssssss-                ",
"              /fffffa87&&&&&-----=ffffssssssssss-aaaa#&8         ",
"        i0087&f------#######======ffffffffffffffffffa#####&80r   ",
"    i0087&&&&&####################ffffffaaaaaaffffffa######&&80  ",
"              &%$&&&&&&&&&&&&&&&&&/fffffaaaaaa/fffffa777777880   ",
"                              xxxxfaaaaaxxxxxxfaaaaa-xx          "
};
