/* XPM */
static char *_[] = {
/* columns rows colors chars-per-pixel */
"65 65 98 2 ",
"   c None",
".  c black",
"X  c #080000",
"o  c #0F0000",
"O  c #100000",
"+  c #180000",
"@  c #270000",
"#  c #280000",
"$  c #2F0000",
"%  c #300000",
"&  c #282008",
"*  c #38280F",
"=  c #372810",
"-  c #382810",
";  c #382910",
":  c #202020",
">  c #282828",
",  c gray19",
"<  c gray22",
"1  c #400000",
"2  c #410000",
"3  c #470000",
"4  c #480000",
"5  c #490000",
"6  c #500000",
"7  c #600000",
"8  c #680000",
"9  c #700000",
"0  c #403018",
"q  c #483818",
"w  c #483918",
"e  c #503818",
"r  c #503918",
"t  c #484800",
"y  c #585800",
"u  c #68471F",
"i  c #686800",
"p  c #707000",
"a  c #584020",
"s  c #684820",
"d  c #704828",
"f  c #004040",
"g  c #005858",
"h  c #006868",
"j  c #006F6F",
"k  c #007070",
"l  c #007878",
"z  c gray28",
"x  c #484848",
"c  c #505050",
"v  c #606060",
"b  c #62737D",
"n  c #62747D",
"m  c #63747D",
"M  c #62747E",
"N  c #64747D",
"B  c #64747E",
"V  c gray44",
"C  c gray47",
"Z  c #800000",
"A  c #880000",
"S  c #980000",
"D  c #9F0000",
"F  c #A00000",
"G  c #B00000",
"H  c #B80000",
"J  c #C80000",
"K  c #D00000",
"L  c #E00000",
"P  c #E80000",
"I  c #F80000",
"U  c #805028",
"Y  c #885830",
"T  c #986038",
"R  c #A06038",
"E  c #A86840",
"W  c #B07040",
"Q  c #B87848",
"!  c #C87848",
"~  c #808000",
"^  c #909000",
"/  c #D08050",
"(  c #D88850",
")  c #E88858",
"_  c #F09058",
"`  c #F89860",
"'  c #F8A070",
"]  c #008080",
"[  c #008181",
"{  c #009898",
"}  c #00B0B0",
"|  c #888888",
" . c #989898",
".. c gray66",
"X. c #F8B080",
"o. c #E7E7E7",
"O. c gray91",
"+. c #E9E9E9",
/* pixels */
"                                                                                                                                  ",
"                                                                                                                                  ",
"                                                                                                                                  ",
"                                                                                                                                  ",
"                                                                                                                                  ",
"                                                            O.o.o.O.O.O.O.O.                                                      ",
"                                                      O.C ..O.O.C x x < < < : m V                                                 ",
"                                                    O. .c O.O.C > x x x x x < : m V                                               ",
"                                              4 4 4 O.X x O.O.d : > > > x x d : X < $ 1 %                                         ",
"                                          1 + $ $ $ O.. x O.O.d q : : : > x E J X . $ $ @ % $                                     ",
"                                          + 1 . X X O.X x O.! ! ! R d : d : E K X < X X . . 1 X                                   ",
"                                        4 1 . X m m O.m < I X.' / / / / d : Y L m v m m m . X $                                   ",
"                                        4 $ X m m m O.m Y I d d ) ' _ X.d d Y I m v m m m m $ $                                   ",
"                                        4 $ X m m m I m W I V S > U a > 9 V Q I m v m m m m 1 $                                   ",
"                                        1 $ X m m m L m Y P W E E ) Q E E W Q P m c m m m m 1 $                                   ",
"                                          $ X m m m P m m P ) ` X.X.( ` ` ) Q P 4 c m m m m 1 $                                   ",
"                                          $ X X m m L m m P E ( R a a R ! E s P Z c m m m 1 $ X                   %               ",
"                                          @ $ X X m L m m P E ! R T T R Q Y s L G c m m 1 $ $ X                   1 m             ",
"                6 6         %             m $ $ X X L m m P T W e X X e W s s L J c m m $ $ X m                 6 4 $ 6           ",
"            $ % % % % %   4 4           g g g g g g f > m L T W X O O X W s q K > > f f g g f . m           m $ 6 9 1 %           ",
"      1 9 9 7 x ] k < 4 4 4 % > > > ] k k k k k k k k f > v T E U $ $ U E s q > > f g h k k k g . : > > $ $ @ $ 9 9 4 x >         ",
"      4 F G 4 7 7 4 4 9 7 9 > < < ] l l l l l l l l l k f > > Y E E E E Y > > > f g h h h l l l h . : < $ 9 % k 9 t 7 x 1 9       ",
"        4 F J G 6 7 9 J 9 > > < ] l l l h h h h h h h h h h f > > > > > > > f g h k k k h h h h h l . % < 1 8 8 9 t 7 8 9 1 $     ",
"      z 4 9 G i J J y 9 7 > > ] ] ] ] l l l h h h h h h h h h h > > > g h h h h h h h h h h h h h h l . : k 8 t 7 t S Z Z 1 g     ",
"      1 7 7 A J i ~ J 9 A 4 G J J ] ] ] l k g g g g g g g g g g > f f k g g g g g g g g h h l l l l J 4 7 Z Z Z S y t S Z 7 $     ",
"      8 A A A J ~ ~ J G 7 G G ] ] ] l k k k h g g g g g g g g g > f f k g g g g g g g h h l l l J G G G G S t t y ^ y t S S 4     ",
"      k : 7 A y J J i J 9 : ] ] l l k k k h g f f f f f f f f f > , , g f f f f f g f g g g g h l l k $ 1 Z Z S S y t 7 8 4 $     ",
"      < 4 7 J 9 A H 9 F F k ] ] k k } { { ] ] k h g g g g f > f > , , g f > f g g h k ] ] { { } } k k k : 1 8 8 S t S S 8 + g     ",
"        7 F 7 4 9 H 4 9 F 4 . k k k k g f f f f , > > > > > > f > , , g f > > > f f f f f f f G h k k k 1 Z 8 7 7 S 7 8 8 % @     ",
"        7 7 4 k 7 H g 4 4 F G l l k k } { ] ] k h g g g g f > f > , , g f > f g h h k k ] ] { } J h k k 1 Z Z % 7 S 7 + 1 Z + m   ",
"      1 7 % < < 7 F : % X 1 4 G l l k k g f f f f > > > > > > f > , , g f > > f f f f f f f f g h J J $ Z 1 1 > 4 8 4 > $ + + m   ",
"      m 6 % % % 9 F % % X m m 1 G ] l k k h g f f f f f f f f f > , , g f f f f g f g g g g g h h J G 1 1 $ 6 % $ G 1 % % % X 4   ",
"        8 % x x 9 F 6 % X m 8 m k G ] l k h g g f f f f f f f f > , , g f f f f f g f g g g g h h h 1 9 9 1 1 % x 7 $ x > 4 4 S   ",
"        6 8 8 < 8 H 8 ] 8 8 m m m ] G l k h g g g f f f f f f f > , , g f f f f f f g f g g g h h h m 1 9 9 9 7 ] 4 $ g 4 4 F     ",
"        ] 8 F 8 9 H A 8 H A m 8 m k l ] h g g g f g f f f f f f > , , g f f f f f g f g g g g g h f m 1 4 F G 4 7 7 4 4 9 S 9     ",
"      x k : A J H y H H A 8 m m m m k k h g g f g f f f f f f f > , , g f f f f f f g f g g g g f m m m 7 4 F J G 6 7 9 J 8 1     ",
"      x 9 8 A H K p K H A 8 8 % % m > > > > > > > > > > > > > > : . . : > > > > > > > > > > > > > m m m m 4 9 G i J J y 9 7 4     ",
"      7 H G H y p ~ p y H Z H 8 8 6 % % + . . . . . . . . . . . . . . . . . . . . . . . . . . . m m m 1 1 7 7 A J i ~ J 9 A 4     ",
"      x 9 A A H K p K H A 8 8   m 7 7 7 6 6 4 4 1 1 % % % % % $ $ $ $ $ % % % % % 1 1 4 4 6 6 7 7 7 4 8 8 A A A J ~ ~ J G 7 1     ",
"      c ] 8 A A H y H A H A       1 % + + + O O O X X . . . . . . . . . . . . . X X O O O + + + %         g 7 A y J J i J 9 g     ",
"        k 8 8 8 7 9 8 8 A A       k g : . . . . . . . . . . . . > > . . . . . . . . . . . . . .           4 7 J 9 A A 9 F F >     ",
"        8 g g : 4 F 8 g g 8       k g : : : : : : : : : : : : : > > k g g g g g g g g g g h h h h         7 F 7 4 4 4 4 9 F 4     ",
"          8 > > 4 F 6 % .         h g g g f f f f f f f f f f f f f k g g g g g g g g g h h h h h h       7 7 4 < g g : 4 4 F     ",
"            X X % 9 6 .             > > > > > > > > > > > > > > > : f f f f f f f f f f f f f f f f     1 m 4 O O X X X . . 1     ",
"                  7 1               > > > > > > > > > > > > > > > : f > > > > > > > > > > > > f f f                               ",
"                  4                 : : : : : : : : : : : : : : : : f k g g g g g g g g g g h h f f                               ",
"                  1                 g > > > > > > > > > > > > > : m f k g g g g g g g g g g h h f f                               ",
"                                  m g > > > > > > > > > > > > > : m m k g g g g g g g g g g g g f m                               ",
"                                  k g > > > > > > > > > > > > > : m m ] k k k k k k k k k k k k k k                               ",
"                                { ] g , , , , , , , , , , , , , : m m { { { { { { { { { { { { { { { k                             ",
"                                { k g g g g g g g g g g g g g f > > x { ] ] ] ] ] ] ] ] ] ] ] ] ] ] g x                           ",
"                              | ] f f f f f f f f f f f f f f f > < c ] k k k k k k k k k k k k k k f c                           ",
"                              V k f , , , , , , , , , , , , , , > > < k g g g g g g g g g g g g g g >                             ",
"                              ] g > > > > > > > > > > > > > > > > : m g f f f f f f f f f f f f f f >                             ",
"                              k f : : : : : : : : : : : : : : : : : m f > > > > > > > > > > > > > >                               ",
"                            ] k k k f : : : : : : : : : : : : > > : m m m > f f f f f f f f f f >                                 ",
"                            ] k k k f > : : : : : : : : : : : > > : m m m k g g g g g g g g g g >                                 ",
"                            ] k k k g f > > > > > > > > > > > > > : m m m k g g g g g g g g g g >                                 ",
"                            ] k k k k g f : : : : : : : > > > > > : m m m k g g g g g g g g g g >                                 ",
"                            ] k k k k k f m m m m m m m > > > > > : m m m k g g g g g g g g g g >                                 ",
"                            ] k k k k k f q 0 - - - - - > > > > > : k k k k g g g g g g g g g g > f f f f & - q                   ",
"                s e e q 0 - k > > > > > > & & & & & & & : : : : : : k k k k k k k k k k k k k k k k k k f & & & & & - q e u       ",
"        s e e q 0 - - - - - & & & & & & & & & & & & & & & & & & & & k k k k k k f f f f f f k k k k k k f & & & & & & - - q e     ",
"                            - = * - - - - - - - - - - - - - - - - - ] k k k k k f f f f f f ] k k k k k f 0 0 0 0 0 0 q q e       ",
"                                                            m m m m k f f f f f m m m m m m k f f f f f > m m                     "
};
