/* XPM */
static char *_[] = {
/* columns rows colors chars-per-pixel */
"65 65 80 1 ",
"  c None",
". c black",
"X c #3F0000",
"o c #282008",
"O c #382810",
"+ c #003F3F",
"@ c #202020",
"# c #282828",
"$ c gray16",
"% c gray19",
"& c gray22",
"* c #393939",
"= c #400000",
"- c #410000",
"; c #480000",
": c #500000",
"> c #600000",
", c #6F0000",
"< c #700000",
"1 c #473817",
"2 c #403018",
"3 c #483818",
"4 c #4F3818",
"5 c #513817",
"6 c #503818",
"7 c #513918",
"8 c #684720",
"9 c #684820",
"0 c #704828",
"q c #004040",
"w c #005757",
"e c #005858",
"r c #006868",
"t c #007070",
"y c #007878",
"u c #484848",
"i c #505050",
"p c #606060",
"a c #62747C",
"s c #63747C",
"d c #63747D",
"f c #64747D",
"g c #64747E",
"h c gray44",
"j c gray47",
"k c #800000",
"l c #880000",
"z c #890000",
"x c #970000",
"c c #980000",
"v c #990000",
"b c #A00000",
"n c #B00000",
"m c #B80000",
"M c #805028",
"N c #885830",
"B c #905830",
"V c #986038",
"C c #A06038",
"Z c #A86840",
"A c #B07040",
"S c #B87848",
"D c #C87848",
"F c #D08050",
"G c #D88850",
"H c #E88858",
"J c #F09058",
"K c #F89860",
"L c #F8A070",
"P c #008080",
"I c #009898",
"U c #888888",
"Y c #989898",
"T c gray66",
"R c gray69",
"E c #F8B080",
"W c #F8B890",
"Q c #E7E7E7",
"! c gray91",
"~ c #E9E9E9",
/* pixels */
"                                                                 ",
"                                                                 ",
"                             !QQ!!!!!                            ",
"                          !jT!!juu&&&@dh                         ",
"                         !Yi!!j@##&&u&@dh                        ",
"                      vvv!;u!!03@@##u0@;&<ll                     ",
"                    x><<<!.u!KKKKKGA@Z@;.<<<l<                   ",
"                    >l=;;!;u!ELKKKKEJZ@;&;;;;l;                  ",
"                   vl=;dd!d&!NCHLJECNZ@dpddd;;<                  ",
"                   v<;ddd!dN!h.#VM#@hZjdpdddd<<                  ",
"                   v<;ddd!dA!EWELGEWEFpdpddddl<                  ",
"                   v<;ddd!dN!KKKEGKKKFpdiddddl<                  ",
"                    <;ddd!dd!ZJSMMSJZFididdddl<                  ",
"                    <;;dd!ddRAJSVVSJAAididddl<;                  ",
"                    ,<;;dRddRDJZNNZJDVuuiddl<<;                  ",
"       bb<          d<<;;RddRDLLELKKD9uuidd<<;d          b       ",
"     mbbbb<        eeeeeeq#dRDGGSAGGZ3u##qqeeq.d       mkk::     ",
"    muuu&&k:@####Pttttttttq#pFMM999993##qqqtttq.@####:muPtu#     ",
"    Pt&&&&Pt@#&&Pyyyyyyyyyyq##6HZB66###qqqeyyyyq.@&&&miP.@e&#    ",
"   P.@e&&P.@e#&Ptrrrrrrrrrrrrq#######qqqqerrrrrrq.@&&iut@&e&u#   ",
"   t@@e#&t@@e#Ptrrrrrrrrrrrrrrr###qrrrrrrrrrrrrrrq.@uiuuee#&uu   ",
"   &ee@..&ee@&teeeeeeeeeeeeeeee#qqteeeeeeeeeeeeeeeq@Ptuu..&uPt   ",
"   &&#....&##qeeeeeeeeeeeeeeeee#qqteeeeeeeeeeeeeeeeP.@e...@P.@   ",
"   &Pt&..&Pt&qqqqqqqqqqqqqqqqqq#%%eqqqqqqqqqqqqqqqqt@&e&@@ut@&   ",
"   P.@e&&P.@eqeqqeeeeeeeeeeee#q#%%eqqeeeeeeeeeee#q#@ee#&Ptuuee   ",
"   t@@e#&t@@e.eqqq###########qq#%%eqqq##########q%#@ &&P.@e&u#   ",
"   kee@#&&ee  qeqqeeeeeeeeeee#q#%%eqqeeeeeeeeee#q##  kut@&e&#;   ",
"   n;##&&&;;  .eqqq##########qq#%%eqqq#########q%#   nk&ee@#;;   ",
"   ;........   eqqqqqqqqqqqqqqq#%%eqqqqqqqqqqqqq##   ;........   ",
"   bkuuPt&k;    eqqqqqqqqqqqqqq#%%eqqqqqqqqqqqqq#    bkuuuu#k;   ",
"   bi&P.@e&=    eqqqqqqqqqqqqqq#%%eqqqqqqqqqqqq%#    PtuuuuPt;   ",
"   i&&t@@e#&    +qqqqqqqqqqqqqq#%%eqqqqqqqqqqqq#     .@e&uP.@e   ",
"   &&&&ee@#&&    eqqqqqqqqqqqqq#%%eqqqqqqqqqqqq#     @&e&ut@&e   ",
"   Pt&&..#&Pt    ##############@..@#############     ee#..uee#   ",
"   .@e....P.@    d.............................d     u&...@u&&   ",
"   @@e#..&t@@    kkkkkkkkkkkkk<<<<<>>>>>>>:::;;=     Ptu@@uPtu   ",
"   ee@#Pt&&ee    X===============================    .@e&uP.@e   ",
"   &##P.@e##      ...............teeeeeeeeeeeeeew    @&e&ut@&e   ",
"   v&&t@@e#=     tttttttttteeeeeqteeeeeeeeeeeeeee    ee#&uuee=   ",
"   vk&&ee@k=    tqqqqqqqqqqqqqqq#qqqqqqqqqqqqqqqq    v######kX   ",
"    ::;;;=       qqqqqqqqqqqqqqq#qteeeeeeeeeeee%q     ::;;;==    ",
"                 qqqqqqqqqqqqqqq#qteeeeeeeeeeee#%                ",
"                 ###############dqteeeeeeeeeeee##d               ",
"                 eqqqqqqqqqqqqq#ddIPPPPPPPPPPPPPPe               ",
"                 eqqqqqqqqqqqqq#ddIIIIIIIIIIIIIIIt               ",
"                 eqqqqqqqqqqqqq#dRIPPPPPPPPPPPPPPt               ",
"                 eqqqqqqqqqqqqq#dYPtttttttttttttte               ",
"                tttttttttttttttediteeeeeeeeeeeeeeq               ",
"               IPPPPPPPPPPPPPPPtddeqqqqqqqqqqqqqq#               ",
"               Ittttttttttttttte#dq##############                ",
"              UPeeeeeeeeeeeeeeeq&ddd@@@@@@@@@@@@                 ",
"               tqqqqqqqqqqqqqqq##ddde##########@                 ",
"               eqqqqqqqqqqqqqqq#deeet##########@###              ",
"                ################dteet##########@qqq#             ",
"                 #############dddteeeeqqqqqqqqqqqqq#             ",
"                 eqqqqqqqqqqq#dddteeeeeqqqqqqqqqqqq#             ",
"                 eqqqqqqqqqqq#dddteeeeq######eqqqqq#             ",
"                 eqqqqqqqqqqq#dddPttttqddddddPeeeeq#             ",
"                 eqqqqqqqqqqq#dddtqqqqq333333tqqqqq#d            ",
"              eeeeqqqqqqqqqqq###od963OOOooooooooooooOO3          ",
"       83632Oteeeeeeeeeeeeeeeeee#OOOOOOoooooooooooooooOOOO33     ",
"   06632OOOOOteeeeeeqqqqqqqteeee#ooooooooooooooooooooooOOOOO35   ",
"       66322OPttttttqqqqqqqPtttt#OOOOOOOOOOOOOOOOOOO22222231     ",
"                                                                 ",
"                                                                 "
};
