/* XPM */
static char *tile011[] = {
/* columns rows colors chars-per-pixel */
"65 65 72 1 ",
"  c black",
". c #979700",
"X c #C1C100",
"o c #E1E100",
"O c #E0E000",
"+ c #BFBF00",
"@ c #949400",
"# c black",
"$ c #808080",
"% c gray40",
"& c #6A8080",
"* c #687880",
"= c #62727C",
"- c #A4A400",
"; c #DEDE00",
": c #AAAA00",
"> c #C1C100",
", c #E0E000",
"< c #E0E000",
"1 c #E0E000",
"2 c None",
"3 c #999900",
"4 c #808000",
"5 c #999900",
"6 c #627180",
"7 c #808000",
"8 c #64747D",
"9 c #717171",
"0 c cyan",
"q c #555555",
"w c #697878",
"e c #63757C",
"r c #808000",
"t c #7E7E00",
"y c #A8A800",
"u c #A8A800",
"i c #727200",
"p c #6F6F00",
"a c #707000",
"s c #6F6F00",
"d c #555500",
"f c #585800",
"g c #595900",
"h c #63747E",
"j c #575700",
"k c #585800",
"l c #5D5D00",
"z c #404020",
"x c #4B3C1E",
"c c #4E3B14",
"v c #533517",
"b c #513819",
"n c #533716",
"m c #52381A",
"M c #503719",
"N c #4E391A",
"B c #4D3518",
"V c #53371C",
"C c #553C1A",
"Z c #513A17",
"A c #4E3B14",
"S c #404000",
"D c #C0C000",
"F c #707000",
"G c #E0E000",
"H c #A8A800",
"J c #808000",
"K c #63747D",
"L c #989800",
"P c #585800",
"I c #404000",
"U c white",
/* pixels */
"                                                                 ",
"                                                                 ",
"                                                                 ",
"                                                                 ",
"                                                                 ",
"                                                                 ",
"                                                                 ",
"                                                                 ",
"                                                                 ",
"                                                                 ",
"                                                                 ",
"                                                                 ",
"                                                                 ",
"                                                                 ",
"                                                                 ",
"                                                                 ",
"                                                                 ",
"                                                                 ",
"                                                                 ",
"                                                                 ",
"                                                                 ",
"                                                                 ",
"                                                                 ",
"                                                                 ",
"                                                                 ",
"                                                                 ",
"                                                                 ",
"                                                                 ",
"                                                                 ",
"                                                                 ",
"                                                                 ",
"                                                                 ",
"                                                                 ",
"                                                                 ",
"                                                                 ",
"                                                                 ",
"                                                                 ",
"                                                                 ",
"                                                                 ",
"                                                                 ",
"                                                                 ",
"                                                                 ",
"                                                                 ",
"                                                                 ",
"                                                                 ",
"                                                                 ",
"                                                                 ",
"                                                                 ",
"                                                                 ",
"                                                                 ",
"                                                                 ",
"                                                                 ",
"                                                                 ",
"                                     .XoO+@                      ",
"                               #$%&*=DDFFDD-                     ",
"                     ;:>o,<12GGGHGHGGDJKKJD3                     ",
"                     4FLLLLLLLLLFLFLLDLKKLG5                     ",
"                      6FFFPFFFPPIPIPFHDGGDH7                     ",
"                      #HGHPHGH890#qwerLHHLt                      ",
"                       yGHPHGu       0ipas                       ",
"                       dfghjkl                                   ",
"                                                                 ",
"                        zxcvbnmMMNnBVCZAS                        ",
"                                                                 ",
"                                                                 "
};
