/* XPM */
static char *tile012[] = {
/* columns rows colors chars-per-pixel */
"65 65 70 1 ",
"  c black",
". c #006868",
"X c #20B0B0",
"o c #1FB0B0",
"O c #1FB1B1",
"+ c #20AEAE",
"@ c #006D6D",
"# c black",
"$ c #808080",
"% c gray40",
"& c #6A8080",
"* c #687880",
"= c #62727C",
"- c #007676",
"; c #21B1B1",
": c #008181",
"> c #1FB1B1",
", c #20B0B0",
"< c #20B0B0",
"1 c #20B0B0",
"2 c None",
"3 c #007777",
"4 c #007070",
"5 c #007878",
"6 c #627180",
"7 c #63737D",
"8 c #717171",
"9 c #808080",
"0 c #637180",
"q c #004040",
"w c #006A6A",
"e c #009898",
"r c #009898",
"t c white",
"y c #005959",
"u c #005757",
"i c #005858",
"p c #005858",
"a c #005757",
"s c #006666",
"d c #005555",
"f c #005858",
"g c #005959",
"h c #63747E",
"j c #005858",
"k c #005D5D",
"l c #55391C",
"z c #51361B",
"x c #52371B",
"c c #533715",
"v c #513A17",
"b c #513616",
"n c #503719",
"m c #523A18",
"M c #533716",
"N c #513819",
"B c #503818",
"V c #4E3716",
"C c #4E3B14",
"Z c #800000",
"A c #20B0B0",
"S c #009898",
"D c #005858",
"F c #006868",
"G c #007878",
"H c #63747D",
"J c #004040",
"K c #008888",
"L c #007070",
"P c white",
/* pixels */
"                                                                 ",
"                                                                 ",
"                                                                 ",
"                                                                 ",
"                                                                 ",
"                                                                 ",
"                                                                 ",
"                                                                 ",
"                                                                 ",
"                                                                 ",
"                                                                 ",
"                                                                 ",
"                                                                 ",
"                                                                 ",
"                                                                 ",
"                                                                 ",
"                                                                 ",
"                                                                 ",
"                                                                 ",
"                                                                 ",
"                                                                 ",
"                                                                 ",
"                                                                 ",
"                                                                 ",
"                                                                 ",
"                                                                 ",
"                                                                 ",
"                                                                 ",
"                                                                 ",
"                                                                 ",
"                                                                 ",
"                                                                 ",
"                                                                 ",
"                                                                 ",
"                                                                 ",
"                                                                 ",
"                                                                 ",
"                                                                 ",
"                                                                 ",
"                                                                 ",
"                                                                 ",
"                                                                 ",
"                                                                 ",
"                                                                 ",
"                                                                 ",
"                                                                 ",
"                                                                 ",
"                                                                 ",
"                                                                 ",
"                                                                 ",
"                                                                 ",
"                                                                 ",
"                                                                 ",
"                                     .XoO+@                      ",
"                               #$%&*=ASDDSA-                     ",
"                     ;:>o,<12AAAFAFAAAGHHGA3                     ",
"                     4JKKKKKKKKKFKFKKASHHSA5                     ",
"                      6DLLDLLDDDJDJDFSAAAAS3                     ",
"                      #SASDSAS78##90qGSSSSGw                     ",
"                       eASDSAr      tyuipas                      ",
"                       dfghujk                                   ",
"                                                                 ",
"                        #lzxcvbnmmnMNBVCZ                        ",
"                                                                 ",
"                                                                 "
};
